/* XPM */
static const char *Carretera3[] = {
/* columns rows colors chars-per-pixel */
"1200 300 255 2 ",
"   c #1C1C1E",
".  c #161618",
"X  c #1F1F21",
"o  c #1D1F2B",
"O  c #221E24",
"+  c #242425",
"@  c #262629",
"#  c #29262B",
"$  c #2B2B2D",
"%  c #282927",
"&  c #322D2D",
"*  c #342C25",
"=  c #2D312D",
"-  c #33322D",
";  c #3A362A",
":  c #2E2E31",
">  c #2A2934",
",  c #312E33",
"<  c #352E37",
"1  c #2E3233",
"2  c #2D3339",
"3  c #333334",
"4  c #3A3534",
"5  c #3B3A35",
"6  c #363639",
"7  c #39363B",
"8  c #36393B",
"9  c #3A3A3C",
"0  c #353935",
"q  c #24241F",
"w  c #423D3C",
"e  c #443B35",
"r  c #423B2C",
"t  c #3D413C",
"y  c #3D4023",
"u  c #47443A",
"i  c #4F4739",
"p  c #6A5828",
"a  c #735C2A",
"s  c #705A33",
"d  c #786636",
"f  c #75642D",
"g  c #68561E",
"h  c #3E3E41",
"j  c #393943",
"k  c #312C40",
"l  c #413E43",
"z  c #453E48",
"x  c #3E4143",
"c  c #424244",
"v  c #464649",
"b  c #49464B",
"n  c #4A4A4C",
"m  c #484846",
"M  c #534C48",
"N  c #57544A",
"B  c #4E4E51",
"V  c #494852",
"C  c #514E53",
"Z  c #584D54",
"A  c #4D5153",
"S  c #525254",
"D  c #565659",
"F  c #59565B",
"G  c #5A5A5C",
"H  c #585856",
"J  c #4D514C",
"K  c #635C57",
"L  c #6D6654",
"P  c #5E5E61",
"I  c #5A5863",
"U  c #504D62",
"Y  c #615E64",
"T  c #5E6263",
"R  c #626264",
"E  c #666669",
"W  c #6A6A6C",
"Q  c #696769",
"!  c #6E6E71",
"~  c #686973",
"^  c #716E74",
"/  c #727274",
"(  c #767679",
")  c #7A7A7C",
"_  c #797779",
"`  c #72716D",
"'  c #5C615C",
"]  c #95731C",
"[  c #A77B1C",
"{  c #997927",
"}  c #8D7135",
"|  c #A47C26",
" . c #A87E30",
".. c #897547",
"X. c #827C77",
"o. c #B28A1C",
"O. c #9D8330",
"+. c #A98628",
"@. c #B58A28",
"#. c #B99429",
"$. c #A88835",
"%. c #B58C34",
"&. c #B89637",
"*. c #AB9333",
"=. c #B69F35",
"-. c #CA981B",
";. c #D69B1A",
":. c #C99017",
">. c #E49D17",
",. c #DCA41C",
"<. c #DCAB1C",
"1. c #D7A519",
"2. c #D7AB18",
"3. c #E3A51C",
"4. c #E4AC1C",
"5. c #EBAC1C",
"6. c #E7A916",
"7. c #F2AD1C",
"8. c #F4AC17",
"9. c #E5B21C",
"0. c #ECB31C",
"q. c #ECBA1C",
"w. c #E9B516",
"e. c #F3B41C",
"r. c #F3BB1C",
"t. c #F7B719",
"y. c #E9AD0D",
"u. c #C89827",
"i. c #D59C25",
"p. c #C69A35",
"a. c #CB932C",
"s. c #CCA427",
"d. c #D4A323",
"f. c #DCA424",
"g. c #DCAB24",
"h. c #DCAB2B",
"j. c #D7A62A",
"k. c #DCB329",
"l. c #CAA437",
"z. c #D8A935",
"x. c #DBB537",
"c. c #CCB138",
"v. c #E4AC23",
"b. c #EBAD23",
"n. c #E3AC2B",
"m. c #EBAD2A",
"M. c #E4A525",
"N. c #F3AD25",
"B. c #E4B323",
"V. c #ECB423",
"C. c #ECBB24",
"Z. c #E4B32B",
"A. c #ECB42B",
"S. c #ECBB2B",
"D. c #E5BA28",
"F. c #F3B423",
"G. c #F3BB24",
"H. c #FABC24",
"J. c #F3B52B",
"K. c #F3BC2B",
"L. c #FABC2B",
"P. c #FAB526",
"I. c #E5AC34",
"U. c #E4B333",
"Y. c #EBB433",
"T. c #ECBB33",
"R. c #E7B939",
"E. c #F3BC33",
"W. c #F6BA36",
"Q. c #F2AD34",
"!. c #E39E24",
"~. c #F6C31C",
"^. c #EBC31C",
"/. c #EDC22C",
"(. c #EBC326",
"). c #F4C224",
"_. c #F4C32C",
"`. c #FBC32C",
"'. c #F8C728",
"]. c #EBC437",
"[. c #F4C333",
"{. c #FBC333",
"}. c #F4C33B",
"|. c #F8C938",
" X c #F8D439",
".X c #F1D332",
"XX c #E1C737",
"oX c #958755",
"OX c #B19548",
"+X c #BBA34D",
"@X c #A2956D",
"#X c #DAB646",
"$X c #CDAB4D",
"%X c #E7BA45",
"&X c #F1BB48",
"*X c #CEB266",
"=X c #C49E47",
"-X c #EBC647",
";X c #F6C945",
":X c #F8D548",
">X c #EAC755",
",X c #F8D756",
"<X c #F2CE53",
"1X c #F2D267",
"2X c #F0DA5D",
"3X c #7E7E81",
"4X c #7A7985",
"5X c #817E84",
"6X c #7E8283",
"7X c #828284",
"8X c #868689",
"9X c #8B8A8C",
"0X c #89878B",
"qX c #8E8E91",
"wX c #888692",
"eX c #929294",
"rX c #99999B",
"tX c #928F90",
"yX c #9D9DA1",
"uX c #A5A6A9",
"iX c #ADADB1",
"pX c #B5B6BA",
"aX c #AFB0B3",
"sX c #A4A29D",
"dX c #BDBDC2",
"fX c #BFC0C4",
"gX c #C6C6CB",
"hX c #CCCDD2",
"jX c #CFD0D5",
"kX c #D1D2D6",
"lX c #D4D5DA",
"zX c #D7D8DD",
"xX c #D9DADE",
"cX c #D8D7DD",
"vX c #D0CFD4",
"bX c #DCDDE2",
"nX c #D8D9E3",
"mX c #DFE0E5",
"MX c #DEE1E8",
"NX c #E1E2E6",
"BX c #E4E5EA",
"VX c #E7E8ED",
"CX c #E9EAEE",
"ZX c #E8E7EC",
"AX c #ECEDF2",
"SX c #E6E8F0",
"DX c #EFF0F5",
"FX c #EFF2F9",
"GX c #F1F2F6",
"HX c #F4F5F9",
"JX c #F8F9FD",
"KX c #F0EFF4",
"LX c #E0DFE4",
"PX c #C8BFA1",
"IX c #7E817D",
/* pixels */
"n m m n m w 5 5 9 9 5 7 w n F Y R Y S c l m n v 3 # # , 3 3 3 < , > , 3 3 3 7 , # + # : 3 3 6 3 1 = $ $ 8 n G G n v x v n B n n w - & - 4 5 w 4 $ # 3 c C Y E F c 4 & $ : 6 9 9 3 4 6 6 9 6 3 3 : : $ $ $ # $ 3 9 c v v b D P F F B c 6 6 6 l l h 9 6 6 3 - - 3 6 9 9 6 6 3 $ # , , 7 l v n b 9 : $ h G G B c 9 6 6 9 v S ! 7X8X( W F m 9 7 7 9 m n c 9 3 $ @ @ $ : : $ $ $ - - 3 7 7 3 3 9 l h 7 h n F P S B B n B B n B n b h 3 7 M R Q Y D n v h h 9 6 6 9 6 9 9 8 8 9 6 6 9 9 9 9 8 x n S D v c 8 1 1 6 9 l 9 7 6 6 6 6 9 x v v x 8 3 3 3 3 , 9 n F F S n c 6 3 : : $ $ $ $ 3 x P 6XqX9X) W S b 7 , # $ 3 4 9 9 9 6 c G / ) ) ! P n h 9 9 9 l h 9 6 6 6 3 : 3 7 9 h c v h 8 : $ $ 3 9 h h c 9 7 , , 9 F ^ ) ( W A 6 $ 3 9 9 9 9 9 8 h x c x 9 7 9 c c 6 = $ : 3 9 b n n n n v z h 3 , , > > # 3 : $ > : 3 8 9 b S P Y S c 9 6 l E eXyX8XQ D c 9 6 6 6 7 9 b M n m 7 & - 4 4 3 6 4 4 3 - - 6 c v v c x h 8 6 1 1 9 n D T E T B A P / / G b 9 x 9 h c 9 9 6 6 6 9 9 9 8 6 : @ @ @ $ 6 6 9 w c n n n c 9 9 9 9 h 9 6 3 3 3 6 9 h 9 9 9 9 6 9 c m n n c 8 0 8 6 7 h l 9 9 z b n C F Y Q Q P n w $ @ + $ 8 v n n x x v n n u 0 - 3 3 9 c c 9 6 9 l l l 4 3 3 7 7 3 9 6 : 3 : 1 c D Y E Y S b 7 & # $ 3 9 m M S S n c 9 3 , $ # $ , 3 3 3 c F ^ X.) W B , + $ 7 w n b c 9 6 6 6 6 h h h 9 6 6 9 7 6 6 9 c b b b b n n S S m 3 # # 6 9 6 6 3 = $ 1 $ 3 6 9 c n A A m c 9 9 9 6 7 h I W ! E P n l 7 1 1 3 3 3 4 = $ + # 3 c I ( qXeX) E V 9 1 > > # % $ n / ) ) ( ! T D n c 9 6 6 6 7 c b b S G G R W W G v 9 6 6 6 h c c c 9 8 6 9 7 6 6 : 3 6 6 6 9 8 8 6 3 6 8 6 9 6 9 c v A H H A n x 6 1 6 9 h 9 6 6 8 9 9 9 6 @ @ 9 D E ! ! E G n x 3 $ $ 1 1 3 3 6 h h h h h 0 0 - # 3 c n n h 3 $ @ @ $ 6 0 9 9 9 9 9 9 x c h h x c v A A c 9 > # : 3 h b n n b 9 3 : # $ 1 3 6 9 c c c h 9 9 9 8 8 h h h c c 9 6 6 3 : : - : 3 3 6 6 6 6 6 7 7 3 & , 9 c c z l 6 3 , 3 3 3 3 4 3 , 9 n C C v h 6 6 6 3 : $ & , l C S B v c l h 9 6 6 6 6 6 6 6 3 3 3 7 h c B n m c 7 : > , 3 9 m D P R G C 7 3 $ & 3 & & 3 c c 9 - 6 n G D v 8 1 1 1 6 9 x l c c c c v v c 9 9 6 3 $ > : : + + # : 3 : 3 6 h b b c n B B D B n c 9 8 8 8 8 6 1 6 9 n W 3X/ G m 7 3 4 l m m w 4 , , 3 3 3 5 3 7 6 6 6 3 , 6 3 3 : $ @ @ : 3 h c h 6 $ $ $ $ $ @ $ 1 6 8 x x h 9 6 3 : $ $ $ # $ @ + + # $ $ 6 6 $ O X O @ $ 0 9 6 : $ # @ > : 3 3 , , 3 3 , @ + X + $ 6 S R ^ / / E G B h h c c v c 9 , $ , 3 6 9 3 : : : : : 1 6 8 n T W R B l 3 3 3 3 , , $ = $ $ 6 6 6 j 9 9 c b S / 7X/ F c C W W R P S D G W _ / Y M m b b h 6 7 l v c ",
"x x x c x 9 8 8 8 8 6 1 6 x n A D S n x t v v x 1 % + % $ = 0 8 1 6 x A P ! ! R D c 3 $ $ 3 9 c n B C m c c 9 7 7 4 4 4 3 & & & 2 8 h x x n v j 1 $ 0 n P ( 3X/ v 6 @ : 1 1 6 h h h h 9 3 @ : c G ! IXIX/ H t 3 3 3 6 8 b P ! / R D c - # 1 6 9 5 t u m c 9 8 6 9 5 5 4 - & & & $ 0 n G P D A n v m m c 5 4 4 3 9 9 9 9 9 v S D / / Q H B t 1 $ $ $ $ $ : 3 6 6 x c c h 9 6 3 , $ $ : 8 x v c x 9 8 6 8 9 9 8 6 9 9 8 6 9 c n n x x v S S n n n n A B v c c 9 4 , 3 3 3 4 3 4 w n n n m l w 5 5 9 9 6 = $ 4 9 9 w w 5 4 4 4 4 4 5 7 w m S P ! ) 7X) E n 0 3 3 : & $ $ , 3 3 3 3 & $ , 7 l z c l 3 6 9 c c c 0 = $ $ = 9 D 3XeXqXW G v 6 3 6 c m B B n c 9 4 3 3 3 3 $ $ # $ 6 6 6 6 6 3 6 9 c v x 9 0 1 0 x v J n n c 9 5 w l l w c c c m m w 5 6 8 0 4 3 3 - $ @ % 1 6 0 8 8 8 t n D R R S c 0 6 8 6 9 9 8 h n H / tXrXeX7XR M x 0 0 t t 9 6 0 t c c t c v c 9 h 8 8 9 h c v c v c 9 6 5 6 9 u 4 5 5 5 5 w 9 5 4 4 w c u w 5 4 9 9 c n n v x 9 9 6 9 c 9 6 6 6 6 h D E I x $ + $ 6 b S S n c 6 6 6 3 3 3 1 $ $ $ - 3 6 6 6 3 3 6 9 S E W H v 9 F S n h 6 6 6 6 0 8 t v m x 9 8 9 c v n S n v t # # 3 c m m l 9 & & 3 9 w 9 7 7 9 c u 6 6 9 c c B B n c t t t 9 c 8 3 3 $ $ 3 3 $ 1 6 3 3 0 0 0 8 6 6 6 9 6 6 8 3 3 3 3 3 6 7 9 8 8 6 6 8 x n A T G n 8 1 : $ $ @ + + $ 6 9 v n x 9 8 8 0 8 9 6 3 j l v C Y R P n c h l z m F Q 9XeX7XR b 8 $ @ % - 5 5 w m S G / _ ) _ Y m l m P W / W E G n c 7 7 9 l l l 7 3 = - - 4 6 c m m n M n c w 5 5 5 7 9 c C S S C n m w 5 5 4 3 7 w c c 9 0 6 6 9 n n n c 7 3 < , 3 3 3 3 3 7 9 9 5 h x h 6 : > : : $ 4 n G R P S m 3 $ # , 6 9 l c c w 3 $ % $ , 3 0 6 9 6 $ % + + & $ 3 w 5 5 5 4 l 9 4 & % # & & : : : $ $ - 5 9 l h 7 7 7 6 3 , $ $ 7 c m m v l 8 6 3 1 3 6 3 $ , 3 5 m H Q W P 1 % % 6 8 0 0 9 6 6 6 6 4 - $ $ 9 h c v x 6 6 6 % & - & 3 6 4 3 # 3 h c c l 3 , 3 3 3 3 6 9 c x n n c 8 = $ $ $ = 1 = = = 0 0 0 6 1 $ $ 6 n G T R G S n c 6 # + . @ c R ! T n t - # + + $ $ # - % $ $ = 6 8 x n 8 6 = = 1 3 3 3 6 6 6 6 6 8 6 6 8 6 6 8 8 6 1 6 : 3 1 $ $ $ @ + # 3 c C F F F S S A n c 9 9 9 c c c c c 9 6 = # $ 3 9 v S S n v u 6 c S Q 7XtX9XX.^ F l 7 3 3 3 3 3 4 5 m Q ) ) G n x 6 1 8 x c x h 8 1 : : 9 B / 3X( P n 9 = $ 6 6 6 6 6 9 9 6 0 3 0 v n n n n w m G W / / Q K m 5 3 $ $ $ $ # $ # $ 1 $ $ = 6 5 5 4 & % + % $ c n S S n c 6 6 6 0 8 8 1 % X X @ @ 0 v n n m 9 6 3 9 v v x 8 0 6 9 x n C B n c w 4 , 3 3 3 , 3 & , & & 7 M R Q E G A v x x v n C S C b c l 9 9 9 h h 9 b G R I b x b S D B b c x x v A D D S S n n B S S v 9 9 ",
"n n m c l l c l c c h 7 6 7 7 6 , 3 7 9 h h 7 , $ $ 6 h c c h 9 4 3 4 9 n W ) _ F v 4 3 3 6 l v 9 l m m c c 9 5 h h 9 9 6 , : , 6 l b n n n n n c 9 7 3 , 3 6 3 6 3 $ # $ 4 w M R Q ^ ! G w - 4 G ! X.7X/ G c 6 w e 5 4 5 c n m c 9 9 9 7 9 h 7 4 3 , < 3 3 h c n v c h 9 6 6 6 3 9 C R R C v b T E E F C n c h z z b c 9 3 3 9 j b b 9 , @ X # & 4 5 5 5 w c m 5 5 4 4 5 l 9 9 6 3 3 6 4 4 5 u v m c w w B H F B n z 4 3 3 3 3 h h h l c c b C Y E W E F l # # $ 3 9 x c h h c B B n l 7 3 6 7 z z z 9 9 z b v 9 9 8 6 6 9 h h 5 3 $ $ 3 9 n G Y G S l 3 3 < , 3 9 b S D B c 9 3 3 $ 3 6 3 $ 3 3 9 b F W ) 3X/ m - % & 3 w m m z 9 6 9 h l 9 9 h h w 9 9 5 9 9 9 9 c C C b b C G G C l 6 l v l h 7 , : : > > : 9 c n n A D D D b v j 6 h S W ( _ ^ R C z w 5 4 l h 9 6 , : : : 6 c G ( 5X( E F c 4 & $ # + # w E ( 4X( ! E F B m h 7 3 6 h v m b n C F Y E E Y v 9 3 3 6 9 9 9 9 9 7 9 l l 9 9 9 6 3 3 3 6 9 h c c c h 8 6 6 9 z b C F F C n z < , 7 l l l 9 6 w w l 9 3 & , 4 C G E E Y I C b 3 , > > , 7 j h 9 l l l l l j < , , l B B 9 & $ + $ 3 7 5 w w w 9 7 6 h 9 6 9 c B S G F n 9 , # < 3 l n n v 9 5 5 3 $ # $ 6 9 c l z z l 9 9 9 9 4 7 l b c 7 3 7 < 6 6 , , , , , 3 3 6 7 9 9 9 7 , < 7 v v h 3 > 6 8 8 6 6 6 8 6 6 l n G G S v l 5 4 & # $ & 6 c I Y F v 9 9 l 7 - $ , 4 4 3 & & 6 9 9 t c m m t 1 $ : 6 6 3 8 c D Y G v 5 4 3 , 3 - = 3 0 9 9 9 8 6 c n n 9 = = 6 c v c c n n m n b b m b c 9 9 , 3 , $ # # # $ 3 6 7 j h c m v n D G D D S v v h 7 7 j 8 6 9 h C Y _ 0X3XS < > 9 v m c c h 6 3 6 6 7 8 7 h c j 9 3 3 9 9 7 3 , @ @ $ 1 8 j 9 h 8 6 : : 3 3 6 h l b B n b h 6 3 3 3 , & $ , , & + @ : 6 3 , $ $ X X $ 3 8 h 9 6 , , , < 6 5 4 < > > $ # + + # : 9 b D P E E E P I S v 7 7 z b b 9 6 3 3 6 9 6 : 3 $ $ 3 3 : < j G Y Y F C b l 9 6 6 6 8 6 1 $ $ 9 9 9 9 h x n S W / / E F D F P Q W Y C S E ^ ^ P D C B B b h 3 c c l h 9 c u 9 5 3 # + # & 6 6 < < 3 6 6 6 6 3 6 : # # $ # $ : , # # , < $ # < h b b c h 3 , 3 n C n 9 l F E Y D M c 5 6 6 6 6 5 9 5 5 9 7 6 6 5 9 9 9 5 7 7 7 : 6 9 n E 8XeX9XW F 9 , $ , 3 3 , < 7 h l l 9 7 3 7 j v B C C b 6 3 c S R / 6X0XwX4XP h > $ > : $ : , $ $ , 3 > $ # $ - 6 v S F R G S c 6 3 c S 5XeXqX^ G n h 3 l z z z n F F S 7 , < l m b l h j 9 h b B B v 9 3 : > 3 j c b v h , # $ < 9 c c , $ $ 3 3 $ @ + O # 3 l b l 3 , , > > , , : > : 3 3 9 9 , , , # @   X # # $ , $ # # # # , 5 u c b c 9 3 : : : : $ 3 3 3 9 n H G H G P P H M c w h c S P G n 6 - 5 4 $ $ 9 n E 7XyXyX0XW C 7 # # & & $ $ 3 c S G D Y ( 0X5XE S n ",
"3 6 6 6 9 c n n J n m t 0 4 4 0 6 6 3 $ 3 6 9 u 9 6 4 $ - 9 c c h 6 3 3 6 x b v c 9 u m m c 9 6 V b c h h b n n 8 0 4 4 6 3 $ $ $ $ $ - 3 $ - 9 S E ^ ^ E C h 7 6 6 6 $ 4 m P / 8XqXeXqX3XW A t 3 , 3 j l h h b n n A A n v c x 0 0 t v v n J c 9 9 t c c t t t 0 0 5 9 9 5 5 9 c t 6 6 9 6 9 n m n n m c 9 6 6 8 9 9 9 0 = 1 t G E D c 3 % % 0 D T T D n x 6 1 6 1 : : : 1 6 6 3 6 h h 6 $ 3 9 R W E S b c x 9 h h h 8 6 6 8 8 9 t 9 9 9 5 6 c c m n c c 8 3 8 u c m m u 4 $ % 3 0 9 9 9 9 9 9 t c c x x m n n n n m u t c c 9 1 1 1 6 6 6 6 3 1 = 1 3 0 0 9 x 5 6 6 4 3 4 4 4 6 6 6 8 9 6 6 h c c u 9 9 m n m x 6 6 8 6 : $ @ % % 3 t c t 9 8 8 8 8 9 9 8 6 3 9 c S R R S c 9 0 0 6 6 n / qXrX) E n - + + $ 4 6 9 h v B P ! ) 7X_ G c 9 n R W W R G S v t 9 9 9 9 u 9 5 3 $ $ 3 - 3 0 t v n n B n v c c 9 h c c m J J J m 9 6 6 5 6 6 6 c c v x 9 6 1 3 9 c c h 9 6 6 6 6 6 6 3 0 0 t c x 8 9 6 4 4 3 = = 4 9 S G P H n 5 % + $ = 6 6 6 8 0 3 3 $ $ $ 1 0 9 9 8 6 : @ + @ $ : = 0 0 = = 6 0 6 $ $ $ 1 $ % % $ 3 3 3 1 0 9 t t 0 = 1 1 1 $ 3 t A S A n x 9 6 3 3 - 4 6 6 $ 3 6 m S G G n 5 & # j h h 9 9 c v h 9 6 3 3 6 9 h c x 9 3 = = $ $ 3 u 5 4 3 3 6 9 c A A v x x 9 9 t u u c n S S A n t 8 6 3 6 1 6 0 6 7 9 7 7 3 , , $ 3 v G R F S S b c 3 # @ @ 3 9 H P H t = = = % : : 1 2 1 1 < 2 : 3 9 c v x 8 6 9 8 h v x 8 6 6 8 8 8 8 h h h h j j j 8 3 3 3 3 3 > # @ $ : j B P W ~ E T I V v 6 6 6 9 x c c c c x 8 1 3 3 6 v D F D V h 9 c A ! 7XrXrXeX4XT B 5 - - 0 3 $ $ $ t n G W E n 3 = 6 9 c c v b c h # $ t G _ tXeXIXS 8 : 1 6 9 x h v n n n m 9 0 9 n D S B n B D R _ _ E S c 4 $ 1 = $ % % % $ % % $ 1 0 9 9 6 = $ $ % + % 3 m H G A v 8 = = 0 5 5 3 $ +   @ 3 j z v m 9 $ # - 0 6 9 9 0 1 1 8 x v n S B n c 9 0 6 3 3 3 4 3 % + & 9 n ' R R G B m h l b S P R R G n c h l h 6 3 9 B D F G S B n v m c 9 3 1 8 c c m n S D n c 9 u u u t 5 4 - - = 3 3 6 7 7 3 $ @ = = 1 1 1 = = $ + + % $ - = = - 1 0 9 t 9 8 t n Q _ ) / E B 9 5 1 3 3 3 3 0 c n S n c 9 6 3 6 8 9 h h 9 j j h h v n B v v c x 9 7 6 6 : 1 9 h 6 8 1 $ 1 6 6 6 9 t 6 1 $ $ = 6 9 t 8 1 $ + % $ = m S P E E G S R 7X0X/ B u c v m n m u 5 0 0 0 6 6 : @ + @ 3 h v c c h 9 6 3 $ 3 $ 3 $ # + # $ 6 0 9 0 = $ = = % % 3 v D P P D n 8 3 $ = - - - $ 1 0 v P / 7X7X) P B c c A R W G c = X q + # 1 6 1 6 0 0 0 0 3 3 , , $ 3 w D E ! P G A c c m m c c 9 6 3 # # $ % $ : : : : 1 1 2 8 9 8 $ % - 5 9 j x x b B B b b V v x x v n B A n x x c h 6 3 3 $ : 8 v v h x n R W ' v 5 4 0 t c c 9 3 # + # # A P ( IXIX_ E P ",
"3 4 5 u u 9 5 4 3 7 9 9 9 9 l c B B S S S S D F C B b l v D F C c & # & , $ 3 6 h b C S F P F D t 9 9 c H W ) ) 4XQ C l 7 8 j j l h 9 7 6 , 3 h D Y W W W R D C h 3 # @ , 9 n Y ! / ! P S C b j h 9 9 h h h h c V B F P P I C b 8 3 3 7 7 6 0 3 9 6 6 9 9 9 5 6 3 3 6 6 9 9 v n n V c 7 6 7 7 h c B S S C l 3 6 8 j h h h h h l 3 3 : > 6 l n D G P F S n c 6 $ : $ 1 - 4 9 u m m m m c l 6 : $ 4 9 u 6 - $ $ % - 4 5 9 9 9 6 7 7 7 6 3 7 l b F ! ! F 3 $ : 6 9 n m m m c h 9 6 : : : 3 9 c b b v c 9 7 6 6 6 6 j 7 3 $ $ 3 7 6 4 3 - - $ $ $ $ : 3 h b b 9 3 , 9 9 9 9 7 6 3 3 4 5 4 4 4 3 7 v P R R F B B m h - % + # 6 D W W D n c 9 3 : : , 6 6 6 3 , : 3 9 l c l 7 3 6 1 % : 3 3 3 7 v b v v l 7 3 3 6 7 6 & - 4 4 4 4 - & 9 9 7 3 3 9 c b c b n C B n n v n n m c l 9 6 3 > > > # , 7 h h j h 6 8 9 n D P ! W R D n c 9 7 h h 6 3 h C W 3XeX9XW h > 6 v b b v h 6 , > > 6 h c v n b h 8 9 h h h 9 3 $ # $ : 3 3 , 6 h h c 9 6 6 8 c B F I I A c 9 3 1 : $ 3 $ $ = = % % % 6 6 6 , $ @ @ + 3 7 h c c 6 3 3 9 7 9 9 6 , % +   + # : 9 c n A S F R W E P D V l l l b V v h 7 7 7 6 3 3 < , , & 3 - - 9 S Q Q G D n c 9 6 5 0 9 h 9 6 0 h c x w v b b I ( 5X3XP B D E W E R D C F Y ! ~ I C b D S b h 9 l b b m c w u w 4 , & > > > : : : , , 5 6 5 - - % # & # # @ # $ $ 1 3 4 = $ $ 6 v D F n c 9 9 h h z b w m H ` ` K m 5 9 4 4 9 u u t t 5 5 6 9 9 9 w 9 0 9 9 9 4 3 3 h K W _ ) / H 6 $ 4 4 5 5 5 4 - - j h h h h 9 7 h z c c l 9 h b V C G / 7X7X_ R n 4 $ $ 3 6 3 3 3 3 , , , & $ $ 3 6 c S G R P S m 6 3 6 m G / _ W n 9 9 c c 9 9 9 c m m v l 3 , 6 c n m 9 4 5 w m n B c 6 6 3 6 c b B I P S h : 1 h v b z j , # @ $ $ $ # + # , 3 7 7 6 3 $ # $ $ # - 4 5 5 5 5 5 h h 7 : # # % % , , : : $ + $ 1 7 h v v c j 6 6 < , > > , 3 4 c B D P E E F S S D n w 3 7 n H G C n w < , 3 3 7 9 B ` eXuXrX@XQ c 3 $ 3 3 : $ : 3 9 m F P Y E ^ 3X_ W S l 3 > # % 3 m G G S c 6 $ $ @ @ $ $ $ $ # > 3 7 7 3 3 6 9 h h j h b D R E ~ E S B C B B P E R G D S n c l h 7 3 3 , 3 3 v m m w 9 5 9 w c n S H H S m 9 9 6 - - 4 u n B 5 5 5 5 5 4 - 4 4 7 9 h 7 , > : 6 h c l c m m c 9 9 h c n b v F ( 0X7XW P D C M n n m c c c c c 6 6 6 3 , $ $ , , , > > , 3 3 6 6 , $ : 3 9 v B D B c 3 3 h B D F D S b h 9 9 3 : > : 3 3 3 3 , : $ , 4 5 l l 9 3 : , 6 c P ~ E c 3 $ $ @ @ > 3 C F Y G n 9 : $ > , > # $ 9 C R 3X5XW S n 9 3 h c b v 7 3 , : 3 3 - 3 5 5 6 6 8 j j h c c l c b H P E W W G M n 6 6 9 c n n n m 9 4 $ # $ 9 c l 9 4 4 5 6 6 9 5 3 3 7 h n R ^ ^ Y F v 3 @ @ $ , : 3 3 3 , 3 6 6 ",
"1 3 6 c c 6 1 = j j h 9 6 3 6 7 n S F I S x 3 $ 9 x b S E 8XeXqXS j : 3 3 : 3 6 8 9 v n D E / ( E G B c c B I E F S n m c x x x v v 9 3 = $ $ $ $ - 4 5 u m c u m m m m m c t t u m m m m z w 7 0 0 0 5 u J B m t 0 3 6 9 c c w h 6 3 3 4 4 4 6 5 9 u c c l h 9 9 0 1 $ $ = 8 x D G B 8 $ $ : : : 1 1 3 6 6 3 , : , : , 3 9 7 7 1 : @ + % $ : 1 < < > # # > , 6 < < > # @ # $ , 3 3 3 3 j j j j : > # # < l S P K H M c 5 4 - 4 5 5 3 $ : 3 6 c S F m 3 : 3 6 6 3 6 l n B B n x 6 1 : 3 9 h h 9 3 $ $ 3 6 7 6 w 7 h c n S D G D C V b B B v n A I Y Y F S C m c 8 8 8 9 h h 9 9 h h h 8 1 > > 2 v n A n c c c 6 9 < > # > l b v v 6 $ # @ # : : & & & - - & & - w z b V v h t t m n m l 7 7 5 w 9 h x h 9 9 8 6 3 , : , 3 3 6 7 @ $ 1 0 c D W ( 3X) W S z 9 6 1 6 6 h c b c h 9 6 9 8 7 b F E W I V j j v I 4XrXrXrXqX^ D x 3 $ + # $ : 3 6 9 v M C m 7 : 3 h c u n B n c 0 = 0 D / eXuXrX/ v : 1 1 6 h c n A S D A c 8 h v n B n v n S G E W W n c 7 , $ $ > $ # # # # $ : 3 7 6 3 3 , $ # # # + $ 9 n D M m w , , 6 h 9 3 % + @ $ , 3 9 l h 6 % + + % - 4 3 & : : : 3 h n B S n b h 6 6 3 3 3 8 3 > > 1 h B D ~ E F B v v v v C F R W Q G n c 9 6 3 1 6 v F R R P G S v 9 6 3 : : 3 9 h n S F H D C c l b m c j 1 $ 1 1 1 8 x u t 5 - % $ $ $ $ $ $ $ $ @ @ $ & $ $ $ 3 7 9 l w w v S R ^ _ / W P J t 9 j j j j 7 8 h x c c c 7 6 6 6 7 h l h 9 6 6 9 b B B B m v x x h 8 1 1 < 6 9 h 9 , $ , 1 6 6 6 6 8 9 9 & & 4 5 5 4 3 3 = $ + + 5 G W ! D B I ! 4X7X7X( G B b B A B n b j 9 9 5 4 3 $ + > > 2 8 8 8 6 : 3 3 6 6 3 3 3 $ # @ , h h 3 , , $ $ $ 3 8 x n D E E F c 7 3 : $ 1 1 : $ 1 8 c A ( 4X_ ! F l 7 c T ! ^ R B 9 $ O % $ 6 9 9 c v c l 9 7 3 : : 3 6 V C I ~ E D A B B V A F S c 6 = $ # # : 3 $ $ : 3 3 3 6 6 6 6 1 3 9 c b n n n m b b b b c 7 , 3 V D I D A V x j 4 4 $ $ - 4 8 t k 8 j v n n v c h h c n B c 5 3 X + $ h A P R E R P P S n 9 $ + $ $ : 3 7 7 7 7 3 : $ # $ $ $ $ = = : : : : 6 9 B b h , : 3 7 j 8 x n A G E T D 3 $ 3 C Y D b m 0 - = $ % $ 3 5 j l l h h j j z b S ! 8X9X) R F j 1 : 2 8 8 8 6 7 7 h v b v h 3 6 3 , , & , 6 z G W ^ W ^ 3X_ W n $ + +   + $ 4 8 8 1 $ $ = 3 t n n b 9 6 1 1 8 j c j 3 : $ : 3 5 u m v t 0 - - 0 0 0 6 6 8 9 9 7 3 3 3 h b S D S n v l 5 4 3 & 6 6 9 t x c v v h 6 1 # % % $ $ $ # : 3 < , , & $ @ $ 3 3 $ $ : , $ % X   + $ $ , $ + + @ 3 v G 5XrXeX5XE c & 7 H ! 7XqX7XI 8 $ , 3 l V C V V V S S B x 7 1 : : 8 n R / ! S 6 + 7 7 h l 9 9 6 6 x n V V I 4XwXwXE Y ( yXyXwX^ F c 9 9 h c C G S v 9 1 = 1 3 5 t v l h 7 6 6 7 h ",
"5 5 5 w w 5 5 w i u r r r u i i i i i u e 5 5 r u u i i i i i u i r u i i u r ; u u r ; ; r r ; r r r i i M N N H N N N i i M N N N N M u u u e 4 5 e w u m m n u m m c J E IX8X) / R N M i u u u 9 w u K X.tXtXX.L M e e i N N i u r ; r 5 u M H ' ' H n m i u i u e ; ; r e e 5 u u i i M M M m M H K ` ` ` L K M i r ; 5 5 ; ; ; ; ; ; 5 u u e e r * * * ; r N N N M i u u u u u u 5 ; * q q * ; e M N N N N F G K R K N m u i i N N M m m u e e e u u e 5 5 ; r i K Q ` ` Q K N M i i M M N u u m m M M M M i N L ` ` ` W R K K L ` ` K N N L ` L K H H H N w e w u m i e e i u u r r r r 4 5 - ; ; ; r u u e r r r ; ; ; ; * * ; ; 5 e e 5 4 e M K Q ' N J e 5 e m m u i N ` ` ` L N i e e u u i M M i i u i i M M M i i u M i e r r i K L _ ` K u 4 r u u i u e ; ; 5 u u i i u u e u u u ; r i N K H H L X.@XX.` K M r ; i i i u u u u u r ; ; ; ; ; e M K Q L H N u u i i N K L K N i i M M i u e u i i u u r 4 e M K K i i i i i N M M u e e w M K ` / ` ` K u r i N N S m w ; * * ; 4 - - - - 5 u u u 5 ; - & - 4 u m m u u u u m m m w 4 * * ; r e e ; ; ; ; ; ; u u i i i i r ; r r r ; r u i N L L L L L N N N N M e e M K K i u u u 5 u i i i H ` tXsXsXX.L M r 5 u e 5 ; ; ; u i N K ` _ @X@XX.` N i e ; ; r i i K K N i e 4 4 - ; ; * * * ; r u e u u 5 w m M M e u M ' Q R K H M N N N K L L K K L K N N i u e r r r r e M N N i i i i M M K R Q Q K M u w e e 5 u i M M u 5 5 u m u w 5 u u u u w e e w m S D P P H M m u e ; e e i K ` ` _ ` K H C S M n m u M M i u u m m c - * 4 e w e e e u e r 4 e w e w 4 e M K K N u u u M N K K K H M i w r r e u i u u i e e e r e e 5 u u i i r ; u i K K N M e ; ; q * ; e M K K P u 5 - ; ; ; ; ; * r N / 0X7X` L M e e u m M Z M u u u u u u u e w e e w i M N M i i M N K R Q Q Q K M u e u m N N N N i e 4 ; 4 e i N K K M u w S N N i e e i M K Q _ ` L N e * 4 5 5 5 t u u u r u N K K M 5 ; * * ; 5 5 5 5 5 e 5 5 ; ; ; ; ; u u u e e e u u w u e e w w w w t u N Q ` @X@X` M e * * * ; r e M M i u e w u m i M M i i r ; ; e e u m m u u e e r e u w e u M Q X.tXeX0X` H m c w 5 5 e r e i N H N m M G R G M e e 4 * * ; ; 4 r e i i e e r e e w i e w w w u i u u u y y u m M M m u e e u u u u e e u i u i i e e w m M M i u u i i u r r r r r r r e u z c w m i u e r r - ; u B S M u e ; M ` tXrXX.H u r ; * * 5 N Q R M e ; ; ; r u N N K N M M i r u i u i m u r * * * r N L Q K N M N N m e r M K K L L L Q L K N M e 5 5 5 ; ; 5 u w m M M H K Q K M u m H K M m u m u c m m H R R n c 3 - - - 5 e u M L X.X.L M u ",
"o.o.o.o.o.o.#.u.#.#.u.u.s.s.s.u.l.l.p.p.p.p.l.l.p.p.p.p.p.#.p.p.p.p.p.p.@.#.p.p.p.p.p.p.p.p.a.#.@.o.@.&.=X$X*X*X$X$Xl.l.u.u.#.#.u.u.u.l.l.p.u.#.#.#.p.l.l.l.l.p.&.#.&.p.=X$X>X>X1X1X*X=X&.#.o.o.o.o.#.u.u.u.j.a.z.p.u.#.#.=.l.l.$X$Xl.#.#.+.+.OX*X*X*X*X+X&.#.o.+.%.%.&.p.=X=X=X&.@.&.p.p.p.&.&.OX&.+X=X+X+X&.&.@.@.@.#.#.#.*.+.+.| +.@.+.@.%.+.@.@.@.@.@.o.o.+.+.$.&.&.&.%.$.{ | | | | +.+.+.+.+.+.+.+.+.| | | [ [ +.@.#.@.o.o.@.%.%.%.%.&.&.&.&.%.+.+.+.+.@.+.+.+.+.&.&.+X$X$X=X=X=X=X=X&.&.&.+X+XOXOX&.%.+.+.o.o.@.&.+X$X*X*X+X+X&.*.+.+.+.%.@.#.%.%.$.OX+XOX&.&.&.+X+X&.*.*.+.+.@.+.@.&.+X&.%.+.+.@.@.@.@.+.| | | | | +.$.+.+.+.*.*.*.%.&.&.+X=X*X*X*X*X+X+X&.%.&.%.&.&.#.#.#.&.&.&.%.@.@.@.@.@.%.p.p.%.@.+.+.$.%.OXOXOX&.&.#.#.&.&.&.*.+.$.*.*.$.+.+.@.#.#.@.#.&.&.#.@.+.+.+.@.@.@.@.#.#.#.#.&.&.=X$X$X$X$X#X$X*X*X*X$X=X=Xl.$X=Xp.p.p.#.#.&.&.#.@.+.+.+.+.@.#.@.@.@.@.@.#.@.@.+.+.+.[ ] { +.+.%.+.+.+.+.%.%.%.&.&.&.=X=X+X&.#.@.+.+.+.+.+.| | | $.%.=X=X=X=XOX%.$.$.OX$X$X+X&.+.] ] ] | +.*.*.+X+X+X&.*.+.+.+.O.{ { $.OXOX$X$X$X=X&.&.&.+X=X=Xp.&.#.@.o.o.+.+.@.@.#.#.#.#.p.#.#.#.@.#.#.p.l.=X$X=Xl.=X=X&.#.#.#.@.%.&.OXOXp.&.&.#.#.#.*.*.@.@.#.#.u.#.#.@.+.+.@.&.l.l.l.=Xp.p.p.#.@.o.o.o.$.%.OXOXOXOX&.&.&.&.@.+.+.o.o.+.@.#.#.a.#.@.+.+.| +.+.+.@.@.#.%.+.+.| | +.$. .{ { ] {  . .}  .oXOXOX+XOXOX{ { { $.*.*.*.*.+.+.+.| | | | | $.%.$.$. .{ { } oXOXOX*X+XOX .{ { { { } } { { O.O.$.$.OXOXOXO.{ { { { ] ] { { $.OX+X*X*X+X+X$XOX$.] ] ] { +.+.+.O.{ { ] ] { O.$.$.$.$.+.+.+.| { { { { ] ] { +.$.$.%.%.$.+.O.{ { { O.+.$.+.+.$.$.+.{ +.+.+.*.&.*.&.OX*.$.{ { O.+.+.$.%.&.%.%.%.$.+.+.{ +.+.+.+.@.@.@.#.=.=.#.+.+.@.#.&.*.+.{ ] ] ] ] ] ] ] { +.+.+.o.o.o.#.+X$X*X*X*X*X=.*.+.$.%.$X*X*XOX*.O.{ { +.&.=X&.&.OX&.&.&.&.%.@.o.@.&.&.OX=X=X&.&.+.| | +.%.%.#.%.%.%.$.$.$.&.$X*X*X*X*X*X*X*X*X*X$X&.*.*.%.%.$.$.%.&.&.@.@.@.@.@.%.&.&.p.p.&.@.@.@.@.p.@.@.#.@.+.| | +.@.%.%.@.@.#.%.&.&.&.&.&.#.@.+.| +.+.+.$.*.%.%.%.$.+.+.+.+.%.=X=X=X$X=X$X=X&.+.[ [ +.#.p.l.l.p.#.@.@.@.%.%.%.%.%.@.+.@.$.&.&.&.&.OXOX&.$.$.+.O.{ { { $.$.OXOX+X+XOX$.O.{ { { $.&.@.+.@.%.%.%.$.+.{ { { } } { ] { { ] { +.%.&.&.&.&.&.%.+.| | +.$.&.=X+Xp.p.#.o.@.#.#.#.p.p.#.@.%.p.p.p.a.a.a.p.@.@.@.@.| | | | +.&.&.&.@.+.+.+.+.@.@.#.#.#.@.+.+.+.+.$.$.$.+.+.+.*.&.&.=.=.&.$.+.+.+.+.@.&.=X$X$XOX%.%.&.&.&.*.*.+X$X$Xp.&.#.@.+.o.[ [ { { | [ +.+.#.+.o.[ | | @.&.p.%.@.+.%.&.+X=XOX&.+.{ ] | $.&.&.&. . . . .$.OXOX$.$.{ { +.$.O.$.$.+X+XOX$.O.{ ] ] +.*.$. .{ { { { |  . .{ $.OXOXOX&.%.+.+.[ [ +.+.+.+.@.%.+.+.+.+.",
"-.-.i.j.j.j.j.z.k.x.-X-X;X}.T.Z.Z.v.<.9.<.g.h.I.%X%XR.z.j.j.d.d.M.n.n.Z.U.U.U.R.U.U.R.T.T.R.T.x.Y.I.n.M.i.i.p.l.z.h.h.v.b.b.n.Y.M.M.,.;.f.v.A.Y.T.Z.Z.Z.n.f.f.f.h.z.R.-X;X&X%X%X<X>X%Xz.i.j.n.v.h.x.U.U.U.U.n.g.d.d.-.:.:.u.s.s.z.z.z.h.j.j.i.a.p.p.u.u.s.1.B.C.Z.Z.g.-.-.-.u.u.-.u.s.c.c.z.z.z.h.h.h.h.U.Z.Z.k.4.g.x.#X>X>X>X>XR.U.x.x.x.x.x.x.v.1.u.u.u.u.u.i.u.u.u.s.s.j.s.i.-.:.u.a.p.l.z.z.h.z.z.z.z.z.z.i.i.i.d.f.f.f.f.;.;.-.:.;.;.f.n.n.n.M.f.f.i.u.u.u.u.p.p.p.l.x.R.R.x.z.z.z.z.z.j.j.g.j.j.j.j.i.d.d.D.D.Z.v.h.#X#X*X>X#Xx.j.1.,.M.n.v.g.d.-.#.s.c.x.#X*X>X>X#X#Xc.c.j.s.-.-.u.s.j.z.z.z.j.,.,.3.4.3.,.3.6.6.4.4.g.d.d.j.k.R.].D.k.g.Z.U.U.%XU.z.z.z.#X#Xx.U.R.%X-X-X].R.U.h.h.n.M.M.M.h.h.k.k.k.k.h.k.j.x.x.#X>X<X>XXXx.k.d.d.d.d.f.i.i.j.g.B.V.B.v.f.,.,.g.h.h.h.h.n.z.U.U.R.-X-X;X;X}.U.h.d.1.4.0.).[.|.;X}.T.D.S.T.Y.Z.h.h.n.n.h.z.n.n.n.g.1.;.;.1.f.h.n.n.v.v.v.v.v.k.h.j.l.p.%.&.p.&.&.p.l.z.#XR.R.x.x.z.s.u.u.i.i.j.h.h.x.x.z.p.p.u.u.-.1.f.f.s.d.u.-.-.a.a.&.@.#.#.u.u.-.-.:.p.p.p.l.s.#.o.o.-.i.i.u.:.o.#.u.%X>X1X>X-Xx.d.1.g.k.].-X<XR.k.h.k.k.g.g.n.n.n.U.j.s.c.x.x.k.j.h.h.x.%X>X>X-Xx.z.i.d.g.D./.T.Z.h.l.a.u.#.u.x.-X-XR.x.x.x.#X%X%X%Xz.z.j.j.I.R.%X%X&X%Xz.i.;.d.n.I.z.j.j.s.u.u.a.p.l.l.z.a.u.i.i.i.f.g.v.B.g.d.u.a.a.a.a.u.#.o.o.#.u.u.s.u.u.p.&.#.p.&.&.@.@.+.@.&.$X*X*X*X$X=X#.o.[ [ | #.p.l.l.s.#.#.@.#.&.p.l.z.p.#.#.o.@.@.+.$.$.%.$.%.%.+.+.+.+.+.$.%.OX$X*X*X*X*X+X%.+.+.+.+.@.#.#.p.p.p.&.&.&.&.&.p.p.u.u.s.s.-.#.o.o.#.#.s.&.&.%.+.o.o.#.#.#.=.s.#.#.@.$.%.@.#.#.@.#.#.u.u.u.u.#.#.#.#.#.u.p.p.p.p.u.u.s.j.h.j.l.l.#.#.#.#.u.u.#.#.@.#.o.o.#.u.u.p.p.l.l.s.p.s.d.s.d.s.l.l.l.j.j.s.j.c.#X>X1X>X$Xp.@.+.+.+.%.OX$X*X$Xp.:.:.u.i.j.j.j.j.d.d.u.u.u.a.u.#.#.#.+.@.o.o.u.s.z.%X%X%X#Xz.s.s.d.j.j.z.$X$X$Xl.p.j.x.#X#Xx.c.p.#.#.#.#.#.&.l.l.p.p.l.&.#.#.#.@.@.@.@.@.@.a.u.#.#.&.$X#X#X%Xx.s.-.-.-.:.o.:.:.-.s.j.I.I.I.h.j.d.d.i.g.d.h.h.j.i.p.l.#X%X#X#Xz.j.j.j.z.z.j.s.u.u.%.p.u.a.u.u.-.u.s.u.s.j.z.z.U.x.h.j.1.1.d.f.i.u.-.o.u.u.u.i.j.z.i.i.d.i.1.g.v.g.d.d.u.u.s.j.z.j.s.s.p.u.l.z.l.p.p.p.a.p.u.#.#.u.u.s.s.s.j.z.z.z.z.z.l.l.l.s.#.#.#.#.o.o.o.o.#.#.#.o.+.@.@.p.j.s.d.d.i.i.u.#.#.@.#.:.;.-.-.u.s.x.>X2X<X;X].B.4.V.Y.Y.k.k.h.g.g.j.j.d.d.d.-.;.;.;.,.f.M.M.M.f.i.i.i.i.s.s.s.u.u.s.s.s.l.p.u.u.a.p.$X*X>X>X-XU.1.1.u.s.k.k.x.z.z.d.1.;.1.1.1.1.d.u.s.x.%X>X>X>X-Xk.1.-.o.o.u.z.%X%Xx.x.U.h.d.;.d.d.d.j.h.h.x.#X#Xl.u.-.-.-.-.-.-.-.-.:.u.u.:.u.u.u.#.#.%.#.#.o.#.u.z.#X#X#Xz.a.:.u.d.j.x.x.x.z.l.u.a.@.@.o.o.o.o.#.@.#.#.#.u.u.u.u.i.j.j.d.d.d.1.1.-.-.",
"2.2.k.k.k.c.c.#X%X%X>X>X%X%XU.x.R.R.R.R.R.R.z.z.h.h.h.j.j.h.h.g.g.g.Z.Z.n.M.M.M.A.A.A.S.T.T.Z.Z.9.2.<.B.B.Z.Z.Z.Z.A.A.V.b.4.M.4.A.A.A.Z.n.g.g.1.1.1.d.s.d.k.k.k.j.j.x.R.].R.R.].1X1X1X>X&X&XR.T.R.T.U.n.v.v.B.V.U.Z.Z.f.;.-.-.u.g.g.f.f.f.f.<.<.h.d.d.s.s.s.j.z.U.I.z.i.u.s.z.z.#X#X#X#Xx.z.z.h.g.v.v.,.,.f.i.i.u.a.p.l.=X$Xl.p.u.u.u.l.z.%X%X-Xg.1.1.1.1.1.d.z.R.].-X].R.U.k.k.B.g.g.s.s.z.#X>X-X-X-Xx.x.k.D.D.V.V.B.B.v.g.h.h.<.v.v.n.n.n.h.h.k.k.Z.g.v.Z.Y.R.x.#X%X-X#Xx.z.j.j.z.z.x.#Xx.z.z.j.j.d.g.g.B.9.V.9.B.B.Z.n.h.f.i.<.v.Y.&X&X;X&X%Xz.j.d.;.;.-.-.u.j.j.s.l.l.z.z.n.h.d.1.1.1.1.j.h.n.n.v.4.4.4.4.4.e.5.0.B.v.v.M.M.!.i.i.!.M.M.M.b.V.S.S.S.T.}.;X;X:X;XE.n.,.,.g.n.T.R./.C.q.V.F.J.m.m.A.Z.Z.Z.Z.v.d.i.j.h.U.%X-X%XA.n.v.b.V.V.A.A.Q.Y.R.-X;X:X;X;X}.T.A.Z.B.B.v.n.n.U.R.R.%X&X;X;X;X;XW.P.8.7.5.b.V.G.q.q.r.C.V.A.T.E.E.{.{.L.S.V.f.,.f.f.n.M.M.n.M.n.m.R.R.U.h.g.f.1.1.1.d.g.h.h.I.z.j.u.u.i.d.j.j.h.z.x.k.z.z.z.s.d.d.n.Z.n.n.Z.h.h.j.s.-.-.s.s.i.i.f.f.v.Z.k.k.i.-.d.k.R.R.x.x.;.-.:.:.:.;.,.<.z.h.g.,.1.,.d.k.x.#X%X#X#X#Xz.z.z.U.%X>X&X#Xz.i.,.v.m.W.W.&X%XR.Y.Y.n.f.i.i.j.j.z.z.U.%X%X%Xk.k.u.u.u.a.s.g.k.D.S.A.I.z.#X%X>X*X#X$X$X*X*X*X#X#XZ.h.h.g.k.k.Z.D.g.g.g.1.1.d.j.j.B.Z.Y.R.I.j.i.-.d.g.h.d.d.i.i.-.u.j.z.I.I.z.j.s.j.j.z.z.z.z.l.p.p.a.u.#.#.u.u.p.p.#.#.#.#.#.p.l.=X=X=Xl.l.p.u.u.o.o.@.#.p.p.=X=Xp.u.@.@.@.@.u.u.u.u.-.-.u.l.#X#X$X=Xl.p.#.#.#.#.#.&.&.#.%.%.%.OX=X=X+X&.@.+.@.#.p.p.l.l.p.l.p.p.u.a.u.a.a.@.o.o.a.a.u.u.u.p.p.p.p.p.p.@.@.%.%.%.&.&.OXOX&.#.@.o.o.#.p.l.=Xp.#.#.&.p.p.p.p.p.u.u.u.u.u.u.-.-.-.u.i.i.i.u.u.u.#.@.@.#.p.p.p.p.u.u.u.u.u.p.p.u.u.u.i.z.c.#X-X-XR.U.u.-.:.u.p.l.l.l.&.p.p.p.a.u.u.u.p.p.=X$X$Xl.l.l.-.-.-.:.:.u.u.i.s.s.j.d.d.-.-.-.i.i.i.i.u.u.j.h.U.R.I.I.i.i.i.i.d.j.i.-.:.@.%.%.a.p.l.j.j.g.<.<.d.d.z.%X-X-XR.R.h.j.j.h.z.x.c.c.u.u.u.u.-.-.#.u.&.l.l.z.j.j.f.;.a.u.u.u.s.s.k.U.B.Z.m.m.m.M.1.1.d.d.d.j.s.l.l.#X%X>X>X#Xx.c.s.s.j.j.k.Z.Z.h.h.h.z.z.j.i.d.j.n.n.i.u.u.u.u.u.u.a.u.a.i.z.z.z.z.j.s.s.d.g.g.Z.B.B.f.i.f.I.I.n.j.j.z.j.u.-.-.1.g.h.<.<.g.j.j.s.d.d.g.g.g.j.f.j.s.s.d.d.j.h.h.z.z.z.z.z.j.u.u.u.u.u.i.i.i.f.h.n.n.n.f.d.d.d.j.I.Q.&XI.n.f.f.g.g.,.,.3.3.,.i.i.u.u.#.h.h.n.I.I.U.k.k.j.j.s.d.d.f.f.f.;.,.v.Y.W.Y.m.n.B.B.g.g.j.j.z.z.x.z.z.z.z.U.%X>X>X-XR.k.g.d.j.j.j.j.g.B.V.v.M.h.%X%X%X%X%XR.Z.v.<.<.d.d.i.u.u.i.#X>X>X-X-XR.Y.n.h.i.u.a.@.a.a.p.s.d.k.U.z.h.j.j.d.d.s.s.s.d.f.v.2.1.1.d.j.x.R.].].].].x.j.s.u.u.s.s.z.z.j.s.u.u.#.#.u.#.u.l.z.x.h.h.z.I.U.U.h.d.i.u.:.@.#.u.z.x.x.R.R.Q.I.I.Z.D.k.x.k.z.j.i.a.a.",
"x.x.c.c.z.j.g.v.n.n.n.I.I.R.R.R.U.U.U.U.R.%X-X-XU.U.n.h.f.f.M.M.V.A.K.E.E.A.Z.Z.U.R.-X:X,X,X:X;XR.k.d.s.d.d.s.d.,.,.v.Z.A.A.S.Z.m.v.v.m.m.n.A.A.R.%X%X%X%X>X>X>XI.j.;.-.;.1.V._.].].].T.T.S.S.D.R.R.R.Y.n.n.v.n.B.V.V.v.M.j.h.z.I.U.Y.J.F.F.F.F.V.V.A.U.z.j.u.a.u.i.s.j.z.x.%X%XT.T.S.V.B.<.<.<.Z.Z.Z.A.A.S.S.D.6.6.3.M.f.g.g.g.j.d.j.f.M.f.i.u.f.,.3.4.4.,.d.i.i.i.i.;.;.1.<.6.v.,.1.;.1.j.%X>X1X<X-XR.Z.n.Z.Y.-X;X;X;X{.G.r.t.G.K.E.E.E.R.Y.Y.R.].T.Z.g.v.Z.Z.-X-XR.R.k.f.,.3.B.V.K.W.W.J.F.5.!.M.A.]. X:X:X;X/.}.:X,X,X:X`.H.L.P.J.Y.T.R.-X%XY.v.5.t.r.G././.[.T.n.f.i.M.m.J.A.A.V.V.V.V.V.K.K.K.K.V.V.b.V.V.m.n.M.h.g.n.m.A././././././._.'.L.G.G.q.C.[.;X;X;X;X;X{.J.4.,.y.9.C.'..X'._.L.W.J.J.S.T.[.[._.K.P.N.b.b.b.A.J.J.R.R.T.Y.A.A.m.b.D.S.].-X<X<X-X].D.Z.B.V.V.F.F.P.L.L.{.[.K.S.S.T.{.`.G.t.t.t.r.r.6.e.G.`.|.|.{.K.9.6.w.r.G./.].].'.).).(.C.D.B.B.A.V.v.v.g.g.h.h.n.n.Y.Y.A.A.V.0.F.J.K.T.T.Y.Z.Z.j.d.-.;.-.-.d.d.4.4.f.f.i.i.1.1.k.x.x.k.B.b.A.Y.q.D.Z.h.h.h.g.g.B.Z.k.-X>X>X>X>XR.Y.v.3.b.W.&X<X&X&Xm.>.;.;.M.M.B.h.j.s.l.p.u.u.-.-.-.u.i.i.i.i.;.;.v.Y.&X&X%X%Xz.z.j.M.n.U.R.x.z.j.i.j.z.x.#XXXx.x.z.z.z.s.s.s.n.R.].D.k.j.s.u.:.:.u.i.j.h.M.M.n.h.f.j.z.#X%X>Xx.c.s.-.-.-.;.i.;.;.,.g.Z.k.k.k.z.j.i.u.-.d.d.g.h.h.z.z.#X%X-X-X%Xx.j.s.d.d.d.g.h.z.z.z.z.z.d.d.d.d.-.u.u.p.p.p.z.z.u.u.#.#.-.-.d.j.s.u.p.#.p.p.u.u.u.#.#.u.u.p.j.j.s.u.u.u.a.a.z.j.j.d.d.i.i.p.z.z.z.z.h.j.s.-.u.u.s.s.s.j.h.U.I.I.I.z.z.U.U.U.h.j.j.z.j.d.-.-.u.u.u.u.u.-.u.u.s.s.l.l.s.u.u.#.:.@.@.| [ o.o.o.+.&.$X*X*X*X=Xp.u.p.l.z.x.z.h.h.g.g.d.d.u.u.i.i.s.l.l.s.i.-.-.:.#.#.#.@.a.u.s.1.s.s.j.c.z.j.1.2.s.z.#X#X#X#X%XR.f.f.1.d.h.x.x.#Xl.s.-.:.:.-.u.u.-.-.s.j.x.-X>X<X;X}.B.1.-.1.j.z.#X%X].T.C.q.V.F.m.m.M.j.z.h.k.k.Y.Y.Z.1.1.-.1.,.f.f.<.<.2.4.4.,.f.f.f.f.f.f.j.j.d.j.z.%X%XI.f.;.>.3.v.T.}.].R.R.U.h.f.i.;.-.-.-.#.u.u.u.u.p.u.u.a.a.u.-.;.,.4.4.9.4.b.b.m.m.b.V.<.2.1.1.d.u.u.j.j.z.j.d.d.h.x.U.%X%XR.R.R.].}.}.T.U.n.h.f.i.i.f.B.B.9.2.2.<.j.j.z.z.h.n.U.n.g.g.h.n.M.v.b.A.S.S.w.0.V.J.K.S.C.C.T.A.A.Z.B.B.B.S.].-X<X,X<X-XR.Z.1.<.B.S.[.[.]./.k.k.B.A.J.J.J.A.0.4.,.1.1.g.x.XX].].R.U.h.h.I.I.g.g.f.,.,.v.Z.B.B.9.2.6.6.0.V.V.9.B.A.T.E.E.W.T.4.3.v.b.A.D.U.XXD.D.B.B.B.v.v.v.N.b.m.Y.R.U.k.h.h.Z.S.[.|.|.}.}.T.T.S.A.V.v.h.h.$X#XT.q.q.w.y.2.;.;.6.0.V.V.v.n.j.z.U.R.%XR.A.B.,.;.i.d.j.h.g.Z.R.R.U.Z.A.K._.).G.0.q.V.4.<.,.4.Z.A.A.A.m.v.f.f.3.6.5.V.S.A.m.b.m.M.3.,.g.I.&X1X1X1X,X-Xx.k.<.,.h.h.I.%X#Xz.s.d.x.#X%X%X%X%X#XR.B.Z.Z.A.S.S.S.V.5.b.M.h.j.j.d.s.4.4.6.6.5.J.;X,X1X1X<Xz.-.1.,.,.",
",.i.i.i.f.f.4.4.B.Z.Z.n.U.-X<X,X}.].Z.f.;.;.1.k.S.S._.G.q.0.V.V.N.J.K.K.K.A.v.v.f.i.d.h.x.x.I.I.m.m.Y.Y.Y.Y.Y.S.].].<X,X,X,X;X].D.k.B.B.B.v.v.v.m.Y.Y.Y.R.;X;X;XK.K.J.G.G.q.6.y.6.w.w.V.K.L.L.L.G.G.K._.K.C.B.9.z.k.g.4.0.F.F.J.T.L.K.G.F.b.M.j.i.i.f.M.Z.A.K.K.S.A.Z.g.g.k.Z.U.B.C.L.`.`.K.V.v.B.B.Z.A.S./._._.G.V.B.g.g.v.b.b.6.5.F.K.[./.S.D.B.D.].:X-X].k.<.,.3.3.3.b.Y.W.Y.v.3.5.e.F.G.S.T.].].%XW.W.Y.S.D.-X-XR.E.A.V.7.e.G.G.[.}.}.T.E.E.{.E.A.v.f.h.U.R.R.R.-X-X}.S.B.4.d.1.g.g.B.S._._.K.T.R.-X>X&X%X%XR.U.#X#X#Xx.D.C.T.T.T.[./.[./.S.B.9.w.t.t.P.F.F.E.E.E.A.A.A.F.V.G.G.G.G.G.G.e.e.J.J.Y.W.T.T.T.T.[._.`.`.L.J.A.A.M.M.n.m.m.M.M.M.m.A.J.L.`.{.|.{..X/.S.V.B.v.v.M.,.g.Z.T.[._.G.r.N.N.b.b.F.F.F.e.C.C.K._.|.|.|.|.{.`._._.'.'.'.'.L.J.Q.m.m.Y.R.].[.K.C.V.F.H.`.{.).).).`.`.`._.K.N.N.v.<.1.1.1.1.,.M.M.M.Q.Y.T.T.Z.B.b.5.M.M.z.z.Y.A.V.q.w.q.S.W.;X}.].S.B.4.v.A.Z.Z.Z.n.m.A.J.F.5.5.4.<.<.g.v.h.j.f.1.1.1.;.,.f.z.z.h.n.M.v.n.M.n.n.n.v.4.9.S./.<X,X:X X/.V.M.f.f.M.m.Y.U.n.v.3.<.9.C.T.[.T.R.R.[.}.].x.k.k.<.1.;.:.-.u.j.k.k.k.A.v.4.6.4.4.Z.Z.n.h.h.k.U.T.U.Z.n.M.f.,.v.Z.Z.Z.<.,.;.;.i.f.j.h.f.f.v.v.b.b.A.Y.-X<X;XR.Y.n.v.A.}.}.}.[.S.V.4.,.4.,.,.d.j.l.l.l.j.j.j.,.1.1.,.,.k.z.j.j.j.n.n.I.n.M.f.f.j.d.d.h.9.B.Z.U.R.-X;X;X}.R.T.T.R.R.R.T.S.D.Z.Z.n.g.j.d.h.h.I.z.z.i.u.u.u.u.j.h.n.h.j.d.z.z.z.s.j.g.n.A.U.U.U.Z.h.f.f.f.n.I.U.U.U.n.n.n.3.3.5.w.q.C.D.D.k.g.<.<.4.B.B.v.v.B.k.k.Z.A.V.V.A.A.Y.A.A.V.4.4.f.d.d.j.z.h.n.n.v.v.U.U.U.h.f.1.f.j.h.z.j.d.;.-.,.d.u.u.#.@.a.p.a.p.#.@.@.u.u.i.u.u.l.z.j.s.u.-.1.1.1.1.1.d.j.h.z.z.h.h.g.j.j.z.#X#X#Xz.z.z.U.U.h.z.#X%X>X-X]./.D.B.<.,.;.;.;.;.f.v.B.k.k.x.%X%X#Xz.d.1.1.<.g.h.-.i.j.z.%X%X%X%Xx.U.D.9.4.1.-.u.u.u.-.1.<.V.E.W.E.A.n.h.j.j.h.h.j.h.n.n.f.f.d.d.B.D.].<X<X,X:X].Z.M.f.M.Z.T././.(.D.B.v.v.v.4.9.T.T.T.T.S.S.J.K.].].T.Z.v.3.!.!.g.h.U.-X}.S.q.q.D.S.].].]. X.X.X|./.B.<.1.1.,.,.3.3.v.B.A.A.A.A.v.m.v.v.v.n.U.U.k.k.T.].|.;X;X;X].T.U.n.M.f.M.M.g.h.z.j.j.v.V.0.A.A.K.K._._.L.G.G.G.e.t.e.q.q.q.K.Y.Y.J.A.A.A.A.w.5.5.7.7.N.m.J./.].XXx.k.k.k.g.5.4.4.v.A.A.Z.Z.V.V.4.4.4.4.4.5.0.5.5.3.M.M.m.m.m.m.b.V.B.S.]. X X.X/.v.,.<.D.].:X:X:X|._.C.q.q.G.F.b.3.>.6.7.P.T.K.V.4.4.B.U.U.z.z.h.h.Z.V.G.G.H.G.[.;X:X:X-X;X_._.G.F.K.E.R.-X-X}.E.K.K.V.m.n.<.<.<.<.4.v.B.v.V.B.V.A.A.A.Y.T.|.|.[.E.T.T.A.v.4.<.B.T.R.T.D.A.2.2.<.1.g.U.R.%XA.V.V.w.w.0.e.G.b.V.F.F.G.G.G.G.F.F.V.V.S.K.J.Y.F.F.F.0.V.n.h.z.l.z.z.T._.G.t.y.B.n.U.R.R.U.k.g.U.%X-X<X,X<X;X}.;XE.A.0.6.4.v.A.5.5.V.V.C.C.V.B.V.4.2.1.1.d.z.#X#X#X#Xj.u.d.f.d.",
"E.E._._.S.S.U.R.m.A.A.A.S.[.|.[.,X;X].A.4.3.M.M.S.[.|.|.'.G.C.V.A.A.S.L.L.K.F.F.F.F.A.T.T.T.S.K././.S.S.C.F.F.t.W.W.W.&X&X&XR.T.V.5.5.F.J.J.J.W.{.W.E.K.K.K.K.F.V.V.V.V.V.V.V.B.F.J.L.{.`.`.G.q.y.6.w.G.K.[.}.|..X_.(.q.0.V.A.n.V.F.F.F.V.C.(.(././.K.K.K.J.J.J.r.G.G._._.S.S.S.I.n.M.4.5.V.K.[.L.H.r.t.t.F.A.Y.[.[.T.S.S./._.`.`.`.S.h.d.1.<.q.S.R.-X>X>X-XT.C.E.K.S.S.[.|.;X;XS.V.4.6.5.5.e.F.J.F.0.w.w.w.w.q.6.5.b.J.J.A.n.h.F.K.}.;X;X}.K.V.5.5.F.W.E.T.U.k.M.f.h.U.T.].[.}.[.S.9.9.q./.[.|..X.X/.C.V.b.5.4.V.V.V.V.V.F.G.r.2.<.D.R.].}.|.[.`.G.q.4.4.4.5.5.F.J.K.L.L.L.L.G.e.r.r.G.G.H.H.G.A.Y.}.;X;X;X;X|.U.U.S.K.K.K.K.K.[.E.L.K.K.K.L.L.r.G.V.v.n.U.R.R.v.<.4.9.C.G.G.)._.C.v.g.g.A.Y.E.V.V.V.V.V.G.L.H.J.V.b.v.v.b.V.A.P.G.w.9.9.C._.`.L.`._._.S.B.v.v.5.F.L.`.`._././.{.{.{.{.{.{._.S.V.V.e.t.t.P.K._.{.`.r.t.w.r.K.[..X'.'.t.t.y.6.6.>.3.6.6.,.f.z.$X%X>X-X;X}.K.K.K.S./.].T.T.J.F.7.5.5.5.V.V.K.A.A.A.A.V.b.v.v.n.h.c.j.h.n.m.v.A.E.|.|.}.T.V.b.n.n.#X#X].]._.).H.H.S./.}.-X].R.E.K.5.6.w.q.q.9.4.9.k.R.<X<X,X:X|.C.y.1.,.f.z.I.%X%XA.A.V.F.F.K.A.Z.A.A.Z.T.R./.K.K.6.6.6.0.0.9.9.9.q.C.(.S.S.V.A.A.K.G.r.r.e.V.A.Y.x.x.M.!.>.7.e.G.`.`.{.{.W.L.L.P.V.B.4.,.,.,.g.g.R.U.n.j.d.s.s.s.d.g.B.D.C.q.4.3.4.4.4.b.V.4.4.4.v.v.v.,.,.v.Z.Z.<.g.Z.T.}.}.].].].].].}.}.E.T.R.g.f.,.1.,.<.v.Z.n.M.v.v.v.v.Z.T.E.E.T.A.v.b.0.0.e.e.H.H.H.H.H.H.L.L._._._.L.G.F.V.V.A.E.;X<X<X>X2X<X-XT.V.5.7.7.T.].].].T.S.B.9.w.q.V.V.V.0.6.6.2.<.k.-X-X-XR.R.m.v.v.B.V.B.v.v.4.v.D.].]./.q.9.v.v.v.M.g.j.j.h.A.S.D.k.g.k.v.M.B.Z.D.T.T.D.k.k.n.n.h.f.j.g.g.k.k.k.g.j.j.n.A.E.].-X-X-X].}._.C.q.9.v.U.U.U.Z.B.Z.v.v.3.>.;.i.M.6.9.B.Z.k.k.Z.Z.T.S.Z.h.d.;.-.-.9.9.A.E.W.Y.Z.B.(./.].[.E.F.0.0.v.v.Z.A.A.T.A.A.m.v.v.,.,.,.f.M.R.U.Z.b.b.b.b.b.M.I.%X1X2X2X-X].w.6.,.<.n.U.R.R.Y.T.E.E.}.;X:X,X;X;X:X|.{.`.H.H.P.H.L.G.C.(.(.D.B.g.M.m.M.>.>.6.5.A.;X1X1X1X1X1X].T.V.5.8.7.b.b.I.I.M.Y.E.{.{.{.{.{.L.G.G.V.v.g.h.U.U.W.}.-XW.&X/._.[.{.`.G.0.q.~.~.G.A.A.J.F.F.V.B.B.D.C._.{.{.`.G.F.0.V.[. X:X:X|.{.).q.w.6.6.q.q.C.0.0.4.v.n.R.}.}._.).~.t.t.e.e.q.q.q.q.t.8.N.F.W.|.|._.G.5.e.V.C.S.D.Z.Z.Z.7.7.b.A.T.-X>X>X,X:X:X X(.<.s.s.j.h.I.m.M.3.6.5.w.q.).L.C.V.B.4.9.q.q.w.r.H.L.E.].].T.T.E.W.{.{.E.E.-X-X>X>X>X-XR.T.S.V.C.S.].].-X}.[._.G.G.F.F.J.J.F.F.K.J.A.A.<.<.1.,.3.V.A.A.n.M.v.<.v.B.V.V.V.V./.;X;X].S.V.B.B.<.;.;.;.;.;.v.4.9.q.r.r.r.r.L.G.C.9.9.9.(..X2X,X,X<X}.S.V.w.C.[.;X,X,X,X:X].Z.v.3.5.7.e.F.H.r.)._.[.|. X|.|.9.B.Z.U.x.h.d.1.;.;.,.4.9.9.B.S.&XR.A.4.<.,.4.4.[.}.,X,X,X-XD.<.1.1.<.<.v.A.A.m.",
"d.g.g.9.B.B.v.v.V.S./.[.[.[.[./.U.v.4.w.0.4.,.,.j.g.n.Z.S.S.A.A.4.4.v.V.J.G.G.G.V.V.K.}.|.|.[._././././.[._.`.H.P.F.b.v.Z.T.].].K.F.F.G._._./.[.[.[.}.|.{.{.G.G.A.V.v.4.3.b.b.A.v.v.v.A.A.Y.A.A.V.b.v.M.f.j.j.h.N.b.b.V.Z.].-X,X.X[._.).L.L.E.T.D.S.S._.L.H.e.8.0.0.5.4.v.v.A.A.V.V.0.0.0.0.V.V.V.V.0.0.e.V.S.T.4.4.4.V.A.].:X,X:X:X X`.G.b.b.m.K.E.E.J.m.b.w.w.Y.E.{.`.'.'.).).|.;X;X;XE.v.,.;.i.h.D..X.X X|.{.L.F.e.0.F.K.`.{.K.E.}.}.}.[.G.V.e.0.0.G.G.V.4.4.5.6.6.5.5.v.v.v.5.5.5.F.W.;X;X<X}.}.L.H.H.`.{.|..X|._.F.5.b.b.b.V.4.<.,.1.g.g.g.3.3.v.g.B.D.(.(.H.H.H.H.H.G.G.F.G.G.G.G.G.L.L.L.K.K.E.|.|.|.|.[.'.{.|.[.|.[.{.{.{.{._.L.L.L.G.G.`.L.E.K.A.9.2.2.7.N.b.V.V.A.Y.E.m.A.S.G._._.L.L.W.W.L.F.F.F.F.P.L.K.K.K.K.S.V.K.)._.|.|.|.|.E.A.A.V.V.0.r.G.L.{._.K.G.G.G.K.[.}.E.E.K.F.5.4.<.<.g.B.S.W.L.L.L.W.E.L.G.e.e.0.F.K.W.W.W.N.N.N.N.N.F.F.G.G.).(./.D.h.h.M.v.V.S.S.T.C.D.D.B.9.9.w.w.F.F.F.V.F.K.L.`.W.L.L.J.K.[.}.;XR.[.{.'.'.S.Z.U.#X-X-X;X|.`.t.t.6.6.1.,.v.5.8.w.A.A.U.U.R.T.T.S.A.b.e.r.r.w.2.<.&X&X&X&XW.E.E.S.D.9.<.,.,.,.M.M.A.J.L.{.{.{.W.E.P.F.F.K.S.S.A.A.S.S.V.N.e.V.|.:X,X2X,X,X X/.C.q.R.T.}.|.[._.(.^.A.S.C.(.)._.}.|.[.[.[.E.E.E.E.E.C.V.v.M.M.n.Y.W.S.S././.S./.}.|.,X,X:X:X].].(.D.v.,.,.4.5.5.0.G.K.L.`.`.).K.A.n.n.n.v.v.B.B.D./.;X;X;X<X;XW.T.B.B.v.g.f.M.n.n.h.b.V.V.L._.K.S.S.)._._._.L.K.F.F.0.V.K.[.{._.G.r.e.q.4.4.4.0.F.G.5.5.4.4.D./.].XXk.<.4.4.4.v.v.n.Z.Z.B.<.9.0.F.G.q.q.w.6.6.6.8.5.5.4.4.g.v.M.M.b.S./. X:X:X:X|./.<.1.k.x.-X;X;X;XH.H.e.w.0.0.V.v.!.M.5.F.F.F.N.N.,.4.v.Z.U.U.U.k.A.A.S.E.E.-X;X;X<X,X,X:X:X].R.U.V.T.R.%X%X]./.q.G.V.m.n.h.j.,.1.2.2.<.<.g.g.M.m.n.R.R.R.R.R.U.U.U.Y.Z.Z.v.B.S.[.}.}.].S.B.<.1.1.g.h.n.I.n.n.,.2.6.9.V.V.V.4.6.6.V.A.S._././.T.T.F.V.q.q.C.(._._.].D.g.j.f.M.m.A.J.F.F.F.F.K.T.}.-X}.E.V.B.T.-X-X:X;X;X}.{.K.0.0.4.9.D.C.).G.C.0.F.F.J.J.J.K.B.<.1.d.j.#X%X%XI.I.Z.A.q.r.~.H.L.P.A.Z.g.v.B.S./._.V.V.V.V.S.K.L.{.L.J.F.e.e.w.0.r.T.R.}.}.W.J.b.4.m.A.G.r.t.e.e.F.[.[.[././././.D.G.G.L.L.E.[.}.}.}.}.[._.G.r.0.V.v.v.b.e.8.8.6.5.m.m.J.V.e.F.N.N.f.j.g.k.D.C.G.H.J.A.B.B.B.V.F.P.8.8.P.K././.].[.L.G.G.V.v.,.,.;.d.g.Y.&X&XW.E._..X.X).~.w.q.q.V.G.G.L.L.L.G.G.0.V.b.v.m.m.v.v.A.U.R.U.U.Y.E.L.L.r.q.9.g.g.g.g.4.9.0.4.6.3.Z.T.-X}.[./.q.w.t.).).t.e.F.N.m.b.4.4.q.V.V.5.5.F.P.e.w.w.r.0.V.A.R.R.n.n.U.R.R.T.A.A.R.R.R.T._._.).).<.<.<.4.V.K.E.W.G.G.G.V.9.g.g.d.c.x.R.-XR.T.B.4.j.h.z.x.%XU.k.k.9.9.e.F.N.b.v.n.q.C.).C.C.C.C.V.0.0.V.A.A.b.4.3.6.7.F.E.|.:X:X X[.[.S.A.A.J.J.J.v.n.%X%X>X-X;XW.Q.m.b.m.N.F.J.L.",
"H.L.L.L.L.L.G.r.F.V.v.g.g.n.n.m.7.5.5.e.G._._./.K.A.V.V.G.L.L.G.P.F.F.F.F.V.S.S.N.N.m.b.b.b.F.F.F.F.V.B.V.K.K.P././.(.C.C.V.5.5.F.F.L.`.`.`._._.'.'._._.C.q.9.9.6.0.e.e.H.H.`.`.`.).G.q.G.L.{.{.{.W.L.F.V.5.5.5.5.5.4.,.d.s.l.l.#XR.S.G.H.H.K.E.[.S.K.F.F.e.e.e.5.V.V.K.E.E.K.J.G.G.G.V.A.Z.U.U.D.S.A.A.S.[.[..X X X.X).J.A.Y.R.W.K.r.t.t.r.[.;X;X;X;X}.E.K.S.C.G.r.e.e.0.V.J.E.}.;X:X:X|._.G.r.!.i.i.z.z.n.A.G.{.`.`.).G.G.F.F.K.K.K.K.K.G.V.V.8.8.0.F.K.K.[.}..X(.(.^.q.C.S.S.S.S.K.K.S.Z.z.z.3.4.6.y.w.G._./.(.'.'.{.{.L.J.F.M.M.b.V.S.E.{.W.}.E.Y.Z.n.Z.Z.T.D.C.).).G.e.5.5.V.V.0.0.0.0.F.F.G.C.V.V.B.9.9.B.E.E.;X;X;X|.[._.|. X|.|.[._.K.C.5.w.0.V.V.0.q.V.W.W.W.E.E.{.{.{.`.`.G.r.e.V.V.A.C.G.G.G.L.L.L.{.G.H.G.e.e.5.5.e.W.W.-X-X-X-X-X-XU.B.4.4.5.V./.].]./.C.G.e.0.5.5.G.G.e.8.6.w.V.S.|.|.|.|./.C.V.0.S.S.K.K.C.q.0.r.'..X.X.X.X(.^.^.L.P.F.e.F.G.G.G.'.).r.e.F.K.[.}.|.|.|.}./.G.r.t.N.F.J.K.E.T.T.D.Z.Z.A.S._.|.;X;X:X:X|.[.G.G.H.r.k.k.k.k.B.V.0.5.e.5.5.e.F.L.L.L.q.(./..X]. X].T.V.4.,.,.g.B./.(.].S.S.C.S._.|.|.{.'.).G.r.G.L.L.L.L.G.G.e.F.V.V.6.w.V.V.S.L.[.{.t.P.P.P.N.M.I.x.&X-X;X;X}.K.F.5.e.F.S.T.T.T.S.V.W.;X:X<X<X:X:X:X X X'.~.~.~.).).)._._.E.T.A.A.b.N.b.3.3.>.3.A.T.2X2X1X1X1X&XA.y.w.q.0.V.A.A.m.m.{.`.`.'.'.`.[.E.K.S.C.V.B.B.Z.U.&XR.T.A.S.E.}.;X}.E.S.V.C.L.`.`.b.V.0.q.q.q.q.D.T.T.[.[._.`.).t.S./.;X:X:X:X|.[.P.F.V.b.b.A.A.K.t.e.e.N.A.E.E.}.L.P.F.e.0.V.B.k.K.K.q.w.8.P.H.L.|.}.L.F.e.F.F.K.W.W.R.Y.Y.A.V.V.D.R.R.#X>X<X;X;X{.J.v.1.1.g.<.<.4.6.4.B.A.E.T.T.A.v.4.4.4.0.V.G.V.A.T.E.}.T.T.T.(.)._._.E.R.R.%X%X%X#X#Xx.k.B.q.J.L.}. X X|.{.`.G.G.J.J.J.V.0.w.e.V.v.n.f.i.i.i.f.v.b.0.4.4.4.v.S.S.S.S.S.T.W.;X;X|./.(.9.9.9.9.M.3.3.,.<.<.k.D.w.r.G.L.G.F.J.J.4.B.T.;X,X,X:X:X[.S.A.b.A.;X,X2X2X2X-X].S.0.6.6.m.J.F.F.G.G._.'. X|.[.S.V.V.v.4.h.f.;.;.1.4.V.C.D.D./././.S.V.5.8.5.4.4.T.<X1X1X2X<X%Xh.i.,.v.b.B.S./..X X X X;X).(.q.0.V.V.S.T.|.:X;X].].D.<.2.7.7.7.e.e.e.e.F.[._.L.G.G.r.r.G.A.V.V.0.0.5.5.7.C.K.K.S.S.D.D.D.n.M.f.;.,.f.n.U.Z.A.S.L.{.{.|.|.;X}.E.G.r.t.q.C.Y.Y.A.V.V.S._.[.}.T.A.v.3.b.J.L.E.A.V.v.9.q.G.G.E.}.}.;X|.}.K.A.G.C.S.].].].-X-X-XR.K.t.7.b.n.z.z.k.B.V.G.G.K.K.Y.T.A.K.G.G.(.(.G.V.V.V.V.B.V.C.).).).C.V.V.F.0.e.e.e.e.G.G.G.G.L.W.L.J.V.5.4.1.1.<.V.K.`.`.K.V.b.V.V.F.G.G.G.r.H.`.`.H.P.F.e.e.V.V.F.r.r.r.w.w.V.V.v.B.n.n.n.m.m.A.Y.W.R.Y.I.n.6.9.w.w.0.F.F.J.F.N.5.5.b.m.n.n.4.4.4.4.v.A.W.}.E.J.V.0.0.V.J.L.q.G.H.`.H.q.9.2.v.A.E.}.}.}.}.E.L.L.L.L.L.H.H.r.t.y.6.,.n.R.:X:X X X{.).V.4.3.,.y.6.q.G.`.`.`.).).).`.{.{.{.L.L.",
"|.}.E.J.J.P.L.L.).G.C.C.D.0.5.5.V.J.A.Y.Y.Y.A.A.V.J.J.J.K.L.`.`.G.G.G.F.J.J.W.W.{.{.L.V.V.0.r.~.]. X:X:X:X}.T.A.5.5.0.C.)._.[.}././.C.C.G.G.L.L.`.G.V.<.,.g.Z.T.}.|.{.W.K.K.K.C.J.F.F.e.e.F.H.P.K.K.J.F.7.e.t.8.e.F.L.{.|.[./.(.9.0.F.F.H._.[.].S.S.V.F.F.e.0.0.F.V.A.K.K.L.L.G.F.J.L.}.|.;X|.;X;X}.{.K.K.Y.R.%XXX].]._.).r.7.7.>.3.5.G._.G.C.9.U.U.T.T.E.K.V.5.9.9.0.C.C.A.Y.R.&X;X-X]./._.).r.C.q.0.5.5.5.V.C.W.W.{.{._.G.C.S.G.G.G.G.G.G.F.F.8.7.N.A.R.;X,X2X2X2X:X}.F.b.b.V.].[.'._.'.(././. X X X|.|.{.`.`.H.G.K.W.{.L.K.F.J.b.v.v.v.A.E.E.q.q.q.).{.:X:X2X2X2X,X:X[.C.0.4.,.4.5.0.F.G.`.`.`.`.`.{.L.K.A.Y.Z.Z.B.B.A.T.;X:X;X;X}.E.S.K.K.J.V.V.G.G.G.F.J.W.`.`._.C.C._.|.|.'.G.K.L.L.K.G.G._.{.{.`.H.F.b.4.4.V.C.C.G.0.4.5.V.V.T.].]./.D.9.m.b.b.b.b.A.Z.n.v.3.5.e.G.G.q.C.0.0.5.5.5.b.M.h.i.M.3.6.5.J.;X<X,X,X,X:X.X9.2.1.z.x.x.-X].S.F.7.B.C.G.).r.w.4.v.V.V.G.F.7.5.5.0.C.S.B.g.B.A.K.W.{.{.}.;X:X,X2X2X2X2X-X/.S.K.K.W.E.E.}.}.}.E.V.V.b.b.v.g.v.b.e.e.9.9.9.V.m.m.J.W.}.].T.Z.k.b.J.N.N.F.S.(..X X X|.~.w.w.2.1.d.f.M.b.b.5.0.q.q.C.S.C.C.V.0.0.G.L.{. X X X|.|._.G.G.t.r.).'. X X].x.k.h.g.4.0.G.H.`.t.r._.|.;X;X}.{.q.4.V.W.W.;X-X>XY.A.m.b.5.5.5.0.S.S.A.B.B.9.0.q.^.(._./.Z.j.j.l.i.z.j.h.k.C._.`.~.'.'.`._.S.A.B.z.n.U.T.[._.C.C.Z.Z.C.).).C.V.V.0.e.V.0.V.K.[.}.C.C.B.4.<.v.B.A.J.F.G.G.)._.{.{.[._.S.D.D.B.V.V.e.F.K.}.}.|.`.'.).).L.J.J.V.V.9.q.0.4.3.3.M.v.V.9.0.F.F.b.3.i.d.g.S._.H.P.7.b.n.k.x.Z.b.7.F.F.K.K.K.K.K.V.C.C.G.N.b.,.;.1.g.A.Y.Y.Y.T.T.].[._.'.).K.J.A.A.J.G.G.~.'.G.V.V.V.v.<.g.g.n.n.U.Z.A.A.Z.A.S.G.C.C.9.9.5.w.V.V.V.F.N.8.3.3.n.x.x.U.B.0.~.G.G.J.F.V.V.9.g.v.v.F.J.G.G.C.0.e.F.F.F.r.r.r.q.V.V.A.A.A.A.A.R.R.R.U.U.T.E.L._._.S.S.A.4.6.6.N.A.F.F.G.e.q.w.4.v.j.z.l.l.z.k.D.D.B.g.h.z.z.z.h.n.n.v.b.m.N.N.3.4.6.6.r._.[.[./.C.V.Z.A.V.F.G.K.P.P.t.8.e.r.G. X X:X:X X_.G.G.T.T.S.C.V.B.Z.U.;X;X{.V.5.5.7.3.>.3.M.n.U.U.R.T.A.A.m.b.b.b.b.V.A.T.R.U.Z.v.5.t.t.~.).H.G.K.K.A.A.A.J.J.V.b.M.M.q.q.r.).G.0.3.3.3.3.M.M.b.A.K._..X.X.X'.(.(.^.q.0.0.b.b.b.B.B.9.k.g.4.8.8.t.L.W.|.|.}.}.}.;X:X:X,X,X:X{.W.L.`._.].].S.V.F.H.H.`..X|.[.{.L.P.F.e.J.V.V.B.B.B.S.}.<X;X;XW.F.e.r.r.G.G.e.e.e.F.J.L.W.E.K.V.5.V.J.L.}.|.|.{._._.L.G.C.K.A.b.b.m.N.N.N.F.F.V.F.G.G.).G.`._._.[.|.|.|.L.G.G.G.G.G.G._.[.[.K.C.V.G.K.K.e.0.w.0.F.G.V.V.v.3.5.5.F.L.[.[.0.5.0.G.L.L.K.L.R.R.-X;X}.A.v.3.e.e.t.r.t.t.r.F.Y.Y.A.F.G.e.r.G.L.L.G.r.r.H.L.W.L.L.L.G.G.r.H.P.P.L.P.G.G.H.P.e.4.4.M.U.T.T.[.[.'.).G.e.5.5.5.5.C.C.v.,.i.h.%X%X%X%XT.G.r.0.4.<.g.n.n.Q.W.}. X X.X X X|.|.|.|.|.",
" X X|.[.K.G.F.5.A.n.v.v.v.V.V.K.L._._._._.`.`._.W.L.L.G.F.F.P.N.L.L.L._.L.K.K.K.e.0.e.F.F.5.b.F.T.R.#X#X#X%XR.A.3.4.4.9.D.D.T.R.K.K.G.q.w.6.6.5.q.q.V.V.V.V.V.S.}.E.E.A.V.B.D.].|.{._.q.w.q.(.[.:X X X'.'.G.G.G.q.q.9.9.w.q.C.G.K.G.G.F.V.V.S.K.[.[._.S.S.S.K.G.P.L.[.].}.}.].T.T.S.K.K.}.;X<X<X[.[._.H.G.G.C.Z.D.D.9.9.w.r.e.e.e.e.r.G.K._._./..X.X|.|.|.L.K.V.v.v.v.A.E._.).~.q.D.B.S.E.}.}.}.G.r.t.r.t.r.G.L.K.K.G.e.0.V.V.B.b.v.V.C._.K.K.J.r.e.F.N.m.I.U.x.R.T.K.H.r.r.e.e.J.J.E.E.T.Z.Z.U.<X<X,X,X:X:X X.X'._.).G.G.G.G.G.).).L.K.J.m.v.M.>.1.,.d.z.%X1X1X1X1X>XR.b.5.e.e.).G.V.g.g.Z.W.;X{.{.{._.G.G.K.K.).'.).C.V.J.J.N.7.7.J.W.}.}._.K.F.F.G.`.`.G.F.7.0.0.0.V.C.S.S.S././._.'.`.G.K.W.;X:X:X X X{.`.G.b.b.b.m.b.F.t.t.B.B.D.R.W.W.F.P.7.e.V.A.S.S.K._.L.G.G.C.S.[.|.|.V.V.0.0.G.[.}.;X|.|._.S.S.A.U.h.z.z.R.;X:X|.].T.D.D.9.9.9.9.4.v.v.V.r.r.r.r.C.V.V.b.B.V.V.C.C.K.R.%XR.].].]./.T.[.[.K.B.B.n.h.z.z.z.h.h.g.B.C._. X X X'.~.r.).)._._.).r.r.e.5.5.B.g.v.3.3.3.b.m.V.V.V.7.5.7.F.F.V.V.J.K.E.}.[.[.K.C.(.(.S.V.b.N.5.5.w.w.w.r.)._._._.`.H.G.V.B.Z.-X>X2X1X,X;XA.5.b.A.R.>X2X>X>X>XE.K.F.7.5.5.0.V.r.r.C.(./.[.[.[.D.D.B.v.M.M.;.;.;.,.4.q.(._.[.].R.T.T.A.F.e.8.y.b.Y.>X1X1X1X<X].m.,.;.4.4.<.g.T.:X:X:X|./.[._.C.A.V.V.C._. X,X,X-XE.V.e.8.w.w.V.0.0.V.F.F.K.L.L.F.e.F.V.G.G.C.q.V.V.b.5.b.m.Z.U.v.v.A.R.T.A.v.<.1.f.f.f.M.A.J.J.r.H.{.|.;X}.E.E.e.G.G._._.K.G.G.W.}.|.|. X|.[.S.h.v.B.F.L.L.J.J.V.V.C.G.'.{.|.|.|.{.{.W.W.E.T.R.].].].].;X}.}.E.F.b.M.M.M.v.V.V.q.V.K.K.E.J.V.V.G.K.S././._.K.G.Z.B.C.).`.{._./.B.v.V.F.P.F.e.e.F.K.L._._._.G.G.G.C.B.4.<.v.A.K.).).).K.S.S.S.S.G.G.L.L.L.H.t.t.K.L.F.5.7.7.7.P.G.G.V.q.w.w.0.r.A.A.A.v.n.W.;X&XU.n.M.M.3.6.w.0.V.V.0.0.5.5.b.b.w.9.V.C.C.9.4.5.w.r.K.K.K.J.F.F.r.r.G.G.).`.`.`.~.r.q.4.4.S.}.;X|.}.}.|.[.{.L.L.r.r.t.r.e.3.,.,.U.-X:X:X:X:X{.C.3.,.;.;.3.4.0.G.~.~.~.'.).G.F.F.S._.[.|.|._._.G.e.P.L.W.}.;X:X-X/./.C.q.C.G._.[.G.G.G.G.r.H.G.G.K.K.[.|.{.[.K.C.v.v.n.T.E.L.G.r.t.t.t.e.L.{.|.[./.]. X:X<X,X,X<XK.B.4.3.4.6.9.q.(.C.9.1.,.<.g.k.5.0.G.C.V.B.h.h.A.L.`.).~.H.H.P.8.8.e.r.H.L.L.K.F.F.F.F.F.e.q.w.D.q.q.C.(.(.(.(.G.F.e.t.e.e.r.G.~.'.'.'.).'.'.)._._.K.K.K.E.E.E.A.A.A.E.E.K.V.0.A.A.K.L.L.`.`.`.{._.G.q.q.q.e.F.N.b.M.M.j.j.j.n.K.V.V.4.<.v.v.B.S.K._.[.|.;X:X,X:X;X].V.V.0.e.e.e.e.G._.|.:X,X,X}.K.F.0.e.G.K.|.[.[.}.}.;XW.E.J.N.N.7.5.5.V.K.L.|.|.;X;X;XW.P.P.5.0.F.P.L.L.L.L.{.{.L.H.t.8.e.G.}.}.|._.G.r.e.e.V.V.V.b.V.J.W.W.e.e.w.4.b.A.E.E.T.].}.|.[.A.3.;.!.M.b.V.).'.'.'._.{.L.E.W.-X>X>X>X-X-X|.[.).G.G.",
"[.[./.T.T.T.E.E.L.G.).G.G.r.r.r.S.T.S.S.S.[.}.}.`.`.G.r.q.C./.|. X X|._.G.V.0.5.A.A.A.K.V.5.4.4.F.K.S.].T.T.A.m.e.7.5.5.b.V.5.4.6.5.V.E.}.}.K.V.8.8.5.V.B.B.g.2.,.6.4.9.S.}.<X,X2X,X X'.^.<.d.l.l.c.x.z.n.b.v.0.G.K.J.J.N.b.M.3.V.V.V.N.m.A.J.J.S.S.S.S.C.K.{.{.&X;X<X<X2X2X,X2X X[._.G.F.P.P.P.W.}.[._.K.A.A.v.6.4.q.C.K.K.A.B.3.!.3.M.m.A.V.V.M.v.v.n.Z.A.S.S.K.[. X:X:X.XC.w.B.<.1.-.;.;.f.M.v.4.9.0.C.G.C.S.J.F.V.q.G.'. X:X:X:X X|.).r.r.t.|.|.:X:X:X X].D.,.<.0.r.G.G.G.G._.[.|.:X|.[.A.V.B.Z.T.E.T.B.4.6.b.5.4.3.3.b.K.E.C.9.4.v.v.V.).{. X].].].k.d.;.-.1.2.B.S.[.|.|.|.'.'.{.{.E.Y.m.n.F.K.K././.].T.T.n.Z.Z.V.C.q.w.y.e.G.K.[.}./.S.D.V.B.<.<.9.V.C.K.K.L.`.`.'.'./.].A.V.b.5.4.4.B.A.T.E.|.[._._._.).).).).C.C.V.V.w.3.3.M.n.m.m.b.N.G.V.v.,.1.,.6.0.H.H.G.b.M.M.b.5.8.e.e.F.K.E.W.W.V.V.C.S.S.T.T.R.g.v.4.v.b.A.J.W.R.R.R.].[.K.G.G.J.L.W.W.W.W.W.W.G.V.V.v.M.M.n.n.v.B.B.D.D.S.S.K.A.K.J.V.V.V.V.V.r.r.H.H.F.b.3.>.x.z.h.v.0.q.~.r.A.A.m.m.m.N.N.m.P.P.P.H.H.r.r.e.y.t.t.r.r.S.D.Z.Z.U.T.Y.Y.Y.Z.v.I.I.Q.Q.W.E.].].Y.A.v.4.4.b.A.J.t.t.7.7.5.4.<.<.d.d.j.j.h.n.A.K.g.g.g.h.h.v.b.N.U.Y.A.J.N.5.4.4.V.V./..X.X/.D.B.F.F.F.P.H.H.r.r.e.e.7.7.F.{.:X:X X X'.(.C.A.Y.W.C.q.9.B.B.S./.C.F.F.F.e.5.4.4.g.T.T.S.V.V.F.J.F.b.b.b.N.N.V.B.B.<.4.4.N.P.L.H.`.L.L.P.J.J.J.J.W.K.V.5.6.6.4.C._._.G.e.8.y.6.7.7.5.V.K.[..X.X.X.X.X.X.X.X(.(.q.9.4.4.B.k.B.v.3.3.5.5.V.K._.{.{.`.D.].>X>X1X<X-X.X'.'._._.[.K.S.C.C.C._._.[.{.{.{.L.K.F.e.e.e.w.w.Z.Z.T.}.}.}.E.W.r.r.q.C.C.C.C.C.r.r.G.L.L.L.K.G.V.A.S.T.[.|.}.[.H.G.F.J.J.A.A.A.F.F.F.F.F.V.0.0.F.F.F.G.K.L.L.K.E.E.{.|.|.L.V.F.V.F.K.L.L.G.G.G.E.L._.(.C.q.w.5.q.C.q.9.w.6.6.w.E.}.;X|.E.V.b.5.{.{.[.Y.T.}.|.[.E.A.V.V.F.F.F.J.e.t.r.H.H.L.S.S.K.J.F.F.F.P.P.L.G.K.W.{.{.W.L.L.P.P.J.K.K.G.G.q.).H.F.F.m.Q.I.R.E.E.W.{.W.L.F.5.6.6.0.F.G.V.v.v.z.z.j.j.h.B.D.C.w.q.C.A.R.Y.Y.R.;X;X,X,X:X.X(.9.A.K.J.A.K.J.J.F.r.0.V.A.R.>X>X>X<X-XR.Z.Z.A.A.A.J.J.F.F.K.K.K.T.B.B.V.A.S.V.V.V.N.V.A.T.E.K.0.e.w.q._.}.<X<X<X>X&X&XI.h.h.n.n.I.V.V.F.J.Y.E.}.}.E.J.J.N.N.F.F.G.E.J.4.6.w.w.q.^.b.b.v.v.b.J.F.F.F.J.K.W.W.P.N.N.F.e.r.r.q.w.4.<.,.,.4.V.V.V.4.4.9.0.G.G.G.V.V.9.Y.Y.Y.A.V.V.V.q.e.e.G.`.{.{.[._.B.v.v.n.A.Y.E.E.~.r.H.L.W.W.E.Y.0.0.q.e.e.8.8.8.w.r.G.G.S.D.B.9.4.b.b.b.b.m.J.A.e.r.G.G.K.E.-X-X,X,X|.G.7.6.6.3.8.8.N.N.J.J.F.F.0.0.e.e.r.r.r.G.K.L.L.G.G.e.r.t.'.).G.b.v.b.V.e.q.C._.|.|.|.`.`.|.[._.L.G.G._.`.L.K.K.G.G.G.K.K.|.|.|.|.{.L.J.V.0.0.0.F.r.e.t.r.P.K.F.V.V.J.K.W.}.}.|.}.|.{.W.E.Y.Y.Y.Y.T.E.E.T.N.F.L.`.{._.q.9.j.h.m.W.|.|.E.E.",
"b.V.E.|.|._.C.0.4.V.K.L.K.F.5.5.K.K.K.F.F.J.K.K.).G.H.`.`._./.].:X:X X{.`.`.L.K.M.v.b.N.F.F.F.F.b.m.A.Y.A.V.q.w.9.4.v.v.A.`.'.~.t.P.A.T.R.T.A.V.t.e.F.K.}.}.;X;X{.E.J.V.b.M.h.z.h.I.R.;X;X[.S./.(.(.q.6.5.7.F.P.q.G.G.L.G.C.0.9.9.9.9.V.V.C.S.S.R.R.R.T.T.T.E.E.W.W.Y.n.n.h.h.f.N.b.3.v.Z.].;X:X X X'.).r.)._./.{.K.V.v.M.v.v.n.Z.Z.v.M.3.5.N.P.e.e.e.V.V.A.Y.R.V.A.E.}.}.T.S.A.C.(.).G.G.F.0.5.M.M.v.0.G.)._._.~.r.q.D.Z.k.x.#X>X>X>X-XR.U.n.n.&X&X%X-X%XT.A.b.P.N.7.7.7.7.F.J.G.G.C.S.S.C.C.D.q.4.4.M.M.3.3.7.e.G.`.|.|. X.X/.T.T.C.C.C.V.A.Y.>X>X<X,X:XW.J.m.4.4.3.,.f.U.R.-X.X]./.S.S.A.A.A.q.(._..X:X-X-X-XN.7.N.F.F.F.F.P.F.F.V.A.A.A.A.A.w.w.q.r.r.r.w.6.<.<.f.M.v.b.b.v.T.[.[./.D.k.2.2.<.<.v.v.v.A.J.E././.[./.S.C.C.G.{.{.{.[.[.[.|.|.,X,X:X:X[.C.9.4.q.S.T.T.U.Z.S.S.G._.|.|.;X|.|._.{.E.E.T.T.Z.U.].].;X;X;X}.K.V.9.m.n.n.B.V.0.e.e.G.L.Y.Y.Y.Y.A.V._._.[.[._.K.C.C.).)._._./.D.9.4.J.J.J.N.7.F.P.L._._.`.{.[._././.B.B.V.r.G.L.{.W._.L.K.J.K.K.G.).L.G.G.G.G.G.V.V.0.0.5.6.7.F.P.F.5.7.e.e.r.G.C.C.m.A.T.}.}.T.b.b.<.4.9.C.G.G.F.e.e.e.0.w.0.q.V.C.K.L.K.V.A.K.E.E.|.[.K.K.F.F.P.H.(.'.'.'.{._.G.V.b.v.Y.W.-X}.}.[.|.|.[.L.G.r.e.e.t.e.5.M.f.I.%X-X<X,X:X[.C.<.1.;.;.;.b.J.E.{.'..X).'.).q.9.S.].-X}.|._.K.G.G.K.L.|.;X<X,X:X X].(._.S.S.E.L.L.G.G.q.q.C.C.(.(.(.(.}.}.}.L.F.v.g.g.R.R.K.G.e.t.t.t.W.}.;X;X;X;X-X;X;X;X;X]./.B.6.6.6.6.q.(.(.^.q.w.m.b.v.<.g.Z.A.S.G.V.V.A.A.A.L.`.H.H.t.8.8.8.7.t._.[.K.K.V.V.0.q.e.0.0.9.B.D.D.D.q.q.q.q.q.q.q.q.w.q.r.G.`.|.|.|.{._.).G.C.C./._.{.E.E.A.A.A.B.Z.V.F.E.W.W.K.K._.}.|.|.|._.G.r.t.0.q.0.w.5.5.5.4.;.;.f.n.A.v.<.4.M.b.b.m.J.K.L.L.;X;X<X,X,X<X}.E.5.0.e.F.F.N.F.P.;X;X;X|._.C.q.0.G.G.K.E.W.W.{.W.`.G.G.G.G.e.5.3.5.e.F.L.{.|.:X:X;X;XE.V.b.F.K.F.L.L.L.W.{.{.`.`.t.G.K.[.}.|.|.[.[.K.C.F.V.5.4.0.V.C.K.L.G.F.0.8.Z.A.T.}.;X;X;X|.W.Q.m.M.3.5.F.L.|.|.{.).~.^.C./.Q.R.R.R.R.R.].}._._._._.`.{.`.`.{.{.L.S.B.9.<.2.<.4.0.F.G.L.L.G.q.0.w.w.0.V.Z.Z.9.9.4.0.e.G.H.`.).H.G.C.C.q.q.r.P.F.F.V.A.A.E.W.F.0.w.r.r.t.H.`.W.W.&X;X;X;X}.T.V.0.4.3.3.6.5.0.S.S.S.D.Z.B.v.Z.A.B.B.B.9.q.~.~./.].-X;X;X-XE.K.P.P.P.L.L.L.L.L.0.e.F.H.`.H.t.t.r.G.).H.G.V.V.v.4.3.4.4.4.6.6.5.C.C.S.S.S.S.S.S._._.}.}.{.|.|.|.K.J.m.5.V.V.C.C.Y.Y.A.T.K.K.K.W.P.H.L.L.`.{.{.{._.`.`.G.r.r.q.C.Y.J.A.V.9.B.S.S.D.C.B.,.1.4.0.G.r.r.G.V.V.0.q.w.B.B.B.C.C.G.C.G.t.t.P.F.V.A.T.R././._.G.G.L.K.F.5.5.4.<.4.B.].].:X:X:X X.X{.[._.H.G.0.0.V.A.A.S.S.K._._.`.`.).G.V.4.4.v.v.3.6.3.V.F.K.G.G.G.G.G.V.V.C.K.K.K.K.E.G.G.V.0.V.V.m.m.E.A.T.].:X:X:X:X;X{.K.V.q.9.B.B.",
"L.L._._._.q.q.r.D.D.B.B.B.V.K.`.(.(.(._._._././.B.<.,.,.,.,.n.U.A.K.L.P.H.L.`.`. X|._.C.D.B.B.9.n.n.m.Q.J.A.C.C.(.C.B.1.;.,.5.0.t.e.V.v.M.v.N.P.H.G.L.[.{.W.W.W.b.A.S./.]./.x.x.g.B.V.F.F.b.3.3.#X#XR./._.G.G.K.E.E.E.E.L._.).).S.A.B.v.v.v.Z.Z.V.C.S.C.G.G.G.F.q.q.0.G.G.G.G.H.).G.C.V.v.<.1.1.4.4.C.).`.H.G.V.<.4.V.A.K.K.F.e.(.).'.).G.0.0.V.q.q.w.w.q.q.0.0.V.V.A.A.A.n.n.A.x.R.R.T.T.Y.U.I.b.5.5.7.t.t.e.e.b.5.5.b.v.v.g.h.<.g.v.V.A.A.S.S.g.g.n.Z.Z.A.V.C.`.G.G.V.V.B.D.S..X.X].].]./.S.C.S.L.W.L.L.L.H.t.b.m.Y.R.;X:X X X|._.C.B.v.v.n.Z.0.C.K.K._.[.[.K.P.P.F.V.S./.].R.T.S.F.F.F.V.A.A.A.A.A.B.V.b.b.b.7.e.H.`.'.).t.r.V.C.K._.[.T.T.A.4.4.3.6.N.L.|.}.G.e.e.7.8.8.8.7.S._.|.|. X X X X:X X.X_.0.6.6.6.4.4.4.6.6.3.3.b.b.V.G.G.G.C.C.D.%X%X>X<X;X|.`.~.L.L.F.w.q.C._./.K.K.L.L.G.G.t.r.8.w.0.0.C.9.9.q.D./.[.W.W.L.F.F.t.r.)._._.).G.r.).).G.G.G.K.S.C.A.J.K.L.L.L.K.K.J.J.J.J.J.Y.W.W.`.L.K.V.5.5.5.5.F.V.V.V.Z.Z.Z.R.|.|.{.V.v.4.b.V.L.K.K.E.E.}.|.|./.T.S.A.V.J.N.N.V.V.B.B.A.}.:X:X;X}.T.B.B.S.}.}.L.W.{.}.;X}.T.A.V.V.F.F.P.P.t.t.S.[.}.;X;XW.W.P.e.e.e.e.P.L.L.L.L.L.`.`.L.G.0.w.G.G.C.C.G.K.L.L.V.b.4.4.v.Y.W.&X{.L.F.V.4.4.V.V.e.J.E.R.U.z.i.a.;.,.4.w.r.r.H.H.L.K.Y.R.%X-X<X,X,X,X;X[.S.V.F.F.S.C.C.r.r.e.0.V.I.U.#X#X%X%XR.A.B.B.9.9.0.q.V.F.G.S.S.S.S.S.S.S.A.A.F.F.P.K.K.T.K.K.G.F.F.F.E.W.-X-X-X-XR.Y.m.b.f.g.n.A.T.W.W.W.&X&XW.W.E.S.V.v.6.5.e.G.H.G.e.5.4.4.9.0.w.6.6.3.M.m.F.G.G.L.{.;XQ.J.J.N.7.P.P.L.t.e.5.4.<.g.B.B.G.G.F.5.5.F.G.C.E.A.A.b.v.n.n.I.4.2.6.w.q.(._.}.[.[.[.K.S.D.B.k.C.K.E.E.E.K.K.K.C.S.D.Z.A.A.J.P.F.F.7.7.7.P.W.W.W.W.K.F.V.F.F.0.C.V.V.V.A.S.S.T.V.K.-X<X:X;XL.e.5.6.3.6.7.7.7.P.A.V.V.V.V.V.G.G.r.).).H.G.J.J.J.q.q.B.C.C.K.L.L.F.F.F.F.F.F.J.J.[.|.|.|.|.|.|._.`.`.L.L.L.P.t.t.e.0.F.}.|.|. X X'.~.q.w.w.w.w.0.0.0.0.G.r.r.t.t.A.J.Y.E.E.{.{.K._._.[.E.E.T.U.U.R.W.J.N.F.L.W.|.[.].].k.k.k.n.m.V.V.B.B.V.J.E.{.L.[.{.|.[.K.K.F.4.v.Z.U.R.-X-X-X;X;X|.`.H.P.G.G.G.F.e.7.7.5.b.0.L.K.J.J.J.F.7.7.A.V.V.F.V.0.4.9.].]. X X'.~.q.e.S.S.}.|. X X.X'.G.C.C.S.S.V.V.r.G.L._.`.L.P.H.H.W.K.F.4.6.,.M.M.V.A.E.;X;X;X|.|.[.[.|.|.}./.C.q.;X}.[.T.S.S.K.L.P.P.P.P.N.P.W.J.G.C.V.V.V.5.4.b.S.K.L.E.J.m.b.b.A.E.}.}.;X;X}.]._.L.C.V.V.S.[.:X:X:X:X X.X(.9.9.G.G.F.q.0.G.`.`.}.}.E.K.K.K.L.[.`.G.G.0.w.4.v.b.V.G.H.H.e.0.5.4.8.e.r.r.r.0.V.V.C.C.D.D.9.w.w.w.q.q._.|.,X1X1X1X1X<XE.V.0.G.`.{.J.J.b.v.Z.R.-X<X,X,X:X|._.G.G.0.w.q.V.K.[.}.}.E.Y.A.v.1.<.9.C.C.C.C._.|.|._.C.V.C.G._._.'.~.q.w.H.H.H.H.H.G.0.5.4.4.V.L.|.|.{.E.N.5.m.Q.Y.%X&X&XE.K.K.K.F.F.F.F.",
"M.b.A.W.E.N.5.6.w.w.q.G.G.e.6.y.M.4.3.3.v.v.n.n._.[.[.[.S.C.9.<.k.B.v.b.V.V.C.C.Z.Z.A.v.0.V.G.`.|.|.{.`.{.}.;X,X,X,X,X;X}.E.K.G././.S.S.S.C.K._.'.'..X.X|._.L.L.L.K.V.<.<.k.R.].1X<X;X_.G.V.V.A.Y.S.q.w.w.e.F.K.T.T.A.Z.B.B.C.S.{.{.{.[._.K.K.S.E.E.T.Y.A.A.m.m.F.F.F.F.F.G.G.G._.[.{.{.|.{.{.'.E.K.K.K.K.L.L.L.H.H.H.L.L.L.P.P.P.e.e.e.r.q.9.9.6.6.6.0.G.H.K.F.e.0.V.S.K.J.J.J.;X}.E.S.V.v.M.g.V.F.G.G.G.G.V.V.Q.W.A.V.V.G.~.~.H.G.F.F.K.E.[.}.).G.P.P.H.P.).).).'.`.`.L.V.5.4.b.m.J.W.W.}.|.{.P.P.F.7.e.e.r.t.w.6.<.j.x.%X-X<X{.{.G.5.6.3.3.,.b.N.K.[.|. X.X^.L.C.B.v.Z.R.}.R.t.t.t.e.F.S.}.-X1X1X,X:X]./.).).-X].T.D.q.q.q.q.C.C.C.G.G._._.[.{.W.J.m.b.m.A.Z.V.e.t.t.t.).}.;X<X<X<X&X%X%X].].%XU.U.n.3.3.3.5.S.[.{.{.`.V.4.4.A.A.V.q.0.C.E.}.S.C.q.q.q.V.J.E.P.8.8.8.8.G.G.L.J.J.F.F.P.P.e.e.9.B.B.Z.D.D.D.D.9.4.5.7.e.t.w.w.t.).'.|.|.[._.L.G.G.^.~.).'.|.|.T.A.A.Z.B.B.V.A.S.K.L.L.`.{.|.|._._._.).G.G.G.e.t.8.e.V.b.M.g.h.M.m.b.3.3.4.5.V.v.V.V.G.K.E.}.;X,X,X,X|.L.e.y.y.y.y.8.5.F.E.}.;X[.K.C.q.q.G.G.K.S.T.E.W.{.{._._.W.W.J.b.5.5.0.F.L.{.}.;X:X;X{.{.E.K.V.V.K.L.`.{.;X}.{.L.H.G.G.G.;X;X|.|.{.`.G.e.e.e.e.7.e.F.P.P.r.r.q.q.0.V.S.E.|.|.|. X|.}.W.W.4.B.A.S.E.}.|.|.H.G.)._.S.T.R.U.c.x.x.].}.[._.K.}.|.|.|.|.{.[.}.E.K.A.m.4.4.B.B.`.{.{.`.).G.F.F.V.V.b.m.m.m.N.J.7.7.e.G.).G.0.w.w.q.e.e.F.V.V.Z.e.e.0.0.G.).'.'.).).).'.{.{.}.|.;X|.|.K.J.F.N.N.m.b.v.B.A.E.{.}.J.V.V.A.A.V.b.V.q.q.q.r.~._.[.}.:X;X;X[.K.L.K.K.`._.L.K.K.P.H.H.L.L.L.J.P.L.{.L.P.P.e.e.e.7.7.7.V.V.0.q.q.C././.T.S.V.B.B.S.].}.;X;X;X}.E.E.J.V.8.0.C./.].].].T.E.L.P.G.P.G.L.K.`.`.`.L._.`.`.`.r.G.G.G.G.G.V.4.V.b.B.V.V.V.4.4.V.9.q.G.).G.r.q.t.w.w.0.q.9.9.9.F.e.w.y.y.8.F.L.E.&X;X<X;X}._.G.).G.G.G.0.5.3.5.9.D.].].:X:X:X X X'.'.).G.C.C.K.C.C.S.T.T.S.C.C.`.`._.S.A.A.Z.Z.9.4.4.4.0.G.).`.`.`.L.L.G.G.r.r.r.r.r.e.G.K.S.C.T.T.A.b.m.Y.W.;X:X:X:X:X X[.K.F.E.E.E.A.A.A.A.A.H.L.L.L.E.W.J.W.P.F.b.v.h.h.h.h.x.x.D.S.K._.{.|..X.X|.|.|.:X:X:X[.E.K.E.K.K.P.P.).C.V.V.v.,.,.M.j.z.n.n.n.V.V.F.;X;X-X%XR.n.n.A.T.].;X:X:X.X(.q.g.g.g.M.V.F.r.t.G.G.r.r.r.C.V.4.6.6.6.4.4.4.v.V.Y.Y.S.S.S.B.<.g.1.g.Z.].|.{.{.`.K.K.G.G.G._.).C.b.4.5.V.V.b.b.N.4.4.4.v.4.g.v.B.A.E.}.E.E.K.S.V.e.F.P.F.b.f.i.u.,.f.3.v.V.K.{.{.}.}.}._.K.K.K.K.;X}.{.{.{.}.}.[.r.r.r.r.r.r.r.G.L.G.e.0.0.5.V.K.S.K.`.`._.B.g.1.;.d.k.T.R.E.W.W.V.V.F.F.E.W.&X&X-X-X-X;X|.|. X.XW.J.3.>.;.n.R.&X%XR.h.1.1.4.J.J.P.N.b.M.f.M.M.b.e.F.F.F.V.b.v.3.4.4.4.4.w.q.w.r.V.0.5.6.5.e.P.L.G.G.G.)._.).C.C.N.N.F.J.L.{.{.L.F.5.5.5.3.5.V.B.T.S.S.C.G.G.P.L.",
"q.^.(._.[.[.L.L.4.4.v.A.E.E.{.{.F.e.5.5.5.V.E.}.R.].].].:X:X,X:X X].C.4.6.>.y.6.q.q.0.4.3.M.M.M.<.9.V.K.K.Z.Z.k.R.%X}.}.|.{.`.G.m.m.N.N.P.L._._.V.V.C.C.G.G.V.F.V.V.D.C.C.C.G._.G.H.G.e.0.0.0.G.G.L._.L.`.H.H.H.G.L.K.K.E.E.E.W.V.V.K.L.L.K.V.V.V.V.S.S._.[.{.{.E.K.F.F.F.b.0.F.J.J.m.n.n.n.A.A.T.S.V.b.5.b.V.C.G.L.L.E.}.;X<X<XR.T.Z.B.V.G.G.G.b.V.K.}.;X:X:X;X4.4.B.S.}.}.E.{.E.E.{.{.[.[.S.T.F.F.F.e.F.K.L.{.|.;X;X|.E.E.V.b.5.0.G.L.L.{.{.{.;X{.L.J.F.V.G.).C.K.L.L.K.J.J.F.B.B.Z.Z.A.E.L.L.b.4.4.V.V.A.Z.D.[.}.E.U.n.f.f.,.<.q.^.~.~.~.^.q.K.T.T.].-X<X,X,X[.[.[._.L.L.G.)._._.`.`.K.Z.h.h.I.U.U.U.v.v.B.B.D.C.G.C.F.F.J.J.E.E.S.A.V.V.V.A.C.G.G.G.C.S._./.E.K.H.H.G.K.R.&X;XW.R.Y.n.M.v.4.B.C.E.|.|.}.}.].;X;XY.b.4.6.6.w.A.A.K.K.V.4.3.;.V.V.m.m.M.3.6.6.r.H.W.{.&X&XW.W.e.e.t.t.r.G.F.F.9.9.4.4.V.G.L.G.y.w.e.L.W.W.E.J.b.v.v.n.h.g.v.v.4.0.V.K.E.}.}.W.T.S.S.S.E.E.[.}.[.[.`.).G.C.C.9.n.n.m.b.V.F.e.e.N.N.F.L.{.{.`.L.S.C.C.S.S.S.S.S.J.G.G.e.e.F.E.W.&XW.E.T.V.5.6.6.5.V.F.F.N.e.F.F.e.e.e.e.r.r.G.G.e.e.G.G.G.F.N.7.E.E.W.L.G.G.G.G.6.5.4.B.V.C.C.(.;X;X}.|.|.|.{.{.[.K.V.0.5.V.F.K.A.E.|.|.|.{.`.).q.4.v.B.B.4.w.w.C.G.G.H.P.P.P.P.R.T.K.`.`.`.L.L.W.E.Y.m.I.Y.Z.Z.V.V.S.[. X X X|.].T.Z.B.A.A.m.m.,.<.v.S.L.[.{.|.}.{.K.F.5.v.v.h.k.U.].-X-X-X;X;X{.{.`.`.`.G.G.0.N.b.V.C.S.S.[.{.E.A.b.5.e.e.G.P.e.0.0.B.S.].|. X`.L.P.t.P.K.[.|. X|.'.).G.G.G.K.{.[.K.C.C.C.S.S.C.C.K.L.{.L.G.r.4.4.,.,.v.A.E.E.[.|.}.|.|.|.|.{.K.K.K.L.L.L.K.K.K.F.K.L.L.F.e.e.G.G.G.G.G.).`.`.J.N.b.3.4.b.A.E.m.m.m.A.J.E.{.}.>X&X&XY.A.K.J.V.M.g.U.-X<X-X-X-XT.A.B.4.4.9.V.D.Z.Z.S.T.E.R.R.R.E.E.E.}.[.K.C.q.2.2.6.6.0.G.G.).A.m.b.b.5.V.G.L.F.e.q.C.C.D.S./.U.Z.V.w.w.q._.[.,X,X1X1X1X<X].(.E.E.{.|.E.A.v.M.N.W.;X,X,X<X%XR.G.G.G.G.F.J.E.W.G.L.{.W.W.A.v.M.6.0.e.r.G.).`.'.{.W.E.J.F.F.G.G.G.L.K.G.G.G.).).K.F.5.6.3.V.K._.;X|.L.q.6.5.v.m.m.Y.U.U.T.].[.|.L.L.L.L.H.G.L.`./.T./././.K.G.H.H.G.G.e.e.r.r.r.L.G.F.0.4.v.M.h.].|.;X;X<X,X2X2X:X;XT.Z.v.V.V.K.L.S.B.k.1.d.f.!.M.n.n.x.-X<X1X1X-X%Xx.z.z.n.B.V.U.U.U.R.T.k.g.<.B.B.<.<.<.,.1.1.f.f.i.i.j.Z.C.C.Y.Z.B.A.n.M.i.i.f.f.f.j.u.u.u.u.-.s.z.%X-X-X%XR.B.B.B.0.q.q.9.9.B.g.k.k.g.h.g.j.m.M.M.g.h.R.-X;X<X:X:X}./.C.V.9.V.V.V.0.V.V.S.S.Z.A.K.K._.[.[._.].].[..X'._./.C.V.V.G.K.K.C.V.V.v.3.3.6.5.0.e.G.H.G.F.J.N.b.b.V.-X;X;X-XR.Y.V.B.4.b.V.V.V.V.5.5.F.F.P.P.P.F.F.F.E.E.E.E.E.E.T.T.}.[.A.v.f.d.u.u.:.;.1.,.4.4.6.,.,.,.1.1.d.;.1.1.4.B.B.B.B.B.<.<.f.M.n.Z.A.A.A.V.V.V.V.V.V.V.b.3.>.6.6.5.N.F.e.0.r.q.q.q.S.[. X X:X}.K.V.V.C.(.(.b.b.V.G.H.`.`.).",
"A.S.A.Y.Y.Y.Y.Y.A.n.M.M.M.n.n.m.n.v.v.A.T.R.-X<X<X>X%Xx.z.z.z.x.z.h.j.i.i.M.Q.Q.-XR.T.V.4.w.w.w.C.V.B.v.g.B.D.C.q.9.9.<.<.v.v.n.b.b.N.F.J.F.5.4.b.b.N.F.V.4.1.;.i.f.j.z.h.g.g.2.g.g.g.v.v.v.v.V.A.T.T.T.T.A.B.9.C.K.[.|.|.}.T.Y.Y.Y.Z.Z.Z.A.A.E._.[.[.[.|.|.|.[._.S.G.G.e.8.8.8.t.F.G.K.A.n.M.f.A.A.v.g.<.v.A.A.F.F.F.V.E.;X,X,X,X<X}.V.6.>.>.>.b.b.m.A.A.K.S.S.K.J.N.N.P.J.K.K.K.P.L.L.K.K.K.F.F.5.6.6.6.0.K.L.S.[.}.|.}.}.E.K.S.K.[._.L._.`.`.P.J.J.G.G.G.'.'.|.|.{.K.A.V.V.V.5.5.0.0.0.0.0.0.V.5.5.b.A.T.W.;X;X;X;X&XW.Y.Y.Y.Z.Z.R.W.E.A.A.K.K.L.E.Z.k.h.d.-.x.x.R.R.T.B.C./.;X;X|.|.|.{.{.E.V.B.4.<.g.Z.].;X].].[.S.B.<.1.<.3.M.m.m.N.N.b.b.0.F.L.L.P.F.5.4.w.w.w.0.0.5.5.7.A.A.K.{.{.`.`.`.H.G.L.E.}.;X;X;XE.K.K.J.J.m.m.b.C.C._.{.{.`._.`.F.G.G.F.w.4.4.v.D.D.T.R.-X;X;X;X;X}.}.T.T.W.-X-XL.L.L.W.W.L.G.F.L.L.L.P.F.F.N.N.J.N.N.N.N.m.b.5.9.0.V.E.E.E.A.A.9.9.C.[.;X;X<X<X;X}.K.A.V.V.S.[.;X:X:X:X|.[././.C.C.V.C.S.S.S._.|.|.}.}.[.E.K.K.}.[.L.V.0.v.v.n.V.C.V.V.B.B.V.A.F.F.F.F.V.9.9.9.q.9.9.2.6.y.w.w.G.r.G.S./.;X<X<X<X;X|.K.C.C.S.V.T.T.A.n.v.v.A.[.;X:X:X:X X|.'._.r.r.r.G._._.E.T.[.S.V.B.B.A.T./.T.A.V.C.F.V.V.V.b.F.F.G.G.)._._.[.E.G.H.e.e.V.C.w.r.G.`.{.{.E.J.7.N.A.E.}.|.;X X;X|.L.V.V.C._._.L.K.K.L.K.K.K.K.F.G.G.)._.G.V.V.4.v.n.n.I.n.v.4.D.D.D./.|. X X X:X:X:X,X:X].Z.B./.S.K.L.L.L.K.J.n.n.h.h.g.g.g.B.9.C._.{.{.;X;X-XR.R.U.n.U.R.;X:X;X|.|./.C.B.4.<.V.C.G.r.r.G.C.C.K.K.A.A.V.V.9.y.2.2.4.v.V.K.G.q./.C.<.<.<.k.x.].;X;X;X|.{.L.G.G.}.E.T.Y.n.n.M.M.m.m.V.b.v.v.v.M.1.1.1.2.k./.].].].D.v.g.v.v.v.v.d.s.#.#.#.@.p.a.-.-.h.%X;X;X].R.U.Z.U.U.R.T.R.R.W.W.Y.A.A.v.4.3.B.B.B.A.A.B.4.4.<.v.B.S.S.E.[.S.T.Z.g.1.1.s.d.k.E.E.K.V.0.V.V.V.Y.T.R.R.R.}.|.|.}.}.|.;X|.S.v.3.M.n.U.R.x.k.d.1.6.6.e.e.e.5.3.,.1.,.4.v.V.V.0.0.V.V.4.6.,.,.f.f.4.4.V.V.V.q.9.6.0.0.V.V.V.G.L._.G.G.G.C.q.q.q.'.'.{.|.}.W.m.3.6.V.V.V.B.Z.D.T.].A.V.b.4.4.4.4.4.T.A.Z.A.A.A.A.V.Y.Z.n.v.v.V.J.K.J.J.m.m.v.M.,.,.-.-.u.z.#X%X%X%X-X%XR.U.h.j.i.;.,.g.k.x.k.j.i.i.;.;.j.x.%X>X1X>X%Xz.a.i.f.v.b.0.B.B.<.1.1.g.h.n.h.h.j.d.d.d.d.d.d.h.z.z.z.z.z.h.j.s.d.g.g.d.-.-.-.-.u.u.u.u.s.j.d.s.j.z.z.x.z.z.i.;.;.;.;.f.M.n.<.g.g.g.h.n.I.z.f.,.1.d.d.j.j.x.x.x.x.h.d.f.,.f.i.f.j.h.n.n.M.M.f.f.f.1.1.g.U.R.T.Y.Z.M.,.;.>.>.6.,.4.Z.T.T.].[.S.V.B.4.<.g.v.A.S.K.G.0.w.4.,.f.1.1.f.M.b.b.F.P.E.L.G.F.V.q.q.0.G.G.)._.).G.S.C.F.F.0.w.0.L.{.}.S.A.v.1.,.,.f.f.h.h.h.I.I.U.U.U.<.,.,.,.,.,.f.M.R.%X%XR.R.T.T.S.L.K.V.V.V.A.J.K.F.F.0.5.6.5.5.5.5.7.7.7.7.5.6.6.6.4.4.4.4.B.Z.S.S.E.E.E.J.J.A.v.5.b.V.F.G.G.C.V.",
"d d d s s f f f d d d L d d a p p p a d d d L L d d d s s s s d L ..............L d s p p a a f } } } d d f a s d d s s p p a a d ..oX@X@XoX....d f f d d d d d g p p s s d d f a a d d d f s s s a p p p p p s s f d ......} f d d d } ....oXoX} } d d f d d d d d } } } d a a d } ....oXoX........} } d d d d d } f f f d L L ..L f p p a f d } d f a a a a a p p p p p a a a a a a d } } ..........} d d d d f p p s d d ..oXoXoX..........d d d f f f d L L ......} } } f a p p p a a a a a a d d } ....L L d d d f d d d d f s d ....s s L oX@X@XoXoXoXoXoXd a s } ....d d a d } } ......d L d d s s d d d ....oXoXoX..d d ........d d d d } } } ..........} } } ....} d a a d ..oXoX..f f f d ....oXoXoX} L d ..........} } } d d d f a a d d d ......L L s s p a f f f f d } ....} d f a d f d d d d d d } } f f f } ......} d d f f f d a a p a d d s s a f d ..........} d f } } a f d ..oXoXoXoX..d f d } } d a s d } ..oXoX@XoXoX} } d d d d d f f a d d f d d f d d f f d d d d f a f d ............d a a d ..@X@XsXsXsX@XoX} ......oX..d p p f ..@XPXPX@X..d f a a f a p s s d d } d d a p p p a a g a d d ..} d d d d f a a a a f f d } } } d d d f f f f d } ....d s f d d d f s d d ..........} } } d d d d d d d d ......} d f a f f } } ....} f a s f d ..oXoXoXoX@XsXPX@XoX..f f f d d d d d f f f f f p d ..@X@XPXPX@XoX..s d d d s s d d d d d f a p a s a s a a a a a a a f d d } ..d d s s f s p s s s s p p g a s f d ..oX@XoXd p p f a g a f f d d d d d d d f p p p p d ..@X@XPX*X@XoX..d s s s p p a f f s p s d L ..d d L L L L d d d d s p p p p a d d d s s p p p p p p f f d d d a a a d ..oX@XoX..d d d d d d d f f f s s d ....d d d d } ....L d d d } ..} } } a p s s s a f f d f a a a a p p p p p p d ........d d f a a f } d d d f s a f f p g g a a a a a a a a p p p p d ..oX@X@X@X..d a f d d d f s p p p s d ..oX....d p p p p p s s s d } } } } d f s p p f L ........f p p s s s s s p p s f f f d d L d s p p s f d p s d L L L ..........s s s s f d d d s s p p p p p s L oX@X@X@XoXoXL L ..oX@X@X......d d f a f L d d d f s p p s d d d L L L d d s p p p s d ..oXoXoXoXoX@X@XoX..d d d s s s s s s p g p a d ......L d p p p p p p p p s L ..oX@X@X..d a a a p g p s L L L d d d s s p g g g p f d d d p p g g p a } ............} } } } } } d d d f d d d } } d f a p p s f f d d f d d ....oX....d d s p p p p p f d ........L d d s f L ....d d s a p p g a d } } } } f f f d d d d a a a a d d d a a f } } oXoXoXd a p g p f } } } } f a p ",
"j 7 3 3 3 $ $ $ 3 6 6 6 6 6 6 3 > > $ 3 3 # # $ , 7 c B B h 3 3 : 9 n F P F S n 7 6 6 h l l h h m v n n m 9 7 7 7 h l h 6 3 # # + - 9 n F W ! ~ S V S E Y V h l n F S h 9 3 , 6 v v 9 $ $ 3 9 6 9 7 3 3 3 , & $ : 9 b C B h 3 3 c V I ! _ ( E I b 6 $ # : j B I E ~ W F B 9 : $ 3 6 7 6 9 c n n n v h 9 9 7 h c c n 9 @ @ $ $ 3 4 5 6 3 = 3 3 3 , , $ @ @ > , , : > > $ @ + + + @ 9 S / 9XrXeX0X~ F c 7 9 b B B h 6 6 6 c D W W / E F v 7 3 3 6 9 h h 8 h n C n l 9 3 3 6 9 h c l l 9 6 9 9 9 6 6 6 9 h h 9 6 6 6 3 1 $ # # $ $ 3 9 S E R n 6 $ 3 9 B R W R F S v c c v n n n b b b V C B V b h v h 9 9 7 7 6 3 6 3 6 h 9 6 6 6 h b n B D P W ) eXqX( A h 9 9 h h v n m v h 6 3 $ $ 3 6 7 9 v B F E ~ ! ! ~ P F h 7 B W ^ / W D 9 : $ 3 7 : # $ 3 3 3 3 : 3 3 , 6 9 6 , - $ $ 4 3 7 9 9 9 h 9 6 # + : j S ! 4X( P n h h 9 7 9 7 j h h 9 7 6 7 6 3 3 3 3 : : 3 9 v V B V n v h 7 3 3 3 3 6 6 7 7 6 3 : : , > 3 b T ! W R F S n b b b b b b B B b 9 , $ $ > , 3 3 3 3 : $ $ # $ 3 6 9 n F G S c 6 @ X + 3 x n n b 9 3 , , 3 7 l v V B F Y P D S C D S c , : 6 h n n v 9 $ @ + + # : $ $ $ $ $ : : # @ # : 3 : # # @ @ $ 3 7 7 7 7 6 3 $ $ $ # $ 3 : 3 6 6 3 , $ % 3 6 3 3 h S F G D C h $ + @ : 3 j v b b v 9 3 3 6 6 3 3 : : 3 9 b B n h 3 3 3 3 3 3 6 9 c c h 7 2 : : , > # > j S F P G S B n c j j 6 3 6 6 6 9 w w 9 9 3 > , j I ~ 4X) E n 3 + > : 6 9 6 6 3 $ $ $ : : 3 6 9 h 9 h b C D C b v h h l n V h 3 , 1 > > : : j c h h 6 3 3 3 3 6 x m n A B b 7 # O X X @ 6 9 c n n V n c h h 6 3 , 6 9 v S S b 6 6 : : 3 9 h h 9 7 , $ $ : 3 6 7 3 # # l F F D m 6 $ X   + @ $ 6 c G R G c 6 u 9 4 3 + # 3 3 6 6 6 3 : , 3 : $ > $ $ : 3 h b c h 9 3 : > : 3 7 7 j z z l w 6 # # 3 x n n v h h 7 6 3 7 9 9 h 9 6 9 h z j 3 3 , 3 7 , 3 c B D F I D n b h h c v v c h 9 6 , : : > $ # @ # $ 3 : $ : # @ @ : 3 $ + + @ # 3 x v n n b h < > , : # # $ 7 l n C S c h n D F P P D c 6 9 h n B n n 6 = = 6 9 n C b 7 : 3 c b B b 9 , > $ : , 3 6 6 3 3 , 3 : # + : b F F b 5 , 3 9 n Y / eX9X( C 6 6 8 j 6 7 3 $ : 6 t v b c 9 7 b P W E n b S ! _ / R G b h 6 6 6 7 7 3 2 > # @ + + @ : : 3 3 6 3 3 3 , # $ $ $ 6 c S G E R F B n V V v h 6 b F Y F C c 3 $ + # > > : 3 : $ : 3 6 6 6 7 6 6 3 3 6 6 9 v S D B 6 $ @ + O O # : 7 l c h 9 , > : 6 B _ qX0X^ A 6 $ X + $ , 8 B ( yXiXrX/ S , O # l V B B b 9 6 3 , 3 3 3 3 3 3 6 7 9 j 9 6 3 3 3 6 h h 9 7 3 : $ : 3 : $ : $ > $ $ : $ $ : 6 6 3 : $ @ @ @ @ : : $ : 6 9 6 1 $ @ @ @ 3 c n B D P E T S n c 5 4 3 $ $ $ $ $ $ $ $ $ $ $ , 5 b B c 3 3 3 3 3 ",
"F S b c c n G P S S B n n n n b c c b n c 4 $ $ 6 v D G S h > # n D P R Y F n l c c B E W D b v 9 w 9 6 3 3 3 , h h l x v v c 6 4 - $ : : 3 3 7 V B n v 9 6 3 3 9 9 h b b c c c h 9 8 6 x n D G l 9 6 3 6 7 9 l 6 6 3 6 3 $ $ 3 9 v B B n b c h 6 6 6 h h 9 c V I P S c h 9 9 c n b l 6 6 h B D E W E F C n v 9 6 : 6 h j 6 3 3 , & $ = 6 8 9 v l w c c h 3 $ $ 6 l B F F B h 3 3 9 b D ! 3X8X8X^ E F D F R E P n h 6 6 v W 8X8XG C l 3 $ $ : , : : : 6 h b v z 3 : $ : : $ $ : , 3 6 7 6 9 9 6 3 : $ 3 6 6 6 9 9 9 9 6 0 6 6 6 6 6 9 b n b x 9 3 3 3 3 6 9 c n S D D B c 6 3 3 6 6 6 h b n C B b c c h 6 3 3 3 l c B S n c 6 3 : 6 c S F F P W ) 7X3X/ T A h 6 9 9 9 9 9 h h 9 6 3 # @ 6 S ( 0XyXrX5XD h l h 3 9 7 9 h h c c 9 , $ $ 3 6 3 , , # $ : 6 9 h c b b B b 9 6 6 6 3 6 3 3 6 6 6 6 3 6 3 6 l B P W E D n 9 , # @ $ > 3 6 h c b b v h h 6 $ : 3 6 v D ) 8X7X/ Y B h 6 h h 6 3 3 3 3 6 6 9 v B n 9 3 j b S S b h 6 3 : # # # $ 3 c n v h 3 : : $ $ : , 3 7 7 6 6 3 1 3 h v S F D n c 6 x x x 9 3 3 6 : : 3 6 c b b b v b v c v c c h l c n m c h 6 : : @ $ : $ 6 9 9 w 3 3 3 3 $ $ $ $ 7 v S F F C c 9 9 h c b n b c h 6 6 $ # # # # % $ : : 3 : $ $ : $ # @ $ 6 n F E E Y B 7 3 6 9 9 3 3 : : 3 9 h b D F S b h 6 3 : 9 7 6 7 l b B B B c 6 : $ 6 c n F D C b c c c h 9 6 6 6 6 3 $ : 7 h h h h 6 6 6 , 3 9 b v 7 3 h n S P P R E R H c 6 6 c c 9 6 6 4 3 6 9 7 7 h n D E ) 8X3XR S S R / _ / R S b c c c h 9 h h h h 3 3 1 3 6 6 6 9 9 c v b c h 7 , $ 3 b F E W E E ! ! E P S b h h 6 h h 9 6 3 $ # $ 3 h n C n l 9 6 3 6 3 3 6 3 : 6 h S E W E G b 9 3 $ $ $ $ , 6 n n h 6 6 5 9 9 $ $ 3 6 9 6 6 6 3 : > $ : c D P P E P B b b v b n n n v 9 9 9 9 9 l 9 9 6 : : , 8 9 9 5 6 6 9 l b B S D S n c 9 3 3 : $ : 3 6 6 c v B B n c h 6 h h 9 6 6 3 3 6 3 6 6 7 9 9 9 9 3 6 6 9 c h 9 9 3 6 6 6 6 9 9 6 $ : 9 n S S n h > # > 6 h c v v 7 3 3 7 7 3 3 h S P R G S c 3 > 3 3 : $ 1 3 3 6 6 3 > > > > > > 9 9 j j 9 3 $ @ @ @ $ 3 9 9 7 7 : , , : 3 9 l 9 6 3 , 3 7 b S S D S v 6 : : 3 6 b C D D B 9 # + + # 3 6 3 3 3 : 9 9 c b c 8 6 3 3 6 6 1 3 9 6 $ + @ $ 6 v B S n c 6 3 3 6 6 3 3 9 9 9 h h h h h 9 9 9 3 : 3 3 6 3 3 c B S P P C 3 $ $ 3 9 3 > $ + # , 6 l l 9 6 3 3 : 1 6 6 9 9 9 6 $ @ $ 3 9 b n n v l c c v b h 9 3 3 v W 8X9X! F v 3 $ 3 9 9 9 h B P E T F n 3 $ $ : : 3 3 : : 3 9 h h h 9 6 h 9 7 6 6 9 9 7 h h h h 7 : : 7 h h 9 6 : $ $ 3 9 9 6 # + @ $ $ > : , , : $ $ $ : : 3 6 6 9 9 9 9 9 6 6 9 v v h 9 9 c C S b 7 : $ # + + + @ $ $ $ # @ @ : 6 z C S F S b v c h b ",
"F F D D R _ 9XeXrX0XW v 6 6 c c b b b v 9 6 3 3 3 3 3 6 c D W ( / / ! R P G D n 6 c G _ ) G c 6 , $ , 7 6 $ # > , 3 3 3 3 6 6 9 9 6 6 6 6 3 3 6 9 h 9 6 6 9 5 - + $ S ( 8X7X( E n h 6 6 6 3 6 8 h c v v c h 6 6 6 3 : 3 9 v S P W W R n c 9 6 6 3 3 6 c c 9 6 9 3 8 6 , 9 m D Y Y R R G D n v b c m b l c m b l 1 @ @ 3 3 3 6 3 3 3 3 6 3 1 3 6 n S G R H l $ + + # 3 9 h 9 6 6 3 6 9 7 9 h l l S S C n b n B n c h 6 3 : 6 h 6 9 , # @ # $ $ : : : : 1 : $ # # : : 6 6 6 $ $ $ 3 7 l c c l 9 7 6 3 3 3 : : : : : : : $ : 3 3 3 3 6 c D E W W R h 6 $ $ 3 6 9 c n v l 6 6 6 9 v 9 6 6 $ $ 6 v v c l h h 9 9 9 9 9 9 9 9 6 6 6 6 9 8 3 $ $ 9 n B S B n b l h l l c 9 6 6 6 9 c c c c 6 $ 3 b F W W W D 6 # # = 6 6 c 9 6 6 6 3 6 6 6 6 6 9 m S F P E R D b h c b P P D v h 9 6 6 : 3 9 b n v 9 6 3 3 6 6 9 c v n G D n 6 # + @ : 6 h b B D G P F G B b c 9 6 6 9 9 c 9 6 $ # $ 6 h v n v 9 6 3 : $ 3 3 3 3 $ : l E ! E S c 6 @ + + % $ 6 c S G G v v n n b 6 @ + 6 9 c h 9 8 3 : : $ # # # : 6 9 c v n c 9 6 9 3 6 6 6 9 c v b b h 6 : $ 3 9 b n v c 9 6 6 h b n S S n h 9 9 6 3 6 6 7 9 9 9 c n F G D n c c v v l l c b b b l h 6 5 6 6 3 3 3 3 3 6 6 6 : $ $ $ 3 3 6 3 $ @ $ 3 n G G D n h 3 $ $ 3 3 3 6 9 h n n B v 9 b R ( ) R S c 6 6 w v m b c h 6 6 9 h h l h 3 + $ c n B 9 3 $ $ $ : 3 6 6 6 6 6 3 : $ $ 6 9 n F F c 3 3 c n R / ) ) ` P v 9 6 c c h 6 6 6 6 9 b n c 6 6 n B S G D n n D W ! R B c c c 9 6 9 6 3 3 # + # + $ $ $ $ 6 6 6 6 6 3 3 : , , , 9 c S P R G n v c v c h h h v B ! W R n 6 : $ # $ $ $ $ : : : 3 h c h 6 6 6 6 9 6 6 c n B B n c $ @ @ $ , 3 6 9 b B S n 9 # # 6 E 7XrXuXeXE 6 + $ $ $ : c G _ 9XaXuX7Xn : @ # 3 c v v c 9 6 6 6 6 8 9 8 h 8 8 8 9 u u u u 5 6 7 9 7 6 : $ $ 3 $ 6 6 3 3 $ $ $ % $ $ $ 3 6 6 9 6 $ # # # # $ 3 6 9 9 9 9 3 $ @ + : 6 c n D R E E W R n 6 3 $ 3 4 : $ : 3 $ $ $ $ 3 7 c n S D S v 6 $ # : 3 3 6 6 9 h 9 6 6 6 9 h x h 9 6 6 9 6 9 6 9 v b n b b v j 9 6 6 6 3 6 6 6 3 6 6 3 $ $ 3 9 v S G G F n c 6 $ # # $ 6 6 3 $ # # $ $ $ $ : 7 h b n v 3 + + $ - 9 n S G G R D n 9 # + @ $ 3 3 $ # # # $ 3 3 $ : & 3 9 n B n 6 3 $ - 3 - $ $ 6 6 9 9 9 6 : # 3 6 6 6 6 $ % + @ $ 6 6 6 h h 3 6 : @ + @ $ : 3 6 6 6 1 $ $ @ + + + : 9 n G E G n 6 : : 3 6 h c n v 9 6 6 h n S F D n 6 $ : 1 $ : 3 3 3 6 9 h 9 9 7 7 h l c v c h 9 9 9 6 6 3 $ $ $ : 3 3 3 6 6 , 3 6 9 b F E E B c 6 3 6 6 h n F Y G n h 6 6 6 S S S v c n D B B v 9 6 3 $ $ 3 h c c c 9 6 : $ : 3 6 9 c b c 9 # @ # 6 6 3 3 6 5 9 c 9 9 6 6 3 3 : # @ @ # 3 l G E D 6 $ 6 6 9 ",
"3 6 9 c n G E W ( / W D n b c 9 h 9 6 6 9 c c h 6 $ $ 6 n / eXrX9X/ S 3 @ 3 6 9 6 6 6 6 6 6 3 3 3 3 3 6 6 6 9 9 h h 9 h v n n v c c 9 9 6 6 6 3 6 3 3 6 6 5 4 4 9 6 c n B F G B h 3 # # @ + # 3 6 h b n n n n c c 6 3 3 6 n E / ) / R n 9 c c c c 6 6 6 6 3 6 6 x c c 9 h h h c n m 9 : @ @ @ + @ $ 6 v n n v c 6 9 3 $ $ : , 3 6 6 9 6 : 3 6 9 c v v c u 9 6 6 h 9 9 6 6 : $ : 9 v n n n n b v h h c c c v n b n c h 7 3 3 6 6 3 3 6 c c 6 6 3 6 6 3 # $ 6 c n G G G D A v v c n n C C n c 6 6 3 : $ + + # $ : 3 : $ # # $ 1 3 @ # , 6 c B S S B c 6 6 6 9 9 9 3 $ $ 3 c n S S n v c c 9 c c 9 c h c n B B n v 6 6 3 6 c S F F n 9 9 v v 9 6 6 3 $ $ , , 3 6 9 6 6 6 6 3 # $ 3 b S n 6 6 6 c B G E / 7X/ S 6 3 c v c x 9 3 : 6 9 h h 9 c B R ! / / E D G W ) ) / W P D n b v c x 9 6 9 6 3 $ $ , 6 4 6 5 9 w c h c h 6 6 3 6 c G E ! W W E E P D D n c h b n v c 6 3 $ $ $ $ 6 b n b h 6 6 6 3 6 8 6 6 6 6 9 n S P P S n 9 $ # # $ 3 3 6 9 c 9 6 3 : 3 9 c n n m n c 3 $ : : $ # 3 n R / ) / W D c 9 c b n n n n c 6 6 6 6 9 c 9 6 6 6 6 9 9 6 6 6 6 9 c n S S n n c 9 6 6 6 3 $ $ $ : 3 6 9 c b n c 9 6 6 9 6 6 3 3 3 6 6 6 6 6 6 6 6 3 3 6 9 n B n b c c c 9 9 6 6 9 6 3 3 6 b n b 6 $ # $ 3 9 b n b c 6 3 : 6 9 6 : 6 n D D n v 9 8 6 3 3 3 : , 3 3 3 3 3 3 3 3 3 $ $ 6 9 9 9 6 3 $ # $ 3 3 6 6 6 6 6 6 6 6 3 6 6 9 9 3 $ $ $ 6 c n n v 6 6 9 7 3 : 6 n G R n c 3 + X + $ - : 6 6 9 c v c h 3 3 $ $ 3 6 3 3 6 6 6 - $ + q % n S G S n c 6 3 - 3 6 6 9 c c c 7 7 6 9 9 6 6 6 6 3 $ : 3 6 9 c S S B c 6 $ % + $ $ $ $ # # $ 6 6 6 6 6 3 $ # 3 0 9 9 6 6 1 # # 3 6 c A S n c 9 9 9 c b b 9 6 9 h n G Y G n 9 9 6 9 9 h c 9 9 b b B v 6 6 3 : 6 3 - $ # $ 6 9 c h c 9 9 9 6 6 8 4 6 9 u c 9 6 9 3 3 9 c v v c 6 : $ 3 6 9 9 9 6 3 $ $ $ : 3 3 $ = $ # $ 3 6 6 6 9 9 h c h 9 h v S B b 6 3 6 9 9 9 6 3 $ $ + + + # + # $ # @ $ $ $ 6 v S G G B h 6 @ @ , 7 l b m c c h h h 6 6 9 h l c 9 6 6 6 6 5 c D E / ! E F B c 3 # $ 6 6 6 : : : $ $ @ $ $ c n P / / W F n 6 $ $ 4 4 6 9 6 , $ $ & & # # $ $ # @ @ @ + $ 3 6 h n S G F B 9 6 $ # $ 6 n D S v 6 $ # @ # 7 m G G G n 9 6 $ # # # # # % + + # # $ 3 6 9 9 9 9 6 3 $ $ 3 4 4 - 3 $ : 6 9 v S D n v c 6 6 6 6 h n n c 6 3 6 9 c 9 c D W ) eXrX9XW D 6 # + # 6 6 9 6 : # : h S R W W G c 6 : $ : 6 8 6 6 6 6 3 7 3 9 n G E E P S 9 3 : 3 3 3 6 6 : : : 6 9 c c c h l h l n F E E ! E S h 6 7 c B E ! W G n 9 6 3 3 6 9 v D / 8X) P n c h 9 6 : 3 6 h b b n S B b 6 , , 6 7 3 3 6 3 7 9 w 6 3 3 6 m B S n x 8 3 : 6 6 6 6 1 $ 3 9 S G n $ # 9 n S ",
"6 6 3 3 6 6 c b 9 9 6 6 6 9 c c c 9 6 6 6 6 9 9 6 6 4 6 u G W W G S n c 6 6 6 6 5 9 9 6 6 6 6 3 # $ 9 S P F F R _ ( E b 9 n P R R F B c 9 9 6 6 h h b B b 6 $ : 3 6 9 6 c S G D n c 6 : # @ 1 6 G R R F F R E P n v c 9 6 6 6 6 6 6 : # $ 3 c n n n n c 6 3 3 3 4 - # $ 6 n R ( 7X( G 9 $ $ : : # $ c F R D n v n n v 6 3 # # $ c c h 6 : 3 3 6 : 3 3 6 h v n n n b c c 9 6 6 9 9 9 9 c v v h 6 : $ : 9 c v c c c 9 6 c n n S S S n c 6 6 $ $ 3 6 9 9 x v n S C n n v 9 9 9 c c 9 9 9 c c h h h h 9 6 3 3 6 9 h 9 7 3 3 3 3 3 6 9 6 3 $ $ h S D G S c 6 $ $ 3 6 6 6 6 6 9 c v c 9 c D ! ) _ W F c 9 6 9 9 c h 9 6 6 6 6 6 9 6 $ # $ 6 9 c c 9 $ # + # 3 3 6 7 6 6 3 $ # + # 6 9 S D b 6 3 6 c D E W / ! R n 6 3 6 6 9 n n v 9 6 9 9 6 3 3 6 9 c 9 v c 9 v G G D n c 9 9 9 9 9 9 9 0 1 $ # = 6 6 $ 3 7 7 7 7 6 3 6 6 6 6 6 6 9 b D G S c 6 6 6 9 h c h h n E / / F n 3 @ @ $ : 6 $ $ $ $ 3 9 c v 0 6 6 6 9 8 6 9 c n n v h 3 @ @ 3 6 6 9 h b n S S n 3 + 6 G 7XrXiXyX( n 3 $ 3 6 3 h S W 7XrXrX8Xn 3 + # 3 6 9 c 9 6 6 9 9 9 9 9 9 6 6 6 6 6 9 9 c 9 9 6 6 6 6 6 7 6 6 3 3 $ : 3 6 6 6 3 : # # # : 3 6 6 6 3 $ + : : 3 6 6 9 h c c 9 : @ # 6 c n n S P W ! E D n 3 $ @ # : : $ $ $ $ $ $ 3 6 9 n G G n c 6 3 # # $ 3 6 9 c 9 6 c 6 7 9 h c c c c h c c h 9 9 h l F P G D n c 6 3 # : 6 9 9 6 : $ $ $ # # 3 b F W / ! R n 9 6 $ $ 3 3 6 6 3 @ @ $ $ 3 6 $ $ 6 6 3 6 6 $ + @ 6 m S G E W W G n 3 + # $ 3 6 6 3 $ $ # @ $ 6 3 6 6 6 6 6 6 6 6 6 4 3 $ $ # $ = 6 0 6 9 6 6 3 6 6 6 9 3 3 $ $ $ # $ : 3 6 9 9 9 6 & % + # 3 6 9 9 6 6 3 $ + + + + 3 v R / _ ( W n : @ 3 6 9 c c c c c 6 9 b F E P b 9 : # $ 6 9 6 3 : 6 6 6 6 9 6 6 c S D S n v 9 6 6 3 3 3 : : : : $ 3 3 6 6 6 3 6 c G E W W R S h 3 : $ 9 S G G G D h 3 3 h b n B B n S D F G B c 9 $ $ : 6 h b n B 6 6 3 : $ $ 3 9 n n c 6 $ $ : 3 6 6 6 3 9 S G H l 7 7 9 9 3 # X   + w G W / W E n n G E W E G S n n n n b 6 : $ 3 3 3 3 3 3 3 : 3 6 9 9 6 3 3 9 n S D n 9 3 # @ # : 6 v G W ! W n 9 6 6 6 6 3 3 6 $ # # + % # # $ $ # % # $ 3 3 3 3 6 h n S G G P S b 9 3 6 9 6 1 3 6 9 c l 5 4 3 $ # # 3 C W ( 3X( E B 6 $ # $ 9 9 6 : # @ $ : 6 6 6 6 3 : : 3 9 h c n D G R G n 9 6 6 3 $ 3 6 n S D S n h 6 6 c c c 9 6 1 6 9 n n S D G E ! R n 9 3 # + + 3 6 6 v n n n v c 9 6 c c c b n B B n n v h 9 6 6 6 9 9 h h 9 9 3 3 6 3 : $ $ $ # + $ $ $ 3 6 c b n c c 9 6 6 h c c 9 6 3 # $ 6 b S P D v : $ 6 c b 6 6 6 9 n R W E n c 9 c v c c c B D P E ! W P B 9 3 $ $ , $ $ , 5 c m n M S D S m c 6 # + + # # $ 3 3 3 3 $ $ , 3 6 v n n c 7 3 ",
"$ 3 9 n n 9 : # : $ $ $ $ 3 6 6 9 6 3 # # 6 c n G D n 6 $ 9 S R 8X8X7X/ G b 6 6 m v c u 9 6 h c c n c 9 c P / / P D D F W _ ) ( P S n n n v c c 9 6 , : $ @ @ $ 6 9 9 9 h 9 9 h 6 6 6 6 6 c S G / / W G S D G D v c c n S D S n 6 , $ > : , 3 9 c c 6 3 $ 3 6 6 9 6 6 6 7 9 v n G F B 9 $ $ $ $ $ 3 6 h c h 6 3 $ $ 6 n D / 3X/ D c 3 $ # @ $ 3 n P 5XyXuX5XF c 3 3 6 n S S n v 6 6 6 9 h c h 9 9 6 6 h 9 9 h h 6 9 c b n n c 9 6 6 6 6 9 6 3 3 3 : : 3 6 6 9 h h 9 6 3 3 3 3 1 3 6 6 6 6 6 6 6 3 : : 3 6 c B D D G G D S v 6 6 9 6 3 $ $ 6 9 9 3 : $ $ 3 6 v n D S v 4 $ 3 6 6 3 3 9 c c c h 9 9 6 6 6 6 6 6 6 6 6 6 6 6 6 9 9 3 $ 3 c c 9 9 c 7 3 3 3 3 3 6 6 6 6 6 6 6 9 9 9 6 6 6 3 6 3 3 6 9 h 9 6 3 6 6 6 3 6 v S D D S c + + + @ 3 6 9 9 n n S n 9 6 3 $ $ - $ $ $ 4 4 - : $ @ + # 9 S G R F n 6 3 3 6 6 3 6 9 n n 9 3 $ # : 6 6 6 9 6 3 : 3 3 6 h b n n h h 3 @ @ : 3 3 $ $ : 3 3 6 3 $ 3 $ + @ $ 6 h c h h 3 $ $ $ 3 9 B S B b h 6 6 9 c n b 9 6 6 6 c b n v 6 6 9 h 9 c h 6 3 6 c c 9 9 3 6 9 9 6 3 $ $ : 6 9 9 6 6 6 6 9 9 9 h v n n b v c h 6 3 3 6 c n n n c 6 3 6 6 h c c 9 6 6 6 6 6 7 6 3 $ $ 3 : 3 9 c c h 9 6 9 h c c n G G B 6 $ $ 6 9 6 3 6 3 3 $ $ $ : 3 3 3 $ # $ $ # : 9 S P R G n 9 $ $ 9 v n n n n c l v c 9 3 3 7 h h 9 6 3 $ 3 9 B F R P D b c c h 9 3 $ : 9 h 6 3 6 6 6 6 3 6 c S F E E P B c 6 3 $ , 3 7 6 6 3 > # $ : $ $ $ $ $ $ > $ 3 6 6 6 9 c B b 9 6 3 $ $ 6 c n S S n 6 # + $ : v P E W W G n 9 $ # # # # # $ # + + # $ : 3 3 3 3 3 3 6 3 3 6 9 h c h 6 : 3 c b v c m S S n 6 6 6 c n n v c 6 6 h n S D R ! _ 8XqX9X) S 3 @ # : 3 3 3 : $ + @ 6 b D Y P S B 6 $ $ 6 6 6 6 6 c h 6 6 6 v S G R Y D v 9 6 3 : 6 3 : $ > 3 9 l l c n n m 9 7 h b D R E E F b 6 $ 3 b R W R D n n h 3 : # $ 7 b E ! ( / W D c 9 h h 9 7 9 v S F W R D v 6 6 6 6 $ 3 6 6 6 9 c v v v v c c v c 6 6 $ $ $ 3 3 3 & $ $ 6 n S A n b v c c v c h 9 6 6 6 6 6 3 6 6 3 + @ 3 c n S B n 6 : $ 3 9 b n B n n n c h h 9 6 6 9 c n G ! / ! D c $ X   + $ 6 6 9 6 6 3 3 - $ $ 1 3 3 9 n D B 6 6 6 9 c b n b l h b B B V b v 9 0 6 6 3 3 & & , 6 l n P ( ) / n h 3 3 6 9 h c B B b h 6 6 6 3 6 6 6 9 6 6 6 6 c b n b c v v c 9 9 6 6 9 9 9 6 6 6 6 6 6 3 : $ $ $ $ 3 6 6 6 6 h h h 9 6 6 8 3 6 3 6 h 9 6 6 h W ( 7X3X/ G c 6 # # $ 6 n ! 8XeX8X/ D 6 + $ 6 9 9 9 3 # $ 9 B Y / ! D 6 + + # # $ $ $ $ $ : 3 6 6 6 6 6 7 6 6 6 $ : 6 v n v 9 9 6 6 $ + $ 9 c c c 9 6 9 6 6 9 6 3 : : 3 6 6 6 h h h l b b h h c 6 6 3 : : 3 6 6 6 6 6 9 n F E E S v 6 $ $ : 3 3 : : $ $ : : # # # > 6 b B C S S ",
"3 6 9 c c 6 3 $ @ # $ : 3 6 6 5 6 6 $ $ % - 6 c 9 9 6 3 3 6 b D R E R S c 6 6 6 6 9 n G D b 6 : $ : 3 3 3 3 3 3 6 6 c B B v 9 9 9 9 9 h c h 9 9 6 3 $ $ 6 c b c 6 3 3 3 6 3 : 6 6 6 9 9 9 c v n n v 9 3 : 3 6 9 9 9 n D P E R S 9 3 # $ 3 3 3 3 + # 3 9 v c 9 6 6 6 6 6 6 9 c h h 9 3 $ # 3 9 c 9 c c h c n n n l 6 6 9 S 8XuXrX/ G v 6 6 3 6 h h n E 3X8X` D n 3 # # 3 6 6 6 6 9 9 c c c 9 9 9 9 9 9 9 6 6 9 9 c c 9 3 3 6 9 h 9 6 6 3 3 3 3 3 6 6 3 : # # $ : 1 : : , , $ : : : 6 6 9 c c c c 9 6 6 6 9 h v n G G R P D c 3 $ # # # # $ 3 6 3 $ $ : 6 c B D G S n 9 $ + $ 3 3 h c b v h h h 9 6 9 v B n n c 9 x h h c n D R E W R D c 6 : $ $ 9 9 6 6 3 $ # + . @ 9 S E / / W G S c 6 3 3 6 6 6 6 3 $ $ $ $ 3 3 : 3 3 $ 3 3 # # $ 3 h S R W W E D c 3 $ $ 6 6 c v 9 3 $ $ $ : 3 h b b v v h 6 6 3 3 3 - 3 - # # + $ 6 0 6 5 6 6 6 6 6 6 6 3 $ : $ $ $ : 6 h c b b c 6 3 : $ : 9 9 h h 9 6 3 3 $ : 6 9 B W 7X0XqX3XP 9 : $ 3 9 9 l h h h 9 h b P W W G n 6 # # 3 6 6 3 3 6 6 6 6 9 9 c n F E E B c 9 3 $ 3 6 6 3 3 3 3 3 6 6 6 9 9 6 6 h S E ! ! W G m 6 : : 6 D R E G S c 3 $ 9 c v b B G E W E P D n h 6 : $ 6 9 v n n v 6 3 6 6 : : 6 v b c 6 : $ 3 6 3 3 6 c n F P D b 9 6 6 6 3 : $ # 3 c P W / E G B n D W / E B m n n n c 9 6 3 $ $ : 3 6 9 9 9 6 3 3 3 6 h h h b D P G n 6 $ > $ @ 1 9 P W ( / E B 6 @ @ $ $ $ : : : 3 $ # + @ @ $ : : 3 3 6 6 9 6 6 h B S F R R F S b 6 3 6 h c 6 3 6 h c 9 3 : $ $ 3 h n P ! / W F B 6 3 : 6 h v c c + @ $ 6 9 9 9 9 6 6 3 3 6 v n S B S F G D c 3 : 3 6 3 3 6 n D D t 6 0 6 c c 9 6 3 : 3 9 h v n S D D D S n 6 $ # @ $ 3 6 n P W ! E F b j 6 3 6 c S G W ! E G n c 6 6 6 6 6 9 9 6 3 3 6 9 6 6 6 6 $ # @ @ @ @ $ : 3 6 l c c 9 7 9 h c c h 9 6 : $ $ 3 h n n 6 # + : 9 b n c 6 3 3 B D D S n 9 3 3 n B n v b D E W W E D c 6 : $ @ $ $ - 6 6 9 v n G G F G S 9 : # + + $ $ $ 3 6 6 $ # $ : 3 : : : , 3 : : : : : 3 3 6 9 c c c h 6 6 6 c S D B v 6 7 6 6 6 6 3 3 3 $ $ 3 6 6 9 c b D D S b c b n n 9 3 3 3 3 6 6 9 b S D B n 9 : $ $ 3 6 6 c n n 9 $ + + # $ $ : $ 3 3 h B S S B V h 6 3 : 3 6 9 9 c n R ( 7X3X/ R S c 3 : 6 9 b n v n n n b c 9 3 : 3 6 6 6 3 : : 6 h n B n v h 6 9 9 6 3 3 6 6 6 # $ $ 3 3 3 : $ $ $ $ 3 6 9 h h 9 c b B n v h 7 h c n D S c 6 9 3 6 6 6 6 3 3 6 3 6 n D R W E G A c $ + X $ h c l c 9 3 3 6 h b n n c 3 $ $ 3 3 3 6 6 6 3 : # @ $ : : : $ # # # 9 c n B n c c n F P F S D G G D c 9 9 9 6 : # @ $ : 3 6 6 6 6 6 6 9 b S B c 9 c E E R B 9 3 : $ 3 6 6 3 6 h v c h 6 3 : $ $ # # # $ $ @ $ 3 3 6 3 3 3 3 , 3 3 : ",
"6 6 9 9 9 9 9 6 6 6 6 3 3 6 6 4 $ 3 t B G G S m u 9 6 3 6 3 : 3 3 6 3 : : 3 6 3 3 6 b S S b 6 $ + + $ 7 c n B D D D n 6 $ $ : $ 3 3 3 # # 3 3 3 $ $ # # 6 n D D n c 6 6 6 6 6 6 6 6 9 9 9 6 : $ $ , 6 9 h 6 $ # $ > 6 9 9 h c 9 6 $ # + + # $ 3 3 3 6 9 6 $ @ # @ $ $ : 6 n D S c 6 : 3 6 c b n D B c 6 3 9 v n n n l 6 : 6 9 9 c h 9 9 9 9 9 9 6 6 6 9 u c u u 9 6 6 6 6 3 $ 3 $ $ 3 6 6 6 6 6 h c b n S P P S c 6 : 3 6 9 c n S S n h 6 7 l b S S n 9 9 n S n c 9 3 3 , $ : 8 v b v 9 6 6 6 6 6 h n D S c 6 : $ 3 6 6 6 6 3 6 9 9 6 6 - 3 6 3 # @ + + $ x D R / W G b 9 v B S D D B v m B n c 9 3 3 6 6 9 9 9 : : 6 c n D D S c c 9 c c 9 3 3 : 3 : $ 3 h b B S B n v c b n n v c 9 3 $ $ $ $ 3 3 $ # # $ $ $ $ # $ : : : 6 9 v n n v c h h 9 6 6 3 : 3 9 v n B n l 6 : @ > h G W _ ) ! F c 3 = + % $ % % # + # # 3 6 6 6 6 3 4 4 6 6 0 c n S D S c : $ 6 h h 9 c n G G n 6 6 v n B n v 9 6 6 b n D F G ! 3X5X3X( D 3 @ $ $ 3 3 3 $ # $ : 6 v b B S D S c 3 3 9 c c 9 9 h h h 6 6 h n A S B v 9 3 : 3 3 3 3 $ $ $ : 6 9 c n B A B c 9 9 n D G P P C c 7 , 3 v P E G n h h l 9 3 3 $ : c R / _ W G n h 9 c b b h v S Y W W R I c 6 6 6 6 : : 3 6 c n n n n n b B n c 9 6 $ @ @ # $ 3 3 3 : 1 6 c b v h c c h c 9 9 6 6 7 3 , 3 6 6 6 6 4 $ 3 6 n n S S b 9 3 $ 6 9 v v c c 9 6 9 h b n b c v n G R E R D b 6 : @ @ $ 6 c l h c 9 6 3 3 : $ $ 3 6 c n S n 9 $ : 6 h h 9 6 9 h h c b n n v 6 : : 3 6 6 6 6 6 c S _ 8X8X_ E n 3 $ 6 6 h v n n v c c 9 6 6 3 3 3 6 6 6 6 6 h n B S b c l c b c 9 h h 9 6 0 6 3 3 3 6 3 $ # # # = 6 6 3 6 9 9 c b c h 9 3 3 3 9 c m v v l l B P W W F n h 9 3 @ $ 9 D W _ ) ( R v 6 # + 3 c v h 6 : 1 6 S ( ) Q B 9 $ + + $ 3 6 6 6 6 6 1 : 3 6 6 9 6 6 6 3 3 6 6 c b n b b c 9 7 h c v v c c c 9 9 3 3 : $ 3 3 3 6 6 9 6 6 6 c n v c c c 9 h c c h 6 3 6 9 6 6 6 6 n D G G n h 3 # 3 3 3 : > : 3 # , > > $ : 3 6 6 6 6 : @ @ @ # : 6 9 S E R D v 6 6 3 6 c c 9 9 6 3 3 3 3 6 c c l 6 6 6 v b h 6 3 6 6 3 $ $ $ 3 3 6 6 6 6 3 3 6 6 c v c c l 3 $ 9 D R Q R D B c 3 +   # h v h 9 7 3 3 6 9 b S G G G S c 3 # $ 6 6 9 6 9 9 9 0 0 4 6 6 3 3 3 3 6 6 c v n D S n v c 6 6 9 h 9 6 : $ 3 3 4 6 6 - # $ : 3 3 3 6 6 6 6 9 9 9 9 6 3 : 3 6 6 9 9 h b n B A B b m b m b B B B c 6 3 , 3 h B D G D n c 3 $ 3 6 c S G W / E n 6 3 3 3 6 v n D D n c h 6 : $ > 3 6 9 h 9 3 3 # @ + @ # $ $ $ $ @ + # : 6 b D G R W E P S v c n D G S B n c 9 : $ @ > 3 6 3 6 : : $ : 6 v n v 3 : > 3 6 3 : 3 3 3 1 : $ $ : 3 $ $ $ $ 3 6 6 8 6 3 3 3 : # $ 3 h v h 3 # # $ : $ $ 6 c c 9 6 7 ",
"P G v : # $ : 6 6 6 6 $ + + @ + # 6 S ! ) ) / P n h 6 3 3 6 9 9 6 3 3 $ # # $ $ 3 $ # $ # @ # $ $ 6 v D R W E G b 6 $ $ 3 h n B n c 6 $ @ # 3 9 S G D n b c 6 3 : $ # $ $ # # $ $ $ 3 9 c h 9 9 6 3 3 6 6 3 3 6 3 3 3 3 6 c n S B n c 6 3 3 9 b n B n 9 6 9 h 9 h b D E 3XrXyXeXW B 6 3 $ : 6 9 9 6 - $ 3 9 S R W W F h 3 3 6 6 9 9 h h 9 6 9 9 9 v S R W R D n 6 : : 6 9 3 $ : 3 6 6 9 x v n c 9 9 c S G E W W P B 9 3 3 9 B G E E F n 9 3 : 6 9 b D P W ) ) ! D c 6 6 6 : : 9 c n n n n c 9 6 6 6 6 6 6 6 6 3 3 3 6 9 6 9 c n R E D h 6 6 6 6 6 6 : $ 3 v D R R P D S D P R G S n b c 9 h h 6 6 6 3 3 3 6 9 c c c 9 3 $ 3 9 9 b n D G G n c 9 9 6 $ @ 3 n E ( 7X) R v : +   X + 3 6 6 6 3 # # $ # $ $ $ : 6 h b b c 6 6 v D G P R P D n h 9 9 v v h 6 6 6 9 h 6 3 3 6 3 6 n G W / W S c 9 6 3 6 9 b B n 9 : $ 6 9 h 9 9 9 6 6 3 6 c B S S B S G D n 6 3 6 6 3 3 6 h b n v 9 6 6 3 6 5 6 3 : , , 7 h c c v c l c c 9 3 $ $ 3 6 c n W 7X8X/ P S c 6 $ # 3 n E / 3X) W S 9 6 3 3 9 c h 6 6 3 3 9 n D S c 9 3 @ + $ $ $ $ : 3 6 6 9 9 9 9 h c c h h 9 6 3 3 6 9 h h 9 : + + 3 9 c n b x 6 6 c n n v 9 6 3 3 9 b n b b n D G F D S c 6 : # # $ : 3 3 6 9 c n G E E R D v 3 # # $ $ : : 3 3 3 3 $ $ $ : : : : : : : # $ : 3 6 6 6 9 c v c 9 9 9 c n S D n 9 6 6 6 6 6 6 6 6 6 6 3 6 6 9 9 h v B S n c 9 9 c h 6 3 3 3 6 6 6 v D P G n 9 6 3 3 6 c c D D n h 3 @ + + 3 6 6 3 3 6 h b S D D S n c 9 6 3 6 6 6 c n D R W E E G B c 6 3 3 6 9 v n B B S D B c 6 3 3 6 9 9 6 , > : 6 c b n n b h 6 6 3 3 3 3 3 6 6 3 3 3 6 6 3 $ $ 3 6 9 9 h c n n n n B B n b h h b n n n c 9 6 3 6 9 6 9 9 3 3 6 9 b G W ! W P S 9 : $ # 3 h b n n c 9 6 : 3 9 9 9 9 6 6 6 3 3 3 3 3 3 $ $ $ : $ $ $ # @ $ : 6 c D G G B b c n B S G P E R G n v 9 6 6 3 $ $ 3 6 3 $ 5 c c 6 $ 3 9 n n v v n S D G S n 3 # # 6 6 6 6 9 h v n b c 6 $ $ : $ $ $ # $ $ $ 3 3 6 6 6 9 9 6 3 3 3 3 3 $ $ 3 6 c S R G b 6 3 6 6 6 6 3 3 $ + $ $ 3 6 h c h 9 6 6 c B B n b c 9 3 3 6 3 3 3 : 3 : : $ : h n n n n b h 6 3 3 3 6 6 6 6 6 3 : # $ # $ # @ @ $ : 6 6 c v x 6 6 6 4 4 = # # $ $ $ 3 : $ $ : $ $ 3 3 3 6 6 3 6 c c 6 9 6 9 c v n B B n c 6 6 6 9 9 6 3 3 3 3 3 6 h S D S b c 9 6 6 6 6 6 9 9 6 3 : 3 3 3 3 6 6 h v S D D S S S n n n b c 6 6 n F G D n v c 6 6 9 6 c h v n n v c 9 : $ 1 6 6 6 h v b v c h 6 3 $ $ : : 3 6 6 6 6 6 6 6 6 3 $ $ $ $ $ $ $ # 3 c n b h 6 $ + $ v D F G D A n b v c 9 3 $ 3 c n n n b 6 3 $ 3 6 9 h c 9 6 9 h 9 3 # # 3 6 n D G B b b v c c 9 6 8 6 3 : $ $ 3 6 h c c 9 6 3 $ + + @ # # 6 B E W E H S ",
"$ 6 b B B c : # : : : 3 9 D W W G S v 9 6 9 h 9 6 6 3 $ # $ $ $ # $ $ $ $ 3 3 # $ $ 3 6 9 c n n G G S n h 9 9 6 : : 3 6 6 9 c c h 6 3 # $ 9 D R _ ) / R B 9 : $ : 3 3 3 3 : $ $ 6 6 9 6 6 3 : $ 6 6 9 9 b D F G n c 9 3 $ $ 6 9 n B S S n c 6 6 S S n h 6 6 9 c B S P R E ( ( ! S h : $ $ 3 6 6 $ 3 6 9 9 c v v n n n c c c v c v c c 9 9 9 h 9 c c c v c 9 6 $ 3 $ : 3 3 : $ $ $ $ : 6 c n S n 9 9 c n B S S B c h 3 + $ n R R S c 9 9 9 c c 6 $ : h D R W E D 9 : 6 v n v 9 c F W / / W G b 6 6 $ $ $ : $ 6 c B B S B n S S n h 6 3 $ # @ # : : 3 3 : 3 6 6 9 9 9 9 9 9 9 h 9 9 3 : 3 6 6 9 9 6 6 3 3 6 c n n B n c 6 6 6 6 6 6 9 9 6 6 9 9 c b n B S S S S S G G S 9 3 $ $ : 3 6 h n n b v h 6 : : 3 3 6 9 h n b 9 : # $ 3 3 3 : 3 6 9 c n n v c 6 3 1 3 3 3 6 6 h n F / 7X8X) / F c 6 6 6 c c n n n b b c h 6 3 3 3 6 6 8 6 3 6 9 n S n b c c c c h 9 9 9 9 9 6 6 3 3 3 3 : $ $ $ $ $ 3 3 7 c v b b n n b h 6 3 9 n D n v c 9 9 v S S n c 9 9 6 3 6 h S E W / E D h : # $ : c b c 6 : $ 6 b W / E n 6 : # $ : 3 6 6 6 6 3 3 3 6 6 6 6 6 6 6 $ $ 6 h c c c v b n v c c n S D n v c h 6 3 : @ @ $ : 3 6 h c 9 6 6 c S S b 9 9 n n n B n 9 6 6 h 9 9 6 9 n D G n n 9 6 : $ : : $ $ # + @ $ 6 6 6 3 3 6 h h 9 9 : $ @ + # 9 S G / W D c 3 $ : 6 h h 9 6 6 3 : 3 3 h c h 9 9 6 6 b n v 9 6 6 6 3 3 $ $ $ 3 6 9 9 6 6 3 3 6 9 h 9 3 3 6 h n G W E B b 9 3 $ + @ 3 v v 9 : $ 3 9 c c c B G F n 9 6 : : 3 6 6 6 6 6 3 3 6 9 8 6 6 3 : 3 6 6 9 9 v B n n n 9 9 h c c h 9 6 3 3 6 3 : : $ # $ 3 6 9 9 9 8 6 9 c c c c 6 6 6 6 6 6 9 9 c b B D D B n b b n B S B n c 9 6 6 9 c S R E R c 9 6 6 6 9 c n P W E F B c 3 $ 6 9 v n S S B n c 6 3 : $ 3 6 9 h 9 6 : $ $ $ $ $ + @ $ $ @ # $ 9 c n S D G P F c 9 9 h b n n n n v 9 3 $ @ # 1 6 9 9 6 3 $ $ 3 u v v 9 3 3 3 $ # # # # # = 3 3 6 3 3 3 $ @ $ 3 6 6 6 6 6 6 6 6 $ 3 9 b n v 9 6 $ $ : 3 6 6 9 9 6 6 3 : $ : 3 6 6 6 6 3 6 b D F S n n n h 6 3 6 c n B n b b c 9 9 9 n F P G D n c 9 9 9 9 9 6 3 # # $ 6 B _ rXuXeX8X/ P B c 3 $ $ @ # 3 9 c v v 6 6 6 9 h c h 6 9 c v n b c 6 $ 4 = $ $ # + # 6 6 9 6 : # @ # : 3 3 : $ 6 n G R P D n c 6 6 6 6 6 6 9 9 h v n b v n S G G S n b b c 6 @ + # 3 6 9 9 c v c 9 3 3 3 3 3 $ 3 9 c v c v n n B n c 9 6 : : 6 h S D S 6 6 9 v v 9 6 6 c c c 9 6 3 3 $ 3 3 3 3 6 6 6 6 3 3 3 3 $ + + + : 6 9 9 9 6 6 6 6 3 : : 3 6 6 9 c c 9 6 3 $ @ + + + # 3 c G ! / P D n n S G R E S b 9 6 6 6 6 3 3 : $ $ 3 6 9 c n D W _ / P n v n n S S S B n n S n n c c n n c 3 : : : 3 3 6 6 h n G E R B 9 : 6 3 6 6 c v n S ",
"P G F G S v 9 h 9 9 6 6 b R _ ) / R n 3 + X + @ 3 6 9 9 6 6 3 $ $ $ % + $ c S B n c 9 6 9 n G F n n b c h c c v n v c 9 6 9 9 9 6 3 6 h n R / / P D b 9 6 6 9 c n B n v 9 6 6 3 3 6 6 9 6 6 6 6 b b v n n n v v v v c 9 6 6 6 6 6 9 h c 9 6 3 3 $ : 6 9 9 6 6 6 h c c h 9 h h 9 6 6 6 6 6 6 9 n / ) 8X7X/ G v 3 # $ 6 n P _ 9XeX_ E n : @ 3 h c h 6 : # 3 v G E W G n 3 + + # $ 3 3 3 3 6 6 9 9 c 9 c v c 9 6 6 6 6 6 9 c 9 6 $ 3 % # $ 3 c S n b 9 6 9 h c c 9 $ $ 6 v b h 6 h c n B n b c c c 3 6 6 3 3 6 6 9 9 c B F R E P S 6 : $ 3 3 3 3 3 6 9 6 3 3 $ $ $ 3 3 3 3 : $ $ $ $ 3 6 6 6 c n b b 9 6 9 h n S B v c 9 6 6 6 6 6 6 9 6 6 6 h c 9 3 6 9 c c 9 6 3 6 c 9 6 6 6 6 6 9 c n G D B b 6 3 3 9 n G G P G n c $   + 3 h c 6 3 3 6 c n B S G D n c 6 3 3 6 6 9 v n S G G S B n c 9 6 6 6 9 b n n n S G D n 9 6 6 9 c h 6 6 6 3 3 6 9 h c c 6 6 3 6 3 : : 3 6 6 6 6 6 6 6 3 $ $ 3 6 9 9 c b n S S C B S D D S n v c c 9 6 9 6 h b n n v 9 6 3 6 c n G E W W R D c 6 $ : 6 c n S S n b 6 3 3 $ 6 9 9 9 9 6 6 6 3 $ $ : $ $ 3 : : $ $ # $ 3 3 c B R ! W G n v b n S D D G G D v 9 6 6 6 6 6 6 3 3 3 : 6 c v h 3 : 6 c b c h c n n n h 6 3 $ $ : : 3 6 6 c v v c 9 6 6 3 $ $ 3 3 6 6 3 3 4 6 4 6 9 c c 9 6 6 3 3 $ 3 6 6 9 c 9 9 h 9 9 9 9 c v 9 6 3 : : 3 6 9 c v c c 9 6 9 v n S n c 6 6 6 6 6 6 6 6 3 : $ $ 3 h D E W E F S c 6 3 $ # $ : $ $ $ : 6 6 $ # $ + # $ : 6 h c v 9 9 5 6 6 3 $ # # + # 6 6 6 3 $ $ # $ : : : 3 3 9 c n S B v 9 6 n n n B B n h 6 6 6 6 9 h c c h 6 9 c n S D S n 9 6 6 3 6 6 6 6 6 3 3 3 3 : 3 6 9 9 h c n B D G D S n n c 9 6 9 b B D F D b 9 9 v h 9 h h c b n n b 9 : $ $ : 6 3 6 9 c c h 6 1 : $ $ : : 3 6 6 6 6 6 6 9 c 9 6 @ + $ 6 6 3 3 3 3 6 6 6 3 $ @ @ c B R ! W D v 9 v b n n c 6 3 6 n S n 9 6 3 3 3 6 6 6 9 c n n n v u 3 + $ n G R D D D G D n b b n b 9 6 : $ $ : c c 9 6 6 6 6 3 : $ # $ $ : 3 6 6 6 6 6 6 9 9 6 @ $ 6 v D E Q F n 9 6 6 3 : 6 h D R W W F c 3 $ h n W 7X9X8X_ W G D S D G F F D S c : + $ D ( 7X8X_ R n 9 $ + + + 3 n E ! W E E E Q W / ! W E F v 6 1 6 6 $ # $ 6 3 # + # 9 G ! 9X9XW v 3 $ $ 3 6 9 9 9 b S G G G S v 6 $ $ : : 6 c S G R R F S v c 9 9 9 9 9 9 3 6 3 3 6 9 h c b v v b b v b n c v c 6 6 9 9 6 3 $ + @ $ $ $ 3 # $ 3 6 6 6 6 3 5 $ # # + + # + + @ @ # $ 6 6 9 3 6 6 6 9 c c 6 $ $ 6 h c 9 6 3 3 3 : 3 3 6 3 3 $ $ $ 3 h n G G S n c 9 6 : 3 6 3 3 : $ # @ # $ 6 c n B S B b c 9 6 3 3 3 6 c h 6 6 9 c v c c h c h 9 c n G ! 7XeX9X/ B c n D S n c h 9 h c c 9 6 3 3 3 3 3 6 9 c n D P F n 6 3 $ $ 6 9 9 6 # + ",
"6 3 3 6 6 6 6 c B S D S n B B n S n h 6 $ $ 3 3 6 c n S S v 6 6 6 6 6 3 6 c n v 9 3 $ @ # : 3 $ $ $ 3 c n B S S c 9 3 # $ 6 9 9 9 c D / 7X0X8X( W G v 9 6 9 c n n B B n b c 9 6 3 $ 3 9 c 6 3 3 3 6 c S D n v v n v h 6 6 6 6 6 6 6 6 3 3 3 3 3 3 3 3 3 6 6 h v n B B B B b c h 9 c n D D c 6 9 6 c v v c 9 6 6 3 6 v G R W W P B c 3 @ # 6 c c c h 6 3 6 c S G S n c 3 $ $ 3 3 6 6 6 6 3 3 6 6 4 - 3 3 $ $ 3 6 6 9 c c c v v n c n S D G G S n b h 9 6 : : : # $ : 9 c h 6 6 9 n n n n n n n S E P n 3 $ 6 h h 6 6 9 v n B n b 6 : $ # # : 3 $ @ $ $ 3 3 3 6 6 6 6 9 c c 6 : # # $ $ 3 n E / W v 6 $ : $ 3 6 6 6 3 3 3 3 6 6 9 c h 9 6 9 n D S n c 9 9 6 6 3 3 $ 3 3 6 9 6 6 6 6 9 9 9 9 6 6 3 6 6 b D F D n c 6 3 $ + $ 6 6 6 $ $ 3 9 h c c c b b c h 6 3 # # 3 6 6 6 3 : $ : 6 6 6 6 6 3 3 6 6 6 9 c v n B n v c c v c 9 6 6 9 6 6 6 : $ $ $ 6 6 h n n v h h 9 9 h h h 9 9 6 6 3 $ $ 3 6 h v S G F D B n b b S S n c 9 9 c v B D G G D b 9 6 9 9 9 h v S G G S n h 6 6 6 h v n n n n n c 6 3 $ $ 3 9 h h 9 6 3 3 : : 3 $ # $ # # # # : 9 b B n n n n v 9 6 6 v n S S B n 9 6 3 $ # $ 3 9 v b c 6 3 $ $ 9 b b 6 6 3 6 6 3 : $ $ : 6 h c 9 6 6 6 3 3 3 - 6 6 6 9 6 6 6 6 6 6 c n v 9 6 $ % # $ : 3 6 6 9 c 9 6 3 $ $ 6 6 : 3 6 h n G R R D n c v h 9 6 9 B P P D n c h h 9 b D / ) ! G S n c b v c c 9 3 $ $ 3 v G ) yXuXrX) W F n 6 $ @ + $ 6 B D S n n b v v S S n c 9 9 6 6 9 9 5 3 3 6 6 3 $ + $ 6 c v v 9 6 $ $ : 3 3 3 3 6 h S R E R D n 6 3 : 3 6 6 9 c b B C S S S D D G D S n c 6 3 $ @ # $ 3 9 c b n c h 9 9 6 6 3 3 $ 3 6 h c h 9 9 c h 9 6 : $ $ 6 c v b b n c 6 6 6 6 6 6 6 6 6 9 3 6 6 6 6 3 : 3 6 9 6 6 3 6 6 6 : $ # @ $ 3 6 9 9 9 6 3 3 : $ $ 6 9 v n v c 9 3 3 : # @ + + $ 6 n S G G D D G G G P R R D h : : 3 6 6 3 3 6 6 6 6 6 6 6 b G W ! W E R G F G G S n n n S D n c c n n b h 6 3 3 6 : 6 6 6 v R / ( R S c 6 3 6 6 9 3 6 B E / / E S 6 # $ c G ! _ / G v 3 @ + $ 3 6 3 $ $ : $ + + @ # 6 B E W W P S n n S G E W W E R D c $ + $ 3 3 6 3 3 3 6 6 6 6 $ $ 6 c n n b v n S G W ) 8X7X/ S 9 3 6 6 $ $ 6 # $ $ $ 6 S W ) ) / D 6 $ : 3 9 9 B P E E D c 9 6 9 h 6 3 3 3 6 h n S G G D S n c 9 6 6 6 6 6 6 6 9 c c n B B S c c c b b b n S R R F n c 9 3 $ $ 3 b G R D n c 6 3 $ $ : 3 3 6 : 6 v n D G D b 3 $ # : 3 3 : 3 v v v c 9 6 6 6 6 6 3 3 3 : $ $ $ : 3 3 3 3 6 6 c c 9 3 : 6 v b B B n v c c h 6 3 3 3 3 3 3 3 3 3 3 6 6 6 6 6 6 6 6 6 6 6 6 6 6 6 9 b S F R P F v c c n S G G R P E W W E P D n 3 $ $ 3 6 6 6 6 6 3 3 3 3 $ $ $ 6 9 b S S n v h 9 6 6 6 6 6 4 6 ",
"6 6 9 c c c c 9 6 6 6 9 6 6 3 : 6 6 6 6 9 9 9 c c b n S n 9 3 3 c n P W W Q G n 6 : # $ 3 9 c c : $ 3 c n B S S P G n 6 3 3 6 6 6 6 c n n n b c h h 6 3 3 6 6 9 n n S D D S n b h 6 9 c c 6 : $ $ 6 6 6 6 6 6 3 : 3 3 3 3 6 9 9 9 9 9 9 6 6 6 3 3 6 6 h v n S S B B n B D S S S S n h 6 6 6 6 c S S S n b 9 6 6 9 c n G R W / E n 9 3 3 6 h n B B A n c 9 6 : $ 6 9 h x 9 6 3 : $ # $ : 3 3 : $ 3 $ $ 3 3 9 n n W / / E D n v v n D D n n v 6 6 : $ $ 3 6 6 9 9 3 : 6 c v c 6 6 3 3 3 6 6 6 6 h 9 9 6 : $ $ $ $ $ $ 3 9 c v v c 9 6 6 3 , 6 h 6 6 6 3 3 3 3 3 6 h 9 9 6 6 6 6 6 3 6 9 c 9 6 3 6 c c n A S n b 9 3 3 : 3 6 9 c c c c h h h b B B n c 9 6 6 h c c 9 6 : : 3 3 9 S / 8X7X( W F n h 6 $ @ @ @ $ 3 3 6 6 6 : # $ $ $ 6 6 c n S S n n 9 6 3 3 3 $ # $ @ # : 6 6 : # $ 3 6 6 3 3 6 c n F G G n h 9 c b B B n c 9 6 6 9 h c b b b b b b B B B n c 6 $ @ 3 6 9 h h 9 6 6 3 3 3 3 6 6 6 9 9 c n S F P F S n 9 6 6 9 c n D D S n h 6 h v n c v n B B n c 6 3 3 $ $ : 6 6 6 c h 9 6 3 $ @ # $ $ $ 3 6 6 9 h h h h 9 6 : $ 3 h 9 6 6 3 3 3 6 3 $ +   $ n W ) ) W S 9 6 c B G n b c 6 6 c b v 6 3 3 : : 3 6 6 c n D R R D b 9 3 3 v G E G D D G D S n c m n c 6 $ # $ $ 3 6 6 3 6 9 v v 6 4 3 6 6 6 6 6 6 9 h c b b b c $ + 3 n G R R F n 6 : : : 3 6 h S G F D n 3 # : c G / 7X0X7X/ E F S S R E ! / W S 9 : # 3 b E / W G B : @ + + + $ h B F E E R R E ! / ) ) / R S c 9 6 3 $ 3 6 3 # + + # 9 E 8XeX9X/ G 6 : $ 6 h v b b n B D F S n h 3 9 9 6 3 : h S D F F F D n h 6 3 6 6 9 9 9 6 6 6 h c v b b b c c n B S S B n v h h 9 6 3 $ @ @ # 3 3 6 3 $ $ 3 3 3 9 6 3 3 3 3 6 3 6 6 $ $ @ + $ 9 6 6 6 3 6 6 9 n c 9 3 : 3 6 6 h 9 6 : $ $ $ $ 6 6 6 6 3 : 6 h S S D D S n c 9 6 6 6 9 6 : $ $ $ $ $ : 6 h v b h 9 h c h 6 3 6 9 h c h h c v v b B S n b b v c n S / qXqX( R G S S B n c 9 6 6 h c x 9 6 3 : 3 6 9 9 6 9 n S S n v 6 $ $ 3 6 9 c n R ) 7X( R n 6 # : c n n v 9 9 6 6 6 c S G D v 9 : $ $ 1 $ # + + + # 3 3 : $ # $ : 3 3 6 6 6 6 6 6 6 3 $ # @   # 9 S R P S b 6 $ @ # $ : 3 6 $ 3 6 6 9 b B n B n c 6 3 $ $ # $ # # # $ $ : 6 c n B n b h 6 9 n n b h 6 6 9 S W / E n 6 +   # c b n v c h h h 9 6 3 $ $ : 3 6 c c 9 6 6 6 6 6 h c v n n v c c n n n b c 6 3 3 6 9 n G D b 9 6 6 6 6 6 6 9 c b D D n h h n B B 9 6 $ @ @ + + $ $ 3 6 3 $ 3 6 6 6 h c c c n S D P D n h c S W _ 7X) W B 9 3 6 6 c c 9 6 6 9 h h h 9 6 6 6 9 9 6 3 : $ 3 6 9 9 9 6 6 6 6 3 $ $ : : 6 9 9 h h 9 6 6 6 c n n c 6 : 6 6 v G D c 3 3 v b B D S n h 6 6 3 $ : 3 : : 3 : 3 3 3 6 c n n v c 9 9 9 6 3 3 ",
"h 9 9 9 c S G D b 9 6 6 6 6 6 6 3 6 3 3 6 6 9 c v n b c h 6 : 3 6 6 c n v 9 6 $ : $ $ $ $ $ $ $ # # 6 c b v v v 9 6 3 $ $ $ $ 3 6 6 6 3 : $ $ 3 9 9 6 3 3 6 9 h 9 9 h c b n n n n n c 9 6 9 9 h 9 6 6 3 : : 3 6 S D D n c 9 6 6 9 9 9 6 6 6 6 3 6 6 6 3 6 c n n G G G G S n c h c b h 3 6 n F R D B n b c 9 9 h c b B S S S B c 6 3 3 6 6 9 v n n n c 6 3 3 3 6 3 3 4 0 6 6 6 6 6 6 3 $ $ $ $ $ # $ 3 6 c n S S 9 6 $ $ 6 c n G D n n n 9 9 9 $ : $ 6 S D n c 6 3 - 6 5 6 9 6 9 6 9 9 9 6 # @ : b B S n n n n b 9 9 9 6 3 6 6 3 6 3 6 h h h h c 6 6 $ @ + @ $ 3 3 6 9 9 6 6 3 $ 3 3 $ $ 3 9 v B D G S c 9 c c 9 3 9 n F W W G S v 6 6 v D / 8X0X_ / P B n n n n n v 9 6 3 $ 9 D 7XrXrX8X_ R B c $ + + + 3 v G W R P G D G R W W D n c 6 6 6 6 6 3 3 6 6 3 # # 3 v D R R G c : $ 3 6 6 3 3 6 h b E W E G n c 6 3 : 3 6 9 v B D G G G S n n n B n b c 6 : # $ 3 3 6 6 c b n n b v c l 9 6 3 3 6 6 h 9 6 3 3 3 3 3 3 : $ $ 6 6 6 6 9 9 7 6 6 6 6 $ $ $ : 3 3 3 3 : 9 h 9 6 6 9 c h 3 3 6 9 9 9 6 6 $ $ 3 6 h 9 9 9 6 3 $ $ 6 h b B n n v 9 6 3 $ $ $ : : $ 3 9 c h 9 v D P R R G S D n h : $ 3 9 9 9 9 9 h h 9 9 9 9 c B R E P G E _ / W G B n n n S B n v v n n v 9 6 6 3 6 6 6 0 c n R _ / G v 6 6 6 6 9 6 3 c D 3X9X) E S 6 $ 6 B P W / W D c 6 $ $ : 3 3 : : : # # @ @ # $ 6 c D F S v 9 9 c n B D G G F S n h : $ $ $ $ # $ 3 S D n h 6 : : 3 9 h 9 6 6 6 c S / _ 3X) W B 6 $ $ 3 3 $ $ $ 3 6 6 9 S R E W G n 6 : : 9 b D P R G D n b v n B n 6 : : 3 9 b B n B n n B n b h 9 h 9 9 9 9 h c v v b v c c c v v c n B D F R R P v 9 : $ : 9 S P W W F v 6 3 $ $ $ : 6 9 h 9 v S R E G n c 6 # $ + # 6 h v n n c 6 : : 3 6 3 3 3 3 3 3 : 3 3 3 6 3 6 b D G B c 9 3 3 6 b n n n n 9 6 6 9 9 6 3 3 6 6 6 6 6 6 6 6 h h 9 9 9 6 6 6 6 3 6 6 6 9 b n R G S v h c b n D S S S D G R R W R n 3 $ 6 h c 6 6 6 6 9 9 6 3 : $ : 3 6 9 v n F G n h 6 9 b n D S n c 6 $ @ + # + # $ $ 3 6 6 $ $ 4 6 c v n n c c n B n 9 6 6 b n S D S b c v c h 6 $ @ @ $ 6 9 h 9 9 6 $ # $ 3 6 9 v b c 6 3 # + + $ 3 c D R ) ) ( E S h 6 $ $ 3 6 9 c n n n 9 6 $ # $ 6 9 c c c 9 9 c b n S n b h 6 $ O @ 3 D ( qXeX9XE c 6 6 6 6 6 3 3 6 6 6 6 6 6 6 6 6 6 $ $ $ : 3 6 c b D P W W E D v 6 $ $ # $ # # $ $ : $ 3 6 3 3 6 3 6 6 9 9 3 : 3 6 n D D B v 9 9 c D G D b 9 6 3 6 n S n v S W 7X8X7X/ G b c n F R R R R W / _ ) _ W P S b 6 # + @ : 6 9 9 9 6 3 3 3 : : $ $ : 3 3 6 6 3 : 3 3 3 6 3 3 6 6 6 3 3 9 n n n c 6 3 $ $ $ 3 6 9 h c c c 3 3 6 h h 6 3 3 v b b c c n S n 6 3 : : : $ $ $ $ 3 3 : 3 6 6 6 6 6 6 9 9 6 6 6 ",
"h h c b B G R G n 9 6 9 c c c h 3 3 $ # 6 n E ) eXrX9X/ P n h 6 $ # @ # $ 6 c v 9 6 6 3 3 9 c c x h c n n c h 9 6 6 3 3 3 $ # $ : 6 6 6 6 3 $ $ 3 3 $ $ 6 b D G E R D n c h h 9 c c h 6 9 c n n n b n S D n n n B n v 6 $ # $ : 6 9 c c c 9 6 6 3 3 : $ 3 9 v b c b S F D n v 9 6 6 6 6 c S G S c c c b b c h 9 v b b c h 9 6 : 3 $ $ 3 6 6 9 9 6 6 6 3 $ + + + 3 6 5 6 9 9 9 9 6 6 3 $ $ 6 9 9 h 9 6 6 : # +   + $ 6 c F / _ / G n b n B P E G h 3 3 h c 9 6 3 6 3 6 6 6 6 9 n D R W E F n h 9 B D D n n D G S n n n B n b h 6 $ $ 3 9 h 6 6 h D F G B v 9 3 3 6 9 9 6 9 n S D D D v $ # 6 b D W ! P v 6 3 $ $ : 3 6 9 v n n c $ + $ x D W ) ) / W G D G R W / / / W P n : + @ c D D n b 9 3 + $ # $ 6 c B G F G G F R W _ 3X3X3X/ F c 6 6 6 6 6 6 3 : # # 9 S ) 9XqX) E b : # 6 9 v n D G F P n v 9 6 6 9 9 6 3 6 h n D F G G D S n 9 6 6 6 6 9 9 9 9 c v n B n n n n n B S D F F G F S v 6 3 $ $ $ $ : 9 c v 3 3 3 3 3 6 6 6 3 3 3 3 9 b n v 6 3 $ $ $ 3 6 9 3 6 6 6 9 c b n 6 6 3 6 6 9 6 3 3 3 : : 3 3 3 6 6 6 3 3 9 b B S D S S n c h 9 9 6 6 3 $ $ : 3 3 6 6 6 6 6 9 h h 9 6 6 3 : 6 h h h h c b n S D D S n c b n B F W ) 3X/ F D G R G c 6 6 6 6 9 u u 6 6 6 3 3 6 6 6 6 6 c B S n c 9 3 # $ 6 v B F E E W P n h : @ $ 3 6 6 6 3 3 3 6 c n G R P n 3 # 3 3 $ # @ + # 3 6 9 9 6 3 $ @ + $ 3 3 : : 6 9 9 6 6 3 # + + : 9 n D S c 6 : # @ + $ 6 c b v c c 6 9 v n B v 9 9 9 h 9 : $ $ $ # # @ # $ 6 h n n v c h c c c c h $ # 3 9 S W / W n 3 @ : 6 h b b c 9 6 6 6 6 3 : # $ : 6 9 9 6 6 6 6 6 9 c n D G D B b c 9 6 6 6 6 6 6 6 6 6 9 c h h 9 6 6 h c c 9 6 v G E G S n c l c c c c h 3 : @ + # # $ 3 6 3 6 v D G S n n S G R E E G D D F E ( 8X9X3XE B 9 3 3 9 h h 9 9 h 9 9 h 9 6 6 6 6 9 9 6 6 3 3 3 6 9 9 6 9 6 6 3 6 3 3 3 3 6 h 9 6 3 3 6 9 c v v 9 9 6 $ : c B n 6 6 6 9 b S D D S n v h 9 6 : $ 3 : : : : $ : 3 6 9 v b c 9 6 6 h v b c 6 3 # + + $ 6 9 6 6 3 $ 3 6 n G D n 6 # : 9 P 8X9X) W / / _ ) _ E n 6 6 G F S v 9 3 $ : 3 9 9 9 9 6 3 6 6 h n n n h 6 3 $ # $ 9 n G E E D n 9 6 6 6 6 3 : $ 3 6 6 $ + + $ $ # + 3 n G F n h 9 c v n S B n c 9 h l b C D F Y W / / R S B B n n c h c c c h 9 9 9 9 6 9 h h c c c c c v n G D S b h 9 8 3 6 : # $ 6 n F R G B n n n D F S h 3 $ $ $ $ $ $ 6 c v v c 9 c n E / ! G n 6 # + @ 3 6 h S W ( / D v 3 $ 3 6 9 9 v n n v v n D G E G S n c 6 $ $ $ $ $ : 6 h v n v h 9 6 3 : 3 6 6 6 9 9 6 3 3 3 6 h v n D D D G W E D c 6 6 9 9 9 9 9 6 6 6 6 9 b B S n n b 9 3 $ $ $ # # : 3 : : 6 h v n n c 6 $ $ 3 6 9 6 6 6 6 6 9 c v v v n ",
"6 6 n G / 8X9X8X/ R D B n S D D G S h $ $ 6 S W 9XrX9XW D c $ + X + $ 9 n P W W E R R E W / / E B c 6 6 6 6 6 3 3 4 3 $ $ 3 9 D / 7X/ S h 6 : 3 9 h h 9 9 c n D G P D v 6 6 6 3 3 6 c S G R P F B n v c c c c h 9 6 6 3 3 6 9 9 h v n n n B B B n v h 9 6 9 9 9 6 : $ $ # $ 3 : $ $ 3 9 6 6 6 6 6 6 3 $ $ $ $ # @ # # $ 3 6 6 9 6 6 9 h h h 9 6 3 3 6 c u 6 $ # $ 4 6 9 6 6 3 $ $ $ 6 9 n D G D v 9 6 3 $ : 3 3 3 : 3 3 : $ 3 9 n D G D D S b c 9 6 3 6 6 h v c 9 9 c n n v c c b n b n P / 3X8X/ E D n n S D D b 9 h n n c 9 9 6 6 3 3 6 6 9 n G E R D b 9 3 3 6 6 6 6 n W 8X9X7X/ n $ # 6 n G P R F S n 9 3 9 c c h 6 3 3 $ $ @ + @ # @ 3 h h c 9 6 6 9 x v n B B n v c 6 $ : $ # + + : n R E S v 6 $ $ : 6 6 6 6 3 3 6 n P W / ! R n 6 3 3 $ $ # # : 3 $ : 6 9 n S D D n 6 6 6 9 n F E P S n n n D R G c : # $ : 9 n B n n n B B b 9 6 6 9 9 6 9 c b b c 9 9 h h c c c c v b B D R E G S c 6 # 3 h S R W W P n 6 3 6 6 # # 3 b n B B S G E E S v 9 6 : # # $ 6 9 c b c 6 : # 6 6 6 6 3 3 6 9 c b c 6 6 6 c D / ( ! D h 3 : 3 c v b c h h h h h 9 9 6 6 9 9 9 6 6 6 6 9 h c v c 9 9 9 6 6 6 6 6 6 9 c n S D B 9 9 9 v n n n v c n S P E P S n 6 3 6 v n c 9 5 h h 6 3 : : $ $ 3 6 6 c n S S B b v c c n B n n 9 3 + + + + # : 6 9 9 6 6 9 9 c v b c 6 9 c n S F G B 9 v R ! / R D n c v n n b : $ $ 3 9 h 9 9 6 3 3 : 3 9 c b n n c 6 : @ + $ 6 b D R / 3X3X( F n 6 3 3 : 3 9 n n n b c 6 3 : $ 6 c S D n h h c n S G F S b 9 9 3 : 3 b / rXyX9X( P b 6 6 h 9 6 6 6 9 9 9 c c c h 9 9 6 3 : : 3 6 9 b S F P P F S b 9 6 $ # # @ # $ 3 3 6 6 6 c h 9 6 6 6 6 3 $ : : $ 6 B F S c 7 b D P ! ! F 6 $ 3 n n v v n P ! 0XrX0XE b 9 n B S D D D G E ( 3X3X/ W R D n 3 # + + $ 6 9 6 6 6 6 6 6 6 3 3 : $ 3 6 6 6 6 6 3 6 3 : 6 9 c v h h n S G P F n 6 3 : 3 3 $ : 6 b v c 9 6 6 9 9 6 6 6 h h 6 6 9 b b c 9 6 : : 3 6 6 6 : : 6 6 3 6 3 3 6 6 6 6 9 6 9 6 $ 3 6 9 h 9 6 3 $ # + + + + $ 6 v n n n c 3 3 9 B F G n b 6 3 : 3 6 3 $ 6 6 9 9 9 6 6 6 9 c n b h 9 6 : $ : $ $ 3 6 6 6 6 6 6 6 6 6 9 9 6 6 3 6 6 6 6 6 6 3 $ : 3 9 v n v 6 $ + X + # : 3 : $ $ : : 6 c c c n E 5XeXrXqX) S 9 3 6 h B Y E E E R P G D n c 6 $ + + + + @ $ v B D S n 9 6 6 9 c n n B S S n 9 6 6 9 n P E R B h 3 : 6 n G S 6 # $ 9 6 3 3 3 : 3 3 : 3 3 3 9 9 c 6 3 6 6 6 9 9 6 $ + + 3 6 6 # + # 3 3 @ @ $ $ : : : 3 3 3 $ : 6 3 3 9 B G P F G n v S R W R v 6 $ 3 6 9 9 6 6 8 6 9 6 6 6 6 6 c c h c c 9 h 9 6 3 $ 3 c n n b c 9 3 : : : : 3 9 B E / ( ! W B 9 3 3 3 6 h b S D D S n c 9 3 : 3 9 n n c 9 9 6 9 v n G E W / ",
". + 6 n P W ! E S n B D R E W ! / W D c 3 # $ : 9 h h 6 : 6 9 6 : : 6 c b n n n n S G R / 8X9X0X/ P b 6 3 : 3 6 6 4 $ % $ c R / 7X3XW n 9 3 3 3 6 v D R W P B n 6 6 9 9 h 9 9 9 9 c n D P G D D n b c h 9 9 9 9 h h h c v B S S v b b n D D D F R R F B b 9 3 : # : h B S B v 9 3 3 : 3 3 : $ 3 6 6 b S G D B v 3 # $ 3 6 3 3 6 h v c 9 9 9 6 9 6 6 6 3 3 3 3 : : 3 3 3 6 9 9 h c c 9 6 9 c n n S n v 6 6 9 h 9 3 3 3 3 3 6 6 9 9 6 9 6 6 6 9 9 6 6 6 6 6 6 6 9 9 v S F F S n n n n n n S P E W P P R E R n 6 6 : 3 6 c v h 9 9 7 6 3 3 3 3 9 l n B D S b 6 3 $ 3 6 n D F F D n c 9 : # # $ 3 3 6 : : 3 3 3 9 n R E R n 6 6 6 : $ @ # : 3 9 n n n c 9 3 $ $ $ # : 3 6 6 6 6 3 3 # $ $ # 3 c n n c 6 3 $ $ $ 3 6 v n G R G n 9 6 9 6 6 6 6 h v c b c 6 : # @ @ @ $ 3 6 9 c v c c n v v c 9 : @ + $ 6 D / ) W D v 6 3 6 9 c h h h 6 6 6 9 9 3 $ $ $ 6 6 6 9 9 6 6 9 b S P W W R D c 6 : : 3 3 : 3 $ 6 6 6 6 6 9 6 9 c v v c h 9 c C F P F D B c c b n n v c 3 # : 6 6 6 6 6 6 c B R W E S S G R E E R P P R W _ 7X8X7X/ E S 9 : $ 6 9 c c c c x h h 9 9 6 6 9 9 9 h 6 3 3 3 6 6 9 6 6 6 9 6 3 3 6 6 9 h c h 6 3 : 3 6 c b v h 6 3 : 3 9 n n 6 3 6 n S D B n S S b c 6 6 6 3 : : $ 3 3 $ $ $ 6 9 c c c 6 3 3 h c c 6 3 $ $ $ 3 6 6 6 6 : $ # $ 6 n G P B 6 $ 6 n R 7X9X7XW E W W W E F b 6 6 B F D c 6 3 3 3 6 c c n c 6 6 3 6 9 c c 9 6 6 3 # # 6 b S F G S c 3 # 3 6 3 : : 3 3 3 3 $ $ $ $ @ # $ 3 6 c S B 9 3 3 h b n b b 9 h n S P P F F F D S S D P R R F B B n n n b h 9 6 3 3 3 3 3 6 S G D b 9 h n n S D n 9 6 6 9 9 : $ 3 6 n R _ _ F c c B F F S n 9 $ $ 3 6 3 $ : 9 c c 9 6 9 c n G G D 9 : @ # $ # : 9 n B S n c 6 $ @ : 3 9 v n n n n 9 h c b n n n b h 9 h c h : $ 6 c n B n b c 9 9 6 6 6 6 6 9 h 9 9 9 6 6 6 c n n n n D G F B c h 6 9 c n b c 9 6 3 3 6 h n S G F S S c 6 3 : $ 3 : 3 3 6 h c v b n n 9 $ $ 6 9 c h 9 9 6 9 c c h 6 6 9 v S R W W G D b 9 6 $ # # 3 3 6 6 6 9 6 3 +   % 6 3 6 6 - 3 $ $ $ $ # @ $ # # @ $ 6 c B G D S n b v v c h 6 9 c n n c 9 6 6 6 6 6 3 $ $ 3 6 9 h c h h 9 6 : 3 6 v D ! ) _ Q D 9 +   + : 6 6 6 : + $ b G R R E / ) _ E S n v v h 9 h c n B S B c 6 3 9 c n n b c 9 6 6 6 3 6 6 n R R F S c 3 # h P W / ! E S c c b n D G S c 3 $ 3 3 6 9 6 3 $ 3 9 9 c c 6 3 $ + + # 3 9 v n n h 3 3 c n S S n h 3 3 9 c b v h 6 $ @ @ : 6 v n v 6 3 : 3 6 c c 6 $ $ 9 n n n n b v b b c 9 6 3 3 6 h 9 v S R W F 9 3 : $ $ 3 9 n D D n c 9 6 : $ : 3 $ # # @ # # # # $ # @ @ $ h G W / _ 7X) _ W F S S n b v v c v n n n b 6 6 6 9 h 9 6 6 6 6 6 6 6 3 3 3 ",
"+ + + @ $ 6 9 9 3 : $ 3 6 6 9 h c 9 6 6 6 6 3 $ # # $ 6 n R E P h 3 # : 3 3 : 3 : 3 3 3 9 n G P P F n 9 6 6 6 $ # + + $ 3 $ $ = 6 v B D S v 9 h n n n B n 6 6 c G E E F b : + @ 9 v n v v n n n b c 9 6 6 3 6 6 9 x h 9 6 6 6 9 9 9 v n n v c n S D B c h c h 6 c h n G G D n c c 6 3 3 6 9 v S D G D B S F F S n 9 : # @ @ $ 6 6 h 9 : $ : 3 6 6 9 h c c b B D S B b c n E ) 7X3XW S 9 : 3 9 c c b b c 9 h c c c 9 9 9 h 9 6 6 3 3 6 9 v b b c 6 6 6 6 6 6 6 6 6 c b n n c 9 6 b n n n h 6 3 3 v B S S n h 6 6 n S n c h h 9 6 6 3 : $ , 3 3 3 : 6 9 v n n n n c h c b b v 9 6 + + + # 3 6 9 h 6 9 9 6 h S D n h 6 6 6 S W / W D S R _ 8X7X/ G h 6 c S S v 6 $ $ : 6 c b v h 6 6 3 6 h v n n b 9 6 $ @ # 6 b D W / / W R F B v 3 $ $ $ 3 9 c v 9 9 9 9 6 $ : h G R G b 9 c B G R G D n c c h 9 6 n E 8XrXrX0X( G n v v c 9 9 9 c h c c v c c v v h 6 6 3 : 6 c v n D P R F S n h 6 : $ $ $ 3 6 9 c c v v b n n c h 6 6 3 : $ $ $ , l S D c 9 c S R / ) / B 3 $ 6 c c 9 n E ) 8X9X7XR 9 : 6 c n n n n n D E / / / ! E P S 9 $ + @ + # 3 6 3 3 6 6 9 9 9 6 3 : : 3 6 9 h 9 6 6 6 3 6 h n B n n n P R P D n h 3 $ 3 3 3 3 6 h c c h c c c c h 9 6 6 6 3 6 6 6 h c 6 3 6 6 h v v 9 3 3 6 9 9 6 6 6 3 6 h c c 9 6 6 6 9 v n n h 6 3 $ $ $ @ # : 3 3 c b v c h 3 $ 6 c b v 9 6 $ @ # @ # : 3 : $ 3 3 6 6 c b n n B n 6 6 3 3 $ $ $ 3 3 6 6 6 6 9 9 6 3 3 3 3 6 9 h c 9 6 9 9 6 3 3 6 v S P P S c $ + + + $ 3 6 3 $ # 6 9 h c n D R ( rXrX0XW B c h h h b F W / W R P G S n b 9 : @ + $ $ # # 6 n D G S b 9 6 3 3 h S R W R B v n n c b n n n n 6 $ 3 6 h h 6 6 $ # 3 6 9 9 3 : 3 3 $ # $ 6 v v 9 6 3 6 6 c b c 6 $ + $ : 3 3 1 : $ # $ # @ + @ # $ @ $ $ : 3 : $ : 3 6 b R _ _ R n v P R G S v 9 3 3 6 6 c c 9 9 6 6 9 6 6 6 6 9 c v v h 6 6 6 3 3 3 6 6 9 h 6 6 3 : 3 3 : $ $ 6 n F 8X9X3XR S n c h 3 9 v n S D G G S n c 3 : 6 c b b v c c 9 6 6 6 9 6 3 3 6 v S G / / R n 3 @ @ # m G W / W R n u 3 # # $ $ 4 6 3 6 6 : @ # $ : 3 3 6 9 h h 9 6 6 9 c n n b c c v n S G E / _ / E n 6 $ $ : 3 6 6 3 : $ $ : 6 h c 9 6 6 3 : 6 9 h v c 6 $ @ @ $ : 3 3 $ : h G W / ! W R R G n b n G D n 6 3 6 h n G F S c 6 6 6 9 b n G R E P B c : 6 v D W ) ( P 6 $ : c v b v 9 6 6 : @ : B R D c 6 6 c n F R D c 6 3 6 c D R R F n 6 @ X X @ : 9 h h 6 6 6 c n S S n v v n n S b b S G P D S D R W W R D b h c B S B b n S S n c 6 3 : $ 3 3 3 $ : 3 6 9 x n R 8XqX8XW G v 6 6 c c h 9 6 3 3 3 6 6 9 6 6 6 c n W W G c $ @ $ : 3 6 6 6 9 n A S n n n n c 6 6 h c n n 9 3 : 3 6 n n n c 6 3 3 : : 3 3 : $ $ : : ",
"3 3 9 b B S B n b h 9 6 3 $ # $ 3 9 v v 9 6 $ # @ $ 3 6 h v v c 6 : $ $ $ 3 c B E W ( _ W S 6 $ 3 3 3 6 9 v n n v 9 3 # + # 3 6 h v c 9 9 c b n B n b c 6 @ @ : c F ( 9XqX/ n c 6 h c c h 9 6 6 6 9 9 6 6 6 6 3 $ 3 $ 3 6 9 h b G R ! _ / G n c 6 $ $ : $ @ # : 3 6 9 9 9 9 c c c c v b h 6 6 c F R G S n c c n F R D c 6 6 6 6 c v c h B W 7X7X( W G F G P R E E W / ) 7X7X3X( W R n 9 : # # $ 6 9 c c 9 9 c h 6 6 6 6 6 6 9 9 6 6 3 3 3 3 3 6 6 9 9 5 5 5 6 9 n n c 6 3 6 6 6 3 6 h c h 6 6 6 9 c h 6 9 h c b c v n n n v h 9 6 3 3 3 3 3 3 3 6 6 6 6 9 9 9 6 6 9 9 h h 6 3 3 3 3 3 : 3 6 3 3 $ # @ + : b D F n c 6 3 v E ) 7XW G S n n S S c 6 - 6 n n v 9 c 3 6 9 v n n n b 6 3 : 3 6 6 6 6 6 6 6 6 6 9 c b B B v 3 $ : 3 : 9 6 3 : : 3 3 6 3 6 3 $ # @ $ 6 h v 9 $ : 6 9 c h c c c B E ( _ ( E D B b c b B W ! W R D D F F n n h 3 $ # $ $ # 3 b F G n h 6 c v B S n v c 9 b c h 6 3 9 n G _ _ G 9 6 n R P F B 9 $ $ : 6 6 3 6 6 6 6 6 6 9 6 h v n b 9 3 3 3 6 3 $ : 6 c b 9 9 6 # # $ : 3 6 6 h c c c 9 6 9 9 9 9 h c v n G D b 6 6 n F P S v 9 6 6 6 9 c 6 9 9 9 9 9 6 6 9 9 h c v c v n n n b 9 6 9 c n S S n 9 6 : 3 9 9 b B S G E R D h 6 3 3 3 3 3 6 v n S n b n b h $ # $ 9 v c 9 9 h h h c h 6 6 6 n D E W / / E S h 6 $ $ 3 6 9 v n B v 6 $ +   + 3 9 9 6 6 6 3 3 3 $ $ 3 $ @ @ $ 3 6 v n S S S n n n n B n c c b G G S h 6 6 3 : 3 : $ : 3 6 9 9 c 9 h c 9 3 3 6 n F W _ / G c 3 + + @ 3 6 $ # $ 3 b P / ) ) ( _ ! W F n c b n n c h v B n v 9 3 $ $ 9 S D S n n n n c 6 6 6 c D / _ E b 6 3 6 S / ) / S c c v n n S F G D h $ # c n n n c 9 6 6 v n n c 9 6 3 3 + # 6 v n n v 9 6 6 b F P B c c n n B B n v c h $ 6 c n D F D n 6 3 6 c v 9 6 3 6 9 c n n c h v h c c 6 6 3 3 6 6 c S R W ! E F h 6 3 3 9 n S S S n c 6 6 6 3 : $ @ $ 3 3 3 3 : $ # # $ 3 6 c n D W _ 3X) / E R P S n h 6 6 6 3 v h 9 h 9 h c 9 9 6 6 6 6 6 6 6 6 9 h c 9 6 3 $ # : 3 6 h n F W _ ) _ / ! W R F n n c c n G W / E P D S n c h c S G G F S c : # 3 3 : : $ $ 3 6 n D F G W ) 7X( B 9 : : 3 6 6 6 6 : $ $ $ 3 9 9 c c c v v c c c $ $ 3 c n b 9 6 : 3 6 h b n b c 3 $ # # $ 3 h b S S b 6 3 6 v S ! ) 7X) ! R B v c c v v c 9 6 6 3 $ @ # : 6 9 9 6 6 h b v h 6 3 3 $ 3 6 3 # @ @ 3 6 v n n n v 9 6 3 6 6 9 6 3 3 $ 6 n P E P S n 6 6 6 6 3 : $ : 6 6 3 : $ : 6 9 S F W / / W P D h 9 6 6 6 6 3 6 6 9 c b n S S n 9 6 $ $ $ $ 3 6 6 6 6 3 6 6 c B n D G G D v 6 3 $ : 3 6 6 6 6 6 h 9 6 3 $ 3 9 n E W R b 6 3 : # $ : $ + # 3 6 6 6 : @ + + $ h G 8X9X) F 9 $ @ @ : 6 h 9 6 6 3 $ # $ 6 h v c c c ",
"D P / 8X7X/ F b h 9 v B n 6 # # 6 9 h h c c c 9 6 6 h n n b c 6 6 3 $ # 3 n E ! E G D B b h 9 6 $ $ 3 6 6 6 6 6 6 6 3 $ : 9 n D D D v 9 9 B F P S n v h 9 b S S D R / 8X8X/ R F G D n c c c c b n n v 9 6 9 9 c 9 c c c c h h c B S D S n v h 6 9 6 3 $ $ h B G n B n n n D D n 6 : $ : 3 : $ : 9 v n b c 9 9 n W ) / G v 3 + + 3 6 c n R ) 8X) D h $ # 3 9 c v b v b n D P W / W R S c 6 3 $ $ 3 : 3 6 6 c c c c 9 9 6 6 6 6 6 6 9 9 9 6 6 3 6 x v n S D G R R R G n 9 6 6 6 6 6 6 6 h c c c b D D n h 6 6 3 $ : : 3 9 9 6 6 6 6 9 b B n 9 3 : 6 6 9 9 6 6 9 9 c c h 9 9 6 9 b G G D B v 9 3 $ : # $ 6 6 6 h c v c 6 # + = 6 6 6 3 $ # + $ 6 3 $ % # $ $ $ 3 3 n B S S n v 9 6 6 6 6 3 3 6 6 3 6 3 6 9 h 6 3 : : 6 9 c v c c c h 9 6 3 9 b D E / / G h : @ + + 3 9 6 3 3 : 3 9 B D F F W 3X9X0XW D n n b c b D G E R G D G S n b v 9 : $ $ : $ 3 3 6 v S G G S h 3 $ 3 v R ( / G S n n n n n B B n 9 $ + $ 6 6 3 : $ : 3 9 h 9 6 3 : 3 3 $ 3 9 n B b 9 6 6 9 v n B v 6 : $ $ $ 6 3 3 $ # @ # 3 $ : 3 3 $ @ $ : 9 9 6 3 : 6 c B W / E n b D P D n c 6 6 6 6 9 c S n c 6 3 3 6 6 : 3 9 b n v v v 6 3 $ $ 3 6 6 6 $ 3 : $ 3 $ @ # @ $ 9 n R _ 8X0X/ W G B n n b b n n B B S D B v 6 6 9 b n n c c 6 6 6 6 6 9 9 9 3 3 9 v S G F B 3 # # 6 v D W ( ( / E S c 9 6 6 3 6 h c c c 9 6 3 : $ 3 6 v n n b c 9 3 3 6 h h 6 6 6 9 c n D E / ) 7X) W n 3 @ $ 3 6 9 6 3 : $ $ 3 6 h c c 9 6 3 : : 6 6 6 3 3 $ $ 3 6 3 $ $ 3 n D P R R F S n n n n S G P S h : @ 3 n P W ! W S v 9 c v n D G R P D v 6 3 6 c S E E G B 9 # # $ 6 6 3 6 : # $ 6 9 h h 9 3 6 h n D D n v 9 6 6 v B G W R n 6 3 3 3 3 $ : 9 h 6 # # 6 b n c 9 9 b n n b b n D G / W P S S F P G n 9 9 b n B S D S S n n c 6 $ $ $ 3 3 : 3 6 6 6 6 c S E / _ / R B c 6 6 9 c c 9 6 6 6 6 9 h 9 6 # 3 B W ) / G n 6 : $ 3 3 3 : 3 3 6 c n n 9 : # $ $ 9 B G E E G 3 @ : h v n b h 3 $ # $ : 3 6 6 6 c S P P S c 6 6 3 3 6 h h c B P W / W R S n S E W E F P Q W / W E R G D n c v c c 9 6 6 6 6 9 3 3 3 6 3 : : 6 3 c b c c n b 9 6 3 3 6 6 6 6 6 3 : : 3 : : 3 3 3 6 c n S n c c A G / ) W n : + $ $ : : $ + X X $ : 3 6 9 c b n n v 9 6 6 n P / _ ( W D n c c c 9 9 h 9 6 6 6 h B D S c 6 3 : : # 3 v F ! _ ( / P S 9 3 3 9 c n h v B G G B c 6 : 3 3 6 6 3 3 6 b S R / / R n c h 6 6 9 9 6 3 3 : 3 3 6 3 $ $ : c B G F P R G S D n c 9 h 6 6 6 $ $ $ : 9 B P R E G S b c c h h 9 6 : $ : $ $ 3 v S P W E S 6 $ @ # : 3 6 6 6 6 6 3 6 6 6 6 6 3 $ $ # @ $ 3 6 6 3 3 6 6 6 6 6 6 c c 9 6 6 3 6 6 3 6 6 6 3 3 $ $ 3 6 h h c c 9 3 $ 6 D ) 9X7X/ ! ",
"6 6 6 9 9 9 6 6 3 3 6 c c h 9 h 9 v n B B n 9 6 $ # $ : 3 3 6 6 9 9 6 3 6 9 c c b c 6 6 6 6 9 9 6 6 6 3 6 h c h 9 3 # @ + + $ 3 6 3 3 3 6 9 c b h b D E ( 9XeX8XP n h h c n G R E W W P R R F S 9 6 $ # + + + $ c n G G D b 9 6 c c n n n n n b c h 9 9 v F E E G B 9 : 6 B G D 9 : $ 6 9 6 6 3 3 6 6 3 6 6 6 9 9 h 6 3 6 6 6 c 6 3 3 3 1 6 9 6 # @ # 3 3 $ # $ 6 6 6 6 3 3 3 3 $ : 3 6 b P W ! S n n S G G F D 6 3 3 3 9 h h 9 h h 9 9 h 9 6 6 9 c c h h h h h 9 6 6 6 9 b S S v 6 : $ 3 3 9 c n G ! ) ( W D n 9 6 : $ 3 v S D S B B S b 6 : 3 9 c n b c h 9 9 9 c h 9 9 9 h n F E / ( W D c 6 @ @ $ 9 n D P P n 9 $ + + $ 6 9 9 9 6 6 6 3 $ $ 3 $ $ # # 6 9 9 c c b n n b b v n n n c n P ! / F B c 6 3 3 3 6 : $ 3 6 6 6 6 h c c 9 6 6 6 h n R E E D v : + X $ 3 3 $ $ 3 h S / ) 7X) / W R D n n n n n c 6 9 b n n v 6 @ + $ c b n n S G G D c 9 3 3 v E ) ) F n 9 3 9 G ! W G n 6 6 8 9 b S R R n 6 3 b D D D n h 6 6 h n B B n b 9 : + + + 6 h b v h 6 6 h D P D v h n S S S S S S n b v v G R W ! R n 6 6 9 b b c c c v b c c c 9 9 9 9 9 : 3 6 6 6 6 h n W / 3X_ E S h 6 6 9 b A B v 9 6 6 6 6 9 9 3 3 6 c n c 6 6 6 : 6 6 6 6 9 v B G E W / W R F S n n 6 6 6 : : 3 6 9 c v b v h 6 3 : 6 6 6 6 6 9 h c b h 6 6 $ @ $ 3 c n D P W 3X0X7X! E F G G D S S S D W 3X7X/ R F G S b h c S P R S n 9 3 : 3 6 3 3 : 3 6 c n S G W W W W G c 3 : 3 6 6 6 6 3 3 : 3 3 3 6 9 c v b n n b c h c c b G D n 6 $ : 6 6 9 9 6 6 3 : $ $ $ 3 9 v b n n c 6 6 n W ) 7X3X/ / R S n c c v v 9 6 6 6 3 6 6 : 6 3 : 6 h h v S R E F n h 9 6 6 6 3 3 6 6 6 c B S S n 6 3 6 9 9 6 : @ @ 3 c G W _ / R n 6 6 9 6 9 6 3 $ $ 6 6 6 @ # 3 h S R / ( _ / R B c h 9 6 6 3 6 6 6 6 6 9 b b v v c 6 3 6 6 6 6 6 9 9 6 6 6 3 6 6 c D R R D b 9 3 $ $ 6 6 6 9 9 6 6 6 6 3 3 3 6 c b n v h : $ $ 3 3 : 3 6 6 6 6 3 6 6 6 $ @ 3 n W / / R n 6 @ # 3 6 6 h 9 c h 6 : $ 3 6 6 h c n n n c 9 9 v c 9 : # # : 6 6 c B F R S v n B D S n b n S G / / W S c 9 6 6 6 6 3 3 3 3 6 6 9 h c c 6 3 3 6 b n n n b c c c 9 9 h 9 6 6 6 6 6 3 3 3 $ $ $ # $ 3 6 9 6 : $ 6 n S P P S 9 : @ # $ $ # # $ $ $ : 3 3 6 6 9 9 9 6 3 3 3 6 6 6 9 6 6 3 3 3 6 6 9 c 9 6 6 3 3 6 6 n S S n n h 6 6 n n b 9 9 9 c n P E G c 9 9 9 6 6 h B P P B 9 3 $ $ 3 6 9 9 6 6 6 6 6 9 9 6 6 6 9 9 h h 9 6 6 6 3 3 3 6 3 : $ $ + @ # $ : : 3 6 3 6 6 3 3 3 3 6 6 6 3 : 6 n F R P D b 6 6 h b n c c h h 9 6 6 h c n n n h 3 $ $ @ # $ $ 3 3 6 6 6 3 3 3 3 3 6 6 9 n E ) ) R n h 3 3 9 v c 9 6 9 h c 6 $ $ : 3 : 3 : : 3 6 6 3 3 $ $ $ $ : 3 3 3 @ 3 n W W S 6 : ",
"3 3 3 6 6 6 6 6 $ $ + + @ 6 c b S D D S n c 9 9 c h h 9 9 c b b 3 3 6 9 6 3 3 3 3 6 h c c c c 9 6 6 6 6 n E ) 8X3XW S 6 + + @ $ 6 6 3 $ $ 9 S F P R W ( _ / E G n c c b n n B n D D n h 9 h c b v c 6 $ $ 6 9 9 6 6 n F R G C c 3 : c P ! / ! E B v c n B D D n 6 3 : 3 6 6 6 3 : : 6 c c 9 9 6 6 3 # + $ 6 c n n n 9 $ 3 v S D S b 6 : $ 6 h c 9 6 6 3 : $ 3 6 9 h 6 $ @ 3 6 9 c h 3 $ 6 n G P D B B S D S n c 9 6 3 6 c n D G B n h 3 $ # $ 6 h b B S B b 9 6 $ 3 6 6 9 6 : @ # # $ $ $ $ $ $ 6 b R _ 7X) / W W R G S B S B n b v n S S v 9 9 h c c c h c h h 6 6 6 6 h h 9 9 3 6 c b c 9 3 : 9 n P ! _ ) ( W R S v c 9 6 6 c v n n v c n v 9 6 6 c S D D n v 6 3 : : 3 3 3 3 3 6 c n D E ! / 9X7XE h $ : 6 6 h 9 6 6 3 3 3 3 9 v n n n c 6 6 3 3 3 $ $ 6 9 9 6 3 $ $ 6 n D G D B b 9 6 6 6 h n D G G n 6 @ $ h S R / _ ! G D v v b n B S B n n h 6 : 3 c n S S n c 6 $ 3 6 : $ # $ 3 6 3 : 3 3 3 3 9 v b n n n h 9 9 9 v S D R G B 9 6 v n n 6 3 3 9 9 3 $ 3 6 c h 6 6 6 9 h 9 v B D R ! / E n b n S B c 9 9 v n n n S D D S n h 3 : : $ $ 3 3 3 6 6 6 6 c n G P R P S b c 9 6 6 6 9 9 9 6 6 9 c v c 6 $ 3 c / 3X) E n 3 + + $ : : : $ : 3 6 6 9 3 # + + : h / ) 7X/ D 9 $ $ 9 c c 9 6 6 3 $ $ $ : 6 9 c n D E R D c 3 3 6 6 $ : 6 9 v D P G E P S n S P W W R F G R E W E R F S n b h 9 6 3 6 3 6 6 6 6 6 3 3 3 3 6 6 9 h c c c 9 9 6 6 6 6 9 9 6 6 6 3 3 3 3 $ $ $ $ $ 6 c n n c 6 h G W / R D h # X @ $ : $ # + + + $ 6 9 c n S S n c 6 3 3 6 n P R R G D v c h 9 9 c c 9 9 6 9 n B G P D 6 $ # $ : 6 c b D R / ( / R S b 9 6 9 b n n n n D S c $ + $ 6 6 h c 9 6 x S R R S n v c 6 6 9 9 6 9 6 3 3 6 6 3 6 : # # : 6 c n S S B n v n n v h 6 6 3 : 3 6 6 9 n R / / E S n b b c h 9 6 3 3 $ $ 3 6 b D P G D b 6 $ @ @ $ 3 6 6 6 3 3 6 6 6 9 6 6 6 3 3 6 6 6 9 9 6 6 6 6 6 6 6 9 c c h 9 6 6 3 : : $ 3 6 6 6 : 3 6 6 6 h c 9 9 6 3 : 6 b S n b 9 3 $ 6 n G W W D 6 # $ , 3 6 c n S n 9 6 c F F B 9 : @ @ 3 9 c 9 $ # : 6 9 9 6 3 $ : 3 3 6 6 9 b n n c 6 6 9 h n D D n h 9 h h c c c c v c n n b v c c c 9 9 6 3 3 3 : 3 9 9 6 3 $ : 3 6 3 : $ + + $ c S D B b 9 : $ : 6 6 9 6 6 3 6 6 6 3 3 : $ $ : $ $ : 9 9 9 9 6 6 6 6 $ 3 h S D b 9 c S D B h 3 : 3 9 v n S B n h 6 9 h 9 h c 9 6 6 6 6 6 6 9 9 6 3 3 6 9 c n n c 9 9 h c c c h 9 6 3 6 3 : : : 3 3 6 9 6 3 $ # $ 3 6 v b c 3 $ # @ @ # $ 3 : : 3 3 3 # : 3 6 9 v b v 9 6 3 3 6 9 c n n n v 9 3 $ # @ : : : $ $ $ $ $ 3 6 9 9 9 6 3 1 6 9 D W W S 9 3 6 v D R R D n v v c 9 3 : : 3 6 6 6 6 6 6 : $ 3 6 6 9 h 9 6 6 9 h c v c 6 : $ $ ",
"9 6 6 6 3 3 3 $ $ $ 3 6 h c c h 6 6 9 c n b c c c b n G W / / E F n 6 3 3 3 6 6 3 6 6 6 6 9 h c v c 9 6 6 6 9 h S S b 6 # $ : $ 6 6 3 # : n E E W ! / _ / F n n G P S c 3 3 9 n D D B v 6 3 6 9 n G R P R E G v 6 : 9 B R / _ W c 3 3 v B S B v 9 3 : $ 6 B P D b 6 6 h n D G F b 9 9 v n F R R G n 6 3 # + @ 3 b B b 6 3 c B B n n v c n B B n n n S D F F G R ( / E S c 9 9 9 b n n b n S S n 6 3 3 6 6 6 3 3 : : 3 6 9 n P ! 9X9X) R B h 6 9 n n v h 9 6 6 9 b v 9 6 6 b D F D S c 3 $ 3 6 9 9 6 6 h n D R R n v c v v h h c b c 6 3 3 6 c b n n c 6 6 6 6 6 9 6 6 6 c n n n c 6 : $ : 3 9 n n S E / ( / W R S n S G S n S G _ 7X_ E F F G S n c v n n b c c 9 6 6 6 6 6 3 $ 6 6 9 b n B S D S S v 3 $ 3 6 9 9 9 6 $ # $ 3 3 3 6 h v n S S n n b n n S R R S 6 3 : 3 3 3 3 : $ $ $ $ : 3 6 h b n n n v 6 6 n W 3X8X) / E F D n n v v c 9 9 9 9 9 c c h 3 $ $ $ $ 3 h D W ( _ E D c 6 6 6 6 3 9 v v v n G G S c 3 3 3 : : 3 : $ $ c P / / W R b 9 6 c b v c h 3 : 3 6 6 $ @ $ h b D R W / / R D n c h 9 6 6 6 6 6 6 3 9 c n D D D B v c v v c c 9 6 6 6 3 $ $ 3 c G W / R n 9 3 $ : 3 6 6 6 5 6 6 3 6 6 6 6 6 6 6 6 : : 3 6 6 6 6 6 6 6 6 9 h 9 c 9 6 3 3 6 b S D S n c 3 # # 3 6 c c v b c 9 : : 6 h c c c c 6 6 6 6 h n n c 6 @ + $ 3 9 n S S D B h 9 n D S c c c v B R E G 9 : $ 3 6 6 6 6 6 3 3 6 9 c n n h 9 6 3 6 v B D n n n c c c 9 6 6 6 9 9 9 9 6 6 3 3 3 3 : $ : 6 6 6 : $ 6 n S A b 6 : $ $ # $ : $ $ 6 h h 9 6 6 : 3 6 6 9 6 3 3 6 6 9 6 6 3 : : 3 6 6 9 h c 9 6 : : 1 6 6 h v n n n n c v B S n 6 # 3 b D G G D b 9 6 6 6 c n B D B v 6 : 3 6 6 6 9 6 3 3 6 9 6 h 6 6 9 h c c h c 9 6 6 6 3 3 6 : : 3 3 : $ $ : # # $ 3 3 6 6 6 $ # $ 3 6 6 6 3 6 9 b n n h 3 3 9 c c v v c h c c c h h v B S n 3 $ # $ : : $ $ 3 3 6 3 3 6 6 6 6 6 3 3 h G / 7X8X/ B : $ 9 S G n c c n b 6 6 6 : 3 6 6 6 3 3 3 6 6 6 3 : $ $ $ 6 6 3 $ @ # : 3 c v c h 9 9 9 9 9 c 6 $ : 6 6 6 3 $ 3 c S R W _ / / ! E D h $ @ + + @ $ 3 3 6 v S D S n v 9 3 3 3 3 3 6 9 h c h 6 6 6 9 9 6 3 3 6 9 c B G W ! W S F W ( ) / R S h 3 $ 3 6 6 6 6 c c c 6 3 6 6 9 6 6 3 3 3 6 6 3 3 $ + + # h F W ( ( W S n n b c 3 $ $ 6 9 6 9 c n D R W P B c 9 S F G S n n v c 6 : @ $ 9 B P R F S v 9 9 h 9 3 6 6 c D E / / W D B n n c 9 9 6 9 9 h c c h 9 h 9 9 h c v v h 9 9 6 6 6 6 6 6 6 6 6 6 $ $ 6 9 9 6 9 6 6 6 6 3 : 6 6 6 6 3 : $ $ 3 3 3 3 : 3 6 h n n n b S G R E D b 6 $ # $ : : $ $ $ # $ 3 6 6 6 6 6 6 9 9 6 6 3 $ # $ : $ $ $ : : : : 3 6 6 6 6 6 6 6 6 6 9 c 6 c n n n 9 : : 3 6 n D G F G R 3X_ E n 3 $ $ $ ",
"! W R G S S B n c c B R E S 9 6 3 3 3 6 3 $ : 6 h v n B F / 7X7XW F b 3 $ : 6 6 c 9 3 $ $ : 3 6 v n B b v n n c 3 3 6 9 v b c h 6 3 6 9 c n B b 6 3 # $ : : 6 n D Y S 9 6 3 3 c G / 3X) / E D n b v v n n b c 9 6 : : 3 3 h n v c 9 h c 9 6 6 3 3 : 6 9 3 : : $ $ 3 c n n n v h 9 6 9 c c n n c 6 h n G G G B c 6 3 6 6 6 3 3 3 6 9 6 $ : 3 9 c S F W _ _ W G S c 6 6 h 9 6 9 b b n S B n n n c 6 3 $ 3 3 3 6 6 6 8 6 6 6 9 v n D G D n v 9 6 6 3 6 9 9 9 6 9 c b b 9 $ : v G E W R n 3 @ $ 3 3 $ $ 3 3 3 6 9 6 3 : @ + 3 S ! 7X8X) F 6 + # 6 9 c c h 6 3 : : : $ : 6 9 n G R R n c c v c 3 # @ : 3 9 v S R E P A n n S D G F D D G R / / G n n v x 9 6 6 3 6 6 9 9 9 6 6 3 3 3 3 3 9 b n n b c b c h 9 9 6 6 6 9 9 6 3 3 : : $ $ # $ $ 6 c n c 3 $ v R W E F n 3 X X $ 3 3 3 $ # # $ 3 6 h v n S S n h 9 6 3 6 c n n n n b h c c h c c h 6 6 6 c n D G D v 3 $ : 6 6 9 h c b S W ! ! P n c 9 9 h v c v B D D n 3 + # 6 9 c c h 6 9 n S B n v 6 9 9 h 9 9 c h 6 6 3 : 3 6 6 3 : $ @ : 9 9 c n n v v c c c 9 9 6 6 9 6 6 6 9 n F / ( E n h c n b c h 9 6 6 3 3 3 9 c B D D n 9 6 $ # # $ 3 6 6 9 5 9 6 6 6 6 6 6 6 9 c n n B n c 6 3 3 9 h 9 6 9 v n c 9 6 3 # $ $ 3 3 3 6 6 3 6 6 6 6 6 6 9 9 6 $ 3 6 h n D S v 3 $ 9 D E R S n : + + 3 6 h b v b b n n S G G B 9 $ @ @ $ 6 9 6 : $ 3 h v v c 9 6 3 3 6 6 6 h c n b c 9 9 c b n m v 9 6 6 6 9 v b n B S B B S D G F S v h c c 9 6 6 9 h h 9 6 6 3 3 6 6 6 : # + $ 3 b G D n 9 3 $ 3 6 c n c 9 c c c 6 3 3 3 3 3 3 : : 3 6 c n n b v 6 6 9 9 h n S S n 9 c n b v 6 3 9 n n n n c b b v h 6 6 6 6 6 6 6 9 9 h c c c 9 6 6 6 6 c b n n b c 9 h c c c h 9 6 3 6 6 3 3 3 6 9 9 6 3 $ # $ 6 v n b c 6 : $ $ : 3 3 6 6 $ $ $ 3 3 : 3 9 9 c b b c 6 3 6 h v B S n n c 6 3 $ # $ # @ $ : $ : : 3 3 6 6 9 6 6 3 $ : 9 b v c c 9 3 9 B G D B b v b c 9 9 6 6 6 6 3 6 6 6 9 6 6 : $ 6 c b n 9 h b S D n v h 3 : $ $ 3 6 6 6 6 6 h n n m 9 6 + + $ 9 n G R G P Y E ! W S 6 $ # $ $ $ $ $ : 3 6 h c c h 6 3 3 3 3 3 : : 3 6 6 3 6 9 9 9 h h h 9 h v B F E W W R S v 9 c S D S 9 3 3 6 6 3 6 6 9 6 6 3 : 3 6 6 6 6 9 9 6 6 : : $ # + X + 6 D W 8X8XW 9 $ 6 c v c c n D D c 6 6 9 9 h v b c c c c c h 9 9 6 6 6 3 3 3 6 6 6 h h 9 9 h c c v n S D P / 7X8X9X8XW B 6 # # $ 6 c c 9 6 6 6 6 6 6 h n B S D S n n n b c 9 6 3 6 6 6 6 3 3 6 6 6 3 3 # $ $ : 3 3 3 6 3 3 3 3 3 3 3 6 9 6 6 6 3 $ : 9 S E W E E W E G D n v c 9 6 6 6 6 9 9 6 6 6 6 3 $ $ $ $ $ $ $ # + @ # # $ 3 3 : $ 3 h B D S b c 6 6 $ # 3 c n D D D G F F S b c 6 6 h b S D G R G G D S n b c 9 ",
") / W G D D S B b c h c c 9 6 9 6 6 6 6 6 4 3 6 6 9 h c v n n n c 9 6 6 3 6 6 6 6 6 3 $ $ : 3 3 : 3 6 v B S B n c v G / ( G c 6 # # $ 3 3 $ + X @ # 3 6 6 h n n B B c 3 6 h S E ) 8X) R D B n n c v c c c 9 6 c n D S c 9 3 $ @ $ 6 c D E / ( / P D v 6 6 9 c c c v S P G n 9 3 3 3 6 6 6 3 6 6 c n R / / G b c 9 h c c c 9 3 3 6 6 6 3 $ $ : 6 b S G R E E E P S n c 9 9 6 6 6 6 3 6 9 v G R P G B n n b v c 9 9 6 3 $ @ $ 6 c G E W R D c : # $ : 6 9 9 9 6 6 3 3 6 9 c 9 3 3 $ $ $ 3 3 3 6 9 h 9 9 9 9 9 h c c h 6 3 3 6 6 6 5 5 4 3 - $ - 9 v n S n c 6 6 6 c b n n v 6 : : 6 h S E R b $ + # 3 6 9 v S S n 9 6 c G G b 6 $ $ 6 n F G b 3 $ 3 6 6 9 9 3 : $ 6 6 9 c b n n c 6 6 9 c n S S B v c c h 9 9 9 6 h h c v c 6 6 6 c c h 6 6 6 6 6 6 6 6 9 u 9 6 6 6 6 # + + + $ 9 n n n c 3 3 3 3 6 6 6 6 6 6 9 6 9 6 6 : $ 3 6 3 6 6 6 9 9 6 6 6 6 3 6 9 c n D S b c S R F c $ $ 6 c S F F B c h c h c v n b v v 6 $ : 6 9 9 9 9 6 3 6 c c c c c c h c b v c 9 6 3 : 3 6 6 3 3 3 6 6 6 3 $ @ @ @ 3 6 9 h 6 3 $ # : 3 6 6 6 3 3 6 9 h 6 3 6 9 c b c c h 6 9 9 c b b b n n l 3 > > 3 3 : : : 3 3 6 : 3 6 9 9 9 6 3 : 6 D ( 8X) R n 3 3 c G E F B n n n b 6 3 3 3 6 9 9 6 3 3 6 6 6 6 6 3 3 6 6 6 6 3 3 : : 3 6 h c 9 6 3 6 6 6 6 6 c c h 9 3 # # 6 b F W ( ) 3X) _ / E n 3 + + + + @ # 3 h v B S B b 9 6 6 $ $ $ $ 6 6 9 9 6 6 6 9 9 9 6 6 6 9 c n S R ! ) ) P n G / ) / G n 9 3 : 3 6 6 6 6 9 9 6 6 6 6 6 6 9 9 6 6 6 3 : $ $ @ +   # D 7XeX9X( R F B b c 9 6 3 3 c c h 9 c S R E P F B n n S D G B n v h 6 6 3 3 6 c D E E S h 6 9 6 9 c h c S E 8XeX9X_ E S c h c 9 h v c 6 6 6 c c c 9 h v n S B n c c 9 6 6 6 9 6 6 6 6 6 6 9 9 9 6 3 3 : $ : 6 6 6 6 6 6 6 6 3 : 3 3 3 $ $ $ 3 3 9 n S R W W E R E W R b 3 @ $ $ 3 3 3 3 3 6 3 3 3 6 6 3 3 6 9 9 6 : @ + @ @ $ : 3 3 3 $ $ # 3 6 6 3 3 3 3 3 6 c v n n b c v l h : + $ n G R G F W ) 3X/ R S h 3 : 6 c n S P R F B 9 3 3 , > $ @ $ 6 6 9 6 3 X   + # : : 3 3 6 6 6 3 : # # : 6 9 6 6 6 6 c S E W F c 3 6 6 6 6 6 6 6 6 6 6 9 6 6 9 v c 6 $ $ 3 6 6 3 3 3 $ # 3 8 9 9 9 h 9 6 3 : 6 9 c c v b B S B h 6 , : 3 6 c v h 6 $ @ + 3 6 b S n b c 9 c c b n b 6 3 : $ $ 6 9 9 6 3 : # + # $ $ 3 6 6 c 9 6 # + # 3 3 : 3 9 c v v v c b v 9 3 $ # @ + + # 6 h h 6 3 3 6 6 9 h c c v c n n n v 9 6 6 6 h h 9 6 3 6 3 3 6 6 6 6 6 9 9 6 6 3 $ : 3 3 6 9 c b h 6 6 3 6 n P W W G n 9 : 3 v S S n b c h h v n n B n v 9 c h h c c 9 6 3 3 3 3 $ $ # # # # : 3 9 n S S n b 6 6 b P W E G G h 9 6 9 9 6 3 h S E _ 7X7X/ P S h 6 3 3 c F E E D B B D G P E E ",
"D G E ! E n 6 1 9 9 6 6 3 3 6 9 6 c c 9 6 6 6 6 6 9 v n B n c h c h 9 6 6 6 6 6 9 9 6 6 : # # $ # : 6 9 9 6 3 3 6 c S R R B 6 $ # @ + @ $ $ : 3 6 6 6 6 9 c v c c h 6 3 3 6 6 9 9 h 9 6 9 9 9 c v b h 3 3 3 6 6 n S S S n h 6 6 c v v 9 6 6 b S ! W P n c h c c 6 9 n G D n h 6 3 3 6 9 9 9 9 6 9 9 h c h 9 6 6 h c h 9 6 3 3 6 $ : 3 6 6 3 $ $ # : 6 6 6 6 6 6 h h h 9 6 3 6 6 c c h 6 9 S E E D n v c v n n n v h 9 h h 9 9 c v n b c 6 3 $ # $ $ : 6 6 9 9 h 6 6 6 3 3 6 9 v D R / ( E n 3 $ 6 c c h 9 c v b c h 6 3 $ : 3 3 6 6 6 6 6 6 - $ 3 3 6 9 h 6 3 : 6 h n S B v 6 3 9 v S G B 9 $ # $ 3 6 6 9 h v n G R W E F S n 9 : @ @ : 3 : $ 3 6 c n S S n c 9 6 6 6 6 9 c v v c h 9 h c c c c 6 3 6 9 c n D Y F R Y G R / / W S n c 9 6 9 9 9 9 c c c 9 6 6 6 6 9 6 3 3 $ = 6 v n v 9 3 # # 6 n G G n v n n b 9 6 3 3 : : 3 3 6 9 n G G G S n 9 6 h n B D D n b 9 9 h 9 6 6 c D G D c 9 c v c 6 6 6 6 9 h c b n n B n v n n c 6 6 9 h c v b c c 9 9 c c c c c 9 9 6 6 6 6 6 6 9 6 6 3 3 3 6 9 n n b c 9 3 : $ 3 6 6 6 6 6 3 3 : 3 6 6 6 6 9 c c c h 9 9 v n D F S b 7 : $ $ : : $ $ # # $ $ : 6 6 6 9 9 9 9 6 : $ 3 6 6 6 3 3 6 6 9 v c 9 6 9 v b c 6 6 6 6 6 6 6 9 c c 9 3 : @ : h n S n n D W W R B h 6 3 : 3 3 6 c c h h c c c c 9 3 @ + # v S S n c b n n B n h 3 $ $ 3 : 3 $ $ $ : 6 h 9 6 6 6 9 h v b c 6 : $ 3 6 6 6 6 6 9 9 9 c c v b n S D D D n 9 6 6 9 c b b h 6 6 6 6 6 9 9 9 9 6 : 3 6 9 h h 9 6 3 3 : 3 3 3 $ @ @ $ b R E P S c $ $ : 9 b n S G D D n 6 3 3 3 6 6 9 6 6 6 6 3 3 6 6 3 : 3 3 3 3 6 3 : 3 6 6 9 h c v B F P G G R ! / E n 9 3 # + + : 6 6 6 6 3 3 : 9 h 9 v D G D c h c n n 9 6 3 6 6 9 6 3 3 3 6 6 6 6 6 6 3 3 3 6 6 6 6 6 6 6 3 6 3 6 9 b B B n 9 : 3 9 n R / ! G D D G G n b v c c h 6 6 9 c h h 9 6 6 3 : : 3 $ : : $ $ 3 3 3 3 3 6 6 6 c S R W W G c 6 3 3 6 6 9 v n D P R E ( ! F l 3 3 9 c v n D D S n h 9 , : $ : h F ( 7X7X( P v 6 3 7 9 3 3 6 6 3 : $ + $ $ : 6 c D E / ) / W G n h 6 6 h v n B B b c b B S n c 6 6 9 h n n n b c 6 3 : # # + + @ $ 3 6 3 3 $ # $ 6 9 n b n F ! / E S n c 9 h c c h c b n B S S C n b n D F R R S h $ + @ 6 D _ 7X/ R G n 9 6 3 # + X + 3 9 D W E D h : $ : 6 v b c 9 6 9 6 3 : : 6 c b B b h 6 3 3 6 6 9 9 6 : 6 B R R D S n n v h 6 3 6 6 6 9 9 6 6 6 6 6 6 6 9 9 6 3 : 3 6 6 3 3 3 6 3 6 6 6 9 9 9 9 3 6 6 9 6 3 6 9 n S S b c 6 $ $ $ 3 3 3 6 6 6 9 6 9 9 9 h 9 6 6 9 c c c c c 9 9 6 6 6 6 6 6 6 6 3 $ # + + + # $ 3 6 9 h h 6 3 $ $ $ $ $ $ $ : $ 6 6 6 3 : # > 6 b S D D B h , > 7 l B D F P F S C b b B B n B D ",
"6 6 6 c 9 $ # 3 9 c c 6 3 3 3 6 3 9 c v n m c 6 6 6 c n S n b b c c 9 9 9 c v b v v b n n n n v n c 9 9 9 9 h c 9 9 6 3 3 6 9 9 6 3 $ # $ 6 v B F D c 3 # $ : 6 6 6 9 6 6 h h 6 3 : $ 3 6 3 $ 3 3 6 6 9 9 6 3 6 $ 3 9 n S n b n S S S v 6 3 3 6 b B S n b c c h c h c c h 6 3 $ 6 6 c v h 9 6 6 6 6 h c v b v c v b c c c 9 6 6 3 3 3 6 6 6 6 6 9 6 : + + # 6 9 v c 9 3 $ # $ 3 6 6 6 : # 3 6 3 3 3 6 9 c c 9 h 6 6 9 c n n n B n c 6 $ $ $ 3 3 $ $ $ $ : 3 6 6 9 h h 9 6 3 3 9 n F W W P b 6 3 n D R G D S n h 9 9 6 6 6 6 6 6 6 6 6 6 6 3 6 6 9 9 9 6 6 9 9 9 6 6 3 3 6 6 6 6 6 6 6 6 9 c v n n h : + + 6 n P R W / ! / 7X3XW c 3 # # @ + + $ : 6 c n n n v c 6 3 $ $ : : 3 6 6 6 6 6 9 9 h c 9 9 9 c b B F E 7X8X( G B D R R E F n 9 6 3 3 6 6 6 9 6 6 6 6 6 3 6 9 9 t 6 6 4 $ 3 $ # #   + 6 W 8X9X3X! G c 9 b b b c h v n v 9 9 b S F G G S n b n S S S B b c 9 6 6 3 6 h n D G S b h c c c n S S G ! eXuXuX0X! S h 6 6 h c b v c 6 6 9 9 9 h c n D F D S B b v h 6 6 6 9 9 9 9 9 9 9 6 6 6 $ $ $ $ 3 6 6 9 3 3 3 3 6 3 3 3 : 3 3 6 6 $ $ 6 c S E / ( / ! W ! E D c 6 3 3 : 6 6 6 6 6 6 6 6 : 3 : : 3 3 6 3 $ @ @ # $ : 3 6 6 6 3 3 6 9 9 9 6 3 $ : 6 h v n S S B n b b c 6 : : c F R P R E W ! E D c 6 3 3 9 b F W / E F S c 9 6 3 3 $ $ 3 6 9 6 : @ + + + $ 6 h c b n b c 3 $ $ : 3 9 c c 9 9 v n D R R G h 6 3 6 9 h 9 9 9 9 6 6 3 : 1 3 6 6 3 $ $ 3 6 6 6 3 3 6 6 6 9 c n B b 9 3 > 3 9 b n B C D P P F c 9 6 6 9 v n n h 3 + . X 6 S R R E D h 6 6 6 9 9 6 : # $ 6 b S n n h : # # $ : 3 6 h c c h 6 3 # # $ 3 6 6 9 9 9 9 9 c c 9 3 : $ # @ $ 3 3 6 v n n h 3 3 6 c n B B n v v n n v 6 3 6 9 c h 9 h 6 6 6 3 6 6 9 6 h 9 9 9 6 3 : : $ 3 6 9 c n n v 6 6 9 v S P R F c 6 3 3 9 n S n c h c b n n B S B n v 9 h v b v 6 6 6 6 3 : $ $ $ $ # # 3 h n S F S b c 6 6 9 v S D A b c c c h 6 6 9 c S W ) ) E D b j 6 6 c n D R F B n c 6 6 c c 9 3 : 6 9 9 h h 9 3 $ $ : : 6 3 3 3 6 b G R R G B c 6 9 v b c c n n B D D B h 6 6 9 9 9 h c 9 9 9 v b v c h 6 9 h c c 9 6 6 c c h 6 6 6 9 c n n c 6 # + + # 6 n G W E b 6 c D R W W E E F n c 6 3 9 h h b B H R _ 0X7XW n 6 $ 3 b R ! E D n 6 $ $ 3 3 3 3 3 3 6 9 c b b n b 7 9 c B C b h 6 @ $ 7 n D P P P S B n n n b v c 9 6 3 : 9 S R E F n 6 + # 6 c c $ $ 3 c c 6 $ @ 6 c n S n 6 $ @ @ + @ $ $ $ : 3 c n n v c 6 $ # 3 6 9 c c 9 9 v S D n h 6 : @ + @ # @ $ 6 c b n 6 3 $ $ 3 3 9 b G H n c 6 9 9 6 9 6 6 6 6 6 6 6 3 3 3 $ $ $ $ $ 9 v D R P B h 6 3 3 : $ 6 n D G S n h 6 3 3 h n R W ( ( ( ! E R F S S B S P W / 3X/ S : # h D P ",
"+ + + # # + # 3 n S D D S b 9 3 6 6 6 3 9 c v v 6 6 6 9 c 9 6 6 6 6 h n S G E W R W W E W ( / E b 9 3 6 6 6 3 6 c c c 9 6 h c h 6 6 6 6 3 3 6 6 9 h 3 @ # : c D / ) / S b B S n 9 6 6 9 9 6 3 6 c n F W E S c 9 n S F R P D n c 9 6 3 6 c S G R G D n h 6 6 9 9 6 6 c B G W W W G B b n n b c 9 6 6 9 c c h 9 h 9 c c v n n b c 9 6 6 6 6 9 9 9 9 9 6 3 3 9 c b 9 9 6 6 6 6 3 3 6 6 6 3 : 3 3 $ 3 6 6 9 9 9 h n n S S B D R E G n 9 : $ @ $ 3 3 $ : : 3 3 3 6 6 6 6 9 h h 6 : : $ : : 3 3 : : 3 3 3 3 3 6 6 9 9 9 6 6 6 6 h c c v c c v 9 # + $ n D F D G W ( ( ^ R n h 6 : 3 9 c b n b v v c 9 6 3 $ + # 6 c n n b 6 # @ 3 6 6 6 3 : 3 6 3 3 3 # $ 3 6 9 h h 9 c v S F D v 6 : 6 6 6 6 6 6 6 6 9 c c c c c b b c c 9 6 6 6 6 6 6 6 9 9 9 9 9 9 9 6 6 6 6 9 c c v v v v c 8 3 $ 3 3 3 6 6 3 : 6 9 h c v c 6 $ 3 6 9 b n S D S b 9 6 1 : 3 3 3 $ 6 $ $ 3 $ : 3 3 6 6 9 6 3 : $ : 3 3 6 9 h 9 c n S D S b n S B c 6 : $ 3 $ # : 6 9 6 6 6 6 9 c c c v S G S c 6 3 c v v h 6 6 6 6 3 3 3 6 6 6 6 6 6 3 3 : 3 3 6 6 c c h 9 6 6 9 c n S F R G c 3 3 v B D F G S n n B S S B n n b c h c v b v h 6 6 9 6 6 3 : : : : $ $ 3 9 c c 9 6 $ 6 v G W ( / E n h 6 9 9 6 6 h b D W _ 7X7X/ R n 6 $ : 6 c n S n n v h 9 6 $ # 3 h D ! ) / P B 9 6 1 3 6 6 6 6 6 3 : 3 6 3 3 6 9 n F W / / W W P S v 6 6 h n S n b b n n b c h 9 9 9 c b n n B h 9 6 1 $ $ : : $ $ 3 6 6 6 6 3 $ $ 3 9 b D E W ! ! P n b n n n b b c h c n B n n n b n D P W ! E P v $ @ 3 b D ) 8X/ D n c 6 : $ $ + X # 9 n G G G S h 6 6 9 c n n c 6 3 3 6 6 6 v D G F S b c 9 6 6 : : 6 6 9 9 v E 7X) F 9 3 6 9 9 6 9 6 6 6 3 3 : $ 3 9 c b c 9 6 3 3 $ $ : 6 3 $ $ 3 9 c c 9 6 3 3 6 6 6 9 b v c h v S F G c 3 $ $ @ @ # $ 6 6 c v h 9 6 3 6 6 6 6 h c v v c 9 6 9 9 6 6 3 6 6 6 6 6 3 $ $ $ $ $ : 6 c b n 6 3 $ $ # # # $ # : 3 6 6 3 : $ $ $ 3 9 b F E P B b b B S S S F W W R D D F G D c 9 3 : # + # : b n B n 9 3 # X + $ c D ! 8XrXuXrXeX) R n c 6 : h 9 c v n R W R n 9 6 6 6 6 3 3 $ $ 6 c b c 9 9 9 6 6 6 6 9 c v 9 c n B S B D E ) 3XW n 6 3 # + + # # $ 3 $ $ 9 n E _ ) 8X7X/ D 6 @ + : 3 6 9 9 $ $ 3 6 6 4 $ $ $ $ 6 c n D D n 3 # + # : 6 h c c n D F D b 6 + > 6 n R ^ ! E D b 9 6 6 6 7 9 9 h 9 6 6 6 6 6 6 3 3 3 6 3 $ @ + # 3 c S R E G B 6 3 6 v n v 9 6 @ @ 6 n D n v b c 9 6 6 6 6 h v b S S n n v 9 c 6 6 3 : $ $ : 3 3 3 : $ $ # # 3 $ : 3 3 3 : $ $ $ $ 3 6 9 6 6 6 c v n n n S G S c 9 9 9 h h 9 9 9 6 3 $ $ $ : 3 : 6 c S D S n v 3 3 6 9 v b v c 9 6 3 : # @ $ 6 l B F F D B c 9 3 3 7 h h 6 3 6 3 h c c B P W / ",
"+ # $ $ $ $ $ $ $ 3 9 v n c 9 9 6 6 3 $ $ $ : 6 6 9 6 6 6 9 c c 9 9 c b B D G R / W G h 6 n G G n v h 9 6 6 6 9 c x 9 3 3 3 6 6 6 9 h h 9 6 3 3 $ : @ X + # 9 D 7X9X( B 9 9 9 h 9 h n D D b 9 6 9 c v v v b n v c v c h h c c h 3 3 3 6 9 c v b n n v c v n S S D P ! 3X9X9X8X( S 9 $ : 6 9 c b 9 6 6 6 6 6 6 h S D S n n n n n c h 9 9 9 6 6 6 6 9 9 9 9 9 6 : $ $ $ 3 6 9 9 9 6 6 6 6 6 6 9 9 6 9 6 3 3 3 9 n / ) _ W E / / W S c h c 9 6 6 6 h h h h 9 9 6 6 3 3 : 3 3 3 $ : # # + @ $ 3 3 6 6 6 c S D v 6 6 3 3 3 6 c n G P B S D G D h : $ b S S n S R W R S b 6 3 3 3 9 n E ( 7X) W D n 9 6 6 3 $ $ 3 3 3 $ $ # # $ 3 6 c n S F R F S c 6 6 3 6 c n b v v c b D P F n 9 6 9 c b n n b h 9 6 3 $ $ $ $ $ , 3 : 3 6 6 6 3 6 3 6 9 h n D G G n 9 3 6 6 h b n n n F W W F n v h c n D G D n 6     $ b R ( ) / D c 6 9 6 $ + + + # 6 n G R R G 3 $ $ 3 3 9 c c c 9 9 6 3 $ $ : 9 c h 6 6 6 6 9 9 6 9 9 6 $ $ 6 h c c h c n n h 3 3 6 c n n B B c 9 9 9 6 6 6 6 6 9 h c h 9 6 6 6 9 9 c c c h 9 9 6 6 6 3 3 6 6 c n S S n h 6 3 6 h b n n h 6 3 : 6 9 c c h h c h v n B B n n b h h c c c 9 6 6 3 3 $ # @ # # # + $ 9 n B n n b 6 3 3 : 3 9 c c 9 9 9 c v 9 6 h b n G E R n 9 6 3 9 b S F E E P n c 9 h c c h h 3 $ # $ 3 9 h c 6 $ + + $ $ 3 6 9 n R ) 0X7X/ E b 9 6 9 9 6 3 6 B D F F S c 6 $ 3 3 6 6 6 3 6 9 n B n v 9 9 6 6 6 6 9 h c v v v v c c n A F F B 9 $ + + : h n S S n 9 6 c G W ) 7X_ W D v 9 6 3 6 6 h b B D R W _ ! S 6 $ 6 n F W W R S v 6 # $ , 6 6 9 h h h c S B v 6 6 9 b S G F S h 6 3 6 9 S S S B n n n n b v h 6 3 6 9 9 : 6 b S n 9 3 $ 6 h 9 6 6 3 3 9 n n 9 $ $ 9 n S n v 9 3 $ $ $ $ $ 3 6 9 c n n n c 9 9 9 9 9 9 6 3 6 9 c n n n c 3 $ $ 3 $ # $ : 9 9 c 9 6 3 3 3 3 9 b S G G D S n n n n v 9 6 6 6 6 6 6 6 : $ # $ $ $ : 9 B R W W E S 9 $ $ 3 6 c n F E R S v h 3 3 c S G E / / ( ! E P S b v b S F E E W / / E v 6 3 6 6 : : 6 3 6 6 3 3 3 3 3 $ 6 b F W W P S h 6 3 3 6 9 9 6 : $ 3 6 9 n S v 6 $ 3 h b b v h 9 9 9 6 6 3 3 6 v b n n n c 6 3 9 h c b h 3 $ 3 v n b 6 9 n F P G G B c c 9 3 3 $ 3 6 6 9 9 9 6 $ # 3 b S D D S n v 3 +     + + + # 6 9 v n v 9 9 3 @ + + $ 3 6 3 3 3 3 6 c n B v v n n D G G G n c 9 9 6 6 3 $ : 3 6 9 9 6 6 6 b c c h 6 $ # $ 9 c S G R R R G c 6 6 6 9 c b v c 9 6 6 9 9 h v n b c 6 6 n R / eXrX0X/ G v 6 3 9 h c c c c c 9 c c h c v b n D E R G n 9 3 $ $ $ $ $ 3 3 3 3 3 + + # $ $ $ $ # # @ $ 3 6 6 6 9 6 6 6 9 9 6 6 6 6 3 3 3 3 6 c n R E E R S c 3 : 3 3 : $ # @ , c E ! W D c 6 : # $ @ + @ @ # 6 n ^ ) ( ! W ! / / ",
"6 6 4 6 6 $ $ # : 3 9 v v 9 6 9 D G R P S c 6 6 6 9 6 6 6 9 9 9 6 6 h v c 9 6 3 3 6 6 6 3 $ $ # 3 6 h c v v h 6 6 3 3 6 9 c n S D S S B v 8 : $ 6 h c b v 6 $ $ $ 9 c n n v 6 6 6 9 b S n v 9 6 3 3 6 9 6 6 6 3 = # # $ $ 6 6 9 9 6 3 $ # # 3 6 3 6 9 9 c c c v b c 9 : @ # $ + @ @ 6 c h 6 : : 6 h b n n n n n n B n 9 6 6 6 6 v c u 9 9 6 6 6 3 6 6 9 h c h 9 6 3 3 6 9 h c n n v 9 6 6 9 n F W W E S c 3 1 6 n S S n v b n b S B S G D n c c n n b c 9 9 6 6 3 3 : $ $ @ @ $ $ 6 c n B b 9 6 6 c P _ _ G c 9 c c v c 9 9 v n W ) 7X3X/ F b 9 : 3 9 n D F D S b l 9 6 3 $ = 6 B G R G S c 6 $ 3 3 6 9 6 3 3 6 9 c 9 6 9 9 c v B G R E E R F S v c c b n n n B n b c h 9 9 9 h c c v n n n n b 3 $ : 6 9 3 $ $ 6 6 h c 6 $ # # $ 6 v S E / / E n v b S D G D B B v c v c c b n B S R W / 7X3XE b 3 # 3 v W 7X_ G n 9 9 6 3 : $ # # $ 6 c n n n n c h c n B B v 6 3 3 3 9 b S P R E R S n v h 6 9 6 6 9 6 6 v D 3X3XW c @ $ 6 6 9 9 6 6 6 9 6 $ $ : 9 B D n 9 3 $ # # : 3 : $ $ 6 9 h c c 9 6 3 3 3 3 6 9 h c b c n S D S c 1 @ $ $ @ @ : 6 v n n n c 6 6 3 6 9 b b n n c 9 6 6 h 6 6 6 6 6 6 6 3 3 : $ $ $ $ $ 3 6 n D S n 6 # $ # $ 3 3 3 6 9 v b c 6 3 : 3 6 n D E / / E G G D F D S D E / / / ! W W R n 6 $ 3 : $ $ : 6 c b 9 6 3 % @ $ 9 n / 8XeXqX9X8X/ R S v h c h 6 9 v b B D S B c 9 9 6 c h 6 6 6 6 9 h c h 6 6 h c c c c c c v v v v B S D G R / / E v 3 $ : $ # # @ $ - 4 6 u v D Q _ / Q B 6 % + + 6 9 c h 6 3 $ @ + $ $ # $ : 6 h v n n b h : + + , 3 6 6 h c m B n v 6 $ $ 6 b F / ) ( E D b 9 6 6 9 9 9 9 9 6 6 6 6 6 3 3 6 6 3 6 $ + + + 3 n G / _ W S c 9 6 6 c c 9 3 $ 1 6 6 B B n c 9 9 6 6 9 c n B D G F G D n c 6 3 6 6 6 6 3 3 3 3 3 : $ $ $ $ 3 3 6 6 3 : $ @ + # 3 6 6 6 6 6 6 6 6 9 c n B n c 9 h c h h h c c h 9 6 6 3 3 3 3 3 3 6 6 c c c 6 9 n D D S v c c 9 6 $ @ + + $ c B G G G S b 9 , > : , 3 6 3 6 9 c n S n B b v b v 9 6 3 9 9 9 6 6 6 6 3 $ $ $ 3 6 6 $ $ 3 : 3 6 6 6 6 3 6 3 3 6 6 c v h 3 : : 6 h c v c c 9 3 : 6 c n S v h 9 6 3 : $ $ $ 3 3 6 9 9 9 9 6 6 $ @ 3 n E ) 9X9X3XE n :   . + + + + + + @ $ 6 h n S S n c 9 9 9 6 6 6 3 3 $ $ : 6 c c c h 9 : $ : 3 3 : $ # $ # $ 3 h D E W G n 6 % + $ 5 5 6 - - 4 3 $ $ # + # 3 9 h 9 6 6 6 6 6 3 $ : 6 h S G W W R n 6 $ c h h 9 h n S D D D n 6 : 3 6 6 c c c 6 6 9 c b B S B v 9 6 3 6 9 b S S S D D S F F D B n D G G F D B n c c c h v v n S D D n 9 6 # + # $ 3 6 6 6 3 3 3 3 : : : $ # @ $ 3 6 9 c n n n n c 9 6 6 9 c n n v 9 3 $ 3 6 9 v n n b n b c 6 $ $ 3 6 6 6 3 $ $ $ # : 9 v B b , @ $ $ # ",
"/ / / ! E S c 6 3 6 c S D n c v n S S n b 9 6 6 B D G G S n 9 3 $ @ + @ # # $ 6 9 6 3 $ 3 3 6 c c b S G E W R F c 9 9 c v b b n n B D G F B v c n S G R P B 6 @   + c W 7X) W P b 6 3 $ @ + @ + $ 3 B W ! P n 9 - $ 6 n n v c 6 6 3 - - 6 6 c v S n c 6 $ $ 4 6 9 9 9 6 9 B P P G B n b v h 9 6 6 9 v n b c 9 h 6 9 u u c c 6 6 6 0 9 c 9 6 3 3 9 9 h h 9 9 9 6 $ : 6 h h 6 6 h S G D n 9 3 $ $ 6 6 6 6 6 9 h c 9 9 9 9 9 9 h c v n n b b v c c h h 9 6 6 6 6 6 $ $ : : : $ : 6 c v v h 6 6 3 3 $ # $ 6 6 3 6 9 9 9 9 6 3 3 9 b G R G v 6 6 6 6 b B F W W F B n b b c 9 9 3 $ $ + # 3 c n m c 9 + + + $ 6 h B P 3XrXuXuX9XW n 9 6 6 6 6 9 c B D E R D c 6 3 : : 3 3 3 : 6 c n B n c 9 6 6 6 9 h n c 9 h c b n S S D E / ! D 6 @ + @ : 6 h c c 9 3 9 G / 8XeXeX8XW G c 3 # $ 6 6 c c v n B G R D 9 $ : 9 b D R P S v 6 @ + 3 9 9 6 6 h b n S S n 3 : 3 9 n P W R S v 9 6 6 h v n b b v c c c h c 6 3 3 3 3 6 3 3 6 6 6 3 6 n S n h 6 3 3 6 c n v # # 3 c n S S n h 6 3 3 3 3 6 9 c n B n n B n b 9 6 6 6 6 6 3 3 6 6 6 3 3 : $ $ 3 3 : $ : 3 6 9 : 3 : 3 6 6 9 v S S D D D G G D n v c h 9 9 9 h 9 9 6 3 $ $ $ $ $ 6 n F E W P D 9 3 : 6 9 b S F P F n 9 3 $ 3 9 b G E W W E R G B n c c c b n B B S D S n v h h c c 9 6 3 6 6 6 4 6 6 3 3 : 6 h n D B h 6 6 3 : 3 3 6 9 9 3 $ $ 6 c n n v 6 $ $ c n n c c 9 6 9 3 6 6 9 c b n n c u 6 6 6 6 6 9 3 6 3 $ $ 6 9 6 9 c P ) 8X7X_ W n 9 3 3 $ # + # $ $ # # # $ 6 c n S D S n v 6 : # @ @ # $ $ : 6 n n n 9 6 6 3 : + # $ 3 3 , $ , 9 n F E E S c 9 b n n v c 9 9 c 9 6 3 3 3 3 6 9 h h 9 9 9 c c 9 3 $ 6 c n n S S D D S v h c c 9 9 h n F F n h 9 6 9 v B B n c c 9 b G / 8X8X3X/ G n 9 3 3 c D D b c b S S n n b n S R ! ! E G n 6 6 6 3 6 6 6 6 6 6 3 : # @ @ $ # $ : # # $ : $ 3 3 3 6 6 6 3 3 6 6 6 6 6 9 9 c c b B G R W E F c 6 $ # $ 6 6 : $ : 9 S R R G B 9 6 3 : : $ @ +   $ n W ) ( W P b c h h 9 3 $ $ : 3 6 6 6 6 3 $ $ $ @ @ @ @ $ 6 3 6 c v v c h 9 6 6 c n n b c h c c c c c c c c 6 3 : 3 9 9 9 9 6 3 $ # @ + + + + : 9 n S n c 9 9 9 6 6 3 # + $ 3 3 : $ 3 c S G D S c $ + + $ 3 6 v F E E D v 9 9 6 6 3 3 3 : : : $ $ $ $ $ : : 3 3 : : $ : : $ # $ $ 3 6 c v v c 6 6 6 6 6 6 6 3 $ 3 6 6 6 6 6 c c v b c 9 6 6 n n n n h 3 $ @ 6 c B D B c 3 $ 6 6 9 6 6 6 3 : $ : 3 6 v D F D v 9 : @ @ $ 3 3 6 6 6 6 6 h c v c h 6 3 3 3 9 c 9 c b b n n n c $ $ 6 c B G F D b b S R / 7X0X8XE S 6 + + 3 c D G G S c 6 6 6 6 $ $ 3 9 v v c c 6 3 +     + @ # : 6 c D P G D S n n n n S D S B 9 3 @ + # : 3 6 9 9 6 $ $ : 3 3 3 3 h n n 9 3 3 ",
"c b n n S D G D n c h c b x 9 9 c c 6 6 9 v n n 9 9 h c v c 9 6 6 9 h v c 9 6 6 u v n c 6 # + + $ 6 S W W D n b n D R / ( / R G n c c v c h h v S R ( 8X8X3XW S : + 6 G W ! W G b 6 3 3 6 6 9 6 : : 3 9 c n B n u 9 v n n n c 6 $ $ 6 c n D G G G G S n v c 9 6 6 6 3 : 9 G W W R S h $ + : 9 h 6 3 6 v c : @ $ c n S n v 6 $ # # # # $ $ $ 6 9 n n n c 9 6 6 6 6 6 h b v 6 6 h B D n 6 3 3 : : $ $ 3 9 c n n c 6 3 : 3 6 h b B D F B 9 6 9 9 9 9 9 9 6 6 6 3 3 3 : $ # $ : 6 h S F P G S c 3 $ $ : 3 8 v S D D n c 6 3 6 c G W ) 3X3X_ / W P D n n B F R W ! ( 3X( R b 6 6 3 $ # # $ 6 9 9 6 5 6 : # $ 9 S W ( ) ) W G S n v c 9 6 6 9 9 9 h b B S n 9 3 6 c c c c h 6 6 9 h 9 6 9 c n n n v c c b v h c n n b c c S R P n 6 6 h 9 9 9 6 $ # : 9 9 9 9 c D R G S c 3 + + 6 n B B n h 3 # + X X + @ 3 6 9 c v n n c 6 # + + $ 3 6 6 6 9 9 9 9 6 6 6 6 6 c F ! / W G B c 9 h 9 9 6 9 6 6 9 9 9 9 9 9 9 h 9 3 $ $ # $ 6 c D / 3X) P n 9 9 9 9 9 9 v 9 6 6 6 h n B B n v 9 6 6 c B E / / ! E P S v 6 6 6 9 9 6 3 : 3 6 6 6 6 6 6 6 9 c v b c 6 $ # $ : 3 6 9 6 6 6 3 3 : $ 3 9 c 9 6 3 6 6 9 9 9 9 c h 9 6 6 6 6 6 3 3 : $ $ 3 9 h n S G E R D v 6 6 3 : : #   + 3 S G E E G B h 3 : $ # : 3 : , h D R W E F S b h 9 6 3 $ : 6 9 9 9 6 6 6 3 : $ $ 3 3 : $ : 3 6 9 9 9 6 6 3 3 6 9 9 c c h h 6 6 9 h c c v v 9 3 3 3 6 v S B c 6 : $ # # # # 3 6 9 b v b n b 9 3 $ @ $ 9 S R ! W P b 3 # @ $ , 3 3 @ + @ , h n S F D S c 6 6 9 c h 3 $ $ 3 3 : : 6 9 6 9 6 3 $ $ $ 3 3 $ # # + @ $ 6 h n G D v 3 3 # : 3 6 6 3 : 3 6 6 3 : # + @ $ 6 6 6 6 6 6 6 6 6 3 : 3 v R ( / G n 9 6 9 c v v 9 9 c n S n c 9 6 3 6 c c 9 6 6 6 6 9 c c c h c c 6 6 6 6 v n b h 9 n G G n c 9 c h v n b 9 6 9 n B n c c b D R ! W W G n 6 $ @ : 3 6 h c 9 9 9 6 6 3 $ $ : 3 6 6 6 9 c c h 9 6 6 3 $ @ $ 6 c b n b h 6 3 c D F D G D B v 6 $ $ : 3 6 6 6 $ # @ $ 3 6 6 6 : $ 6 B F / 0X8XW B v h 9 6 : $ : 6 6 c n n b h 3 3 h P W W P S b h 6 $ : 3 6 9 9 9 c S D S n b c 9 h v B P E G n 6 3 9 6 6 6 6 3 $ $ # # # $ # + X @ $ 1 3 6 h c c n n n c 3 : c n n 9 3 $ $ $ @ @ @ @ 6 n R / W D B 6 $ # $ $ # # # @ $ 6 9 b D G G n c 6 3 $ 6 9 9 6 6 6 6 9 b n n h 6 6 9 7 6 6 6 6 : $ $ > 9 n S G W 3XeXqX_ P n h 6 6 h h 6 : 3 3 3 : $ # # # # $ : 6 c n D G D c h 9 h c c v b h 6 3 3 3 : $ : # : 9 n S S n h 3 : : 6 9 9 h c c v B P E R G D n h 6 6 9 v B n v 9 9 h v F / 7XeXqX) P b 3 # : v n c $ # 6 v c 6 9 n G G D n c 9 9 9 h n G F D 6 # @ 3 3 $ 3 c F W Q F S n v h h 9 6 6 : + @ 6 B P F n n D G D b h h h 9 9 c 9 ",
"b v 9 6 h S R E P D b 6 $ 3 6 6 3 3 3 9 h c c c 9 9 9 9 9 9 h c 9 h c c v n S G E W / / R v $ + # 3 3 3 : $ 3 6 n G W / 7XqX0X/ n 6 + # 3 6 6 6 9 6 6 6 9 9 9 9 3 6 9 c n D D n 6 3 $ # $ 3 9 9 h c n F G b 6 $ # $ v G W / W R n 9 6 6 6 9 u 9 v c 9 9 9 9 6 6 3 6 6 6 3 $ @ # # 6 v S G R G n 3 $ 3 c b c 9 3 $ $ 9 S F S n c c 9 6 9 h c v B S D D S S n c h 6 9 6 3 3 3 : 6 3 : : $ $ $ 3 6 3 3 : : 3 3 : 3 6 6 6 6 9 h v b n n B S D S n n c 9 9 c v v c 9 9 6 3 3 3 : 3 6 h b S P F n 9 6 9 h c b n D S B c 6 $ # $ 6 c n G G R R D b 9 6 9 9 c c h 9 h h v b v v c n n n 6 6 6 9 9 6 6 9 6 6 3 $ $ 6 9 9 9 3 3 3 : : 3 6 9 6 3 3 $ : 6 c n n h : $ 6 c b b c c c h 6 3 6 9 c v c c c h 9 6 3 6 9 9 6 6 3 $ $ $ 6 3 $ 6 n / 8XeXeX0XW S c $ @ + + # # + + + @ 3 9 c n D D S n n c 6 3 : $ $ $ $ @ : h n n v 9 6 3 $ $ $ $ $ $ $ # $ 6 n S ! / E n 6 6 9 9 9 9 9 6 6 6 6 6 $ $ $ 3 6 c v h 6 6 9 h 9 6 : : 9 b G E E D n c c 9 c v v v n S P R G n v h 9 9 b n n v h 6 6 n R / / E G S c 9 6 3 v F G S S S F G G S S S G R / / E S v c c h h 6 h n b b v 9 6 $ # # # $ 3 $ 3 3 3 6 6 6 3 3 : : 3 3 3 3 6 6 h c b n n b b n D D D S b 6 $ @ @ # 3 6 6 6 h v S S B v 9 9 9 6 6 6 $ + + + $ c E W E S v n S S F S v 6 : 3 6 6 4 - 3 3 $ $ : $ @ $ : 3 3 9 b n n n n v c 9 9 c n A n c c n n v b c 9 9 6 6 6 9 9 c 9 3 : $ 3 6 3 $ # + + # 6 9 c v 9 3 6 6 3 9 6 6 3 $ $ : : $ $ 6 B W W S 6 $ $ $ + + : 6 b F W ( E c 6 6 3 : $ : 3 3 : $ $ $ $ : 3 6 9 6 3 6 $ $ $ $ $ : 3 9 c n B n n v h 9 h 9 6 6 3 6 6 6 3 3 9 n S D G P P F B 9 9 B G S c 3 # # 3 6 9 9 6 6 3 $ $ 6 9 c 9 6 6 3 $ # $ 9 D R P n c 9 6 6 : : 3 6 9 6 6 h v n b c h 9 6 3 9 9 6 6 6 c n D D G D S v 3 : 6 D G R G S n S G W ( 7X7X/ G c : # $ c P E G n c 6 6 3 3 3 6 c n F R S 9 : + + @ # : 3 : 1 6 c v n S S S D F P G F D S n 9 : @ @ + $ 6 h v c h 9 6 6 9 9 6 $ # $ 3 6 n G R G S b 6 3 3 6 h c c n B S D D S b v n G G S c h v S R ! / R b h c S R / ( / E S c 6 6 c n D G F S b c c c n n 9 6 3 $ $ 6 3 1 3 # + @ $ 6 6 6 9 c h 9 h 6 6 6 3 6 6 3 3 3 9 b n S n c : # + # 3 6 9 9 9 9 6 6 6 6 9 9 6 6 6 6 h n S S 6 $   . # b E / / E S 9 $ $ $ $ : : 3 3 : 3 6 9 9 9 h c n D G R P F D S S b 9 6 + + + # # # # $ 3 6 6 : $ + + $ 3 h b n B G E R G n 6 @ X + $ : 3 : $ $ $ : 3 : : 3 9 n S D G D n v 6 3 3 h n D S S v 6 6 9 h c 6 6 6 6 3 : 3 6 9 h h c c c B E 8X9X7XW G n 6 $ X + $ 6 c c h 9 6 3 3 9 9 9 9 c b n n n D W / / G n 9 3 $ # $ 3 h v n b 9 3 $ $ 6 c b c 9 6 6 6 h c c h 6 6 6 6 6 6 : : c R ) 9X",
"6 6 3 $ : 6 v n v c 6 : 6 b n n h 9 9 9 6 6 9 6 9 c n B B n v 9 9 9 c c c 9 6 6 6 9 9 h c c n D F R G D n 6 : 3 3 3 6 3 4 c n c $ + # 6 c n D G D n 9 #   + @ @ @ @ $ 6 9 v n b c 6 $ + + # 3 3 6 6 3 3 6 h n n v v v n S G R G n c 6 6 6 6 9 6 - 6 9 c 9 6 6 9 n n c h 9 3 : 3 6 h n F E E G D b 9 6 9 c n n n h 9 9 h c b S G S S v 6 6 n R ( qX9X3XE S h 3 6 h c v v v h 9 9 v c c c c n D D P G n 9 3 $ : 3 3 6 9 9 6 6 : # $ : 3 6 3 $ # # $ 3 6 9 9 9 9 h 6 6 6 6 6 3 3 6 9 9 9 h c n D P W W G n 9 6 6 6 : $ @ + # 9 S P W E F n 6 3 : 3 3 : @ X # n E W ( W G n h 9 6 3 $ $ 3 6 6 6 6 3 6 3 3 3 3 : $ $ 3 $ : 3 6 9 v c 9 9 9 6 9 v n c 9 9 9 h c c c v n b c 6 3 3 6 6 n n v 6 $ $ $ # + + # 3 9 b S D D B c 9 6 # + + : 9 c n n 9 3 3 6 9 h c 9 : @ # 3 6 c n S G G n 9 3 6 h c 6 3 $ 3 3 3 6 6 3 3 3 3 3 : # $ 3 3 3 @ + @ $ 3 3 6 h v v c 6 3 6 6 6 6 9 6 3 6 6 9 9 6 3 : $ $ 3 6 6 6 6 9 b n h 6 3 @ 6 n E W R A c 9 9 9 c c 9 6 6 9 9 9 6 9 9 h n b v 9 6 6 3 3 6 3 3 6 9 9 9 9 h 9 h c v h 9 9 6 c v v h 9 6 9 c 9 9 6 3 9 n S S n n S G W 3X0X8X/ G c $ + $ 9 b n n n b h 9 6 6 $ $ 3 6 9 n n n h 9 3 @ + + @ + + # 6 n D D S S b b n G E E R F n c 6 $ $ : 6 9 6 6 3 $ $ $ $ 3 6 3 $ @ 3 B W _ _ / W G n c 9 6 3 - 3 6 b D F D n c 9 c D W / ! D n 9 6 3 6 6 : 6 3 6 n S P E E S n v c n F E W R G b 6 6 9 h c 9 6 3 : $ $ $ # # $ # + + # : 3 6 9 n S S S n c 6 6 6 6 6 3 : 3 $ 3 : # $ 3 9 n P R D c 9 6 6 6 : # @ $ $ $ 3 6 S P W ! R n 3 # 3 6 v C S c 7 7 6 6 9 9 6 3 $ 3 6 6 6 6 3 3 3 3 3 6 n F E W / / 8X_ P h $ $ 3 3 $ $ 3 3 $ $ # + # + + + + $ 6 6 v S R W E n 6 6 6 9 6 6 9 6 3 6 3 $ # @ $ 6 h n P P S c 6 6 6 6 9 9 h c v b n S G F D S b 9 3 6 9 c c 9 9 9 9 6 v F _ eXuXuXeX) b 6 # # # $ 3 3 6 6 c b n n n n F D n c 9 6 c B / / Q D c 3 $ @ # 3 9 n G E W E B c 6 6 c b v c 9 9 9 h n S D D B n b n n v 9 3 + @ : 6 9 6 6 6 $ 6 c b n v c c 9 c v b v h 6 6 6 9 9 h S W 9XuXaXuXqXW S c 9 9 6 6 6 6 6 9 6 3 + @ 3 c S D D S 9 3 6 9 h h 9 6 6 6 3 $ # $ $ # 3 3 $ @ # $ $ 3 3 6 n G G D b 9 $ # $ 6 9 c c 9 3 $ # # $ $ : 3 9 9 6 6 h v n n c 9 3 @ + + + + @ @ +   + 6 v b b c 9 6 3 6 9 9 9 6 3 : $ : 3 : 9 9 9 9 6 3 6 c P W E D n h 3 # 3 $ $ : $ : 6 c n S n 9 3 3 3 3 7 9 c n v 6 @ + # : 6 c n S S b $ # @ : c P ! / P B 9 $ # 3 6 6 9 9 6 6 h D W ! / W n 3 @ $ 3 6 h 9 9 9 9 6 9 h v n n n n h 6 3 3 6 9 9 h c c h 6 : $ $ # + + + + # $ $ 3 9 c c h h 9 6 3 3 h n G G F S n c 9 6 # + + : 3 $ $ 3 6 9 6 6 9 v n b 3 $ $ 3 c S D S 6 6 6 6 6 9 9 9 ",
"6 6 6 3 6 6 9 9 c c 9 3 3 9 n B n b c 9 6 9 c c n n c 3 : 3 3 3 : : 3 6 9 6 6 6 9 6 : # $ 6 n F ) 0X9X8X/ n $ + + # # + + + + + 6 9 n D D B n v 9 9 9 6 6 3 : $ $ $ 6 h c c c h 6 3 : $ $ : 3 3 # $ $ $ 6 n G P R S 9 $ + $ 6 6 6 3 6 6 6 6 3 $ % + $ 6 9 9 6 6 6 9 6 3 : $ 3 9 B G W / E n 6 : n n b v c n D G F D n c 6 6 6 9 n n v 9 9 v n S G G S b 9 3 3 6 n D S n n D F G D S n b b B D D n n n n n c h 9 n B S D G S n h : @ + # : 3 3 6 6 6 6 3 3 3 3 3 $ # $ 3 6 9 c b c c b n v c h c n n n c 6 : $ $ 9 c v v v n n n 9 6 6 3 3 6 6 3 : # @ @ 3 h n n c h c n D W W W n c 6 3 3 3 3 3 : : 3 6 6 6 6 6 # : h S F F D n n v 9 3 6 c n b 9 6 c n S n m n h 9 c c v n S S 6 6 3 3 6 6 6 3 # @ @ @ $ 3 6 3 + # $ 3 6 9 9 h 9 9 9 6 6 3 3 6 G R G h $ $ @ X + @ : 9 S ! ) ( D c 6 6 3 $ $ : # # # $ : 6 9 c n B n 9 6 3 $ : 4 6 3 3 6 c n D D S n c h c c c 6 3 3 6 3 $ $ 6 n P W / ( 7X) ! n c c B S c 3 : 3 3 3 6 6 3 $ # # $ 3 6 c v n n n v 6 3 9 S G R n v 6 3 3 3 $ - 6 6 9 6 9 n S c c h 6 3 6 9 9 9 6 c n D P P F G B v 6 3 9 n G E F D S B S P W / / / E S 9 : $ 6 F P F n c 6 6 : 3 6 h n S P R G b 9 $ @ 3 c n b 6 3 3 9 h c c b G F G G F D n v 9 6 3 $ # @ $ 6 n D S v c v n n h 9 6 $ # # 3 6 B S S v 6 3 3 3 9 v n c 9 c n n n n n v c b n b c b R 3XeXrXeX) S c n G R E E G G n 9 $ # 6 n S G G G S n n v v c 9 6 3 3 3 3 : $ + + # # : 6 6 6 6 6 3 $ $ $ : 6 9 h h 9 6 6 6 F G G n 6 # + + # : 6 6 9 9 9 9 6 9 c n b 9 3 : 3 6 6 6 3 +     X , C ^ _ R n l 9 6 : : 3 3 6 6 3 6 6 9 h c v v b b B D D D S S n c 6 3 @ + + + + # 3 6 6 6 6 3 + + # 3 6 v n S n S S n c 6 $ # # $ 3 6 6 $ + # 6 h v v c 9 6 9 c n S D B b 9 6 6 c D E R B 6 : 6 6 6 6 6 6 3 3 6 6 6 6 c n B n 9 6 c S R R R G D b 9 6 3 3 3 3 6 6 3 $ # $ 3 3 3 6 9 c v c h c b S R W R S c 6 6 6 3 $ 3 6 9 6 @ # : 6 9 9 9 9 9 9 6 6 6 6 6 9 9 9 9 6 9 9 9 9 6 $ # # $ $ 6 b W / E S v h h c G G S c 9 9 6 6 9 9 6 6 9 c c 9 h h 9 9 9 9 6 : $ $ $ 3 6 9 9 9 3 3 6 9 h 9 6 3 $ # $ 3 9 v n v 9 3 6 c n W _ / S v 6 6 3 : 3 3 6 c E 7X) P h $ 3 : 3 6 6 $ # $ c n D G D v 6 $ @ $ 3 6 9 9 9 6 c t 6 : # # @ + # : 3 3 6 9 9 6 : # $ 6 v S D S c 9 9 v c 9 6 6 3 6 3 $ 6 F ) 9XqX8XR 9 $ 3 6 6 6 6 6 6 3 6 9 h B S n 9 3 $ # + $ 3 3 3 3 + + $ # 6 S W ) 9X7X/ S 9 + + $ 9 n S n c 9 3 6 h n n 6 6 6 9 h c c c c h 6 $ $ $ : 3 6 6 6 9 6 6 3 3 $ 3 9 n G E E G n c 9 6 6 : $ # 3 6 c n n c 6 6 h n P W W G n h 9 3 $ $ $ $ $ : 9 b n n b b c 6 6 : $ $ +   + 3 n D R W W W P S n v 9 6 6 9 9 6 6 3 3 6 6 6 6 9 ",
"9 c c c b n B n h h c n n b c 9 9 6 3 3 3 6 9 h 9 9 6 3 3 $ # + + + $ 9 b n n B c c 9 6 : # # : $ 6 3 $ 3 3 6 b F F n 9 $ @ @ # $ 6 n R W E D b c 6 3 6 6 : $ $ 3 : : $ $ $ 3 3 3 3 $ $ $ $ $ # @ # $ 6 h v b c c 9 9 9 6 6 6 6 9 9 9 6 6 9 9 6 9 9 c v c 9 6 9 n B S n c 3 $ $ 6 c B D B h 6 6 9 c b c 9 6 6 3 3 3 6 c n D G D h 6 $ : 3 3 6 6 6 6 9 c v c c v c c 9 3 : 6 9 9 c c c c c v c 6 3 $ 6 B G G F D B D E ( 8X0X3X/ B h $ # 6 n D G D n v 6 6 6 3 $ 3 6 c n S n h 6 $ @ + + + + $ 3 h n F E E F S B S D F F D B c 6 : # + @ 3 9 c c 6 3 3 3 3 3 3 : $ $ 3 9 B R W W R D v 9 6 6 6 6 9 v S G R R F S n n F ! ! F n v h c b n b h 6 6 c n R / _ W G n x h S E W E F n c c c c b n c 6 3 : $ $ : 3 : # $ $ $ $ 3 3 6 9 n B B n c 6 3 $ 3 $ : 3 6 6 c v h 6 3 : 3 h n n h 9 9 c 9 6 3 $ 3 3 3 : 6 n G E E P n 6 # + $ v R / E n 9 6 3 3 : 3 3 : $ 3 6 6 9 9 6 9 9 9 c S W ! W G G E R G c 3 + @ # @ $ 3 3 3 3 : @ + + + + # 3 6 9 n G R W W G 9 $ $ $ $ 3 3 6 3 3 $ + + @ # 6 v B G P P n v 9 6 9 9 9 v b n c h v n n n c c 9 6 3 6 9 h 9 9 6 9 h c S E eXuXuXrX) D 3 @   + $ 3 6 9 c v c c v v v n n n v c 9 c S E / _ R S 9 $ # $ 6 9 b S P E G c 6 : 6 c B S n c 9 9 h n B n n n b c n b b c 6 : $ $ $ 3 6 6 9 c n B S n c 9 9 b B n b c h 9 6 6 6 6 v B E 7X0X0X3X! G n 9 6 $ $ $ # 6 6 6 6 3 % + # c n n v 6 3 $ 3 6 9 9 9 9 9 6 6 3 : 6 h 9 3 $ $ $ $ $ $ 6 v D E ( W D 6 + + $ : : 3 6 6 6 6 9 9 6 3 3 $ # : 6 9 9 c c c c h 6 3 # @ + + @ @ # $ $ : 6 9 9 3 $ 3 6 h v c c 9 3 $ $ $ $ $ : 3 6 6 6 6 n G W ! W R v 6 6 9 9 6 3 : 3 6 9 c n F G S 6 $ $ 3 6 6 6 6 6 3 #   X $ 9 n P W R B 9 $ @ $ c D W ( ! G c 6 : 3 3 6 9 6 6 6 b S R W W D c 6 : 3 6 6 c v v b x 9 9 6 9 c n S n v c b v h h c b c 9 3 : 3 6 6 6 3 $ + + : 6 9 c c c h 9 6 6 $ : 3 9 n D G G G B n 9 : $ $ : : : : 3 6 9 c b n B S n c 6 3 3 6 B D D n 9 3 $ # $ $ 3 6 3 @ @ $ 3 6 6 3 3 6 c n S S b 9 6 9 c c h 9 6 9 n P W W n c 6 3 3 6 6 6 $ $ $ $ $ : $ $ 3 6 6 c c 9 6 6 $ $ $ @ $ 3 6 3 @ @ h G W ) ( P v 6 # 3 3 6 6 6 6 6 6 c 9 6 6 6 6 9 b S n 6 # 3 n D E W G b 6 3 6 6 3 $ @ # $ 3 3 3 3 : : : 3 3 3 3 6 9 c c c h : @ + $ 3 3 3 3 3 6 b G D v 6 3 6 3 3 6 h b S P W W G n 6 6 9 b R R G v 6 6 6 3 3 $ # + + # 3 6 6 9 h 6 6 6 6 9 n S R / 3X8X) W v 3 # # + X   X + + # 3 6 6 6 3 6 3 3 9 9 3 $ : : 3 3 3 3 3 3 6 6 6 6 6 6 6 6 6 $ $ $ 3 3 6 9 3 : # + $ 3 6 9 c 6 3 : : $ $ 3 9 9 c n D G D S n v c 6 3 $ : 3 : # $ 3 9 n G R W S b 9 6 9 9 6 3 $ 3 6 h S W 3X8X( W D c 3 3 3 6 6 6 9 c b b v v ",
"6 6 6 6 6 6 9 9 v n B S D S n b h c S R E P S n 6 6 6 9 h 6 6 3 : $ $ 3 : # + + # $ : 6 9 6 9 v S S v 6 3 6 9 v c c 6 $ + @ @ @ $ 3 c D E W E P 9 1 : 6 6 : @ @ + $ 3 6 c S G G G B 9 3 $ 3 9 c 9 9 6 6 9 c n n c 9 9 9 6 6 6 6 6 6 $ @ $ 9 n D R W ) 9X8X/ G S 9 9 9 h c 6 3 : 6 6 : $ # @ + # # : 3 6 v S D S c 9 9 h c v c h 6 3 6 6 6 3 3 : 3 6 b D F S b 9 6 3 3 6 9 9 h c b n D G R R D n 9 6 9 n S D D S v c h v D W 3X0X0X_ G 9 $ $ 6 9 v c 9 3 3 9 v n 9 v D R R D v 6 3 6 b D G D n h 6 $ $ 6 6 9 b D R R F n 9 9 9 9 9 6 3 : 3 6 v S F G F S n S S n 6 3 # + # 6 c b c 6 3 3 6 9 v n 9 6 6 9 c n S B b 9 9 c c h n G ) eXiXpXiX3XS c c v n n n n n v 6 # # 3 9 n G F D S n v c h h h 6 6 6 9 6 3 : $ + + @ $ 3 3 3 3 3 3 $ # : 9 n n b c 6 : 3 v B n B c 3 +   + # $ 6 6 6 9 9 9 h c B B v 6 $ # @ + + @ + + + X @ 9 R / E n 6 6 3 3 9 h 9 3 : 3 6 6 6 9 c c c h 9 h c n D G F n 9 6 6 3 : : $ $ $ : c v n n h : + + $ 6 v n S S n v 6 $ + $ 6 9 9 9 9 6 # + # 6 n G G D n 9 6 3 3 6 v v c 9 9 9 c D / / R c 3 3 6 9 9 h 9 9 6 6 9 h c n S F D c 6 6 6 h c b B n b v 9 6 : $ $ # @ # + + + $ $ 3 6 9 c c c 9 6 9 v n G G D B b c 9 6 $ # $ : $ @ $ 3 9 9 8 3 3 9 v b 9 6 3 : 6 v n n v h 6 6 3 3 $ $ $ : 3 6 n F R P v h 9 v S P P G 9 3 3 9 c h 9 9 h h c v c 6 3 6 6 9 6 $ 3 $ # $ 4 6 6 9 9 6 6 9 v v 9 6 $ # % # 8 h c c 9 3 3 9 G / ) 3X/ S 3 $ 6 6 3 $ 3 c S R E P n 3 # 3 9 h 9 6 : $ 6 n F G R D v 6 $ $ : : 3 6 6 6 6 6 6 3 $ $ $ : 3 3 : 3 9 c c 6 3 # $ 6 n S S b c v n n n n c 9 6 6 6 6 6 n W 8XqX3XR b 6 : 3 c n b c c h 9 6 6 9 h 9 3 $ + + : 6 6 9 h 6 3 $ $ 6 v G / eXrXeX_ P v : @ @ $ 3 6 9 3 $ $ 9 c c c h 9 6 6 9 9 6 6 6 6 3 3 3 $ : 3 3 3 3 3 9 6 6 6 3 3 6 c P E R S c 9 6 : 3 6 3 3 6 6 h c c c 9 9 v F ! ( ! E D b 9 6 3 $ : # + # 3 6 c n S S S b 6 : @ + + X + $ 9 D W ( / / / W R n 9 6 3 6 3 : $ $ $ @ $ 3 9 c 9 3 # + $ : : $ $ $ $ 3 6 6 9 9 9 h c v b b c 6 6 h n n c 9 6 3 3 3 6 6 6 9 b D F D n v 6 3 $ 3 3 3 $ # + # : 6 9 6 3 $ + $ v R W W G n $ +   + + $ 6 6 6 6 6 6 3 # # $ v D W / W G v c n b b v c c l v b n B S n c 6 6 $ 3 6 h h 9 6 6 3 3 3 6 6 6 6 6 3 : 3 6 3 : $ $ $ $ $ $ $ 3 6 6 9 c v c n G F S h 6 $ $ 3 6 6 9 9 c c 9 6 6 6 3 $ @ $ 3 6 6 7 6 v 9 6 : 6 D W W P S c 3 @ @ + + # $ $ 3 9 n S S 9 c D / 3X/ R S 6 6 c S D v 6 6 6 9 9 9 9 6 3 3 6 6 9 9 9 6 3 : 3 : 3 3 3 3 6 6 3 : $ $ $ $ $ $ : 3 6 9 h 6 6 6 n S S n S G R F D S c 6 3 6 9 9 9 6 3 6 6 6 9 c n D P R P D S n h 6 $ + $ h n B v c 9 6 6 6 6 3 : 6 9 v S R W / ",
"/ W W W F c 6 9 G W / W P D n 9 9 c S R E F n c n v b n n c 9 6 : 3 3 6 6 3 $ $ # # $ 3 6 6 9 v h c 9 6 3 6 3 3 3 6 6 h n S D S 9 3 $ @ # 3 9 9 h 9 9 9 6 6 6 9 v c 9 3 6 n D D 9 3 +   + 6 S R ( / F 9 $ $ 3 3 : : 3 3 6 9 h 9 c b v c n S F R R P G S B n h 6 3 $ + + $ : 6 9 3 6 : @ # # # $ 6 c b n D G F G n h : @ + $ 3 6 3 : : $ @ $ 3 $ 3 6 c S G F D S B n h 6 9 n D D S n c h 9 c c 9 6 6 6 9 9 6 6 9 n n v c b D W _ 0X7X/ G c 3 # + + $ 6 9 9 9 9 6 6 6 6 9 c c c c 9 c B R W ! E P c 6 3 6 6 3 6 c S D n 6 $ 6 9 9 v c c c h 9 9 9 n b v c h c b b n c 6 : # $ 3 3 3 6 n P P S v 9 h c n D D B c 9 3 6 9 h c h c n B G R R P S v c 6 6 3 $ # $ 3 6 c 9 6 # + 3 9 9 h 6 : # @ $ 6 9 c h 9 6 3 3 6 h S G S c 6 3 # + + $ 9 B E _ _ W h $ # 3 3 $ : : # $ 6 b B S n c 3 # $ 3 6 6 9 c 9 9 9 9 6 3 # # @ $ $ $ $ 3 3 6 6 6 $ # $ 6 v S S B v 6 3 6 6 3 6 3 : 3 6 6 c D ( 7X3X/ P v 3 3 3 6 6 3 3 3 6 6 9 v S F S c 3 # $ $ 3 3 3 3 # + + + $ c D W / _ R n 6 # # 6 v n R W D 6 6 9 h c 6 9 6 6 6 9 b S D G D c 6 3 : : 6 9 h c c c 9 9 3 6 9 v B G F F S n v c u 6 6 $ $ $ 6 v n c 6 6 6 6 c S H S n n c 9 6 3 : $ : 6 h n G G G D n h 6 3 3 6 3 # + + 6 v D R E R D n c 6 3 3 6 c n n 9 6 : $ $ $ 3 3 6 6 $ + + # $ # # $ 6 h c c c c h 9 c n n c 9 9 h n F W W S 6 3 # 6 6 6 9 3 + 3 4 0 6 $ # $ 6 6 6 6 6 3 $ # + + @ # $ : $ @ 3 n E _ / G b 6 $ : $ 3 6 9 9 9 6 3 6 3 $ @ : v D G G D c 6 9 D E E c 9 6 6 9 6 3 3 $ $ : 3 6 6 6 6 9 9 6 6 6 6 6 h h c c 9 6 3 $ $ @ # @ @ $ 3 6 h c c 9 6 6 6 9 h b n n S B n b c 3 3 9 B D S B n 9 6 3 3 3 : : : 3 3 6 c c h h c 6 9 v S D D G R E E G b 6 $ + # : $ $ # @ @ 3 b B D n 3 $ 9 b n v c 6 3 3 6 9 6 6 3 6 9 9 9 h c 9 9 6 6 3 $ $ : : 3 3 : $ : 3 : 3 6 6 6 9 6 : # + $ : 6 9 v n b h h c n n h 6 6 3 3 6 6 6 3 6 6 v n S D D S S S G G S c 3 # # : S P ! ( ! F b c b c 9 3 3 6 6 6 : : : 3 3 3 3 6 9 c b n n 9 $ @ $ 3 6 6 6 6 9 c P E E G S v 9 6 6 6 9 9 6 6 6 6 c n D P R G G D n v 9 3 $ @ @ $ 3 v R ) ) E B n D R W / W S 9 6 0 6 6 3 $ $ $ $ 3 6 9 9 9 6 6 9 n n n v c 9 6 6 $ 6 b G W ^ E P S S D G G S c 6 6 3 $ : : : 3 6 6 9 9 6 6 6 3 $ # 3 n R / _ / W n 9 3 3 3 : : 3 6 3 3 6 6 3 3 3 6 6 6 6 6 6 6 6 6 9 c n B b c h c h 6 3 : 3 3 6 3 : 3 3 3 9 c l 6 6 3 3 : 3 6 6 $ $ 6 h b S S n c h b D D B b c n n n v h 6 $ # 3 3 6 6 6 3 3 6 6 6 h c c c c c c 9 9 h 9 3 $ # $ : 3 6 6 6 6 6 $ $ $ 3 6 v B D n S G P E / / ! P n 3 + + 6 n G E W W R D n c h 3 $ + # 3 6 6 6 9 6 6 3 $ : : $ 3 $ @ @ # : 6 6 c c c c v n S S ",
"pXaXuXrX) G c 9 6 6 6 6 6 h 9 6 : $ $ 3 9 n G F v 9 6 6 6 6 6 9 9 9 9 6 3 : # + $ 3 : $ : : $ $ : 3 c S G P F S 6 : $ $ 3 9 b b 9 6 : $ $ $ 3 3 : 3 6 9 h c b n b c 9 : @ # # + $ @ X   + : 9 b n n c 3 $ 6 h h v h 6 : $ $ 3 3 6 9 6 6 6 9 h b G R E G B v 9 6 3 3 : : : : 6 h S D n 9 3 $ # : 6 c n B n 6 # + @ : 9 n S S n c $ @ # 6 b R / W G n 9 3 $ 3 6 6 9 9 6 6 n W 7X7XW D c 6 : 3 9 9 h c c h h 9 c b S D D A v h 6 6 8 6 h c c 9 6 6 - - - - $ + +   + $ 3 6 9 c v b c h 3 3 9 b F R E P D B c 6 $ $ $ $ $ $ : 6 h h 6 9 c c c c 9 6 3 3 h S D B b c 6 6 3 : $ $ $ + $ 3 c D D n c 9 v n F E R B 9 6 6 h c c h 9 h b G G S 9 6 6 6 6 6 5 3 $ # $ 3 6 $ 3 6 3 6 9 c c c 6 3 $ $ 3 6 6 9 6 3 $ 3 B W ) 8X7XW n 6 3 6 6 6 6 6 6 c S D B h 6 6 9 h v b 9 $ : c F W E P D c 6 3 3 : $ $ $ 3 3 3 6 6 $ # $ $ : 3 3 6 c b v h 6 3 3 3 6 9 c 9 h c c n S S n 9 3 $ 6 6 6 9 S / 3X) E S c 3 : v n S B n c 9 6 9 6 6 3 3 $ $ : 6 9 c c 9 6 6 3 3 9 n G ( eXrXeX_ P v 3 + + # $ + + + @ : 6 6 6 9 6 6 6 9 9 6 6 6 6 6 6 6 6 3 3 6 6 6 6 6 6 9 9 6 3 3 6 9 n D S 9 6 3 $ $ 3 6 9 6 3 3 6 6 4 4 6 6 c G W / W P D S b 9 3 3 : $ $ $ 3 6 9 b S F F n c 6 $ + + # : $ 6 v S R / ) 7X) W G c 3 3 6 3 6 3 $ $ $ $ 6 9 9 9 6 3 $ 3 6 9 9 6 3 3 3 6 h c c 9 9 c n S D B h 6 9 c c 9 6 3 9 9 6 3 6 9 v D W ! E S c 9 6 6 6 6 1 # # $ 6 9 S D n 6 6 6 c B / / E n 3 # + + # $ : 3 6 6 6 6 3 3 3 3 h S R E R P B 9 6 9 c b S D D D G G G R R G n 6 3 : 6 6 c c h 6 6 3 3 6 6 6 6 6 9 9 9 9 b b c 9 6 6 : $ 3 3 3 3 6 9 c c c b n n v 9 3 $ 3 3 6 9 9 h c h b c h 6 3 : 3 : : 3 6 h 9 6 : $ c n G E P b : + @ $ # # # # $ 6 n D G G D n B F 7X7XE v 9 n D G v h 6 6 6 9 h c 9 6 6 6 3 3 6 6 6 6 6 3 6 6 6 6 3 $ : 6 6 $ # $ 3 3 : $ : : 3 6 3 6 c b B G R E / / / / E n : # 3 6 9 c h 9 9 9 6 6 6 6 c n D F D S n b h 6 3 3 : 6 h c h 3 $ : : 3 6 9 9 9 6 6 3 : $ : : $ $ $ 6 6 6 6 3 # + + + + # $ 3 3 6 9 6 6 3 3 6 9 h v n n c 9 6 6 3 9 h h h h 9 6 h c n n v h 3 $ $ 3 v n n n h $ + $ 6 9 h h 9 6 3 6 c v n v c 9 9 c c v x 6 6 9 h b n S S S n n n u 4 3 6 6 h h h 6 3 3 h B D S n v 9 9 9 c h 6 3 : 9 c c h 9 9 6 6 + $ h D E W E G b 3 $ 3 6 6 h n b b c 6 3 6 9 6 6 9 6 9 h h 6 3 6 3 3 6 6 6 6 6 9 9 7 3 3 , 6 v E / / E S 9 $ $ c c c c h c c h c 6 3 6 3 $ # $ 6 6 6 9 6 6 6 9 n n n n b v c x c 9 6 3 3 : 6 h F W _ 7X) / R D D G G F D b 6 3 $ $ 3 6 6 6 6 6 3 3 3 3 6 v S D n v h 9 9 6 3 3 6 3 : $ # # 3 c G E E G B v h 9 v v c 6 $ # @ # 3 6 9 9 6 3 : 3 : 3 3 3 3 $ $ $ : 6 b S S n 9 6 ",
"c c h 9 9 c h 6 6 : : 6 6 3 3 6 9 6 3 $ $ 6 h 9 3 : # @ : 6 c c c 9 3 $ 6 n R ! W R n 6 $ 3 6 3 $ 3 S / _ ! F b 6 3 6 9 6 6 3 $ 6 h S E E G v 6 : # $ 6 9 6 6 9 c h 9 6 : $ $ # # $ 3 6 6 9 9 9 3 3 3 6 c n B S v h c v c 9 6 6 9 9 3 : 9 S ! 0XrX9XW v $ : 6 6 6 6 6 6 6 6 9 c b n v 9 6 : @ $ 6 9 6 6 3 # + @ : c F / 7X9X7X/ S 6 @ @ $ 9 n n n h 6 6 9 n S n 6 3 6 v n b b c c 6 3 3 : : 3 3 3 6 9 9 9 6 3 3 6 h n D P G D n h 6 6 6 6 3 $ $ 6 c n S n 6 6 6 S G W ! E S c 6 6 3 3 > $ : 3 9 b B S S n c 9 6 3 $ @ $ @ + 3 c P W ! E G F S n 6 6 6 h c c 9 3 $ # + $ 3 9 c c 3 @ + # @ + @ $ 3 6 9 9 6 9 h c v b b n b 9 6 c G E F n h 6 3 3 6 9 6 3 3 6 h 9 9 6 $ $ : 3 3 6 3 3 $ + + + + @ @ @ + + 6 G / / E S 6 # + + # 3 6 6 c 9 6 6 3 $ @ + 6 D E ! W G v 9 n P G b 6 6 9 9 c h 9 h 9 6 6 6 6 6 6 9 9 9 9 6 6 6 6 9 h c h 6 6 : $ $ $ # + + @ $ 6 6 9 h 6 9 9 9 c n S D D D n h 6 3 3 9 h v n n n c 9 6 3 : $ $ $ $ 3 9 v v c 6 6 6 b S R G G n h 9 x 6 6 $ # $ $ 3 6 6 9 9 9 h n E / E 6 : 6 n S n v c 6 6 6 c c 6 3 6 6 9 c c c h 6 6 6 : 3 6 3 3 3 : 3 $ # # # $ 3 = 3 3 6 3 $ $ 3 6 9 c n n n n n v S B b 9 6 9 h 9 9 6 3 3 6 9 c c n S F E ! ! E F n 9 $ # 3 c S G P D n h 6 h c 9 6 3 6 9 h 6 $ $ 3 3 3 3 6 c c c c 9 3 @ + # : $ $ 3 6 9 b G R P S v c c 9 9 9 6 3 3 6 6 9 v n n v v b n B n c 6 $ $ @ + $ 9 S R W / G 6 9 F W / F n c 9 6 9 c c 9 6 3 3 6 9 l c h h l c b n n b b v c h 9 3 6 n W ( W S v c c v D D B h 6 6 9 6 : 3 3 6 9 9 6 6 6 6 $ # # 3 n R 8XeX9X/ G b 6 3 6 6 6 6 3 : : : 3 3 3 3 3 6 9 6 6 6 6 6 6 9 h 9 c c v c c c h 9 6 : 3 6 9 h h 9 6 3 3 6 6 6 6 6 6 6 3 3 3 3 3 6 9 h 9 9 9 9 6 9 6 6 6 3 9 n n n c 6 3 6 6 6 3 6 6 6 9 c v S P G F F S b v n n v c 9 3 $ # $ 3 6 9 c 9 3 $ @ # 6 B S D S n v b n S G G D A 9 $ # # 6 n E / _ / W R D c 3 $ $ $ $ $ : 3 6 6 6 6 3 : $ # $ : $ @ # : 6 9 c v c 6 3 $ $ : 6 6 $ @ # $ 3 6 6 6 3 3 3 3 8 9 c c 9 6 3 : 3 $ @ $ 3 9 n G E E R F n 6 3 3 6 b D G S c 6 6 6 h n n n n n D G D n c 9 : $ X + , 6 9 9 6 , $ $ $ $ 3 6 6 9 b n v c 9 6 6 9 c b n v 9 9 9 6 c c 9 6 : : 3 7 v n D G G v 0 3 6 3 3 6 3 $ $ $ 3 6 9 9 6 6 6 h S B n c 6 6 6 3 3 3 3 3 6 c n n h 9 6 9 9 9 6 6 6 9 9 9 9 6 6 9 6 9 h x b D F F S B b c h 6 c P 9XuXrX_ E b $ 6 c n n n n S S n c c v v h 6 3 3 6 9 v n S R / ( ( ! R S c 6 : $ 6 9 c n v 6 $ $ 6 9 c c c v n n n n v 9 6 3 $ 3 : : 3 6 6 6 6 9 c c 9 6 6 c B S G W ) 8X8X) R B 3 $ # $ 3 6 6 6 9 6 3 $ @ @ : 3 h c 9 1 $ 6 9 6 6 3 6 6 6 6 3 3 3 3 6 9 9 3 @ + $ : 6 c c 9 6 6 ",
"/ E S 6 : 3 9 9 6 6 : # + $ 3 3 $ $ $ 3 6 h h 9 6 $ $ : $ : 3 3 # # 3 h S / 7X) R n 9 6 - 3 5 6 5 9 c c c h 6 6 3 6 c B S v 9 6 6 h D W W B 9 6 c c 9 $ + $ 3 3 3 3 : : 3 6 6 6 3 6 9 c c b v 9 3 3 # # 3 $ $ $ # 3 c S B n c 9 7 6 6 9 h c n D E R G n 6 6 9 v F G D c 6 9 9 6 3 # # $ $ $ 6 9 v n v 6 6 9 9 c v D W ) 8X8X/ R c $ @ : $ + + X + + : 6 9 6 6 6 6 9 9 c c 9 6 9 6 9 6 6 6 6 9 9 6 9 9 6 6 9 9 5 3 $ 3 6 3 6 6 $ # # $ 3 6 9 9 5 6 $ $ : : : 6 9 B D G S S D D n c 6 6 6 3 3 6 3 : 6 v D P G D S c h 9 9 9 6 6 $ $ 3 v G ! 7X7X/ D v 9 c x 6 : 3 3 3 3 $ : 6 6 6 6 6 6 6 9 c v 9 6 3 3 6 6 9 c c 6 c n G G S v h 6 6 6 9 h c c 9 6 6 6 c n P W / W P S c 9 6 3 3 $ $ 3 6 c R ! R n c c S R / / W n 6 $ # $ # # # $ 3 6 h c 9 6 6 7 h n S F S n b v h 6 6 h G W W W E E W E W R D 9 6 - 6 6 6 6 6 6 6 6 6 3 6 6 3 6 3 6 c v D E G G n c 6 3 3 3 : 3 3 6 h c 6 6 6 9 9 9 6 3 3 6 9 6 9 9 9 h b n n h h 9 6 6 3 3 6 9 9 6 : 3 6 v S D S c 3 # # $ $ $ $ $ 3 6 n G G D D n b S E W E n c c B A c 6 3 3 6 9 h h 9 6 6 3 6 3 3 6 9 9 h 9 9 9 9 6 3 3 3 3 3 : $ : 6 9 6 3 : $ 3 6 9 c v S D R W / ) 3X_ / P b 3 @ : 9 v b S S n n b c h 6 6 6 9 c c c v v c 9 6 3 3 3 6 9 6 $ + + $ 6 h c v v 6 6 3 $ # $ $ # % # 3 5 6 6 $ + + + # $ 3 3 6 3 3 6 3 : $ @ $ 6 n D F G D n v 9 6 3 6 c b c c c 9 h c c c 9 6 6 h n D F D h 3 # @ + + $ $ : 3 3 3 6 h c c 9 9 h v b n b c 9 9 c b n S D D S B b h 6 3 3 6 3 3 : $ 3 c S F R G B 9 3 h b c 6 3 3 3 3 9 c h c 6 6 5 3 3 6 6 b b n c 6 3 : $ 6 9 b S S b h 9 9 9 9 9 9 h c v v c 9 6 6 6 6 6 6 9 9 9 h 9 6 6 3 3 c D W 9XrX8XG h 3 9 h c v c n n n n b c 9 9 6 3 $ $ 3 9 v v c h n G P F D n n n v c c c 9 9 3 3 6 9 n R / / ( / R B n D F S c 9 6 6 3 3 : $ 3 6 6 6 6 6 9 9 9 6 c B D B n n h h 9 3 $ # # + # # 3 9 c n n v 4 4 c C F C v c 3 3 , , 7 c m v h 6 3 3 3 9 9 6 3 $ $ $ # $ : $ $ 3 6 n n 6 $ # : 3 9 v n n n c 6 6 6 9 c n n c 6 3 : 3 $ + + : 6 h h h c 6 3 6 9 9 c v b b c 9 $ : 3 6 6 6 6 3 : $ # # $ # @ $ 3 6 h n B b 9 9 6 6 6 6 3 : $ $ 3 : : 3 3 6 c v c c v n b c c n S S n 9 c D P G c 6 $ 3 6 9 n G R W W R F G S n c 9 v D n 3 + $ 6 b v 9 6 3 $ $ $ 3 3 3 3 3 $ $ $ $ $ $ 3 c n m c c 6 : : 6 h h c c b n b h 9 c n D F G n 9 3 $ 6 6 3 $ : 3 6 9 c v n n v 9 6 3 3 3 6 9 9 6 6 3 $ $ # # $ : 3 6 6 3 6 c n D F S n c c b n v b n D D B h h D ! / W P S v 3 $ $ # $ $ 6 n D W / / E G v 3 : 6 h v S G W / ! F n c h h c v c 6 $ $ : : 3 3 $ # @ + + + + @ : 6 9 9 6 6 3 3 3 6 3 3 $ @ + + @ 3 c n R E R G n v 9 6 ",
"D S v 6 $ 3 6 6 6 6 6 9 n D G F c 9 6 3 6 9 6 6 $ @ @ # $ 6 6 3 : 3 6 9 B ! ) / n 3 +   X # 4 5 c 9 6 6 3 $ $ $ 6 v F W / E S v x c v n n b c h v b S F G S c 9 3 3 6 9 h c h 9 6 6 3 6 6 6 9 h 6 6 6 9 6 3 3 - = # # : 3 3 3 6 h h h c n S G G c 9 3 : 3 6 9 h h c c 9 9 9 8 6 $ $ $ $ 3 6 9 9 9 6 3 3 6 S E E P S c 6 : $ # @ $ # : 6 c B D S h h S ! _ W D n c c n D S c 3 : 9 h c c h 6 3 6 9 9 6 6 6 6 6 6 6 3 3 3 - 3 4 3 $ # $ $ $ $ 3 3 3 3 6 9 9 9 c b D D S B D R E R n 9 6 6 9 9 h 9 9 6 6 6 6 9 v n G G G G G S n c c 6 6 3 6 v n b 9 6 6 6 6 6 6 6 h h 9 6 6 3 6 6 3 $ : 6 6 9 9 9 $ + + # @ + @ $ 6 c b b n b c h h 9 9 9 7 6 3 : 6 9 c b v 9 6 : 6 c n S n c 3 $ @ + 3 c n D F D 9 3 9 n S n b c 6 6 u n n v c c 9 9 9 h h c c b b b n B S S S S n c 6 $ 3 b D G n h 3 : 6 b B B m c 9 9 9 6 4 4 6 6 6 9 9 9 9 6 $ $ 3 6 n W 7X0X/ P n 6 $ : 9 c 9 9 9 6 6 6 6 6 6 6 9 9 h h 9 6 6 6 6 9 9 9 6 6 h h h h 9 3 3 3 6 v S G D b 6 3 3 9 c c c 9 6 3 6 6 6 6 6 6 3 $ $ $ 3 6 3 : : : 3 6 c n n c 9 9 9 6 6 6 6 6 6 9 b S E _ 3X( W P S n B D D n c 6 6 3 3 6 6 6 6 9 6 3 $ # 3 c S F B n v v c c c c 9 3 : $ @ # 3 9 E / ( / W G n v c h 9 6 6 3 3 3 3 6 6 6 6 3 3 $ : : $ $ : : 3 6 9 9 6 3 $ $ 3 6 9 9 6 $ # $ 3 6 9 9 6 6 6 3 5 u c b c 6 6 3 : $ @ # 3 9 b S G D G n 9 3 : 6 h v S n c 8 3 3 6 6 c n n v v S D n c 6 : 3 : $ 3 9 B B b 6 $ : 3 $ # $ 6 9 9 9 h h h 6 6 6 9 c b v 9 9 c n n n v c h h h c v n n B n v c c c c c c 9 6 3 3 3 6 c c 9 9 9 v n D G H v 9 3 3 3 3 6 9 9 9 9 c 9 6 3 : 6 6 9 9 9 6 6 6 6 9 c c c c v b S D D S S G D S 9 6 c D W ( ) W n 9 9 h c n S D S B n b c h 9 9 v c 6 $ # : 9 c n S R / ! P B b 9 6 @ + 3 c n B 6 6 6 9 h h h 9 h c n S D B c 6 $ + + 1 6 3 6 9 c n n c c c 9 6 : 6 n R W ! / ) eX0XW c 3 6 9 6 6 $ - 3 3 4 3 $ % + # 3 3 , $ $ 7 7 7 9 7 3 : , 6 3 : : $ 3 6 3 3 $ $ 3 6 v n n c 6 3 6 6 6 6 6 9 9 c n n c c h v h 9 h 6 $ $ 6 b G ) eXeX/ n 3 $ + $ 6 3 : : : 6 b D P E W E F n 9 3 3 3 $ $ : 3 6 6 3 : $ 3 9 v n b h 6 3 3 6 6 9 9 6 6 9 c b n v 6 : 3 c S S D F R E P D n c n n h 3 3 6 9 6 9 6 : + + 6 c n G D n v c v c c 6 $ $ 6 6 3 $ $ h n G W / / R D 6 $ + $ 3 3 4 9 n B n c 9 9 9 c 9 5 6 3 3 6 9 c n v h 6 : $ $ : 9 b P / / D h 6 @ : 6 9 c c h h 9 6 : : : 3 6 9 9 9 6 6 3 : : $ 3 3 3 3 6 6 6 3 $ $ 6 v D W / / G B n B S G F F S B c h c B S B 9 9 B E ) 8X) W b 6 : 6 c G / / E F n 9 9 c n S n n c 9 6 6 6 6 6 6 8 h 9 6 $ $ 3 $ $ @ @ $ 3 : # $ $ 3 6 9 9 6 6 6 9 c c 9 6 3 $ # + @ 3 b F E R F B c 9 9 c b ",
": 6 9 h h 9 9 6 h c b B S G G F F D n c 6 3 $ $ @ 3 v F W / ! R v c F 3X7XW n 9 6 6 6 6 3 $ $ $ 3 6 9 v v h 9 h n n n n n n v 9 3 6 9 b G / _ ( D B B G P G B n h 6 6 6 6 3 3 3 3 6 9 6 6 6 3 : 3 3 v G W ) 7X/ G n 9 6 6 3 3 3 3 6 6 6 6 6 6 6 6 6 6 6 6 6 6 6 6 9 c n n n b c v b h 6 6 6 3 3 6 6 6 6 6 c c 9 6 3 3 3 3 3 3 6 $ : 6 c b S S n h 9 c S D n h h b b c 9 6 6 3 3 3 3 6 9 h 6 6 h c v n n n v c n v c c 9 6 3 $ $ $ $ 6 c c 9 6 = $ $ 6 c n S D D n S G P W / W G v 4 # # 6 n G E G G G D n 9 3 $ $ 3 3 6 6 9 9 9 6 3 1 : $ : 3 $ + @ $ : 6 9 c c 9 6 3 $ : 3 3 3 $ @ # 3 6 3 3 : 3 3 3 6 6 9 h 9 6 3 3 : $ # # $ 0 c D E W E G S 6 6 3 6 c n D D b c 9 9 c b n n n n G W E D c 6 6 $ @ + + $ 6 6 3 3 3 4 3 $ 3 6 n n B B n c 9 6 9 c n S S n c 9 6 9 h 9 9 9 6 3 : 6 9 n G G G S 9 6 3 6 6 6 3 # # $ 6 6 6 6 6 9 9 c c c c c 9 6 6 6 6 6 3 6 9 c S D n c 9 c c c 9 9 9 c v b c h 9 6 3 6 9 c n S S n n v 9 3 6 c F / eXuXrX/ n 6 9 h c b n n n n n n b v c c h 6 3 $ 6 b n B D R / / W F n v c 9 6 6 9 v c 6 $ $ 6 9 n S D D D D v c n B n 9 6 : 3 : 3 6 6 3 6 6 6 9 9 9 9 9 c v S G E E E E F n 9 $ @ $ $ + # 3 3 6 6 6 6 3 3 6 S B n c 6 6 6 3 6 9 9 9 6 9 6 3 $ 3 6 h c 6 : : $ $ $ # $ $ 6 c 9 c 6 $ 3 6 9 n n n B n c 6 3 6 v n b x h h c c c h 3 @ + 3 h c 9 6 6 6 6 c n B A S B b 9 6 3 3 6 3 3 6 : $ $ $ : $ + + + 6 h h c h h 9 6 9 9 6 6 3 3 6 6 6 6 : 3 6 9 v n B S B n v b n n b c c n n S D S c 3 # @ $ b E / / ! W E E G S n c 9 9 6 6 $ + $ 6 v v h 9 3 3 3 3 : 3 3 3 3 3 3 6 6 6 3 6 v S S v 6 : : 6 6 9 x c b n c c 9 6 h B D G D n 9 $ + # $ $ 3 3 6 9 9 h c h 9 6 6 3 3 6 6 6 6 6 3 3 $ $ # # # $ $ $ $ $ 3 c W _ ) ! G B v c n n D R R D B n B S D G P D S D n n c 9 3 : 6 n W _ 7X_ W G b h $ : 6 c n B B B v c 9 3 3 9 c 9 $ # $ 6 6 3 3 # % + + + + + $ 3 6 6 6 9 6 6 7 9 6 6 6 3 + + # $ 3 9 S E / ) ( W F D S D S b h 6 6 9 9 9 c B P W ( / R n h 9 c b B R 3XeXeX) R B 6 : $ 3 3 6 6 3 3 $ $ 3 3 3 6 9 9 6 6 6 3 $ $ $ 9 h 6 3 3 9 n G 7X3XE v $ $ : 3 9 c b n n b c c 3 6 9 6 h n B B n n S S n c 9 6 9 9 6 6 6 3 3 : $ $ : 3 3 $ $ : 3 3 6 h c c 9 6 3 h S R R S c 6 : 6 F 7XeX9X( G 6 # + # $ # $ 6 6 6 9 6 6 3 3 3 5 6 9 c h 6 3 3 6 6 6 3 3 9 c b b v c 9 h c c c S B b c h 9 9 c c h 9 6 6 6 9 h h c v c h 6 3 : $ 6 c n S S n v h 6 3 3 3 9 b c b h 6 6 6 c n n c x 7 3 c R W E c 6 v R W E D n 9 3 $ # # 3 9 9 3 3 $ $ 0 9 v v 9 6 6 3 3 3 $ $ 3 h S R R S 6 $ + + $ 6 9 9 9 6 3 3 6 6 9 h c c h 9 9 9 9 9 9 c v n n n n n n n b b v v n D R W ",
"n n b c c 9 6 6 9 9 c v c 9 6 6 c b n n b 9 3 $ 6 6 c S B c 6 : : $ 3 h c 9 6 : 9 9 b n n c c v n n v v h 9 h c B D D S S D D A h 6 3 3 6 h c h 3 3 6 c n S n n c 9 h n b 6 $ # h v c 9 9 9 6 6 $ : 9 n G W W F b 6 : 1 3 9 v n n v 9 6 3 3 9 c h c b b c h 9 9 9 6 6 6 9 6 6 6 9 9 6 6 6 : 6 n E _ / P S h 3 6 h v b c c c c 9 h 6 6 9 6 : $ @ 6 9 9 6 3 3 6 9 b n B b c c c h c c 6 3 3 6 h n W _ 7X7X) W G S F G G S b 9 6 3 3 3 6 6 8 6 6 6 3 3 6 9 b S D S n v 9 6 6 6 6 3 $ % + + # 6 v n G G S n c v n n n v 9 6 3 3 3 6 9 9 9 9 6 3 3 : 6 6 3 $ $ 3 3 : : $ @ @ 3 9 h h 3 $ : 3 6 h v v n n c 6 6 c n b S b 6 3 $ # $ $ $ $ 6 c v n v c 6 3 3 5 c n n n c 6 : $ 3 9 v n c 9 9 c h 9 6 : @ $ $ $ 6 n S n c 9 6 6 6 3 3 3 : 3 3 6 6 6 6 9 9 9 c c c 9 9 9 b n n n n b v n B S n c 9 6 6 9 n S D D B n n n c 9 h v n B n c 6 9 n D D b 6 6 6 6 6 6 6 6 6 6 3 3 3 3 3 6 6 h b b c 6 3 3 6 6 c c v v b n S S B S G G D b 9 6 h v B D S v 6 6 h c b B D S n v c 9 6 6 6 6 9 6 3 $ $ : 3 9 c b D D n 9 9 b n c 6 6 h n n c 6 6 n B n b c c n S E R P S c 3 @ + $ $ 3 9 v D P P G S v 9 6 3 6 c S P W / _ 7X) W v 6 6 c v 9 6 6 3 3 6 3 : # + @ + @ # # : 6 h c 6 6 3 : : 3 6 3 $ $ $ : 3 $ $ 3 b S G E P S c 9 6 9 9 9 h 9 9 h c c c v n S S B 9 3 @ @ 6 S / eXiXuX8XD 6 $ + X $ : 3 3 3 6 9 v G G P G S v 9 6 $ $ $ $ : 6 9 6 : 6 9 b D E W F 9 $ # 6 9 9 h c 9 h n B n v c h v n B D G R E E F S n n v h 9 9 $ $ : 3 3 3 $ $ $ : 6 9 h c v c c x 6 3 3 3 3 9 b n 9 : 3 n R ( 9XqX) F b 6 $ $ $ 3 6 5 9 n n n h 9 6 6 6 6 6 6 6 6 9 9 h x 9 3 $ $ : 9 v n S G R G n 6 $ 3 h v v c c c 9 9 9 3 6 6 9 c c c h 9 : $ # $ : 6 6 9 v n v 9 6 : 3 h S G R G D n b v n S G G S c 6 9 b B n v c c n G eXrX9XR b 6 : 3 c n G R D h 3 3 n S D D B v h 9 h 9 3 $ 6 c n S B c 6 $ # + # # # $ 3 6 3 3 3 3 9 c c h h c c h h 9 6 3 $ $ : 3 9 c B G D n 9 3 : 3 c S S b 9 3 6 9 9 v S S n B n n B D D n c c B B S S b 9 9 h n B b h h 9 6 6 3 $ : 6 3 # + @ $ 3 6 3 $ # # $ : 3 : $ $ 6 v B n n c 3 $ : 3 6 9 9 6 6 6 9 h h b c 6 3 : $ # $ $ : 6 b b 9 3 3 3 6 6 6 6 3 3 3 6 6 6 3 6 6 6 6 9 9 6 3 3 6 c n n n n S G R G S : # : 9 v v h 6 : $ $ : 6 6 6 6 v c c x 9 6 3 3 6 6 6 9 9 6 6 6 6 h c b n n n n B n 9 $ : h n n c h 6 : $ # # $ $ $ $ : : 3 6 9 v n F E R B 9 3 3 $ $ # $ 3 6 9 9 6 3 6 9 n F G B n c 6 : : 3 : 3 9 c b D / _ / G S F W W G S S S n v 9 3 : : $ - 3 3 6 6 6 3 # # $ 6 n n u 3 $ @ # : 6 6 3 # + + + : 9 h 9 6 6 9 6 6 6 6 c n n n v c 9 c n F E ) ) _ W R F D S S S b 9 6 9 9 9 ",
"n S F R E P S n : $ 6 b S D S n 6 6 3 6 c n S S n n S G D v 6 3 @ $ : $ 3 h v h 3 $ $ $ $ 3 6 6 9 v n v c 9 6 6 h v n n c 9 6 3 c c h 9 9 9 9 6 9 c S P P S v 9 3 6 6 9 6 6 : : $ 3 6 9 c c h c S D S n c h 6 6 6 6 6 6 9 v n B v h 9 9 h h 9 9 h 9 9 6 6 9 9 9 9 9 c n B S D F S B b c h 7 v R qXyXrX) R b 3 6 b B S B B S S S b c c n v 6 : : 3 9 c b D W ( _ ! P S n 9 $ @ # 6 c v h 6 : : 6 6 v v c c b b n n n c 6 : $ $ : 3 3 9 c h h c c h 9 6 6 9 n P E W ! 3X9X7XR c 6 # 3 6 3 3 6 6 6 6 3 # + + 3 6 9 6 6 4 4 6 6 6 6 9 6 6 6 3 3 3 3 6 6 9 6 3 : 3 3 6 9 9 3 3 6 9 9 6 6 6 9 h v n n n c 9 6 6 9 c v 6 9 h c S W / E 9 6 $ 3 6 9 9 6 $ 3 9 v n S H H S S n c 9 6 6 6 3 3 3 3 3 : $ $ 3 3 6 h h 6 6 6 6 6 8 9 h 9 6 3 h h h 9 6 6 6 6 n n S D D D S S D D n c c 9 9 c v n c 6 : # $ 6 S G W W P D n n S B b 6 : 3 3 : # + 3 n D D G S n c 6 3 3 3 6 3 6 6 9 c c 9 9 h n n b 9 6 6 6 9 9 c v c h 6 6 3 : 6 n G E E D n 6 3 @ # 3 6 9 c 9 6 6 6 6 6 6 6 3 3 9 h 9 9 6 : $ $ : : $ : 3 : $ # + # c E 7X9X_ W G B b c n D R R G n b B D D S S S S R / ( / S v 6 3 c F / ) ( W F n 9 6 6 9 v c v v c 9 3 $ 3 $ 3 6 6 : # @ : $ $ : $ $ # @ # $ $ $ 3 6 9 9 h 9 9 9 9 9 6 3 $ # + @ 3 9 n G / / W R F G D G F D n h 9 6 6 h h n F E ! / W P S B n n B D G E ! / R v 9 9 9 9 6 9 9 9 6 : $ # $ $ $ $ 3 6 9 9 : : : : 6 9 9 3 @ $ c P / W P S 6 # @ 3 9 h c b n n b c 6 6 9 9 9 9 h h c c h 6 9 9 9 6 6 6 9 6 c 9 6 3 $ $ : 3 3 3 6 3 3 6 9 9 c c 9 6 9 c S R E R B 8 : 6 n R ) 7X/ S 9 $ + # - 6 6 3 3 6 6 6 6 6 3 3 6 9 c c h 9 6 3 6 9 c c 6 9 b S B c 6 3 3 6 v S G B c h 6 6 6 9 9 9 9 9 6 9 9 h v n B B B b 6 : $ : 6 c n n n c c 6 3 6 9 h v n n c 6 6 6 6 9 6 6 6 9 c G E W W R D S G R W D 6 3 9 9 9 3 : 3 6 9 6 $ 3 3 6 9 9 6 6 6 6 9 9 3 @ $ v S S n c 3 + + $ 6 9 n b c 6 6 6 6 9 c c c c c c c c v b V S Y W E R B B S G D b 6 6 $ $ $ 6 6 3 6 c c n F R G v 3 $ : 3 6 h c v b n b b B D S b h 6 6 9 h h 9 3 $ $ h c 9 3 $ $ # + $ # @ # $ + @ 3 n B n v 9 6 : # 3 6 9 h h 6 3 : 3 9 h 9 9 9 9 6 : : : 3 3 $ + + + $ 9 n n 9 3 : 6 c n D D n c h c c v v c h 9 9 6 9 6 6 h c h 6 $ @ @ : 6 h c v b v 6 $ # + + @ + # $ $ 3 6 9 9 v v v n b c 9 9 6 9 h c c c c 9 6 c n G F S b c : $ $ : : : : 3 $ $ $ $ $ @ + + + 3 c D G F S b 6 3 $ 3 3 $ $ $ 3 6 6 6 3 $ # # 3 3 : : 3 6 9 9 9 6 6 3 3 3 6 6 9 9 9 c 9 6 3 $ # @ + + 6 B R E B c 6 $ $ 3 6 6 $ $ $ $ $ $ # # + + 3 9 9 $ + + # # # $ $ $ : 3 $ $ $ 3 6 c B D S D S B S P E E P F n 9 h S E W W W R F G G R R R G v : + @ # @ ",
"$ 3 6 h v c 9 6 6 6 9 n n n b c c 9 6 6 6 9 9 9 6 6 3 : 3 3 $ : @ @ 3 c n v c c h h 9 6 6 6 3 6 3 6 3 $ : 6 c v v v b n b c c n D D n 9 9 n G F n c 6 6 3 3 9 n R W W R P R G S b c b S n 9 3 3 6 h c 9 9 6 3 3 6 6 6 6 6 3 $ # 3 3 $ # : 9 n n B b 9 6 3 6 9 c c c v n b c c c S D G F S 9 : : 3 6 6 3 3 6 9 h c b n n v c 9 6 6 6 6 9 9 6 3 : : $ # @ $ 6 6 6 6 3 9 S G R P G n v c b n n B D P G B c b G W W W G n 9 3 $ : 3 3 6 b F W / ! E F n 9 3 : 9 n D D G R W R b 6 6 v n c 6 3 3 3 $ $ $ - $ $ # +   + + $ 4 6 9 9 9 3 3 3 3 3 $ # @ # @ @ $ 6 n P W ( / E D n n n v c 9 9 h 9 9 9 c n D R W E D c : $ 6 c D / rXaXuX7XR 9 # + # 3 6 3 $ $ $ 3 6 v n S n n c 6 3 $ # $ 3 9 b v 6 3 6 h B W 7X( D 6 @ 3 6 9 c v v b n c h 9 6 6 c n B B G R E R G S n h h h h h 9 6 6 6 6 3 : $ $ : 6 : : : 3 6 9 9 9 3 3 3 3 c F R D 6 $ 8 B E 8XrXqXW G 9 # + # 3 6 3 6 6 9 9 9 6 6 6 6 6 9 9 9 9 6 6 6 6 9 6 : $ : c c b b n B B n 9 9 c v b v c c b b b c 9 9 9 h b v v c 9 6 6 3 3 $ 3 9 b n B S c 9 6 3 6 h v b n b c c c c b n S n h 3 6 n D D D B b b F ) qX9XW S 9 3 3 3 9 c c c 6 : 3 v S S n v h 9 8 6 9 6 $ 6 n R E G n c : # # $ : 3 6 6 6 6 3 6 6 9 c c c c v b v h 9 9 6 6 6 9 c v n S n n 9 $ @ $ 3 6 c c c h 9 9 h c D S n 9 3 6 9 c n n b c c n B S n n h 3 6 v n B 9 6 : : 3 3 3 3 3 : # + + # $ $ : @ @ : 3 3 6 9 3 : 6 c b v c h 9 6 6 6 6 6 6 6 3 3 6 9 9 c 9 6 3 $ # + + : h b b v 9 6 3 6 9 h 6 9 6 6 6 6 9 h h h h 9 6 6 3 : $ 6 9 v v c 9 h G G G S c 3 @ + $ : : : : # @ $ 3 6 9 6 9 v n n c h 6 3 6 6 9 9 9 6 3 3 3 9 n S S D S n b c 9 6 3 3 6 6 6 3 # # $ $ # @ @ # 3 6 9 9 6 6 9 n D F n b 9 6 : $ $ $ # $ : 3 6 6 3 6 h n G E P b 6 3 6 6 3 $ 6 c n S G G G G D c 6 c G E R F D S v 9 # % + # 3 6 6 6 9 6 $ # $ 6 c v b c 6 @ + # 3 3 # $ # # # $ $ : 6 6 9 9 9 9 9 9 c v n D S v h c b D E ! ( ! E E P F F G R D B n 9 6 $ # + # 9 S 0XrXeX( F n v c n n c 6 9 v v 9 9 6 c D W 7X0X) D 3 + # @ 3 c v c h 9 6 3 3 3 3 # : $ $ : 6 9 n n B v 6 # + @ $ $ : 3 6 6 3 3 6 v B R / W S c c n D n 9 6 : : 3 c c 9 : + + + X + $ 6 c v v c h 9 6 6 9 9 6 9 n E W W F b 9 6 3 3 3 3 : # + : 9 G / ) _ ! S 6 # # $ $ : $ # $ 3 3 3 3 3 : 3 6 6 h 9 6 $ : 6 c v c 9 3 $ $ : 6 h v c h 6 3 $ $ $ 6 6 6 6 3 : : 6 v S R / ) / R B 3 @ + @ $ $ $ 3 6 6 9 9 9 6 6 6 : : $ $ $ 3 3 3 $ # $ 6 n G W W D n 9 6 3 : : : 3 6 6 6 9 h 9 6 9 6 3 3 3 6 h h 6 6 $ % + + + # 3 6 6 3 3 3 6 6 6 9 6 6 3 3 3 6 6 3 $ + 6 E 9XrXrXqX! S c n S D F D v 6 9 n F P S n c v S E ( ) / E B 6 : : 3 6 ",
"@ # $ $ 3 6 6 6 : 3 9 b B G R E G D n h 3 $ : 3 6 9 6 9 9 6 3 6 c n n n v 6 $ # 3 9 h 9 9 9 9 c n v 9 6 6 h b n B S G E E F S S S S n 9 6 6 9 6 9 6 3 : $ $ 6 c S D S c h v b c 9 3 3 6 6 3 : 3 9 v D E / _ W P h 3 $ 3 3 3 6 6 n B n c 9 c b b c h 9 6 3 6 6 h b v 9 6 : 3 6 6 9 n R / ! F c 6 6 6 9 c c v v 9 9 9 6 6 6 9 c v c h 6 3 3 3 3 3 3 3 6 9 9 9 6 6 + # 9 B R / _ W S c h b B D G G n v c c b S D B x v P 7X0X) W G h 6 6 c G W / ! D n 9 9 c n B n n c h h 8 $ $ 6 6 9 9 6 6 : # # $ # @ @ @ # : 3 3 3 6 9 9 9 9 9 v v c 9 6 : $ # # $ 6 c S R E E S n c 9 c n D D n h 6 6 9 c n B D G F G G P F S v c n G P P G n b 9 h n n v h 6 h 6 6 6 3 3 $ @ + + # 3 6 6 3 # # # $ 6 3 # # 3 n S D D n h 3 : 3 6 9 9 9 9 h c c c c h 9 6 3 : 6 6 3 3 6 6 6 6 9 6 6 6 6 6 6 6 6 3 3 3 6 6 6 6 6 9 h c 9 6 6 6 h b B S D P R G n h 6 3 9 D E P n 9 3 $ # $ 3 3 6 9 9 9 9 9 6 3 6 6 9 c v v h 6 6 6 9 b n n v b n n c 6 3 6 9 c D D S b 9 3 3 3 3 3 3 : 3 6 6 9 c b S G G G S n 6 $ $ 3 6 9 9 9 9 9 6 6 6 9 b B S S b 9 6 6 6 6 3 3 6 9 n R / ( W W W E R W E G c 6 9 c c 6 6 3 9 h 9 3 3 6 9 6 $ 3 9 9 c c 9 3 + + $ 6 c 6 $ + + @ 3 9 c b n v 9 9 6 9 9 c v n n n b v v n S F / _ ( / ! E F D G G S v 9 6 : $ # $ 6 9 b R / / W G c 6 $ : 6 v h v n B n v c c G R G n v 9 3 3 3 3 6 9 c c 9 9 6 3 3 $ $ $ @ + @ $ $ : 6 n D S c 6 : @ @ 3 9 9 6 6 3 : 3 9 n n D S n 9 3 3 3 $ : $ # # @ # : 3 6 3 $ # : 9 n S G D B v c c v v c 9 6 9 9 v n B n h 6 3 $ # # $ $ : 6 9 b D F G h 6 $ # # @ # $ 3 6 6 3 6 9 c h h h 9 9 h h h h v b n S B n b b n n h 3 : 3 3 $ : 3 3 3 : 3 3 : 3 $ @ + $ 9 S R / / E S c 6 $ @ $ $ $ $ 6 9 9 6 9 6 3 : $ $ $ : 3 3 : 3 6 3 3 6 h b b v n b c v 6 $ # # # + + $ u v n n c 6 $ $ 3 6 6 0 6 - # # @ $ $ @ + + $ 3 : $ $ 3 3 # # # 3 3 3 6 6 $ # 3 v S R / / W E P S D W _ / D c h F W / ( ! D B C P W / ( ( W G S n v 9 3 $ 3 6 c b n n c B / 7X_ G n h h c 9 9 9 $ : c F / 9X9X) G 6 : 6 6 h v 9 6 # + $ 3 6 c S ! / E b 9 9 c n F D b 3 + + $ 6 6 6 3 $ $ 6 h n c h b D S h 6 b E W R n 9 : $ 6 n n n c c n D G D B c 6 3 $ $ : h n B B S R W W E G S S D G F S n v c h 9 6 6 9 9 c v c h 9 9 9 3 3 3 6 6 3 3 6 9 b D R E E G G S B c 6 3 3 3 3 9 6 6 3 : 3 6 9 n n n 9 3 3 $ # : 3 3 3 3 : 3 6 9 9 9 6 6 6 3 $ @ + + + $ : 3 3 6 6 3 3 3 6 6 9 9 9 6 : : 3 3 3 3 : # @ $ 9 c h 6 3 $ + $ 9 b v c 9 6 6 6 $ $ 6 6 6 6 6 3 3 6 6 6 3 $ $ $ $ $ : # $ : $ 3 9 c c h c c c 9 6 3 $ 3 6 6 9 v D G D b 9 3 @ @ $ 3 6 c h 6 3 $ # + + $ # # $ 3 6 3 3 # 6 D _ 9X9X0X8X",
"3 6 6 6 3 6 6 6 9 6 3 $ $ 3 6 9 9 9 9 6 6 3 : $ 3 6 6 6 6 $ : c E / _ W S 9 $ @ 6 h c c n n n n 6 6 6 9 c v n n n n S G D b 9 6 9 9 9 h h 9 6 6 3 3 3 : : : : $ $ $ 3 9 h 9 6 6 3 6 n G R G B 9 $ : n ! 8XeX8X/ v : + # $ $ $ 6 5 6 6 6 6 6 6 6 6 6 9 c c h 9 6 6 6 6 6 6 h v v b c 9 9 9 9 c n S S n v c h 9 c c c c 9 9 v b c b n n n c 6 : $ $ 6 h n B B b h 9 6 6 9 9 c n v v 9 9 6 6 c n c 9 3 9 n D E W R b 9 B ! / F v 6 h 9 6 3 3 9 c 9 3 : 6 c b b c 9 6 6 6 6 6 : $ : b S G F S 6 # @ $ 3 9 v c 9 6 6 6 6 9 v v v v v v n b c c v b n n S B n n B n b 6 3 $ $ $ : 3 6 9 9 9 h b D G S 9 3 3 6 9 c n n v c v b b S D n 6 6 9 n n c 9 6 : : 3 6 6 6 6 3 # # + + + # # # + $ 6 b B n 9 6 : 6 9 9 c c 9 9 6 6 6 6 6 6 6 6 h 9 9 6 6 3 : $ X + $ 6 c B B n 6 3 9 v n n n c h 9 c n n n b c 9 6 3 3 3 6 9 c n c 6 3 3 9 n n n v 9 $ @ + + + + + + % # 3 6 6 6 6 u v m m c c 6 9 h c b n b c 6 6 9 n D P P F n h 6 3 3 3 : 3 : 3 $ # $ $ # @ + @ $ 3 h n B n c h c b v c 6 3 3 3 6 6 : $ $ $ : : 3 3 6 9 c b S B b 6 3 6 6 6 6 6 h v v v c c b h 3 # $ b P E W R G n h 6 : $ $ # $ 3 3 : : : $ # 3 9 c 9 6 3 # + # 3 3 $ $ # : # # $ : 9 b n b v c v b n S F Y P D n b S E ! ! ! E F D D F F D G D D n h 3 $ $ $ 6 c G 8XrXqXE D D R W G b h h 9 9 v h : 3 n ! 0XrXeX7XG 3 + X @ 3 h c 6 3 $ : 3 3 6 9 h h h 6 9 n F R G n 9 $ + + $ : 3 3 3 3 : 3 6 v D R W R F B b n G E P 9 : : 9 n B n c $ # @ $ : 3 6 9 9 9 9 6 9 c c 9 6 h n D R W E G n c h c h 9 6 3 3 3 6 9 n E / / R S c 3 $ $ 3 3 6 6 6 3 6 9 9 9 6 6 6 h c 9 6 6 $ $ 3 9 9 6 : $ # : 6 b S B b h 6 $ # 3 6 6 6 8 3 6 6 6 c n G P R P S 9 : @ + + @ $ 3 1 : 3 6 6 6 6 9 h 9 6 3 : 3 3 6 3 : $ $ 3 v D R R G b 3 $ $ 3 6 6 6 6 9 6 4 3 3 6 6 6 6 3 3 3 6 9 9 3 # # + + # : 6 6 6 6 3 6 6 9 c c v c 6 3 3 6 6 # + 6 n R 8XrXeX/ n 3 3 6 h B S v 6 6 3 6 9 v v 6 3 9 D E E P D S B S S B c 6 3 9 h 9 3 # @ $ 3 9 b v 9 9 9 9 9 6 6 6 3 : 6 9 9 c n v b n B S D D S n h 6 3 3 6 c n F R R D v 9 6 3 6 9 h 9 6 3 $ $ $ h c 9 $ $ 3 3 $ # $ @ + @ # $ $ $ 3 $ $ : @ + # 3 v P / ) / E G n b c c 9 6 : 3 3 3 9 c n n b c 6 6 6 9 9 6 3 3 @ # 3 h c c 9 6 9 6 6 6 6 9 c 9 6 3 : : : : 3 3 6 h b B G F D B h 6 > $ > : 3 9 h c c 9 6 6 6 3 : $ $ $ $ # $ 3 6 6 9 6 6 $ $ 3 b S G S v 6 $ # : 6 c n D R R F b h 6 3 3 6 9 9 h c 9 3 3 3 : 3 $ 3 3 : 6 n G D v 9 3 3 3 6 9 9 6 9 n F R D b c c v c c c 9 6 : $ : 6 9 c 9 6 3 3 3 $ : 3 6 6 9 h h 9 6 6 9 9 6 3 3 h B D S n c 6 $ # $ $ $ $ 3 : : : : $ # @ # + @ @ # @ @ @ # + 3 S ) qX8X_ ) ",
"6 9 b D D b 6 3 6 : 3 6 3 $ : $ @ @ $ 3 3 : $ @ # : 3 6 6 3 3 9 n S B v 6 6 3 3 9 9 9 9 6 6 6 9 c c h 6 6 6 3 : $ $ 6 c v c 9 9 6 6 6 9 9 6 6 9 6 6 6 9 6 6 6 6 c c h 6 3 6 h c b n n v S R R D 6 $ : 6 c c 9 6 3 $ $ 3 3 3 6 5 c c v c 9 9 6 6 6 6 c b c 9 6 6 6 9 b B S n b v n B 9 @ # h n n h 9 3 $ $ $ $ $ $ $ $ $ 3 6 9 c b n F E G n 6 $ : 3 3 3 3 6 6 9 6 6 6 3 c D E E B c 9 6 6 3 6 6 6 v n H E _ _ W S n D W W G S n D S v 6 $ 3 3 3 6 3 4 6 6 3 3 6 6 6 c n n 6 + + $ $ $ $ # $ # @ $ $ 6 v v 9 6 9 9 h c h c n S B n n n S F E ( 7X7X) ! F B S D S B n c 6 3 3 : # # 9 F ( 8X7X/ G 9 3 6 v n h 9 v B n c 9 9 n R W _ ( G 9 $ # $ 3 6 h c v b 9 $ $ 3 3 : # + # : 3 3 9 v b n v 6 : # # @ $ 3 6 6 9 3 6 c n S P E G n v b n n h 6 6 $ $ : 6 6 3 $ + + + + $ 6 b n B b b c c c 9 6 h c b D E E D v 6 3 # # : $ @ # $ 3 h P _ ( W D c 6 # % $ $ 6 6 $ 3 3 6 6 6 6 6 6 c 9 9 9 6 6 h v S n b 9 6 6 9 9 6 6 6 6 6 6 6 3 6 6 9 9 9 3 $ : $ 3 c S E _ ) / D c 3 $ @ @ $ $ : 3 6 9 c h 6 6 6 : $ $ : $ : 6 3 3 3 3 6 n D F F D B c 9 6 6 : @ + # 3 6 9 9 h 9 6 6 $ $ 3 6 9 9 9 6 $ @ # # + # # $ 6 6 $ # : 6 6 6 3 : 3 6 9 9 9 : @ $ n W ) rXeX7XR S B D G R R S 6 9 F ! / W E D v n E ) 8X7X_ W P B b c 6 : @ # 3 3 # @ : 9 n P W W D c 9 c c c h 6 $ : 9 D E W R G S v c v v b v h 6 $ # $ 6 b F / 7X3X^ b 3 : 9 c c h 7 # + # 6 9 h h 9 $ $ 3 h c 6 3 6 h c c 9 h n n n 6 : $ 3 6 9 v S G R E R P G S n 9 6 : $ 6 c B D P P E W R S v c n S S S n c 9 9 v v h 6 6 9 9 9 9 6 6 9 h 6 6 6 6 3 3 6 9 v S E / ( ! R D n c 6 $ $ 3 9 c c 9 9 6 6 6 8 9 9 9 9 6 3 $ $ $ 3 6 6 3 $ : 6 6 9 h 9 6 : # @ @ $ : 3 6 6 9 9 9 9 9 6 6 6 6 h c h 9 6 6 3 3 6 6 : $ 3 6 9 c h 6 3 $ : 3 6 v n n 9 6 6 6 6 6 6 3 3 6 9 c c 9 3 $ 3 3 3 : : : $ # # $ 3 9 c c c v c h 9 6 6 3 : 6 6 h n S S n h 6 $ @ # @ $ : : 3 6 6 6 $ + + + + + + % : 3 $ @ $ 3 9 n G R D h c D R G n c h v S P W W E G B h 3 3 6 3 6 6 9 9 9 6 9 9 c c h 9 9 6 6 9 6 6 6 3 3 6 6 3 3 6 b F E P D n b c b B b 6 $ + + # $ 3 6 $ # 6 b S G S b 9 : + + $ 3 9 c b v c 3 3 6 9 9 9 6 3 3 3 7 h 9 6 3 3 7 6 9 l 6 # @ $ h D W ) ( D 6 $ # $ 3 9 h 9 6 : 6 3 : $ : 3 6 h 9 c 6 # $ 6 9 9 9 h B G R W R B 6 $ 3 c b c l 9 6 6 3 $ $ 3 3 : 6 3 3 : @ + # 3 6 c n n n c 6 3 3 6 9 9 6 6 3 : 6 9 c n F ! ) ) / E S h 6 3 : $ 6 3 $ @ + + @ $ 3 3 $ @ @ $ 3 3 # $ 6 c c 6 : : 9 c n n v 9 9 h n B n c c n n b c n F W W D c 6 6 9 6 6 3 3 6 6 3 6 3 3 6 6 3 6 6 3 3 6 h v n b 9 6 $ $ $ 3 6 6 3 : 3 3 3 6 6 6 6 6 7 h c b b n B n v c v n C D ",
"$ 3 h n b 9 3 3 6 9 c h 6 6 3 $ $ # @ # # + @ $ 3 h n S S v 1 # $ $ 6 h c h 6 6 3 6 6 6 9 v b c 3 6 3 $ $ : $ @   + : h b c 6 3 3 6 v S F G n v v b n B B n c 9 9 9 9 9 h c c c 3 $ $ 3 6 6 9 n n v c 9 3 # + + @ @ # # $ 6 9 6 9 9 c v c c c c c c c b b b b v c v B G F S v 9 6 : $ 3 6 3 $ 3 3 3 3 3 3 $ @ @ # 6 n P E P B b h 6 6 6 3 $ $ : 9 h 9 6 3 : $ $ : 3 3 3 6 9 9 6 9 6 3 6 6 6 9 6 v c c 9 6 6 3 # + + $ 9 n S G G c c 9 6 3 6 6 6 6 6 4 3 $ # + + # $ 3 6 6 $ % % # $ $ # $ 3 6 3 + $ 6 9 b D G G G D S D P W / W B b b S R ! / W E F D G R R R E F D B n h 6 : $ 6 9 B W W P F E ( ( W S b v c 6 c 9 3 $ 6 B W 7XrXeX/ S 6 $ @ $ 3 6 3 $ $ $ : 6 9 h S R G b 6 9 S D G F n 6 @ + $ 3 6 9 9 : # $ 6 9 b B D P G S h c G / ( P c 3 6 9 b S n 9 6 6 9 c n n b h 6 6 6 9 v n B n n S W _ / R G D S S D S n c 9 6 6 3 6 9 n G P G D n 9 6 3 3 $ 3 6 6 3 6 c n S S S n n b n n c 6 6 3 6 6 3 $ $ $ 3 3 c n B S n 9 3 @ # $ : 3 6 6 6 6 9 9 v n n n b h 3 $ + + + @ $ $ $ 3 6 6 6 3 6 9 9 h 9 6 3 6 3 3 6 6 : $ 3 9 n n n b 9 3 $ : 6 6 c b v 6 3 : 3 3 9 6 6 6 6 6 6 6 9 6 6 $ # + # $ $ 3 3 : 3 6 9 h 9 h v n b 6 : $ 6 6 3 : 6 S E / / E S 6 # # : 6 9 l l 9 6 3 , $ : 3 3 3 6 b n n v c c b n S D S c c n F D v 6 6 6 9 v n n v h h 6 6 6 6 6 6 6 6 6 9 9 h v b b n n n n n v 9 6 6 , 3 h b B n b n B B B b h c b v 9 6 3 $ : 6 9 6 : $ $ : : $ # @ + + + # $ # # $ 3 : $ $ : 6 n D W W G b 9 c v v v h 6 : : 3 6 9 6 9 6 3 3 9 c v c h 3 @ + # 3 6 c v c 6 3 3 6 6 : 3 3 3 $ $ # # $ 6 6 9 9 h c c n S B v 9 6 3 3 6 6 6 6 6 6 6 6 6 3 6 6 6 1 $ @ $ $ $ $ : 9 v c 6 6 3 $ 9 D R P n 9 3 3 6 6 b D ( ( ! G n c 9 6 : 3 6 h c 9 6 $ $ # # $ $ $ $ 3 9 v n n b 9 3 $ 6 6 6 5 9 v S G D S n n n n v c m v 6 # $ c S D D n c 9 6 3 3 6 3 6 9 9 9 9 6 6 c 9 6 6 6 6 9 v S D S n 9 : @ + 6 6 6 3 : 3 3 : $ $ 3 6 6 3 3 $ + $ @ + $ 9 n D S n 9 $ + # $ $ + + @ 6 n E 3X9X9X7X! G v 9 3 $ # # # : 3 : : 6 n F W / ! D h 6 6 6 6 3 : 3 3 3 : : 6 c n v b c 9 6 6 6 3 $ # $ : 3 6 6 6 : $ 9 B R ) 0X7XW n 9 @ + @ 6 c c c v n b c 9 6 3 6 6 , , $ # + $ 7 9 h c n n c 6 : $ 6 n G R G c $ + @ # $ 3 6 c n S n n 9 $ 6 D ) qXuXuX3XD 9 6 3 3 : 3 b G E R S v 6 $ @ : 3 3 7 7 9 9 9 6 6 h c c 3 : 3 3 : $ $ 6 P W W E G S B S D D n 6 3 3 3 6 6 6 3 $ 3 c S D S n v h 6 $ # $ + $ : : 3 9 c c 6 6 6 3 3 3 3 $ $ : 6 c b c 9 6 3 3 : : 3 6 6 3 3 3 : : 6 9 h h 9 9 9 c c h c b S S S b 9 3 $ # $ 3 6 6 9 6 6 9 c n b 6 : 3 3 : 3 6 3 3 3 3 3 3 9 3 3 3 3 3 6 6 $ 3 3 6 n E ) 0XqXqX3XW G B b l ",
"3X/ D 6 + + $ 3 b n c 6 3 : : 3 3 3 3 : : $ 3 c n S S b 9 : + + # # : 6 6 3 3 6 6 u D W / R S S B n S D S h 3 3 9 h c 9 6 # + + + @ 3 6 x c v n c 9 9 9 6 6 c n E W W E D n 6 : 6 : : 3 $ @ $ 6 S E ) 8X_ R v 3 # $ $ $ $ : 3 3 3 : : 3 3 3 6 6 c 9 6 3 3 9 v v c 9 6 3 3 6 9 c c v c 9 6 6 3 3 9 9 6 6 3 $ $ 3 v S R W / E S b $ $ # $ $ $ $ : 6 9 c h 9 9 9 6 3 3 : : 3 6 6 6 : 3 6 h n P W E v 9 6 4 3 $ $ 3 6 6 6 6 5 6 6 - 6 6 : : 6 9 c c 3 # + + + # $ 3 6 9 6 $ $ 3 6 6 6 6 6 3 3 6 9 6 3 : 3 c E eXuXuX_ R n 9 h n G G n c 9 h n G P G 9 9 b P / _ ( / E G S B b 9 6 6 3 3 $ $ # + $ 9 n S B c c c c v 9 9 6 6 6 6 c v c b n n B B S D D D n 9 3 : 3 6 S R / ) / G h 3 $ $ 6 9 9 3 : : $ : 6 v c 6 $ : 6 6 6 $ # : 6 6 6 : 3 6 6 3 : $ # : 6 b D E / / ! W G S v 9 6 3 : 3 6 c n S G P G P S c 9 h c c 6 6 6 6 6 c b c 9 9 9 9 9 6 6 9 v c 6 0 6 3 - 3 3 3 6 c n R W W G S n c 6 3 : $ c c c c c h h 9 6 6 6 3 3 3 3 3 : 3 6 9 9 6 $ $ 6 6 c B n h 6 : : : 3 3 6 b S S n b 9 6 9 9 6 9 c v h 6 6 9 6 3 3 3 : $ 3 c n B B b 9 : $ 3 9 v v v v c b n n v 9 9 9 9 c c c 9 3 $ $ 6 h 9 6 6 3 3 : : 6 9 c b n n v 9 6 6 6 6 3 6 h v n S n b 9 6 3 : $ : : 3 3 , 3 7 3 $ @ # # $ $ # # : 3 : @ $ 6 n S D D n 9 9 h n n 9 6 6 v S W ) 3X( E G c 9 6 3 6 6 6 3 6 6 6 6 6 h n n c 9 9 9 9 6 6 6 6 3 : 3 3 3 6 v D D G S n b v c c h 6 @ + @ : $ 6 3 3 3 c D E W R D c 6 # + $ 3 n S B c 9 h h 6 3 $ $ 3 6 3 : : $ : 3 6 9 9 c c c 9 $ + 3 S / 7X7X/ S 3 + + $ 6 6 9 6 6 6 6 3 $ $ 3 n R W E D v 6 : : 6 h c b B W W R n 6 3 : 3 9 h v v c 9 6 6 - 3 4 6 6 6 3 3 $ : 3 3 9 S P F D n h 6 6 6 6 3 $ $ 3 9 9 6 9 c n P / _ / E D v 6 3 3 : $ $ # # @ $ 3 6 6 3 : $ $ $ @ + $ 6 v n v c 5 6 6 c c 9 4 4 6 6 6 6 c v S S n 9 c S G G D B v 9 9 9 9 6 h 6 3 3 $ : 6 6 $ : 6 h h 9 6 6 6 9 9 9 9 6 : : : 3 3 6 6 6 6 6 3 6 6 6 3 6 c v D R W W W G b h 9 6 3 $ $ # $ $ $ $ $ $ : 6 v n S S n b h 6 6 6 6 6 : # $ : 9 D W 3X9X9X( S 6 $ 6 h c c c c h 9 6 3 3 3 $ $ $ # $ $ $ 3 3 3 3 6 c n n n v 6 # $ 3 c F W E B 6 @ 3 3 3 6 6 9 9 6 3 3 6 6 6 3 3 3 , , , $ # $ 3 3 9 c c c n S D D b 9 : # : 6 6 6 $ 3 9 B F W ( 3XqX8XE h $ 6 v n n B v 6 6 9 c h 9 6 6 c c h 9 c 6 6 9 b b 9 6 1 : 3 3 6 6 6 6 6 9 6 6 6 6 6 9 c c v c 9 6 9 v B D D n 9 6 6 9 9 9 6 6 3 6 9 v n D B 9 + .   @ $ 9 c c 9 6 6 6 3 @ @ # $ $ : : $ : $ $ # : 6 b B S S n c b D F G 9 6 $ $ : 3 6 9 9 9 9 9 9 c n D R R G B 9 : @ + 3 9 h h 9 6 6 9 n n v 3 : 6 h h 6 6 6 6 6 h c c 6 3 3 6 6 6 6 3 $ $ + + + 3 6 9 c n E ) _ G 6 $ ",
"E R S c 6 9 9 6 9 6 3 : : $ 3 c G W / / R n 6 3 B D D n 6 # @ $ 3 6 9 6 3 3 6 6 6 u n n m c 9 9 B S G R D 9 $ $ 9 c b n n n S D G F D B v 9 6 6 9 c n D D D F R E E P B n B D G S n b c 9 9 9 9 c c c c c 9 9 9 6 6 6 6 6 6 3 6 9 c S R W W R G b v c 9 6 6 6 3 6 6 6 6 6 6 6 h v v c 9 3 @ + $ : 6 9 h 9 6 6 h h h 9 6 6 3 3 3 @ + + @ $ : 3 6 9 9 6 6 6 9 9 h v c 9 6 3 3 3 3 3 3 3 : 3 h c 9 9 3 $ $ 6 h b n 6 6 3 6 6 3 : 3 6 6 9 9 h 9 6 6 6 3 : $ $ # $ $ + $ 6 6 h c c c b c h 9 6 6 6 3 3 6 c n D D S b 6 $ # $ 3 6 9 h h 9 6 : @ @ # @ @ $ 6 9 9 6 3 $ 3 6 n R R D n b G R G v h h c n S G G S n h 3 6 6 6 6 6 9 9 9 9 c c h 9 9 9 6 6 c c c 9 9 6 6 6 6 9 9 3 6 n G R D S n n n n c 6 $ @ # 3 3 : $ $ + $ 6 x 9 9 6 # + + $ : 3 6 6 6 3 3 : 3 c S F D n c 9 9 c v c h 6 3 3 6 6 6 6 3 : # 6 S G P F n 6 $ @ 3 6 9 9 9 3 3 : 3 6 3 $ $ + $ $ # $ # # : 9 9 9 9 c S F D S c 6 3 3 6 h c 6 6 6 6 3 3 : : 6 6 6 6 3 3 : $ : 3 9 c v h 6 6 3 6 v S S b 9 6 : 3 9 v D W _ ) W R S c 9 6 6 9 c c 9 3 @ + + # : : : $ : 6 6 6 6 6 6 6 9 9 6 3 6 9 n D D B n n B S B n n B n c 3 6 n W / E B v h 9 6 6 6 3 3 6 6 9 9 6 6 6 6 6 6 6 6 6 c n S S n c 3 $ # : 6 9 6 6 3 3 3 3 3 3 h h 9 6 6 6 6 6 3 6 c n S n c 6 $ @ @ $ $ + + # 6 c P _ 7X8X) W D c 6 : @ + # $ 3 3 3 6 h F / / _ W S c 6 6 6 6 9 8 6 3 3 3 3 3 9 6 6 6 6 6 6 6 3 # # $ 3 9 h h 6 6 $ $ 6 D W _ 7X( G 9 $ $ 3 6 6 9 9 6 9 v b c 9 3 6 h x 3 # + + $ 3 9 c n n B n c 9 6 6 3 6 6 6 6 : $ # # $ : 6 c S G E P B c $ 6 G 9XrXeX) E n 8 : 3 3 3 9 n S S n h 6 3 3 3 6 6 6 6 3 3 6 6 u 9 u c 9 6 3 : 3 3 6 6 n R ! W n v S W W G n n 9 9 6 6 3 3 3 3 3 6 9 v b c 6 : $ @ @ : 3 3 3 6 b n b v h 9 6 6 9 9 6 : : 3 6 6 9 c h 9 3 3 6 9 v c v c 9 3 : 3 3 3 6 6 9 6 6 9 9 b S G R E F n 6 @ + @ $ 6 c c 9 9 c n n c h 6 3 3 6 6 6 3 3 6 6 6 6 6 6 3 : : 3 3 3 3 : 3 6 9 c S W 7X3XR c 6 $ $ $ $ 3 h n n b c c 6 : $ # @ $ : $ $ 3 6 n G ! / R c 3 @ # 6 S G G D n 6 $ : 6 9 h h 9 9 6 3 3 3 3 6 6 9 c 9 9 c b n S c 6 6 $ : 6 6 9 6 3 3 # @ # 3 6 9 c n c c h 6 6 6 h c c n G E W P n h 9 : $ : : $ $ $ $ $ + X 3 D / 7X8X_ E S 9 6 $ + + @ 6 n R ( 8X0X_ ! R S v 9 6 3 3 6 6 6 9 b S D F G G D n 9 : $ 3 6 9 h h 6 6 6 6 6 6 3 3 3 6 6 6 6 6 6 6 3 3 3 3 6 6 6 9 h c n S S n 6 6 6 6 6 6 6 6 9 h c v n v c 3 + : n E W W R D n 9 : # # : $ $ : 3 3 3 3 3 3 3 : $ 6 h b P P S 6 $ : 3 3 3 : 3 6 6 6 6 9 c c 9 3 : 3 6 9 h c h 6 3 3 3 3 v b v h 3 # @ # $ : 3 6 6 6 6 3 6 6 6 6 9 9 h 9 c c c 6 6 6 3 $ $ $ # $ $ 3 6 3 : 6 S ( _ S $ + ",
"v b v v n D F F D n h 6 3 3 6 n G E G n n v c v 6 9 c v c 6 # + 6 6 9 6 6 3 $ % $ 3 $ + + + # # $ $ $ # @ # $ $ # 3 b G ! ( / W D n v c h 9 6 6 3 3 6 h v b b b c h 9 6 6 6 3 # # @ $ 6 h 9 9 9 6 7 6 6 6 6 6 9 6 3 # $ 3 3 : 3 6 6 9 c n S S n b 9 3 3 : : 3 6 9 h h 9 6 6 6 6 6 6 3 : : : : 3 6 9 9 6 3 $ $ 3 B D G D n 9 $ @ 6 h n G E R G S 6 6 3 6 9 h c b n c 9 3 : : 3 6 3 6 9 h b S G S 6 3 : 3 6 9 9 9 b n S G G n b n c b n b c 6 3 : 3 6 c n n h 6 3 3 6 6 6 9 h c v c c h h 9 6 6 6 c c n D S n c 9 6 : : 3 : $ 3 3 3 3 3 3 $ : : $ 6 $ # # + + @ $ h n D F S 9 3 : 6 9 3 @ @ : c F ! 7X9X8X) E n h 6 3 3 3 3 : : : 3 6 9 v S F F D c 6 6 6 6 6 3 3 3 : $ # 3 h n S b v c 9 9 h h 9 : # @ $ $ 3 6 3 6 6 n R / 7X7X/ S 9 # + # 6 v n n v b n c 3 $ $ 6 3 3 $ # # # $ 3 3 9 v b v c 6 $ $ c E / / W G 3 + + # : : 6 6 9 c 9 6 3 : 6 S 3XeXrX9X/ S 6 $ $ 3 6 h B E / W D v 6 : $ : 6 6 c h 9 6 6 6 9 c c 9 6 3 $ $ $ : 3 c D W ! G n n B n v 9 6 3 : 3 9 6 3 : 3 h n D ! / E D v 6 3 : $ $ $ $ $ 3 6 9 9 9 6 6 6 6 3 3 @ $ 3 9 v c h 9 6 6 6 6 6 6 6 9 6 6 6 3 6 c n b h h v n n c c v b n n n v 9 6 3 : $ : 6 6 3 3 h v v c 9 6 6 6 3 6 6 6 : 3 6 6 6 6 6 6 3 3 6 6 6 : 3 6 c S R / ) 9X7XW n 6 : $ @ $ $ : 6 6 3 3 3 : $ $ 3 6 9 9 6 6 3 6 v b v h 6 3 # $ 9 S / 9X0X/ G b 6 3 6 9 c v n b h 6 6 3 : # : : # # : 3 3 6 6 6 6 6 9 c c v h 6 : $ 6 h b c b c 6 3 6 6 6 9 6 9 c b c 9 9 9 h 9 3 $ : 3 3 $ $ $ : : 3 3 6 c b D E E G b h 3 3 3 3 6 6 9 v P ( 9XrXeX7XW G h 3 3 6 6 3 3 3 6 6 c n b v c 9 9 9 6 3 6 9 h c c x 9 6 3 6 5 6 3 6 6 9 9 9 6 6 6 6 6 6 9 9 6 6 9 6 9 v b v c h 6 6 6 9 9 9 9 6 3 6 B R E B 6 # + # 6 n S B v 9 9 6 3 $ # $ $ $ $ $ $ $ $ 3 6 3 # 6 n R W G S n B n b v h 6 : $ 6 6 6 9 9 9 9 h 9 h c b n n n b 6 $ : 9 h v v h 3 $ 3 6 9 9 9 9 6 6 6 6 9 6 6 9 v c c c h 6 6 6 9 6 3 3 : # + + $ : 3 6 6 3 : : 6 6 6 : 3 6 6 6 6 6 3 3 $ : 3 3 : 3 3 3 3 3 6 b R W P n c 3 @ @   X   + $ 3 6 h c c 9 6 3 6 6 9 6 3 3 6 h B F P D S n n n c h v P W ) 7X/ D 6 + # # $ : 6 9 v n G P ! ) / F n c D F E / _ / R D h 3 : 6 6 6 6 6 6 6 3 $ 3 9 v n v b b v h 9 6 3 3 6 6 6 h S G G D v 9 9 6 6 6 6 9 9 9 h 9 6 9 c c b b b c 6 3 3 : 3 3 : 3 3 3 6 6 6 6 6 3 : $ $ $ 3 6 6 c S G G n c 3 # $ : 6 h n n b 6 3 : $ # $ $ 3 6 6 3 $ $ @ @ # : 9 b n n b c h h 9 3 # @ # # $ $ : 3 3 3 6 6 3 3 6 3 6 6 6 6 3 # @ : 6 6 3 3 3 3 : $ : 3 6 6 : $ 6 n R W E G v : + $ 6 9 6 6 6 3 : $ $ $ : 3 6 9 h h h h 6 3 $ # $ $ : 3 $ $ $ $ $ 3 9 9 6 , : > $ $ : 3 6 9 9 h 9 6 3 : ",
"6 6 6 6 6 3 3 : 9 h 9 9 6 6 6 3 # 6 6 h S G P G n b v n n v 9 6 + + # - 3 # # 3 6 c n G R n 6 $ # # $ 6 c n n b 6 6 3 6 6 9 9 6 6 6 6 6 6 6 3 3 3 6 9 c 9 6 # + $ 9 R ) 7XW n 6 $ $ : 9 9 6 3 6 6 6 3 : 3 3 6 c c n c 3 3 6 6 6 6 9 b S F E E F h 3 3 9 c c c c 6 6 6 3 3 6 3 3 9 9 3 # + @ $ : 6 c n B n 9 3 3 6 9 9 6 6 6 6 6 3 6 v S R / ( ( ! P n h 6 6 6 6 6 3 $ @ + @ $ 3 : $ $ $ # $ $ # 6 6 h n b 9 3 3 9 h c h 9 h c c n n n b c c v n D G R P D n h 6 9 9 9 6 8 6 3 6 3 3 3 6 6 6 6 9 6 6 6 9 c b c 6 : $ $ 6 6 6 9 9 9 6 6 6 6 6 9 9 6 9 v n A D D B n n v c 9 3 $ $ $ $ $ $ $ @ # 3 n P W ! W G n 9 3 $ @ @ # $ 3 6 6 h S W ) 7X3X/ n 9 6 9 c c c c c 9 6 3 3 3 : 3 6 3 3 3 3 $ $ $ $ : 9 v v b c 6 $ $ 6 n G W / E c 3 # : 3 3 6 9 9 6 9 c 6 3 3 3 h 9 6 3 # # $ 3 6 8 c b b b n n v v 9 3 : : $ 3 6 : $ : 6 c S P ( 3X) W D 6 : 9 P W W P S v 6 9 9 9 6 6 6 c n v h 6 6 6 6 9 h c 6 3 3 3 3 6 6 6 9 9 6 6 6 6 6 6 9 c n D S b c b G P P D n h 9 9 6 9 9 9 6 3 3 9 v b c 3 @ + X + 3 6 6 6 9 c c 9 3 3 3 3 3 3 3 3 $ $ $ 3 3 3 9 v n b c 9 c B D S n c 9 6 : $ $ 3 6 9 9 9 9 c b B E W W R S 9 # + + # 6 c c 9 6 h n n n c 6 6 6 6 6 9 9 6 6 9 h 9 9 6 6 6 3 3 6 6 6 3 $ $ : 6 c n D D n 9 6 3 3 3 3 9 b S S n c 9 6 3 3 3 : : : : $ 3 h n R _ 7X) b 3 @ $ : 6 c c 6 3 3 6 6 9 9 9 9 6 6 6 6 6 6 6 h c v b b b b n R P S 9 : 6 c c h 9 9 6 : @ + + 6 9 c b n B S D n b 9 3 6 n E / _ / W G b 9 3 $ 3 6 6 6 3 : $ # # 6 D W ( / R G b 9 : @ + X @ 6 G W _ ) / E D n n c 9 6 6 6 h h n n n S G R R F n v 6 : 3 6 6 9 6 8 6 6 6 6 6 6 6 3 3 3 : : 3 6 6 9 9 9 6 3 3 6 6 h n B S D S n h 6 3 6 6 6 6 6 8 6 6 c 9 3 $ : c n G G R R G n 6 : $ $ $ : 3 3 6 9 9 6 6 6 6 3 $ $ 6 v B v 6 : + + @ $ 3 6 9 9 6 9 9 9 6 6 6 6 6 9 n P G v : # $ $ 6 c v v c 9 3 $ # # $ $ : : 6 6 6 6 6 6 3 6 6 6 9 9 9 6 6 6 $ $ 3 3 : $ : : $ : 3 : 3 6 9 6 3 6 6 9 h h 9 6 3 : $ $ : 3 6 6 $ 3 9 n D S n b 6 6 3 $ $ # # 6 b B S S n 9 : : 3 3 3 : : 3 3 3 3 3 3 3 9 b n n c 9 3 $ # $ 6 c n D E E F v 6 $ $ : : : 3 9 c v 6 9 v S S n c h 3 6 6 h c c c c c h c v v c c 9 6 6 : $ @ + @ $ : $ : 3 6 6 9 9 h c B D D n c 6 6 3 6 9 9 6 6 3 6 h D ! / W D n 6 6 6 v n h 3 : 3 3 3 : 3 6 6 6 6 6 3 : : 3 6 3 $ $ # @ $ 9 b n 6 6 3 3 $ # # : 6 9 9 9 9 9 9 9 3 3 3 3 3 $ # @ + @ # $ $ 3 3 : + + + + # 3 9 9 6 6 3 $ $ $ 3 3 : : 3 6 3 # + + + @ 1 6 v S F R E R G n h 9 9 h h 9 6 $ $ 6 9 9 6 6 : $ $ : 3 3 3 6 n G F S v 6 6 6 6 6 6 6 3 $ + @ $ 6 9 9 9 9 6 c D ! / E G S F F P Y F B C F W ! R n 6 6 6 3 ",
"$ 6 n E ! W R F 9 9 6 6 6 6 6 3 3 3 : 3 6 c n b c 9 9 9 6 6 3 3 3 3 4 6 6 $ $ 3 3 b R ( 8X8X/ F 3 + X # 6 9 c n n n n n c 6 6 4 6 6 3 $ + + $ 6 9 v n n c 9 6 6 $ 6 n G G v 6 $ $ # # $ 3 6 c n F S l : : c P ) uXuXeXE b 6 $ # $ 6 c n S D S n 6 $ # : 3 3 6 3 9 6 6 3 6 9 c c 6 3 3 6 6 $ 3 c P E E R F D S S G F B 9 3 3 3 6 9 6 3 : 6 c B S b c 6 3 $ $ $ $ $ : 6 6 9 h h h c h 9 6 3 3 3 3 : 3 9 v v 9 9 6 6 6 9 6 6 h c 6 3 : : 6 6 9 h c 9 9 9 c v n D F R G n 9 3 # # : 5 6 6 6 6 h c v v c h 6 3 3 3 3 6 3 3 6 6 6 6 6 3 3 3 6 3 3 6 3 3 6 c B E 7XqX9XE S 9 $ $ $ : 3 c v c h 9 9 6 3 # # $ 3 3 : : 6 b n G R F v : + + 3 D / 3X_ E S 6 3 3 9 9 h h h 9 9 9 6 6 6 6 6 3 3 3 6 9 c c h 6 : $ 3 3 9 c h 6 = $ $ $ 3 6 6 9 6 9 c c 9 6 6 u 9 9 u v D G D 9 6 6 3 3 : $ @ $ $ $ $ $ $ 6 b ! 3X) E F n 6 3 3 : : : 9 D / 7X9X8X) / W D c 9 : 3 3 6 9 h c b S S D D B n v 9 $ : 6 v n b c h 6 6 9 h h 9 6 6 9 9 6 6 6 6 6 6 3 6 6 6 6 6 6 h c n n c 9 6 6 9 h c 9 6 6 6 9 v P P B 6 # $ 9 n P W W G n 9 3 $ $ $ $ $ 3 3 6 6 6 6 6 6 3 $ 3 6 P W E S c h 9 6 6 6 6 6 6 6 6 h c h 9 6 6 6 9 9 h c c c 9 3 3 6 c n n c 9 6 $ + : 3 6 6 6 6 9 9 h h h 9 h c v b c c c h 9 6 6 6 3 3 : $ $ : 3 3 $ 3 3 3 6 6 6 9 9 6 3 $ $ : 6 6 : 3 3 6 6 3 3 6 9 c c 6 h n b 9 9 3 3 3 : $ # + $ $ 3 9 c h 6 6 3 : 3 9 9 6 6 6 3 9 n R E S c x 6 6 6 6 S ( qXeX7X! S 6 + + # 3 6 6 9 n S F E / 3X) E v 9 n P E E P G D B c 6 6 9 9 h 9 9 3 $ # : 3 6 6 9 c v c c h h c c 9 9 c 9 c c c c h 9 6 3 6 3 3 6 h b n l h 6 3 9 l c c 9 9 6 3 3 3 3 3 3 3 3 3 6 6 5 5 6 6 3 : $ $ : 3 c S P E G c $ + # # : 6 6 6 9 9 $ @ + $ : 3 3 3 6 3 $ + + X + : 3 6 6 3 3 3 3 3 3 : $ $ $ # # $ $ $ $ : 3 6 6 6 6 6 6 6 $ + # 3 b n S B b h 6 3 $ : 3 6 6 3 : $ 3 9 S W E B 6 $ 3 3 6 6 6 6 9 h v h 3 # @ $ 3 9 c v c 6 3 : $ $ $ : 3 3 3 3 6 6 b n n c 6 7 7 6 9 6 6 h c n S B h 6 3 : : : 3 3 6 3 6 6 6 6 6 3 # # 6 b D F F D D B c 6 # X + $ h S P P D 9 # + @ $ $ $ $ $ $ $ # 3 6 9 h v c 6 3 : 3 6 6 6 3 : 3 3 3 6 3 3 3 6 6 6 6 6 3 3 3 : 3 : # + + $ 3 3 n S G E E G D B c 9 9 9 6 6 9 6 9 9 9 9 6 3 : 3 h n S G S c 6 h B G ( qXrXqX7X( S c 6 1 $ : 3 3 3 6 n E / ! G n 3 $ 3 h b v c 9 6 : # # 6 F ) 8X) W S 6 $ 3 6 9 9 9 9 c c 9 6 3 h c b n B n n B D R / ( / F c 6 : $ @ + @ $ $ $ : 3 : $ : 6 6 9 6 3 @ X + 3 v B G D B c 6 3 3 3 6 6 3 # + X + $ c c b b c 9 6 9 v v v c 9 6 3 3 b n n B n c 6 3 6 3 3 : : : $ # $ $ h S P E E R n c 6 6 9 b B S S S n v h 9 6 6 6 9 n G G D B n n n n n b 9 9 9 n B n 9 6 3 $ $ ",
"c S ! eXrX7XP n 9 3 3 c b b n b h 9 6 6 3 $ $ # $ $ $ $ : 3 6 3 3 6 9 n n v 5 $ # : c G R D v 9 6 6 3 6 9 c c c c 9 6 6 5 3 3 3 6 6 3 $ # # # $ 6 9 6 6 9 n S S D n 9 3 3 6 9 6 3 3 9 n G W / 7XqXqX( S h 6 6 h b B c 6 6 9 9 c c h c c h h 9 9 6 6 c v c 9 6 6 3 6 6 6 6 9 9 9 6 9 6 6 6 9 9 h c v c 9 6 h v n B B n h 9 9 9 h c h 6 3 6 c B S S n 6 X   @ 6 9 v b c 9 6 6 6 3 $ $ $ 3 : $ $ : 3 : $ $ 6 n D D D B B B n S D n 9 3 $ $ 3 6 9 h c 9 9 6 h n S G G F n 9 3 $ $ $ 5 9 9 3 3 6 h h c 9 6 6 6 6 9 9 6 6 9 v b b v c 9 6 3 6 6 6 6 3 $ @ @ : 6 9 9 9 9 6 6 6 6 3 : 6 9 h c c 9 6 6 3 3 $ : 3 $ : 3 6 6 b R ) ) R n 6 : + + $ # # $ $ 6 6 9 c 9 9 6 6 6 6 6 6 6 9 c b S D S v b S D S h 9 n R W E G n 6 $ # # # 3 9 9 h n D P E W R D 9 u n P / 7X7X) W G b 6 3 6 6 9 6 6 6 3 3 : 6 v D G P G B n v 9 6 $ + + $ c F E R E P S n v h 9 9 9 9 h c 9 9 c n n D G S n h 6 6 3 3 6 6 3 3 3 6 6 6 6 6 6 3 : $ : 3 6 6 h c v n n c 3 : 3 6 h c n S S n 9 : $ 3 6 6 6 9 6 6 6 : : @ + 6 n D G D D S S B h : $ # $ $ : 3 6 6 6 6 6 6 9 6 3 : 3 9 h 9 $ + @ # $ $ 3 3 6 6 6 6 3 6 6 3 3 3 9 n F W W D 3 + $ 6 6 9 c h 9 6 6 3 3 $ $ 3 6 6 9 9 9 h 6 6 3 3 : 3 6 6 6 3 # # 3 6 6 3 3 3 $ $ $ $ $ : 6 9 v n 9 $ : 6 6 6 6 3 6 3 : 3 3 : : 3 : 3 c D R R D B n v c : # + + 6 D ! / G B h 3 $ $ $ $ : 3 6 3 $ @ $ 3 h v c 6 6 1 $ : $ : 3 3 3 9 v b n c 6 3 $ 3 3 3 : 3 6 6 6 3 $ $ 6 6 3 3 3 6 9 h 9 c v b b b v v v c c h 9 6 6 3 $ $ # $ $ 3 6 9 9 9 6 6 h b C F W ! W G n h 6 6 c h 6 6 6 c G ! eXeX( v > : 7 h c c 9 6 3 3 3 3 3 6 u n n c 5 4 6 6 6 6 3 $ # @ $ : $ : 6 6 6 h 9 9 6 6 9 n D D S B b 9 6 6 3 $ $ $ $ $ $ $ $ $ : : 6 6 3 @ + + $ : 6 v v 9 6 3 : 3 3 6 6 3 $ $ @ + + + $ 6 c n S D F G R R P D c 9 9 v b c 9 h 6 3 3 3 3 $ $ $ 3 3 $ $ 6 b D R R E F n c 6 6 6 9 h 6 $ $ 3 6 9 6 9 9 9 b D W / / W F n B E ^ ! S n S W ! W R P D B c 6 6 9 c c 9 9 h c c 9 6 3 $ + # $ $ 3 6 3 $ 3 6 9 9 6 : # # $ @ @ $ # @ $ $ $ # @ @ 3 h b S n c 3 $ 6 c c 6 6 c G E W R D h 3 $ 3 6 6 9 9 9 6 6 6 6 6 6 9 9 6 9 h 6 $ $ 3 3 b E 7X9X) R n 6 $ # : 3 3 3 6 6 6 6 8 6 6 8 9 6 h c n B h 3 9 n F E R / 0X9X( D 9 $ $ $ $ : # $ $ $ $ @ $ 3 : $ : 9 n S P E G S c 3 $ 6 G ) 7X7X/ D 6 : 6 c c c c n D D b 9 6 3 6 h b b 9 6 6 c b b b c 6 : $ 3 6 h v n v 9 3 # # 3 c v 6 $ $ $ # $ $ # + + # 6 9 h 6 3 : $ # $ : $ $ $ 3 3 3 6 6 6 6 3 # + + + + @ $ $ # @ # + # 3 h c c c h 6 6 3 $ $ : 3 3 $ 3 c D G R R F G S n B b 9 9 b R E G n 9 9 6 3 + $ 9 B W 9XyXyX) W n 6 $ # # # $ : : $ 3 3 $ # ",
"6 9 n G G b 6 6 6 6 6 9 c 9 6 6 6 6 3 6 9 h c c h v b v n D D b 6 $ $ 9 c 9 6 3 3 3 $ # : 9 c v n n n v c 9 9 9 9 l C R W W Y D n 9 3 3 3 : : : : $ @ + $ h D W 3X) / P n 6 = # + + # 5 n W 7X7X) / E G S c 6 6 6 6 6 9 c b B S G G G G S c 6 3 6 6 9 h h 9 6 6 6 6 9 9 6 6 6 6 6 6 9 6 3 6 9 6 6 3 6 6 9 c n n B B b 9 6 3 6 6 9 9 6 6 6 c c v c t 6 3 9 S E / W P S b 9 : $ $ 3 3 3 6 6 6 6 9 9 9 3 $ : 9 v B D D c $ + $ : 3 6 6 6 6 9 9 9 c 9 6 3 : 3 c n n c 6 6 6 6 6 6 h n n c 6 : $ $ $ 3 6 6 6 6 9 h h 9 6 9 9 9 h c c c c 9 9 6 3 3 3 3 3 6 6 3 3 6 3 3 6 6 : 3 9 c c 9 6 6 3 3 3 3 3 6 6 3 3 6 c b v c 9 6 6 6 3 : : : 6 6 9 9 h h h 6 3 6 h 9 3 3 3 6 6 6 6 3 3 6 9 n n n c 6 3 : $ 6 c D W _ 3X/ R c $ @ 3 3 3 3 6 c n n c n R W E n h h n n n B n n b c c h c c c c 9 6 3 : $ $ $ $ $ : 6 9 9 h c c c h h v c h c c 9 9 9 6 9 9 6 $ 3 9 n S G G n c 3 6 9 9 9 9 6 6 6 3 3 6 6 6 6 6 6 6 6 9 6 3 6 6 : $ $ 3 6 c B D S v 3 @ # $ $ 3 3 3 3 3 3 3 3 : : 3 3 3 3 3 : # # @ @ # # $ 3 $ : # + $ $ 3 6 3 3 $ + + $ : 3 # $ : 3 6 6 6 6 3 @ @ $ 3 n P G G D B n c 6 3 3 h 9 3 $ $ : 6 h n n c 3 $ 3 6 3 3 3 h S D B v 9 6 3 3 6 9 9 9 6 $ @ # 3 6 6 6 9 6 9 c n S G G F C B B C B b c B D P R F S n c 9 6 6 3 6 6 6 6 9 9 c 9 6 $ + + $ 9 b n n b v c 9 6 3 $ @ $ 6 v n c 6 3 # + + @ # $ # $ 3 : $ 3 6 6 9 c c c 9 6 h n n c 6 3 3 6 6 6 6 6 6 6 6 6 9 6 3 3 3 3 3 3 : $ $ $ 3 h S W ( 8X7X/ F n 9 3 3 3 6 6 6 6 9 c 9 6 6 - 3 9 S G P D B c 9 h D / 8XeXrXeX7XW b : $ $ $ : : $ $ 6 h n S n 6 3 3 3 6 9 n n b c 6 : 3 h D 7XuXuX3XS 9 3 : 3 6 c c v n D D n 6 3 c n B n v v n S R W W D v 6 3 $ # @ @ + # @ + $ $ $ 3 6 6 6 6 : $ $ + + @ 6 n S D S n 6 : 3 6 6 3 $ # + + @ 3 9 c c h 6 $ + @ # $ $ : : $ $ 3 6 v B S B n c 9 6 3 3 : 6 6 3 # $ 3 9 b G R R G D n b b n S D G G D n v 9 4 - $ 6 6 c S G W E D S n 9 9 3 3 6 9 c c v S P G S h 9 c n b v 6 3 $ # # - 5 9 9 9 6 3 $ # # # $ $ $ $ = $ # $ $ $ $ $ # : 6 c 9 6 6 c G / ) / W P B c 6 6 6 3 6 6 9 c b n n h 6 3 3 3 6 9 9 6 6 6 6 9 c n S n B n c h 9 6 6 : : 3 6 9 6 3 3 3 : 3 6 6 6 6 3 3 3 $ : 6 9 9 6 , $ + @ $ 3 v G / ) E n n W 8X8X/ G n c c b n b h 9 6 6 6 6 3 3 + @ $ 6 9 c c h 6 3 3 3 3 $ $ $ @ @ # $ 3 6 6 3 3 : $ $ # $ 6 c S D R R D c 3 # $ : : : $ $ $ 6 B Y ( 0X0X( P S b c G / W G v 3 # + + $ $ $ 3 6 6 9 6 3 : : $ $ : 3 c S G P R G n n n B S n v h 6 : $ : $ $ $ # # $ $ : 6 6 6 6 6 3 $ $ 3 9 c v n n n n n n n b 9 3 9 n b c v c 9 6 3 6 3 $ $ 3 h c 9 3 6 B G R D n h 6 6 h b v 9 3 # + 3 n W / ",
"3 : $ @ + @ $ : c v b c 9 3 3 3 6 6 6 6 6 9 n S R G D n c v b v c S / qX9X/ B 6 $ $ @ # 3 6 c v b S E ( 3X( E G b b D W _ ( ! R n c 9 6 6 9 h h 9 6 3 : 3 6 9 c h v b v c c 9 5 6 6 6 6 6 v S D S B b 9 6 6 6 6 9 9 c c h 9 9 9 c v b b c h 6 $ 3 3 3 : : 3 3 3 6 6 9 9 6 6 3 $ $ $ 3 9 n G R P B v 6 : # $ 6 9 n n v 6 3 : $ : 3 3 6 6 6 6 3 $ + % $ 6 9 v v l 9 9 9 9 6 3 # + @ $ 3 3 6 6 3 3 9 9 6 6 6 6 3 3 : 3 3 3 6 6 9 h 9 9 6 : : 3 : : 3 6 6 3 c R / ! n 6 : : 3 6 6 9 6 6 6 6 6 : $ $ 6 9 c b b c 6 3 6 : : 3 3 3 3 3 # : : 3 9 9 9 c 6 3 : 3 6 6 9 c n n v 9 3 3 3 : 3 3 : : 3 6 6 6 6 3 $ @ : c S F G F D S b 9 : + . + 6 D ! / R S 6 # + $ : : 3 3 3 3 $ + $ x b v 9 6 $ : : : 3 6 6 6 3 3 3 6 6 3 6 3 6 9 6 3 3 3 6 3 : $ # $ $ $ 3 3 9 b n B D B B n c h c h h h c c c 9 9 6 3 : # $ 3 9 c b c 9 9 h n F W ) 9X9X/ R B c 6 6 6 6 6 $ 3 v R 7XqX8XD 9 3 6 9 v v u 9 6 3 $ $ : 9 B E / R v 6 6 6 6 6 9 6 $ $ 6 6 3 3 3 6 v n b c v c n P / ( W F B c 6 : : $ # $ $ 3 3 3 $ $ 6 9 9 9 6 : @ + + $ 6 n B B b h 6 3 3 9 9 6 $ @ X   X # 3 9 n B n v n B D F G D c 6 6 c n S A n v 9 6 3 3 : : : 6 6 3 @ : c G E W W E D n 9 6 9 v n n c c h 6 9 c c 6 6 c S E W R D B b n S P P S b b R R G S S D D S 9 6 9 h h 9 6 6 6 6 0 3 3 $ $ $ : $ $ $ $ 3 6 6 6 3 3 : $ $ @ + + + # $ 3 6 6 6 $ 6 b G W W F n 9 : $ 6 6 : 3 9 F R E R S c 6 $ 6 6 9 c c 9 6 6 9 9 h c c h c c 9 6 6 6 6 6 v S E W G c 3 : : 3 6 6 6 3 : 3 6 3 6 6 6 6 4 6 6 6 6 3 9 n S C S F E ! ( _ ! B 3 # 6 6 6 6 6 3 3 3 : 3 $ # $ $ 3 9 S G R P D v 6 3 6 9 n P G n 9 6 9 9 h h h 9 6 9 c 9 3 + : v D D n h 6 6 6 9 h 9 9 6 3 6 c B G W / ! F c 6 6 h v n n 9 # + $ $ $ @ + + @ # 3 6 6 3 : $ + @ : 6 6 b n v c c h 9 6 3 3 3 $ # $ 3 3 : $ $ @ + # 3 3 9 h c 9 6 3 $ $ $ : 3 3 6 c n D P R P D D F D S 6 3 3 9 v n v c $ $ 3 9 9 6 h S 3XeXuXrX0XR 9 # $ $ : 3 3 $ : 6 v S G P W ) 7X) W G c $ + + # 6 n S D S c 3 +   # + # $ $ + + $ 6 6 6 3 6 9 c h 6 6 9 c n F E E D B c 9 b G R P G F S n n n c 9 6 6 : : 3 9 c b c h 9 9 9 h b n D G D S n c 6 : $ 3 6 c v c 9 9 6 3 3 3 3 3 3 6 9 6 6 : : 6 9 9 h h v n n c 6 6 h h 9 6 v P / ) / E G S n n n b v c 9 h c c h 6 6 : # $ $ $ $ : 3 $ : 3 3 6 3 $ $ : 3 6 h S G D 6 $ $ 6 b S G G S n c 9 6 6 3 3 3 3 3 3 3 3 3 6 3 9 9 7 9 9 6 3 $ 6 n P E F c 6 $ @ X X : c S F P D b 6 # @ $ $ # # : 6 n W ) ( E D h 3 6 h v b c c 6 $ # : 3 3 6 6 6 3 6 6 9 9 h h h h c n D P D D F D n h 6 6 c n n n v v 9 : # : 3 3 9 v c 9 6 6 6 c h 3 $ 3 6 c S R W W R D 9 3 $ 3 9 n G R ",
"# 6 n R E D c 6 6 6 6 : : 3 3 3 3 3 3 : 3 9 c c v 9 6 3 # # : 3 6 9 B P G S b h 6 : $ 3 3 3 6 6 9 9 6 6 h v b v 7 3 3 7 9 9 h h b c c c c v b c h 9 6 : $ # # $ # $ 3 6 9 9 9 6 9 c n G G G S n c 9 h h h h 9 6 3 9 S W ( ( W P 6 : 6 c v h 9 6 3 3 3 : 3 6 9 9 h 9 6 6 6 9 9 6 3 $ @ # : 6 9 9 6 6 3 3 3 $ : 6 6 h v b b c 9 9 3 : $ 3 3 $ # # $ $ % + # : 3 : $ # + + $ 6 c c 3 3 $ $ $ 6 6 6 $ $ $ $ $ @ @ @ # 3 h B F G P E W E D c 9 9 h c 9 6 3 $ $ 6 9 6 6 $ : 3 : : : 6 v n D G F n 9 6 6 6 6 9 9 6 3 : 6 6 6 9 c c c c D R W ( / F n S Q ! R S S F R W E R G B v 9 9 9 c c c h h c c h 9 6 : + + $ 3 6 9 9 6 6 6 6 6 3 $ $ $ 3 3 : : : : $ # $ $ $ $ 3 3 6 h c h : # 6 b n v 9 c D R P G B c 6 3 6 9 c 9 6 9 9 6 6 6 6 3 3 3 6 6 3 : 3 # $ 9 S ! 9XrXqXW D c 6 3 3 6 6 6 6 6 6 6 6 6 3 : 6 c n S S n n 6 6 c D W 7X9X8X8X/ D 9 $ $ 3 3 # # $ 3 $ - 6 - 6 3 3 6 6 v S G R D c 6 : 6 S ! rXuXqXR b 9 6 : 9 c b v n D G B 6 : 6 v n c 9 h c v S G R D v 9 3 $ @ $ 3 6 6 3 $ + # 3 6 9 9 6 $ $ $ 3 $ # # $ 3 h b n n 9 : $ 3 3 3 3 $ $ # # 3 6 9 9 6 $ + + + + + $ $ # # 3 $ 1 6 h c b n b v 9 6 3 3 : $ $ $ 3 6 9 b D P G G G D S n v b n D F G D n h 6 3 $ 3 6 h S W 7X8X/ E B 6 $ # $ : # 3 9 c n G G G n n S F F B c 9 $ $ $ 3 9 n n n 9 3 $ # # # $ $ $ # @ + # 3 6 6 6 3 6 6 6 6 6 9 S R ! _ 3X( E G n c n n n b v 9 6 6 9 9 6 6 6 6 $ 3 6 c v 9 6 3 9 c n n n n v 9 c 9 9 9 6 3 3 9 h b c 3 : 3 6 6 3 3 6 6 6 3 3 $ $ 3 6 6 6 3 $ # $ : h S P F F P S Y ( qXqX/ G G D D D B n v 9 6 c 9 6 6 : # @ $ @ # $ $ $ # $ 3 $ $ $ : $ @ # : 3 9 9 6 3 : $ 3 6 9 c v B G R R n c 6 3 $ # # @ # $ 3 6 c S P E E P n 9 9 n R W / ! S 3 + + + $ 6 9 n S S n c 9 3 3 : 3 6 6 c D E / / E D n c c n n b h 3 $ $ + $ $ : 3 : 3 6 6 6 6 6 3 : : 3 6 c v B D G D B n n c 6 $ $ 9 n B G G S n c 6 3 $ 3 $ : 3 6 6 6 6 3 6 9 c c 9 h b S D D n 9 $ +   $ 6 n R W R G F G S v 5 $ # # $ # 3 6 6 6 4 3 3 # $ $ # # 3 6 3 3 3 $ @ 3 c n n 9 6 : $ 3 9 c b b n P / W b $ $ c n F G S c 3 $ $ $ 3 6 9 h h 9 9 9 9 9 9 c B D / ) 8X) W n 6 $ 3 3 6 6 6 3 6 h c n B b v c 6 3 $ $ + @ 3 n R W E ! ) 8X3XE b 6 # + + + # : 3 6 $ $ # $ 6 c n S v 9 3 : 3 6 9 h 6 6 3 $ : 9 v v c c 9 9 6 9 9 6 6 6 6 6 6 9 6 : $ $ 6 n G G D S n v 9 3 : : 3 6 6 9 9 c c h 6 3 $ $ $ 3 3 $ $ : 3 6 6 3 3 + + 3 3 9 6 $ @ # # # + + + + # $ : : @ @ @ $ c ! eXuXeX3XG 9 $ 6 S E 9XeX) D 6 $ $ 3 h b n v n S D G D n 6 $ # 3 c S / / R v 3 $ 3 6 c b h 6 6 9 h c 9 c P 7X0X/ E W 7X0XeX9X) D 9 : 6 9 v n B B n c 3 # + # $ 3 3 3 ",
"+ $ c G R B 9 6 $ $ + @ : 3 6 6 3 3 $ $ 6 c v v 6 6 6 9 9 x x 9 9 3 : 3 3 6 6 6 9 6 6 6 6 6 3 3 3 6 3 : $ $ $ $ 7 l S E ! W Y D b h 6 6 6 9 c h h c c h 9 6 3 3 6 c S G G n c 6 v S W 3XeXrXeX7XW n 6 : $ $ 6 6 # : c G E W G n 6 $ 3 v n v c c c 9 $ # 9 G 3XeX8X/ G 6 @ $ 8 6 3 6 h n n c h 9 c b n n n v c n G W / ( W D 9 3 $ $ # # + + + + # # = 6 6 6 6 6 3 $ +   + 6 n S F D n 9 8 8 8 6 9 6 $ @ + + $ 6 v n b h 6 6 6 9 v n v 6 6 6 6 9 B n B B n c 9 6 6 3 6 6 3 : $ : : h S E W E G S 9 9 h n S G F G D S n c 6 6 6 9 c n G E R B c c S D n 3 3 9 c v n n S G D n c h 9 h h 9 6 6 6 3 3 3 6 6 6 3 $ # $ $ # # $ 3 : $ $ @ + + @ @ # : $ 3 6 6 6 6 6 c G W / ( W D c 9 6 9 6 : : h n S D S n c 6 3 3 6 h 9 9 6 6 9 c c n n n b v v c c 6 6 6 3 6 v n b 9 3 $ $ 3 3 6 8 6 6 3 $ : 6 h v v 9 6 : # @ : 9 S R E R R G R W 3X) W n 6 6 h 9 v h 9 6 3 3 6 6 3 : $ $ $ 9 n B n b c 9 6 3 3 6 6 9 6 : : 3 6 6 6 6 3 : 3 3 3 3 : 6 B R W F b 6 6 6 6 6 6 6 3 3 6 v G / 7X9X7XW B c v D G F S v 3 + + $ $ $ 3 3 $ 3 3 : 3 3 : 3 # $ 3 6 b D P R D B n v c c c 9 6 3 3 3 3 3 $ $ # # # $ 3 9 9 9 6 3 $ $ $ : 6 6 v v b n n S D S v h c n n c 6 6 9 9 9 9 6 # # 3 9 c h 6 v E ) ) ) W S 6 : 3 9 9 9 6 # + # 9 S G / ( 3X7X_ E n 6 $ + + @ : 9 b v n c 6 : $ $ $ : # # # # $ 3 6 6 6 6 c n n 9 6 8 9 n S S B n v n B n n S D G G P R D n 9 6 3 : $ : 3 6 v n c h h h c b n F / 3X) P B h 6 3 $ : 3 c c 9 : : 6 9 9 6 4 4 6 6 6 6 3 3 6 v D G R R R E P B 6 $ $ 3 6 h b S R P n h h b n b c c c c v 6 6 c v c 6 : $ 6 6 9 h 9 6 6 6 9 6 6 3 : : 3 6 n n n b c 9 9 c n D F F S b 6 : 6 3 : 3 6 6 9 h c h 6 : $ $ : 3 6 6 3 # $ 6 c c b v 9 3 $ + + + # : c B n h 3 # $ # + # @   X 6 D / 0X9X7XE b 6 : 3 c G E R B c 3 $ 3 9 c h 9 6 3 6 v S B c 6 6 9 c S G R E R D c 6 9 v v c c v 9 9 3 $ # : h B Y E F b l D R F S 9 3 6 9 n G E ! W D 9 : $ : 3 : $ 3 h 9 : $ 3 c v b c 6 3 @ + : $ $ $ $ : $ # 3 $ $ $ 3 3 3 6 3 3 3 6 6 6 6 6 6 6 6 h c 9 6 9 n D W _ ) ! G n $ +   + : 6 c v 9 6 6 6 9 h c b n v 9 3 # @ : 6 9 h 9 6 6 6 6 9 6 6 3 : 6 n P / eXeX7XR B v 6 0 6 6 3 3 6 v n n h l v n B b h 6 3 $ + + + + $ $ 6 6 6 6 6 3 $ $ : 3 6 6 6 6 3 3 3 6 3 $ $ 6 h 9 9 6 6 3 : 3 6 6 3 3 6 6 6 h c 9 3 6 6 h h 9 9 h 6 6 6 6 3 : : : 3 6 6 6 9 9 h 9 9 6 6 9 6 $ @ # 9 c v b c : : b _ 9X9X/ F c : # + $ 9 S P G n 9 : @ @ 6 c n n n n b h 6 3 3 6 9 c c 6 : $ @ # 6 D P R F D n v c 6 6 h n S D G G D F P F S c 6 $ $ : : : 6 9 h v h c S P G n c v n D S b c h 6 6 6 c S R R D v 6 : + + @ $ 6 9 c ",
"$ $ # @ @ $ $ $ $ : : 3 : $ $ 6 B S S n h 9 9 9 c h 9 6 v G / / D n 9 6 6 6 9 9 6 9 9 9 9 9 9 9 9 h c c 9 6 3 : $ 6 b F ! _ / Q v 6 3 3 6 6 6 6 3 3 3 6 9 9 9 6 3 3 9 b v 6 6 9 n S D D E 8XeX0XE n 6 3 $ $ : $ 3 : $ $ $ $ : $ : $ 6 b S R E R S n 6 $ 6 n E / ( W S 9 : 6 v v 6 9 b S n h 6 3 3 9 v B B h 3 6 h b n n v 9 3 3 6 h n D G D n u - - 6 v v 6 $ $ # # # # @ @ @ # : 3 6 3 3 3 : $ $ $ 3 6 6 6 6 9 6 9 9 6 3 # + X @ $ : : : $ # $ + : 9 c c x h 6 6 : : 3 3 3 3 3 6 c S R E R D S D S b 9 9 c n S G D n 9 6 3 : : # 9 G 3XeXuXrX7XS 9 $ $ $ $ : : 3 6 c S D D G G / / W F n 9 3 $ + 3 h B D D n c $ $ # $ $ $ # # + + $ 6 6 6 3 3 9 h 9 9 h c n D E ! W P G D n n G F G D B v h h 9 6 6 6 6 3 3 6 h c v c 9 6 6 9 v n B n n n c 6 6 6 3 3 6 c n n 9 6 6 6 6 3 : 3 6 9 9 6 6 3 : 3 3 6 9 9 6 6 6 7 c b v v b v n R ) 8X7XW P G F D n b b n n v c h 6 3 : $ $ $ $ @ $ $ $ $ : 3 3 3 $ $ # $ 6 c n B n c 6 3 3 6 c n D D G D B b 9 6 $ $ $ $ $ 3 6 6 3 6 9 9 c n n c 3 3 c D E ! W G 6 + + + # : 6 c P E P n h 6 $ : $ $ : 6 c F W ! W P S c 9 c n n h h 6 $ # : 3 3 6 6 6 6 3 3 6 6 6 9 9 9 9 v B D G G R P D v 6 3 3 6 c S D S b h 3 3 : 3 6 9 6 6 3 : 3 6 6 3 3 6 3 6 v S F E E F v 6 $ # + # 3 6 b b c 9 c S G D c 3 $ $ # $ 6 6 6 6 3 $ # $ $ $ : 3 6 9 6 3 : $ $ : 6 h 9 3 $ $ 6 6 6 6 b D E / _ ( D @   $ h v 6 6 6 6 6 6 6 6 9 9 9 c c 9 6 6 3 6 6 c B R E R S b 9 3 6 6 9 h 3 6 b D E W W E S v 9 6 3 $ # + 3 h S R E R R E ( ^ F 9 @ + + + @ @ $ : : : 3 3 6 9 c v c 6 3 $ 6 6 6 9 6 3 3 $ 3 3 6 9 9 h h 9 6 6 6 6 6 6 6 6 9 9 6 6 3 3 3 9 b n n n n v c 9 3 3 3 6 6 6 6 9 9 9 6 3 3 3 3 3 3 3 3 : 3 h c h $ + @ 6 c S D n 9 $ + + X   + 3 9 b h $ @ # $ 6 n F ! ) 3X! D b 3 6 S / 7X/ F n 6 : $ 6 c S D S n b n D B 6 $ # 6 c D R E W R S 3 + @ 9 9 6 : : h l l c S R ( 7X7X3X! P W 9XrX0XG b 9 9 9 c b b S B c : $ : 3 6 c n n n v 9 6 : : 3 6 3 3 3 3 3 $ 3 6 h n A B n 6 6 9 v b c 6 6 3 3 6 h h 6 6 6 9 c b b c 6 : 3 c n B n D R F n 6 $ + $ 9 n n n c 9 6 : : 6 9 h 6 6 3 $ $ 3 9 b G F D n v b c c 6 6 3 3 6 9 b C F R R P D 9 $ 3 9 c 9 6 6 9 h h l 9 3 : $ 3 6 6 6 6 $ + + $ 9 c n S D n c 3 + + 3 9 n D D n h 3 @ + $ 6 9 9 6 6 6 3 6 6 6 6 6 6 9 9 9 6 3 $ $ # $ : 6 c v 9 3 $ $ # $ : 6 6 6 3 $ $ : 6 9 b n n 6 6 6 6 c S D S c 6 3 6 9 9 v D E W R B c 6 3 3 3 9 n G R R D B 6 # + # $ # $ 6 3 : $ $ $ $ $ # + @ : 9 c 6 : 6 6 b D F S c $ + @ $ 3 9 c 9 6 3 6 6 c S D n 9 6 9 6 3 3 6 S E R G S 9 $ # 3 9 9 9 9 6 : $ $ $ 3 $ 6 b G G D n h : $ $ : 3 6 9 9 ",
"@ @ $ : : $ $ $ 3 6 9 9 c n D E / ( _ ! G n c 9 9 h h 6 6 c b c c h 9 9 6 6 6 6 h c h 9 9 c v b D B b c h c c c 6 6 6 6 9 c h 6 3 $ $ 6 6 6 3 3 6 6 3 : 3 6 9 9 6 $ $ $ # # 6 v / / E n b R 3X8X) / R S n B D B c 9 6 6 6 9 9 6 $ # $ 3 6 9 h 9 6 6 6 3 3 3 : $ + + + % $ 9 9 6 3 # # : 3 6 9 c S D G P D c : # $ $ $ $ $ : 6 h S R / _ ( W D v c v G / / G 6 $ # # # = 6 9 c v v v 9 6 $ $ $ $ 3 6 n G E E P S B n n D D n c 6 6 3 $ $ : $ $ $ : : 3 6 9 9 6 6 3 : 6 9 h c v b c c b S S c 6 9 h b n n n b c 9 9 6 : $ 3 6 6 h h 6 6 h v S F D v 6 9 n n n b 9 + + @ 6 v D W ( ! / ! E S h $ + : $ $ 3 6 9 9 9 6 3 : 3 : $ # $ $ 3 6 6 : $ 3 6 n n b 6 3 3 6 9 h c c c b D G G c 9 c n G F S n 6 5 3 3 3 3 3 6 6 9 h c c h h c n D / 8X9X) E D 9 3 $ 3 6 6 6 6 3 6 9 c c 9 9 9 6 6 : $ $ : 9 v R ! / W ! ( ( W c $ + + @ $ 6 6 c c 6 : $ 3 6 h n b v h 6 3 6 6 c c 9 3 # $ 6 c v n v 9 6 6 6 6 9 9 6 3 3 9 h h 9 6 6 3 9 n F R D B b h 6 : : 3 9 c c 9 9 h c 9 6 3 3 3 3 6 6 3 $ # $ 6 3 $ $ # $ # % # % + # = 6 6 : + X @ $ $ 3 # + + 3 S _ 9XeX9X/ S c : : c / 7X7X! D c 3 # 6 9 v n v c c n D S b 6 $ : 6 h R W W E D 9 $ : c n n 9 3 6 9 9 6 9 n G W ! ! W E Q ) qX8XR v 6 9 h n D F P G n 0 $ # 4 9 6 9 c v c 9 : 1 9 c c 6 : $ $ $ $ : 3 6 9 9 6 3 3 3 3 3 3 3 3 3 3 3 3 9 h 9 6 9 b B S n v 6 6 6 v S P / / W G n 3   X 9 c n n c 9 6 3 : 3 9 v n v h 6 : $ : 6 9 9 9 h c c h 9 6 6 3 : 6 9 S W ) 3X_ W S v 6 5 6 6 9 6 6 6 c n n h 6 6 9 h 9 9 9 6 3 $ # # > 3 9 v b c 6 $ @ # 3 6 c b h c c 9 6 3 : : 3 6 6 9 9 6 6 6 6 6 6 6 9 h 9 9 9 6 6 6 9 6 9 c v c h 6 3 $ $ : 1 3 3 $ $ : 6 9 c b n v v c 6 6 3 3 3 3 6 c v v c 9 v S R 3X9X3XS 9 $ 3 3 6 c S / / D : + $ 6 6 6 6 6 9 6 3 $ # : $ # @ + $ 3 6 6 6 3 : h F W ! D c 3 6 6 6 9 n D D S n n D F D D b 9 6 3 $ $ 3 6 h l l b b c b 9 9 h 9 3 6 6 3 6 : $ 3 9 n F R E P n 6 # @ @ # $ 3 6 6 6 6 9 9 9 6 6 : $ : 3 3 6 9 9 9 c A F P / ! R n 9 6 6 3 3 6 6 9 9 6 6 6 3 3 3 3 3 $ 3 9 n B S B h $ + + @ 3 6 6 3 6 h c h 9 9 9 6 6 3 : 6 6 6 6 6 3 6 6 c n n 9 6 3 3 3 9 c b b v h 6 3 6 9 c b v 6 3 6 9 n B S n b c c h h 6 3 3 3 3 3 @ # $ 3 : # @ # 6 h v v c 9 3 : @ @ $ 3 6 3 $ + X $ b W 3X7X( W v 9 6 h c h 9 6 3 $ 3 6 3 $ $ $ $ : 3 6 6 6 : $ # $ $ 3 6 9 h 9 3 : 3 6 9 n b 6 3 $ 3 b R 3X9X8XG c 3 # $ 6 b n n n h 3 $ @ + @ $ : $ # 3 c D R / W G b :     @ v D E W F b 6 : 3 6 6 6 6 6 9 n G D B b 9 : @ # $ $ 3 3 3 # + X + # : 3 6 6 6 3 @ + $ 9 S ! 3X( v 3 + # 6 h n S D S c 6 : $ @ # : $ 3 6 6 9 9 6 6 3 $ # + # $ # ",
"$ $ 3 9 9 6 6 h n n h 6 6 c B D P D n c c n S D G D F P F S n c 9 6 6 6 3 3 6 9 v v c 9 6 9 c n S D R W E D v 6 6 6 6 6 6 9 c b 6 3 6 6 6 6 6 6 6 9 6 6 3 6 6 9 c n S D D n c 9 6 6 4 $ 3 n E W / / E S n n n b v c c v v v h 6 6 3 : 3 3 3 3 6 6 6 6 3 3 3 3 3 3 3 6 6 c n D M 6 3 3 c B F R E D n c 6 3 3 6 6 3 6 6 9 9 6 : : # : 6 h h 6 3 $ $ 3 c D G n 6 3 # + + + 3 c S G D n 9 3 # + # # @ @ 3 v G ( 8X3XR n 6 6 6 c n S n n 9 6 3 3 6 9 9 6 6 7 9 c v v 9 9 c n n S D G W E G n c 9 6 9 b n n n c 6 3 $ # 3 c S D c 6 9 v n n c 6 3 6 9 n D W / W F v 3 3 : $ $ : 6 6 6 6 6 c n n b h 6 $ $ $ : 3 3 3 : : : 3 3 3 3 3 3 6 6 6 6 3 3 3 3 3 6 6 6 6 6 9 9 3 6 c S W 8X9X) S 6 + + @ @ $ 6 6 9 6 6 6 6 6 9 c b c h h 6 3 3 3 6 9 v b c 9 9 6 9 9 9 9 6 9 b R W 7X9X8X! D v 9 6 6 6 3 3 6 h C D D B B F F B b 6 : $ + X @ # # 3 6 9 h 6 3 3 6 6 6 3 6 3 : 3 9 6 3 : 3 3 6 6 c v c 6 6 6 6 6 3 6 6 6 6 9 h 9 9 9 6 3 6 9 h 9 c 9 9 h 9 6 6 6 : 3 6 6 6 9 9 6 6 6 6 6 6 3 3 : 3 4 c n n 6 # $ v D W ) / D 6 + + @ $ 3 9 S G n 3 + + : 3 9 n B G R D b c 6 3 v D F S c 3 $ : 6 6 v G E E S v c v c 9 6 6 c S G G R E R D c : $ 3 6 1 # : 9 v c h b P ( ) W F S D G E W W S 9 3 9 9 v B S S n c 6 $ + $ 6 6 9 h c c 9 3 3 3 6 6 3 3 3 3 6 3 6 6 n n n n n n n n n v h 9 6 6 6 9 9 9 6 3 : 6 6 6 6 6 6 6 6 c n n b b c 6 3 $ @ + $ 6 c b b c 9 6 3 6 6 9 9 6 3 $ # $ 9 n D D D D b v c h h c c v h 6 6 9 c n D D S b 9 3 3 9 b n v h 9 c v c 9 6 3 : $ $ : $ $ # @ # 3 6 c B D B 9 6 : $ 3 9 v n D B 9 $ @ @ 6 v G P D v 9 9 9 h h 9 6 6 3 6 6 6 : : $ $ $ $ $ 3 6 6 6 3 $ @ $ : 9 h 6 3 $ # $ 3 h v x 6 6 3 3 9 P W W E G c : # 3 6 c b v n b 6 3 # $ 6 9 6 9 c n B S B n c 6 $ + X # 3 6 9 c h 6 6 3 3 : 3 6 6 6 9 9 9 h n D S c 6 # @ # $ 3 6 3 3 # + # 6 9 c 6 9 h 9 3 $ 3 6 G W _ / E n : + 6 9 v B B c 3 : $ $ $ : 3 9 v n c h 6 3 $ # # $ 6 3 6 6 6 6 3 6 6 6 6 3 6 6 9 9 9 9 6 6 h S E / P D S n v 9 6 9 b n n n b c 6 3 6 6 9 h 9 6 6 3 6 6 3 $ # $ 3 6 n B n b 9 6 3 : 6 6 6 6 3 3 3 : 3 6 9 c v c 9 6 3 $ # # $ 1 3 3 6 6 6 6 6 6 6 9 3 6 6 3 $ $ $ $ 3 6 6 6 6 3 3 3 6 6 3 3 3 6 9 9 3 3 9 n n v 9 6 $ : 6 c n n c 6 $ # + # $ # $ $ 6 6 6 6 6 c v 9 6 3 3 6 9 9 9 6 6 3 $ $ # $ 3 6 h h c h 9 6 9 9 9 v n S S S S S S n n S G / 3X/ n 6 $ 3 6 6 9 6 9 3 $ $ 3 n R W E E P S c 3 @ + 3 : $ # 6 S / 7X_ ! P n h 3 # @ 3 6 9 9 6 6 3 6 h c h 9 9 9 6 6 3 6 6 6 6 3 : : $ : 3 6 c S F P S S v 6 3 9 b b n c 6 3 : 3 3 $ # # $ 6 c c v n n B B b c 9 3 # # # : 9 b D R R D v 6 $ + + # $ ",
"6 6 3 $ # : 6 9 c v 6 # # 6 h h 6 c D W / W G n $ # 6 B D b 6 3 3 $ 3 6 9 6 9 9 c h 9 9 6 6 h b D R / 3X/ G h 3 3 : 3 9 9 6 6 6 n n D G S n h 6 3 3 $ # 3 c S G R W / ( / W G n 3 +   X % $ 3 3 : : $ $ 6 c b n b c 9 6 3 6 9 9 6 6 3 $ 3 6 9 c c h 9 9 6 6 6 6 6 6 6 6 6 6 6 6 : : 6 b B S S B n c 9 6 3 3 6 6 9 9 9 c c 9 6 6 3 : $ 3 3 $ $ 6 9 6 6 3 $ # $ 3 9 c 9 3 # # + +   + + $ 3 3 $ # @ # 3 9 D 3XrXrX7XW n 3 3 S / 7X9X7XR h $ $ 6 h n S S c c S G B 9 3 $ $ 6 n G E / W S $ + 3 h c 9 9 9 h c c b n D R ( 9X8XW P / rXiXeXF v c 9 9 h v n S S c 3 6 6 9 h c b B n b 6 3 : 6 9 6 6 6 3 : $ $ 3 6 v n n b h 3 3 6 9 c 9 6 6 6 6 9 c c h 9 h v n D D b 6 $ 6 B S S F P W E n $ + 3 c n S S n 9 5 3 $ 3 9 b b h 6 3 : 3 6 c n A B n v c c h 6 6 6 3 6 c n D E ! W F n 9 3 3 6 c c 9 6 6 h c c h 9 6 6 3 6 9 9 6 6 $ + $ 6 n S B n h 3 $ + $ 6 c n B n n 9 6 3 $ : $ 3 6 3 6 6 6 9 9 9 9 6 6 6 9 9 6 6 3 3 3 3 3 9 c c h 3 $ # $ : 3 3 3 3 $ # $ 3 9 v n n v c 6 6 h v c 6 6 6 6 6 9 c n n G W / W S 6 - 6 6 c v B W ( E h @ + : 3 $ $ $ : 3 $ # # $ $ # + # : 9 c h 6 6 3 6 n E W D h 6 $ : 6 9 v b b v 9 h c n D S n b c 9 3 : 6 c B D P D b 3 : 3 6 6 9 5 3 $ # # $ $ : 6 n P R R D b 6 : # # # $ : 3 3 6 6 9 9 6 6 3 $ 3 3 3 6 6 6 9 6 c D W / ! R G v 9 6 3 6 6 9 9 9 9 9 9 9 6 6 6 9 6 6 3 6 b S n h : $ : 3 9 v v h 9 6 6 9 9 9 9 6 6 3 $ : 6 9 9 9 6 3 $ $ 6 6 3 3 # @ : 6 9 h c c c c 9 6 6 9 6 6 6 3 1 6 c n B n v c c 9 6 6 6 3 3 3 3 3 3 3 6 h 9 6 3 $ 3 9 9 n n c 6 : $ @ + + @ + + $ # 6 n ! ) _ E D v 6 6 c v v c 9 6 : $ $ 3 : $ 3 6 9 h 9 6 3 : : 3 6 6 9 c n n b 6 3 9 S G S b 9 6 6 n G W / ! P c $ # 6 9 n S D D n b : # @ $ $ # $ : 6 c G / ) / R B 9 @ + @ 6 G ! W n 9 3 6 6 6 3 6 3 6 c S D S b h 3 : # + # 3 6 3 3 3 $ $ $ $ $ 3 9 9 6 6 3 : 3 h S F S h 3 $ # 3 6 n n B S B b c 6 : $ @ @ $ 3 6 h v n n n 9 3 3 3 3 : @ @ : 6 6 3 : $ $ : : 3 3 : 3 : $ 3 6 6 6 3 3 6 9 n F R R B n n S D G D S c 6 3 6 6 9 h 9 9 6 6 3 6 c b n n c b B n 9 3 : : 3 3 6 6 9 9 h 9 9 9 h h 9 6 6 : $ : 6 c n R ( 7X3X/ G n 6 $ @ 6 6 c n n c 5 3 $ $ 3 6 9 6 3 $ $ : 6 9 n D G F S b 9 6 6 6 6 3 $ # $ 3 3 6 9 6 3 : $ : $ @ $ 6 b n S n c 6 6 : 6 9 c v v v v h 6 6 3 3 3 6 6 6 6 6 9 9 9 6 6 6 c n B D G D B b h 9 6 6 6 n S n c 6 3 $ + + + X + @ $ 3 6 6 6 h n n n c 6 : $ @ @ $ $ : 9 S G D n n c c c 9 6 6 $ # @ @ $ 6 9 c v c c 9 3 $ $ # : 6 6 6 6 6 3 $ # : 6 n E 8XrXrX0XW v : + + 6 n R W G h 9 B R E R R R E P n 6 6 3 6 6 6 9 6 3 3 : 3 6 6 9 h 9 : +   + $ 3 3 3 3 ",
": 3 3 6 9 9 9 9 9 6 h n b c 9 6 6 9 B E ( ) / W n 6 @ X + 3 h b h c 9 6 6 6 6 9 n n v 9 6 : # : 3 6 6 6 6 9 9 9 9 9 6 6 6 6 n F 8XrXeX_ E S c 6 6 6 6 3 6 9 c v c c c c c h 9 9 6 6 $ + + + # 3 9 h c c 9 : # $ 3 6 9 9 9 6 6 3 6 6 6 $ $ 3 9 9 6 6 6 6 3 6 9 h 9 9 9 9 9 9 9 9 6 6 9 c c 9 6 6 6 6 3 3 3 $ $ : : 3 9 9 9 v n c c 6 6 9 6 : $ 6 9 c v b c 6 9 G 8XrX8XW n h 6 @ # 3 S / / D 9 # # $ : 6 9 c v c c 9 3 $ $ 3 6 6 3 6 3 6 3 # $ h R W W S v v c 9 3 6 v F R F D S D G S B n h 3 $ $ : 3 6 9 9 h v n n n n c 9 9 9 v v h 6 3 3 6 h n D P W R b $ + + @ $ 3 6 6 6 9 9 6 9 9 6 3 3 6 3 3 6 6 9 h b B D P P G D B b h 6 6 6 9 h h 9 9 9 9 6 3 3 3 6 3 3 6 c n S n 9 6 $ # @ $ $ : 3 6 h c c h 9 9 6 6 6 3 3 3 6 3 3 : 3 9 n B S b 9 6 9 c c b n b c h 9 9 9 c v n n b 3 3 6 n S n b n c c 9 6 6 6 3 3 3 : $ $ $ 3 3 3 : : 9 n n v h 6 3 : 3 6 6 9 9 6 : # # 3 b W 8X8XE S v c 9 9 h h 9 9 9 6 3 3 : $ # # $ 3 6 9 6 3 : $ $ > 3 h c c 7 : @ $ 3 9 h h 3 , > : c R / 7X_ W B 6 + # 6 9 c n v 9 6 $ + # $ 6 6 6 6 6 c B R W R n 9 $ X X $ 6 n P R B h 6 6 6 6 6 6 6 h v n G D n b 9 $ $ + @ $ 6 6 6 3 $ + # $ 3 6 6 6 6 $ $ $ : c E 3X) E n 6 3 = 6 v n D S n h 3 : $ $ $ 3 6 9 9 9 6 3 $ $ $ $ 3 6 6 6 6 3 3 6 6 3 3 3 : 3 3 6 6 6 3 : 6 9 n F P S c c v b n n B D F F G S n c 9 6 6 9 c c h 9 6 6 3 : $ 3 6 9 v n S S c 9 6 3 3 3 3 6 6 9 9 6 6 6 6 9 v n n c 9 3 $ # 6 6 c n n D S v 9 3 $ $ : 6 6 6 6 6 6 3 3 3 6 9 6 9 6 : $ $ $ 3 3 9 h v n c 6 h n S c 3 $ $ $ 6 v n n 9 3 $ # $ @ $ : 6 9 v b v 6 : $ : 3 6 6 9 9 h h 9 6 3 $ # $ $ 3 6 9 9 c c c c h 6 9 S P G n n n S S c c n W / / E S 9 : # # # @ @ @ + @ $ 6 v S F R E F n 9 : $ 3 : + + : v S W / ! P B c 9 6 : $ # # $ $ $ : 6 c v n B b 6 3 $ $ 3 6 6 6 6 6 3 3 : $ 6 n W ) 8X8X( G 9 3 6 6 v B B n c 9 6 : 3 9 6 6 c c c c 9 6 h n S n 9 6 : $ $ $ 6 h B F S c 9 3 3 c D R ! / E G n 9 3 3 : $ $ $ $ $ $ 3 3 3 6 h c c h h h c c c c c c n D W W G b c c v 9 : $ : 3 3 3 : 3 6 6 9 h 6 6 6 6 9 9 6 6 3 : $ # # $ 3 9 9 h 9 9 h 6 $ @ + $ 3 3 : 3 c n b b b c h 9 6 $ $ 3 6 9 9 9 6 3 3 $ $ $ $ $ # + + + # : 6 9 9 6 6 3 3 c D R R D n 6 @ + 3 c G W E S b 9 3 $ $ 3 3 # $ 3 6 6 3 $ $ : 6 9 c v c h 9 6 9 h c c c c v D P E W E P S v 6 3 c G R W E F n 9 3 3 3 3 3 3 6 6 3 : $ @ # : 9 h v b b n n n b v v b c 6 6 9 n B n c 6 $ + X + # c H G n 6 $ # + + % $ 3 3 3 3 3 3 : 3 3 6 3 9 h 9 6 6 3 : : : 3 6 7 h c c b c c 6 : $ $ $ 9 n D D n n v n S W ( 3X) ( W D n 3 $ # : 3 3 3 3 6 6 6 : $ $ $ 3 + @ # : 3 3 : : ",
"6 6 6 6 9 9 9 9 6 6 h v c h 9 3 9 9 c n S S n n n 9 : + @ : 9 b B n c 6 : : 3 9 9 9 6 3 : $ 3 h F P G S B n b v h 9 6 6 6 6 h b c n G E E n 6 3 6 9 9 c c c h 9 c c h 9 6 3 : : 3 3 $ # # # 3 6 c n D D n 6 $ + $ 6 c S D S v 9 @ @ $ 9 v b c 9 9 6 6 h c 9 6 3 6 6 6 6 3 3 : $ : 3 9 c c 9 3 $ # # $ 3 6 6 6 3 : # : 9 h c v h 3 3 9 c n R E S c 3 $ 6 9 c n S G G B c 6 3 6 6 9 h n G G D S n 9 6 $ + + @ $ 3 $ 3 6 3 3 3 : $ 3 6 h c c 6 3 6 n S D B v 6 $ @ $ 6 6 6 6 $ + 3 6 c n n b c 6 6 : 3 9 n G ! / E n 6 $ $ 3 c n n h 9 6 : $ $ $ 3 9 b B S B v 6 $ $ @ # 3 6 6 6 6 6 6 9 h 9 6 3 : 9 6 6 6 6 6 9 b W / / E G S b h 3 6 9 c c h h c 9 6 6 9 9 9 9 h $ 3 6 9 9 6 3 $ 3 6 h n n v 9 6 6 6 6 6 9 6 6 6 $ : 6 9 c c c h 3 3 : $ : $ $ 3 # : 3 6 9 9 6 6 9 6 3 3 3 3 3 : 6 6 6 h c h 9 9 h h 9 6 6 6 6 9 6 6 6 6 6 c v c 6 6 3 3 6 v n n c 3 $ $ + + + @ $ $ 3 6 6 n D D D b 9 6 3 6 c v c 9 6 $ # $ $ : : 6 9 c c c h 9 6 3 9 c b n C S P P S h h F ! ^ R D b 6 6 c n n S v 6 # # 6 n G W W W R S 9 # + : : # + @ 6 n F / ) ) W D h $ # # 6 b D S h 3 3 9 9 h 9 9 9 9 9 v v h 9 6 6 : $ $ : 6 6 9 9 h c 9 h 6 3 6 9 c v v c 9 6 6 x c 9 # + + # 3 c n n c c b n n 9 3 3 $ $ $ : 6 n D D S n v x 9 6 6 6 3 6 6 3 3 3 3 : 3 : $ # # $ : 3 $ : 3 6 3 : $ 3 n S G G n h 9 c n S F D n b 9 3 # $ 6 9 9 6 6 6 9 9 9 9 c b n n b c 6 3 3 : $ : 3 6 9 9 h h 9 9 6 6 3 $ $ $ : 6 6 c D R W / _ / D v 6 $ # 3 c b S n c 9 3 $ $ $ 6 6 6 3 $ $ : 6 n G G G S c 6 6 : 6 6 3 6 3 $ 3 6 h v v c 6 3 3 6 3 3 3 6 9 h h 9 6 6 6 6 9 c b n n n v h 9 6 6 6 6 9 h c c c c c 6 3 6 9 c n G ! / E n 9 3 $ $ 3 6 6 6 6 3 $ $ # # @ # : 6 6 9 h c h 9 h n n n h h 3 + + $ 6 6 c 9 9 6 6 9 c n S n c 3 $ # $ $ 3 6 9 h h 9 6 6 : : $ $ : 6 h c 7 6 3 : $ $ 6 b W _ 8X7XW B 6 # + $ 6 b B S n v v b G _ 8X8X) W P D v 6 : 1 3 6 3 3 3 6 6 3 6 6 9 6 @ X X X : b / qXpXgXpXeXE n 3 + + 1 3 # $ 6 c n S S B n v c c h 9 9 6 6 9 c S D G G B b n B R G n 6 : 6 h c 9 3 : 3 : 3 3 3 6 9 v n n n h 6 $ 3 c D R E P D c 6 $ $ $ : 6 6 6 3 : $ : c S D B n 9 3 # + $ 3 3 6 6 6 3 $ $ 3 b n S n c 3 @ @ : 9 v n n h 3 $ 6 b D E ( 0XqX9XE S c 3 $ 6 c l c 6 $ $ @ # $ $ $ $ $ $ $ $ $ : $ : 3 6 c n D G n v c c c c n B G W 3X8X7X/ D c 6 $ : 9 c n n v c c c 9 6 9 c 9 3 3 3 3 6 3 : $ $ $ 3 6 6 6 9 9 : : 3 9 9 6 9 c G R R D n 6 $ + # + + # # + # # $ $ 3 3 3 6 6 6 3 3 3 6 b P ( 8X( ! D h 3 3 c F ( 8XqX7X^ D 9 > $ 3 3 : : $ $ 6 S G P G B 6 # $ 6 c v c c 6 : $ $ $ # # 3 v S S 9 : + X # 6 n P 8X9X) G v b n n ",
"3 6 6 9 9 c c h h 9 9 6 6 6 9 9 6 9 n G S c $ + + $ 6 h h 9 6 6 9 c c h h 6 3 3 : 3 6 9 9 3 # # 3 6 9 9 6 6 : $ 6 6 h v n v h 9 9 6 6 9 c 6 6 6 6 9 v n S n n v n n c 6 3 3 6 6 3 $ 6 6 6 3 6 3 6 6 9 c c v c 9 3 $ $ $ $ # @ @ X $ h D W ) ) / n 9 6 9 c v v v 6 6 3 : $ $ $ $ 3 6 6 6 6 3 3 3 $ $ : 3 9 c v c 6 3 6 9 v S S b 9 3 6 b F _ 0X) S 9 $ : 3 c S S D S c 6 : @ $ : $ $ $ $ 9 D ! ( 3X/ P c #   @ 3 R E E G n c 6 6 6 6 6 3 6 c n D G S v 9 : + + $ $ 6 6 3 $ @ + @ $ : 6 6 6 9 6 3 $ $ c R W W G b + + # 9 n D D S n b h 6 3 $ $ : 3 6 6 6 9 v b c 3 $ : 3 3 : 3 : 6 6 6 3 $ $ : : $ $ 3 6 3 $ 3 6 c c h 6 3 6 h v D G R P F F G D D S n h 6 6 6 6 9 9 9 6 3 3 3 3 h c n B B n b c 6 : $ : 3 3 6 9 9 9 9 h c c c c n c 6 : 3 6 h n R W / / W D h 3 $ $ : 6 h c c c 6 6 3 6 6 9 h c 6 3 3 $ : 9 n B P F S c 9 c v c 3 $ $ : 3 6 h h 6 6 3 $ # $ 6 3 6 6 n D S v 6 $ : 3 6 9 9 c v c v h 6 3 : : 3 6 6 9 h 9 9 h h 9 9 9 n G R D S B n v 9 6 h D P F F C c 6 $ @ + + + + + # $ 3 6 t n n n n n 9 3 $ + # + # 6 c S G E R G n c 9 6 6 3 $ @ $ : 3 6 h b n n v 9 3 $ # # $ 6 h 9 9 9 6 : : : 9 S / eXuXuX9XE c $ # 3 9 S D S n v c n S F R P D S n v 9 9 6 9 c v h 6 6 $ $ 3 6 9 n n c : # @ 3 n E 7XeXuXrX) F c 6 3 $ # $ $ $ : 6 6 9 h c b n b b b c c 9 6 6 b G W / ! E D v c n n b 6 $ : 6 6 6 6 6 9 9 9 6 6 9 h h 9 9 9 9 6 : : 6 9 c c h 9 9 6 6 $ $ $ $ 3 : $ 3 6 9 v n b c 9 3 6 : $ $ : 3 6 6 3 3 $ $ 3 6 6 6 3 $ @ @ + + $ 6 6 9 : + # 9 S E 3X0X8X/ G 6 + + h n F E R B 6 $ # $ $ $ 3 3 : $ 3 : : : $ $ 3 6 b v h 6 6 9 h c 9 c n D E ( 8X9X9X8XW n 6 6 9 c v n D G G S 9 3 6 6 6 3 3 3 : $ $ $ $ $ 3 6 h v n B B n b n n b 6 6 6 v D R P G 9 $ +   X # 6 h c c 6 # + % $ $ # # $ 3 6 $ $ 3 b n B n c h 6 6 3 : 3 h n S S S v 9 6 6 3 6 6 3 # $ 3 c S E W E v 6 6 c D W ) ) R B 9 6 3 $ # # 6 6 9 6 6 3 : 3 : 3 9 v h 3 : 3 c v n B n c 6 6 6 9 6 3 3 9 h 6 h c b n n c 9 6 3 6 9 c c 9 3 $ # # + + # 6 n S S B h $ # 3 6 9 6 $ $ : 3 6 9 h 9 h 9 9 9 h 9 6 6 6 c S F F D B 6 3 3 3 6 6 6 : 3 $ @ @ $ 6 c b c h 6 3 $ # $ 3 c 9 9 6 3 # $ 3 v n n n 9 $ @ $ c S G G S n h 9 6 3 3 $ # $ 3 6 D D S n b B S n h 6 3 6 6 6 9 9 9 9 6 3 3 : 3 3 6 9 c v n n n b b c h 9 9 6 6 6 6 3 3 $ $ 3 3 3 @ # 6 n D P P D : + + 3 9 9 6 6 : $ $ 3 6 6 6 6 6 3 3 : $ $ $ # + + $ 6 9 9 h v S F F S n n n n v m m v 9 6 $ # + $ 6 9 9 c 9 6 $ # + + 3 b F E / W F n c 9 l n R E R D n h 6 3 6 6 6 3 3 : $ 6 + : 6 9 h 6 3 6 6 6 6 3 3 @ + @ : 6 n F P D n h 9 9 h h 9 6 6 n P E F v 9 b S G ",
"h v n S D S n h 6 6 9 c h 9 6 6 6 6 6 3 : $ 3 6 c v n n v 9 6 6 3 6 6 6 h h 9 6 6 6 9 c n n b v 9 9 6 3 : : 3 9 9 h h 9 6 6 3 3 3 3 3 $ $ 6 9 6 6 6 6 9 9 6 6 3 6 6 3 : 3 9 c c h 6 9 c h c b c 3 $ 3 9 b B S v : # @ $ $ $ $ : 9 c h 6 6 9 9 6 9 6 6 9 9 9 9 6 6 3 : : : : 3 6 6 h b n n c 9 6 c n S G G D S n n n B S R / ) / n 6 $ 3 : $ : $ $ @ $ 6 9 n P E W E G b 9 3 : $ $ : $ : c E ) 7X( E S c 6 @ + @ : 6 6 6 3 6 6 h b v c 9 6 6 3 3 3 6 6 6 6 3 : : : : h S G ! ( W B h 3 6 9 n S n n h 6 6 3 3 6 3 6 3 6 b n c h v G D B v 6 3 $ : $ 3 b G G F S b h 9 v S D G F S c 6 6 3 3 $ $ @ $ $ 3 3 3 3 3 6 6 6 9 6 9 9 h c v v 9 6 h S G P B n v c 9 3 $ $ 6 6 6 3 3 6 9 h 9 h h h c c h 9 9 6 3 3 3 3 3 3 6 6 9 9 9 9 6 6 + @ # $ 3 3 6 h b S G F G B c 9 $ $ $ 6 h c v b h 6 3 $ $ $ $ $ : $ $ $ : 9 n n c c h 9 9 v n n n 9 $ # $ 6 n D R R D 9 3 3 3 # $ $ 3 6 6 6 6 6 3 3 6 6 9 c b b v c 9 9 9 9 9 c h b S D G P D n h c h h n R W E F B c 6 3 $ 3 6 , : : 3 3 : $ $ $ 3 6 9 c v v n v b n B n c 6 6 6 9 9 c c 6 3 $ + $ 6 v S D S n 3 # + @ $ 3 6 6 6 6 3 : $ : 6 6 9 6 6 6 6 6 3 3 3 3 3 6 h n D G S n h 6 3 @ # 3 9 b B S n c v S W ) 8X8X3X! D n 6 6 $ # # 3 6 3 6 6 6 6 6 6 3 $       @ c E 8XrXuXeX( B 6 $ $ @ 6 6 3 3 6 v S D D n b h 6 6 9 6 c c h 9 9 c c h $ $ 9 B G G S b 3 : 6 b n 9 : @ $ 3 3 3 3 6 9 9 v b c h 6 3 6 v ! / ! G n 9 3 : : , 3 6 6 : $ $ 3 6 n G G S c 6 : $ $ 3 9 h c h 6 3 $ $ 9 S G F v 3 + @ 3 c D P F D n 9 9 c v n n G W ( ( E S b 9 6 6 3 3 $ $ 3 : : : : 3 3 6 6 $ $ $ : : 3 6 h n B G G G B c 9 h c c v n S G G G D b 6 $ $ 6 c S D D n c = # 3 h c c 6 6 3 : : 3 3 3 3 : $ $ : 6 6 : @ + + $ 3 9 c h 9 v G R P c 9 9 c c 6 $ + + + # % $ 6 6 6 6 6 6 6 6 3 $ 6 n P ) 9X9X) R B , 6 B ! 8XeXeX8XW D h 3 $ : 3 $ $ $ : 6 v B S B v 9 6 3 3 6 6 3 # + + % # # 3 c n S S n 9 3 $ + + : S _ rXuXyX9XD c $ + + @ 3 9 G R W E P S b 9 3 3 : 6 9 v S P / W D 9 $ $ $ @ + + @ $ 9 b n n c 9 3 $ $ : : : : $ : 3 6 6 9 h h c c c c h 9 6 6 3 3 6 6 6 9 9 b v b n n S S B 9 6 6 6 9 c c c 9 6 6 9 h v n v 6 3 $ 6 6 9 c 9 3 3 : : 3 3 6 c D F D n v c h h x h n D G D D S c 6 3 : 6 b C B h 6 : $ 3 h n B v c c 9 9 9 9 9 6 6 3 3 6 9 c c 6 6 6 6 6 6 3 3 6 6 6 6 6 6 6 6 3 : : 3 : 3 3 $ h 9 9 9 6 6 6 6 6 6 6 3 3 6 6 6 3 3 3 3 : 3 $ + @ @ $ 6 6 3 : : : 3 6 6 9 c n S R E G v 9 6 $ $ $ $ $ $ : 3 $ # $ 3 3 3 6 6 3 3 # # $ 6 c c c h : $ # : 3 3 3 6 6 6 : $ : 6 h n E W P n n n n n 9 6 3 6 3 + X + @ 3 n W ! E D B h 6 3 3 6 $ + @ $ $ 3 h b b v n ",
"F S n b n S D G G n h 6 6 : 3 6 c c 9 3 : 6 9 c c v n n n c 9 6 6 6 3 $ $ 6 9 h 9 9 h c c 9 6 6 3 3 : : 6 h n D / ) ) / R n 6 $ $ 3 6 v n n v 6 # # $ 6 6 6 6 6 : 3 3 6 c S G R F n v 9 6 9 9 $ : + # 3 6 9 c c 9 6 3 3 3 : : 3 9 c n B n 9 6 6 6 9 c v b n n n c 9 6 : $ : 6 9 9 h h h 9 9 6 6 c b D R R G D B c 6 3 3 6 9 v v c 9 3 $ # + + @ $ 3 3 3 6 6 9 h v n n c 9 3 @ + + $ : 3 9 n D S b c c n n c 6 1 $ : 3 3 6 h v b 9 6 3 3 1 $ $ $ 6 h 9 6 6 6 3 $ $ 3 n E ( qXeX7XG h $ @ $ 9 n D P R S h b G ! _ ! W E P S c 6 6 6 6 6 6 6 3 3 6 6 3 6 9 6 3 $ + + $ n ! rXpXgXpX0XE v 3 $ $ : 3 $ 3 9 c b n n n n n v c h 9 6 6 6 9 n R W ! E P D n n S B 9 $ : 3 6 9 6 : 3 6 6 3 6 6 6 9 v n n h 9 3 : 6 b S D S n v 9 6 3 3 : 9 6 6 3 3 3 6 v D D B c 6 : # @ : : 3 6 6 6 : $ $ : 9 n B v 6 : + + $ 6 h v c 6 $ $ 6 n R _ 9XrXqX7XR 9 $ 3 h b S n v 6 $ # # $ # $ 3 3 $ # # # : $ @ $ 3 9 c n v c h h h h v n S P ! 3X9XeX8X) D 9 : 6 h h c n D S b 9 6 9 c 9 9 6 3 3 3 $ $ $ 3 3 3 3 6 9 c c 6 6 6 9 9 6 6 9 m S G E R n $ + + + + + + # 3 $ # # $ : 3 3 3 6 3 3 3 3 9 n G E R E F n c 6 6 c S E ) 3X! F v 6 3 : $ 3 3 # # 3 n D E ! W n 3 @ 3 c n D D b 6 3 3 $ $ # 3 9 n n 9 3 $ # @ : h n W / ! P n 6 : @ @ : 6 6 c n S S b v x 9 9 h h 9 h 9 c n n b b c n c 9 : # @ @ # : 3 v D S c 6 $ 3 $ 3 6 3 $ $ 3 6 9 c c v b n n c 9 3 3 1 $ : 9 c B S n v 9 6 6 7 h l c l 6 : , : 3 6 9 9 6 3 3 3 : $ $ : 3 3 3 6 6 3 $ 3 9 c 9 3 $ : 6 c B D B c 9 6 6 6 9 9 c 6 3 : 3 6 9 c n S S D D B h 3 3 6 c n S B b h 9 6 6 6 6 6 9 h c 9 9 9 9 9 9 9 h 6 6 6 6 3 3 3 : $ # $ 6 6 # @ 6 n D S c 6 $ $ $ 3 6 6 3 3 3 3 3 3 6 6 9 9 3 : 3 : : $ + + # 3 9 b n b 6 6 b B n S n n n S D S S n c 3 # # $ 6 9 9 9 3 # # # # 4 3 7 l v b v h 7 9 9 l v c h 9 6 6 3 6 6 6 6 6 3 : : 6 9 c h h h c 9 9 6 6 6 9 9 3 # + + 3 v D R F D n 9 6 9 h h h 9 6 3 3 c n n c 6 6 6 6 3 3 3 3 6 v B n c 6 6 3 3 3 3 3 6 c n D S c $ + $ 6 6 3 3 6 c c h 9 9 n v 9 3 $ + @ $ 3 6 6 3 $ @ + + + @ 6 n S S S D n b v c 9 3 : $ $ $ $ $ : 3 : # $ + # 3 6 h c c c v D W ) 8X8X_ G n 6 5 6 9 v c 9 6 6 6 9 9 h b c c 9 3 : 3 3 3 1 3 6 9 n P W E G n 6 $ $ : 3 3 3 3 $ # : 9 c b c h 6 6 9 c b n b c 9 6 6 9 c v v h 9 6 6 6 3 3 3 3 3 3 6 6 9 c v n n n n b v c 9 9 9 9 6 9 c c 9 9 h h 9 6 6 $ 3 $ : 6 6 3 : # + 3 b D G n 6 # 3 6 9 v n b n S E E D 6 : $ $ 3 3 $ # + # 6 c b b b v h 9 6 6 3 6 6 9 9 9 c c h h 6 6 6 3 : 3 6 9 h c 9 6 $ : 6 9 n S S D S n 9 : + + @ $ $ $ 3 + $ h D W ! R B 6 # X   @ 3 6 c h n S S n 9 $ # ",
"3 9 S W / ! R F b v c c h 6 : 3 6 6 6 3 3 9 c c 6 6 9 h c c 9 9 6 6 3 $ : 6 9 6 h 9 9 c h 6 3 $ $ : : 3 6 9 c n c v c 9 6 3 : $ $ $ 3 5 6 6 3 3 3 $ 3 3 3 # + + $ $ $ : 3 6 6 6 + $ c G W / / E b 6 $ $ 6 n R ! G S c 6 $ # $ 3 : : 3 3 : $ $ : : 3 9 c c b c 6 6 6 9 c b b n n R W ) 7X) W F B 9 6 9 B G P P G S v 9 6 3 3 4 3 3 6 $ @ $ $ $ 6 6 h h c n B n B n c c 9 9 6 6 v n S n 9 3 # + + + # 9 n n 6 $ + # $ $ $ 3 6 6 3 3 $ 3 6 9 c c c 9 9 6 6 6 6 6 9 9 c c 9 9 9 6 9 h 6 : $ @ $ 9 n G E D 9 6 h n G ) 8X7X! P B 9 : # $ $ , 7 7 3 , 3 3 6 3 3 3 3 $   @ 6 n P / / R n 9 3 3 3 3 3 3 6 6 9 c n S S n h 9 6 6 9 c v n h 6 : 3 $ + + $ 6 c B D n 9 : # x c 9 3 $ $ : 3 6 6 6 9 h c v c c 9 6 3 9 D W / R D b 6 : $ 3 3 $ : : $ @ @ $ 3 v n b 9 6 6 3 3 $ : 6 h c 9 6 : $ 3 b G G n 6 $ $ : 6 n D R R P b 9 6 3 3 $ $ 3 b S G D S n b v v v 6 $ # $ 6 6 6 9 6 6 3 3 3 3 : 3 6 h n n B S G D S n c 9 9 9 9 9 9 9 9 9 9 6 3 : $ $ 9 S E W n h 3 @ $ 9 c 9 6 3 : 3 3 3 3 6 3 6 3 $ $ 3 : # $ + + $ : 6 c n h v D R E S v c c c c 9 6 6 3 $ : : 3 6 9 h c c 6 3 # + $ h D E ) 8X_ R n 6 3 h R ! ) _ W G v 6 3 3 $ $ $ $ $ - # $ 3 6 9 6 6 6 $ $ $ 3 3 $ + @ $ $ 9 n S D D S v 6 6 6 3 $ 6 v ! 7XeXqX) P c $ $ $ # : 6 n D P R G n h 6 6 3 3 : 6 n E ( ( W P : + X # 3 : $ : 3 6 9 c c c 9 6 $ @ # $ $ $ : : 6 6 6 3 3 3 6 6 9 c n S n 9 $ # # $ : : 3 6 6 9 v n n n c 3 $ $ v n B n n v n S G E W E G n 9 6 9 h v n c 6 $ $ 3 6 c v n S D S n v c v v b n S R W / / P v 3 $ : 6 c b v 6 # @ 8 9 c v c 9 9 9 9 h c c h 9 6 3 9 c n n n c 6 3 6 6 6 3 3 6 6 6 3 6 h c c h 6 6 6 6 4 $ 6 c c 9 6 6 6 9 9 9 6 6 9 6 3 3 6 3 : 3 6 6 3 # + + $ $ : : # + # 6 9 9 $ 6 n R W E D b 3 $ # $ $ $ # # $ 3 3 $ : 3 3 3 7 6 3 3 3 3 7 h b c h 9 3 3 3 6 6 6 9 9 9 6 3 : # $ h S D S S S S D n v 6 3 % + $ $ # + + 6 S R ) _ W S h 3 $ + @ + + $ 3 9 v h 6 3 3 3 3 3 6 c D F D v 6 6 3 $ 6 c D W / E S v 6 6 6 h b b c h 6 : # @ @ $ 9 b b n S D n 6 $ $ n B n h 6 : # @ $ 6 n R Q P D S R W _ 7X) E n 3 X     + 3 9 9 9 : # $ 3 3 : $ $ 3 3 3 6 9 c c h 6 3 3 6 6 $ % + @ 3 c n n 9 3 $ $ $ # @ $ 3 6 6 6 6 6 3 3 3 3 $ $ $ $ > : 3 6 9 9 h 6 3 3 6 6 6 6 c n D D S b c h h 9 6 6 6 6 8 h 9 h c v v c h 3 : $ $ $ # $ : 9 h 9 6 6 9 h c 9 3 3 9 9 6 6 6 c b D W / ( ! G b 3 # $ $ + + $ h B E ) ) W D b 6 3 6 9 9 9 9 b S D B c 6 6 3 3 $ $ # $ 3 9 S R / / E n 6 : : : 3 6 9 h c n S S n h 3 # $ h B S n v h 9 6 3 $ # 3 3 6 9 c h 9 6 # # 3 v n n n v D D D b 3 + + + : 6 h h h 9 6 c n S S n c 7 3 , ",
"c c n D S n c c D P G D n 9 : $ 9 9 6 : $ $ : $ $ 3 6 v n n n b 6 3 6 c S E / W S c 6 3 : 3 6 6 9 6 3 $ $ 6 9 b G D b 6 $ $ $ $ 3 9 9 6 3 : 3 6 9 c S F S 9 # + $ 6 n D G S n c 9 9 v D E / ) 7X( W S 6 3 6 6 6 6 6 : $ $ : : 3 : 3 3 $ : 3 3 $ 3 3 3 6 c B G G S n v c h h b n D R / _ / E S c : # 3 c n S S n 9 6 6 6 6 c v 9 3 3 3 6 6 : @ # : 3 6 9 9 6 3 $ @ @ 6 h c 6 3 h P E F n 9 6 6 6 6 # + + + % # - 3 6 6 6 6 6 6 6 # # 6 n G / 8X9X3XW b : , b E 3XeXrX9X( R c # + # : 3 3 : 3 6 c D G D n 9 # + : 3 h 9 3 $ $ $ : $ 3 9 v n B n v 3 $ + + 6 G ) eXuXrX( n # + + + 3 9 n G G R P F n c 6 6 6 6 9 c n D G R P n 9 3 $ # @ $ # # 3 9 n S S c 3 : : $ : : : $ $ 3 6 6 h c v b n v c 9 6 6 3 : 3 6 9 9 v c c h c c b n D S v 6 3 6 9 c v b c 6 3 6 6 6 c c 6 : $ : 3 6 6 6 6 6 3 3 3 3 3 h S R R S h 3 9 h c v v b b n c c 9 6 6 6 h n D D v 1 $ 6 c n B S n c c h 6 6 6 6 6 6 6 6 6 9 6 9 9 9 9 6 6 6 6 6 6 6 3 3 3 6 6 6 6 $ $ 3 6 6 6 6 6 9 6 3 3 6 6 6 6 6 6 6 6 6 9 9 6 : 3 6 6 3 @ + @ $ : 3 3 $ 3 3 3 9 c 9 9 b S G P G G n 6 : @ $ : 6 6 6 3 $ # $ : 3 3 3 6 6 3 3 $ : 9 c v b 7 3 : > : 3 6 6 9 9 6 3 $ 3 6 6 S D D n v v v c v 9 6 6 3 $ + + + # v P W E F n 9 6 6 9 6 6 3 3 3 3 3 3 6 6 6 6 6 6 6 9 c n S B v h 6 6 6 6 9 c 6 9 6 6 9 9 3 $ 3 3 6 h c 9 6 6 9 9 9 c v n n h 6 3 $ $ 6 c b c 3 $ + + + @ 3 9 S F D n n C F Y R F n 6 $ +   X + # $ # @ + @ $ : 6 6 1 3 6 b D W / ( ! R B h 6 h 9 9 9 6 6 6 9 c v v c 9 6 : $ 3 : 3 3 : 3 3 6 6 9 b B n c 3 @ $ : 3 6 9 6 3 6 3 6 9 v b v c c b n n n n c 9 9 6 6 9 9 9 9 h c 9 9 6 3 $ 3 6 6 : $ 3 9 c v n n S B b 9 6 6 6 9 9 6 9 h c h c n b b c 6 6 3 3 3 6 6 $ + $ c D R ! W D 3 + 3 c c v b B D G D B v 6 3 : 3 6 : $ $ 3 h B F G D n 6 7 6 3 6 7 6 7 h l c b n b h 3 : $ $ $ 3 6 6 6 6 3 : : 6 6 c n D F S c : @ # 3 8 : 3 3 : 6 c n n n n c 3 # @ # $ 3 6 c n S G E ! ) / E S h 6 6 6 6 6 6 6 3 : $ $ : 9 D ( 8X7X! P v 6 3 6 9 6 6 3 3 3 9 v n c 9 6 9 c c h 9 3 3 6 c v c 6 6 3 : 3 c D / 8X8X/ P S n c 6 $ 3 c B S n n D R W R D n # + # 3 6 6 6 6 : 3 : $ $ $ $ $ 6 3 3 3 : $ 3 9 D D S v 6 $ @ # @ $ # @ @ @ # $ 3 3 6 9 6 3 3 3 6 6 3 : : 6 c n b c 6 $ # # : 6 c v n n c 9 6 6 6 9 9 9 9 c v b 6 9 c b n b c 9 : $ $ $ $ $ $ : 9 c c 6 6 6 6 6 $ 3 6 6 3 3 3 $ 3 6 n R / 7X7X/ c $ + + + + @ : 6 6 9 9 6 3 : $ 6 6 3 $ $ : 3 9 6 6 6 3 3 6 9 6 3 $ $ $ $ # $ 6 v n n v c b n n n v c 9 9 c c 9 3 $ $ 3 c F W E F n 6 3 : : 3 : $ # # $ # @ @ @ @ @ 3 h n F E E S v c n B B S S n B F R G n 6 3 c v c 9 9 6 9 l ",
"# @ # $ $ @ 3 9 B D n 9 3 $ $ : 3 3 3 3 3 6 6 9 9 h v n b c 6 3 6 6 9 h v S G D n c 9 9 6 6 6 6 9 9 3 @ @ $ 6 9 h c c 6 : $ $ : $ 3 6 6 9 3 # : 6 9 c n h : @ # 9 v S G D n c 9 6 3 3 6 3 + + # 9 n n b n D G G b h 6 3 6 9 c v v h 9 9 6 6 3 6 6 6 9 v v v v v c h c c h 6 6 6 6 6 3 : : 3 3 : $ $ 6 v n D D n 3 + + 3 6 6 3 3 : $ 3 6 6 6 9 6 6 3 6 6 : : $ @ + + 3 h c h 6 v n D S n n B B B v n n S v 6 # + $ 6 9 9 9 6 3 $ # # # $ 6 n H D S C c 6 7 l n B S n b c 9 6 6 6 6 6 3 # $ 6 6 6 3 3 6 6 6 6 3 : 9 9 6 : $ + @ : c S G G S m 9 6 h h 9 9 h 9 c B E E G n 6 3 3 3 $ : 3 6 b D F S b 9 6 9 6 : : 6 h n G R G h # X # 3 3 $ 3 h b v c 9 c n b 6 # @ # $ 3 6 3 : $ # # # # $ 6 h n B S n v h 6 6 3 3 $ : : 3 6 6 9 9 6 6 $ @ # 6 c n n B n n D W 7X9X0X3XE n 9 9 c v n b 9 3 : 3 9 c b n n b c 6 3 6 9 9 6 6 9 b D R / / F h 3 : : 3 6 6 6 3 3 3 3 6 9 c c 9 9 6 6 v n S b 6 6 6 9 c n n v 9 6 6 6 6 6 3 3 6 6 6 6 9 b n n b v n b h 9 6 6 h c 9 9 9 c c h 9 6 6 6 6 : $ $ : 3 6 3 3 @ + $ 6 9 v v 9 # $ 3 c n c c n R W P n 9 3 $ 3 6 6 3 $ @ $ 6 9 c c h 9 9 6 6 6 6 6 9 h h c b c b c h 7 3 3 6 6 6 6 6 6 3 $ $ 6 c n n n n D G n 6 $ # # + # $ # + @ 9 C R ) 5X( n 6 # + + # $ $ : 3 c B S n c 9 : 3 3 6 v S D S c 6 $ @ $ 6 S E qXrXqX/ G n c v n n n c 6 6 3 : $ $ : 6 9 n S S n c 6 $ 3 v S B 9 3 $ $ 3 h S R ( 3X! F D R W E R F n h 3 @ @ : c n n n c 3 # + $ 3 3 $ : : $ : $ 3 3 : 6 6 6 6 : $ + X # 9 b n h 9 3 $ $ # @ $ $ : 3 6 6 6 6 6 3 $ $ $ # $ 3 3 $ 6 9 v n b 9 6 : : 3 6 h v n B S B n c 9 6 9 9 h h c c c v n n S n n 9 6 3 $ + @ + $ 6 6 6 6 6 6 6 6 6 6 6 6 6 6 6 6 6 9 h S E 8XeX9X/ G c $ + + @ @ @ 3 v D F D n v b c 6 3 3 6 6 h v n n n n c 6 3 : $ # # $ : 6 b F R E R F h 3 : 6 9 h h l b B S C b 6 > : h n G G G b 3 $ : $ $ 3 3 6 6 6 6 3 : # # : 6 v G R E R R G D B 9 3 $ $ 9 n D D c 6 3 3 9 b S D D D B b v n n n c c b n B B n b v c 9 6 3 : 3 3 6 9 c b c 6 3 $ @ $ 6 h c h 6 6 3 3 3 3 6 6 6 6 6 6 3 : : $ $ 3 3 6 9 h 9 6 6 6 3 6 6 3 6 c n n D D G R G n 9 3 3 $ $ : 3 6 9 9 c c 6 3 3 3 : 3 # $ # $ : 3 h S E / / W P n 9 3 9 c c c 9 3 $ 3 3 6 6 3 3 9 v v c b h : > : : : : : $ $ $ # $ 9 n n B n h 6 9 h S G E W P n 9 : $ $ : 3 6 9 h c c h 9 6 3 : : 3 9 v n n n n b c 9 3 : 3 3 3 6 6 : $ $ 3 3 h c 6 : # @ $ : 3 3 3 : : $ # @ @ # $ @ $ $ @ # $ $ $ : 6 h n B G F S c 6 6 9 9 3 $ $ # $ $ : c G W W P S n c 6 6 6 3 3 : 6 9 h b n n b c b b c 6 3 3 $ $ $ $ $ 3 3 3 3 6 9 9 9 9 9 3 3 : : $ $ 6 6 6 9 9 c n v 6 3 h S G F n c z 9 5 ",
"# # $ : 3 6 9 c B n h 6 3 3 3 6 3 3 : $ $ 3 6 6 6 6 9 c c v c 9 9 h 6 3 : $ $ : 9 c c h b n n S n c 6 3 3 v S n c h c b n D F D B c 6 3 3 6 c h 9 6 3 $ $ 3 9 c S D G G D n c 9 c c n B D E W R S v 6 3 6 h v b c 9 : # : h B S n c c h 9 h c h h 9 6 3 6 c b v c 9 6 6 6 3 3 6 6 6 6 6 9 9 9 9 9 6 3 3 3 $ $ 3 h c h 9 9 h h 6 h 6 6 8 6 6 9 9 3 : 3 3 6 3 $ @ @ + # 3 6 $ @ : 6 6 9 9 h b S P W E D 9 : : : $ $ $ 3 3 : $ $ $ 3 6 6 9 9 3 , 3 : , 9 v b c 9 6 3 $ : 9 h 9 9 h h 9 6 $ 3 c D R E R G D B n n c 6 $ # $ # + + # c S R W W P n x 3 # # $ $ # # # 3 6 4 - 3 3 6 6 9 9 n P P D b 9 3 3 6 9 b D F G S n h 3 : 6 9 h c n c 9 6 3 $ 3 9 h v n B S n c : # 6 B S v 6 3 $ # # $ 6 B R R S S F E ! ) 3X/ D c #       + : 6 6 : # # : 3 3 $ $ 3 6 l v n B S n v 9 6 6 3 3 @ + $ 6 9 b n b 6 3 $ : 3 $ $ : 6 3 3 3 6 6 6 6 6 6 3 3 $ $ : 3 6 9 9 6 6 6 6 6 6 6 c v b B S B v c 9 h h 9 9 9 9 h c c b n b c 6 6 3 3 : $ # $ 3 6 9 c c c h 9 9 6 3 3 6 6 9 6 9 9 b S G W ! R S x 6 3 $ $ $ $ $ 3 n W ) _ W G h 6 3 6 9 c v n S D G D S v 6 3 : $ # @ $ 6 b D E ! E D n 7 $ $ 3 6 9 9 h b n B S n 9 3 $ 3 6 9 c c c h 9 6 3 : 3 6 h v n n v 9 # + $ 9 c 9 9 c B S G D n 6 $ + + $ : 3 6 6 6 9 b S R ! ) 8X3X/ S c 6 9 9 6 6 9 9 9 6 3 3 6 9 c S D S n h 6 3 $ 3 6 3 $ $ $ 3 9 n D n 9 6 9 6 6 9 6 6 9 h c c 9 9 3 : 3 6 b G R W E G n 9 3 3 $ 6 6 b D D D D F W ! G h 3 # + # $ 6 6 6 9 6 : $ $ $ : 3 3 6 3 3 : 3 c C F R R F v 6 $ # $ : : $ : $ # + # 6 9 6 : 1 6 h v c 9 6 3 3 6 9 h 6 3 3 $ @ $ 6 9 c n b c 9 6 6 9 c b b c c c c 9 9 6 6 9 h 6 6 6 h 9 6 : $ $ 3 h v v n b c c h 9 6 3 3 3 6 6 6 6 : 3 b G W E S v 6 @ + + $ $ $ 3 3 : $ + + + # # $ 3 - 3 3 6 6 3 $ $ $ 3 6 9 9 9 6 6 6 6 6 : $ 6 6 6 c n D F F G S v c 9 6 3 : $ $ 3 6 c n D D S b 9 6 6 6 3 $ # # # @ @ + # 3 3 : 6 h S G S c 6 9 c c S S S n n S S b h 6 c D D S A n n n v 9 9 c c c 6 9 9 9 c n S S B n b c 9 3 : 3 b D P R W / W R v 6 6 6 6 9 9 6 3 $ $ 3 3 6 9 c c b c 6 3 6 3 6 3 3 $ + # 9 B D D S c 3 @ : h v D R G n v 6 : 6 6 9 6 6 6 6 9 9 h 9 6 6 3 3 6 6 6 3 3 3 : @ + # 6 c n G G D S D F D b 9 9 n D D v h 6 3 6 9 9 9 : $ 6 v b h 6 6 6 3 3 3 3 3 6 6 b B c 3 6 9 c D Y E W Y S b 9 3 # $ 3 c S R W / W F b 3 # $ $ # $ # $ 3 h n S S n c c v c c h 6 : 3 $ + @ $ $ : 3 : 3 : : 3 3 3 3 $ $ $ $ 3 6 6 6 3 : $ $ # $ : 9 D ) uXaXuX7XE b 6 9 n n S S v 9 3 9 B P _ 0X3XE S 9 6 3 3 6 8 6 9 c c v n n 9 3 $ # $ 3 6 6 6 6 6 6 6 6 6 6 6 6 6 3 3 3 3 3 3 3 6 3 $ # # $ 3 9 c B G G c 3 : 6 $ # + # 9 S G ",
"9 9 9 9 9 9 h c c b n b 9 3 # @ 3 3 6 h 9 3 @ + @ @ $ 3 9 n G G S b b S D D B v 3 # + # # # $ 3 # @ # $ $ 6 9 6 6 9 v S R ( 7X7XW F b 9 9 h v v h 6 6 6 9 h c b 9 9 6 3 3 3 3 6 3 : 3 6 c S G P F B 9 : # $ 3 6 6 7 6 3 3 h l l b c h h c v n n n n c 6 6 6 h c h c h 9 6 9 6 6 6 6 3 3 3 6 6 9 h n B B B B n v 9 6 6 9 9 9 9 c c c v c 9 9 6 3 3 $ 6 6 6 3 $ $ $ h D W W S 9 3 6 9 h c b n S D R P B 9 3 3 6 6 6 : @ @ 3 b D F n b h 6 6 3 3 6 9 9 9 c b n n v 6 6 6 3 3 3 6 6 c 9 9 6 6 6 6 6 c n D G S b 6 $ # + # $ 3 $ $ 4 6 c S G G n 9 3 + + @ : 6 c b B D E / / W S 9 6 3 6 h v v h 6 3 : $ $ 6 n W 9XrX8X/ G b 9 h c v h 6 3 6 6 9 h 9 6 6 9 v b v h 6 6 6 h b n c 9 3 # $ 9 n E ) 0X8X/ P D D n v c c n n c 6 h S R R G n 6 # + $ 6 9 6 3 $ $ $ $ 3 6 # $ : 3 3 3 : $ 3 6 c B B b 6 $ $ # @ @ # $ # # # $ 6 9 h 6 3 3 3 3 6 6 3 : 3 3 b n n c 6 3 $ # 9 c b v v b b c c 9 6 6 6 9 h c v v v v n n n n h 6 3 : $ # # $ 6 9 9 9 6 6 3 3 3 3 3 6 6 6 6 3 3 3 9 b F ) eXeX/ F c $   X + @ @ : 9 v v 9 6 3 9 6 6 6 6 3 6 9 c v c 6 6 6 6 6 6 3 : : $ > 3 7 c C D D S B b v n v c h c v v c c 9 3 # $ c G E P G b 3 # : 6 6 : $ $ # # # @ + $ 3 3 6 c G ! / E P D S B n n n v n D R P n 6 3 6 6 h h 9 9 h h n n n n b v c c n S S D D S n n 9 6 : $ 6 b G E R G B v h 6 : 3 3 6 6 3 3 : $ 6 $ 3 6 6 3 3 6 6 3 $ $ $ # $ 3 3 : : 3 9 h 9 9 9 6 6 6 9 b F E R n c 6 6 6 6 6 6 6 6 9 v b c h c 6 6 6 6 3 3 $ # $ # : 9 n Y ! / / W D c h B F G h 6 9 B n 6 3 6 3 6 9 c c 6 3 : : 3 3 6 6 3 : $ $ : 3 6 h n S n 6 6 h B R / ( / E D v 6 : $ : 6 n S G G F S v h : 3 : 3 6 6 9 v n n b h 6 6 6 6 6 6 9 6 6 $ + + 3 6 6 6 6 : $ $ 6 6 6 6 3 $ $ $ $ # $ $ # # # + + + + $ 9 S E / 3X) / R B 9 3 $ c c 9 3 $ # 3 v G W / ! W D c 9 6 6 6 9 9 9 h v n n b c 9 h c c c 9 6 6 3 3 6 6 3 3 3 6 6 6 9 h 6 6 6 3 3 $ # # $ : $ $ 6 B P P b 6 6 v S R / _ ( ! F b h h c c b c 9 6 6 c b b n n b c c 9 6 6 3 6 6 6 9 n n b c 6 9 n n b c c c n R / / E B h c h 6 9 c n n B n c 6 $ $ 6 b n v 9 6 6 c S E ! / ! F n c h b D ( _ E b 6 3 3 $ $ : $ @ $ 3 6 3 : 3 3 3 3 : $ $ # # # $ 3 9 v c h h h 9 6 : 3 6 B S D S n c 9 6 6 6 h n b 9 3 $ 3 6 6 3 3 6 3 3 3 3 $ # $ 3 6 9 l h h h 9 6 3 : 3 3 6 9 h c c c c h 9 6 9 n G G n v 9 6 c D R R F S S D n 9 : $ : : : 3 6 6 3 3 $ $ 3 6 3 6 6 c n B v 3 $ @ # 6 n S G G n 9 $ @ $ 6 n G E E E R G S D G G G D v # @ 6 S E / / R 6 : # # $ $ $ $ $ $ 3 6 6 6 3 3 $ $ $ $ @ + + @ 6 6 3 : : : 3 3 # # $ $ $ 3 6 6 c c 6 3 : 3 6 9 6 9 h c h 9 6 3 $ $ $ # # 3 6 $ ",
"c h 6 3 $ 3 3 3 3 6 b S D n c 9 3 6 v S B h : @ + $ 9 n G W / W P D E _ _ ! R n 9 $ + X + 9 b x h 6 : $ $ : 3 3 $ $ 3 3 6 9 9 6 9 6 8 6 6 : + + + @ 6 n B c 6 $ : $ # # $ : 3 6 h 9 9 9 6 3 : $ $ $ : $ : 3 9 h n n c 6 $ 3 6 6 3 9 n S D n c 9 6 9 9 6 6 9 c c b n S B B n b c : $ : : $ # $ : 9 c 9 3 3 9 c c 6 3 3 9 9 6 6 9 c n G W / ) ( W n 6 : $ @ + + 3 b D R W E G S n 6 6 6 6 9 c b n G D n c 6 6 6 3 # @ # : 6 n F G W R S h 3 3 3 3 9 9 h c n D G S 9 3 $ 3 c D P F v 9 3 3 $ # $ 3 6 6 9 9 6 3 $ $ 3 6 c n D G G P E G v 3 % + # 3 b n n v h 9 h n G R W W W G S n v n v h h c n n b v c 9 6 9 9 6 6 3 3 6 6 9 9 9 6 : $ : 3 c n n 6 3 3 6 3 : 3 6 3 6 9 9 6 6 3 # : : : 6 c b b n 9 6 3 6 6 9 9 c n n S F R W E P n h 3 : $ $ : 3 h c v c 9 6 3 $ 8 6 6 3 : $ : 3 c B R / / W D v 6 3 3 9 h 6 3 6 $ : 6 6 6 6 6 9 v b v c 9 6 3 3 3 3 3 : $ # # : 3 9 n B n c 6 6 9 v S F P G S n h 6 6 3 3 6 6 9 h h c c 9 3 $ $ 3 9 v n B S B n c h 6 3 3 3 3 6 6 6 3 : 3 c n b v 9 3 @ + $ 6 6 6 3 , $ # # # $ @ @ $ 3 : # @ $ : 3 6 6 9 v n n n c 9 h 7 6 3 : $ $ $ $ 6 n R W R P G B b h 9 6 : 6 6 3 6 b n n n n b c c c 6 3 : $ # $ $ $ : 3 $ 3 6 6 9 c c c 9 6 3 : 6 9 c v h h c n n 9 6 9 G E W R G E E G h 6 9 c v 9 6 3 : 6 9 v n n v c v h 6 3 6 9 b n D R W E F b 9 9 v n b 6 3 6 6 9 c n n b n n n v 6 6 h c c 9 6 : @ 3 b P E D c 6 # 3 9 n F R G S n 6 9 v c b n v h 6 3 9 6 3 $ $ 3 3 6 9 9 6 6 6 $ $ # @ $ 1 6 7 h c n S S n c 6 9 9 c B n c 6 6 c 9 6 3 3 6 h n n n h 3 $ 3 6 6 : 6 6 6 6 9 6 3 $ 3 9 b D D B b 9 6 3 3 3 : 3 6 b D E / W S 9 6 3 6 6 3 : $ : 3 v S R W E F n v c c 9 3 : 3 3 : # # $ 3 3 3 : 3 3 6 6 6 6 3 3 3 3 3 6 9 c v n v 6 : + @ 9 F 3XeXuXeX) R B b n S P R G b 6 : 6 b / 3X7X/ R n 3 # $ $ : 3 3 3 8 h n n h 3 $ $ $ # # # $ 3 6 6 6 6 6 6 6 3 3 3 3 : $ $ 3 9 9 6 6 6 3 6 3 3 9 b n n v 9 3 $ 3 9 v n b n n b n b c c 9 9 6 6 9 c b n h c c c c c 9 9 6 6 3 3 6 h v v c h 6 $ 3 n R E P E / 8X9X0X_ W c 6 : 3 6 6 6 6 6 6 3 : $ # # $ 9 n / qXrX0X/ G n b c c 9 6 6 c G G S 6 # $ $ $ $ # # : : $ @ @ # $ 3 9 c c 9 9 6 6 3 $ $ 3 6 6 6 6 6 6 $ + $ 9 E / _ / R n 6 $ $ $ $ : 3 6 9 h c c 9 6 3 6 3 : $ $ 6 n P ( 8X) R S c 6 6 : $ $ $ : 3 3 3 3 6 6 6 9 c c n D G D D B b c 9 9 6 6 1 6 9 b v 6 # $ @ @ @ $ : 3 6 6 3 $ $ $ 3 6 c S E W D c 6 3 $ 3 6 6 6 3 3 : 3 6 6 6 6 6 6 6 9 c B n v h c B D B 9 3 : : : : : $ $ # @ # $ : 3 $ # + + # $ # $ 3 c c 9 6 : # $ 3 6 9 9 9 6 6 3 3 $ $ $ # # $ $ : $ : $ @ # $ $ $ $ 6 n R W W E G 6 $ 3 v n h 6 9 ",
"$ 3 6 6 c n B n c 6 6 9 9 6 3 3 9 c c c h 6 3 : $ 6 n R / ( ! R S h 6 3 : 6 v n S D F F P W ! E 9 $ + @ $ 3 6 9 9 6 3 $ # $ 3 3 $ : 3 3 6 3 6 c S D F G n 6 $ $ # $ $ $ $ # @ # : 3 6 6 6 6 6 6 c h 6 6 3 3 6 9 c h 9 3 $ $ : 3 c n n n b 9 6 9 h c c c c b b b 9 9 9 c c 9 6 6 9 6 6 3 $ # $ : c b n n v c 9 3 6 6 6 6 6 6 : $ : 6 b D W _ / E 9 @ X X @ @ @ 3 3 6 6 3 3 3 3 1 3 3 : : 3 6 6 9 6 3 3 3 6 6 9 9 6 6 6 6 : : 6 6 c v b c l V S S B n b c 9 9 6 3 : 3 6 c B F P F c 6 6 6 6 3 $ 3 $ # @ @ @ # $ 3 # 6 b D G G S n c c n S D S S D F G B h h c c n c v c c c 9 6 6 v n c 6 6 9 c n G F F D n b c 6 : 3 9 B F R E E E R S 9 $ 3 9 6 6 6 6 3 $ : : $ 9 6 9 9 9 6 6 6 $ : 3 3 3 $ $ 3 c B D S v 6 $ # : 9 S E E G v 6 6 3 3 9 9 6 6 9 v n n c 9 6 6 6 6 6 6 3 : $ : : @ : c D P E E R B n D R P n 9 9 S S n 6 3 6 9 9 b c 6 : $ 6 9 c 9 6 3 3 3 : : 6 h c n B n 6 3 6 S R ! / / E D b 6 : # $ 6 v D E W W P S c 6 : $ 3 3 3 3 6 c n n v v c 9 9 c v v c 9 3 $ @ $ 3 3 , 3 3 3 3 3 3 , , , $ $ , 3 , 3 3 $ # @ @ + + # # 9 P 7XrXuXrX0XR B h 6 9 b S B c 6 6 6 b R / ! W R D v 6 3 : 3 6 6 9 9 b S S n h 6 $ 3 6 9 9 h 9 6 6 9 6 6 6 6 9 6 6 h 9 6 3 3 6 6 6 : # # # # 3 h D W E n 6 6 3 6 n E W R G S b h h n n b c c c c b B S B n b 9 9 9 9 6 6 6 6 3 6 9 c h 6 3 3 h v n D G P W _ eXeX) F v 9 6 9 h c b n v c 6 3 $ # $ 6 9 9 c n G R W W ! W P G c 9 n G W ) ) R 9 $ # 3 6 3 : $ 3 6 3 $ # $ : $ 6 9 6 : $ : $ 3 6 3 6 h h 9 9 9 : 3 : : c E ) _ G S b h 9 6 3 3 9 c 9 3 3 6 6 6 6 6 3 : 3 $ $ 6 9 c b b n c h c 3 6 3 3 3 6 6 6 6 3 : 3 3 $ 3 h D R E W E G n c v v n n n n n n v h 6 $ @ $ 3 3 6 6 6 6 : $ $ # 3 9 b B D G S b $ + + $ 6 b B B h 6 3 3 3 3 3 3 h n G R R F S B D D n c 6 3 6 c D G n 6 $ + + # $ $ $ $ $ $ $ : 3 3 3 $ $ 3 3 3 + + + $ 3 6 6 9 6 6 3 $ $ : : $ 6 6 6 6 6 3 : : : 3 3 : 6 c n S D D n 9 3 $ # $ : 9 b S S n 9 6 3 3 3 3 : : 3 3 b B S n b h 3 $ $ $ 3 6 h v b b 9 6 3 $ # # : 6 c n D G R R D n c 6 3 3 3 6 6 6 6 6 9 h 9 3 $ : 9 S / 0X0X( F c : @ $ 6 6 3 : $ $ : 3 3 3 3 3 6 6 9 6 : 3 v n n 6 6 6 n B v 9 6 3 3 3 6 3 $ : 6 c c 9 6 3 3 3 6 3 h n D D n h 6 # @ + + @ 3 9 h n b v c 9 9 6 3 $ $ 9 n D R E G b 9 3 3 3 3 3 3 9 6 3 : : 3 6 9 9 6 3 : 6 B F G 9 $ @ $ @ + + @ h n D D S b 9 6 6 6 6 $ $ 3 9 6 6 : : $ : 6 6 9 3 3 3 3 6 c v 9 6 6 : $ $ : 3 6 6 9 9 9 9 6 6 3 : 6 c n S n h 6 6 6 3 3 3 : 3 6 9 9 h h 9 6 3 $ 3 : $ $ 3 v D G P G S n c 9 9 h c v v c 9 6 3 $ : $ # @ + @ @ # $ $ $ $ : $ @ + @ + # 6 9 v n v b 9 6 6 6 3 1 $ ",
"6 6 6 : 3 6 9 6 3 $ : 3 : 3 6 6 3 6 6 6 3 3 $ $ $ : 3 6 6 3 3 3 6 9 9 6 6 6 6 9 n S F R R S 9 6 9 6 3 3 6 6 6 h n n n h 9 6 6 6 6 6 3 : $ $ : 9 v G / ) / E S b c c b n n c 6 6 c h 6 3 3 6 h c v c 6 6 3 : : : 3 : : : $ $ : 6 v n n n c 9 9 v D P W W E S h 3 6 3 3 6 c b B D n n c 9 6 3 3 6 9 c v b n S S n 3 3 : : 3 9 h 9 3 $ @ # : 6 9 6 3 $ $ 3 6 6 3 3 $ : $ # $ # @ @ $ $ # + + @ $ 6 c n P ! / W F S c 6 6 9 9 9 6 6 : 3 9 b S E / ! R S b h 6 6 9 9 6 6 c n n n b c c c 9 9 9 6 3 $ 6 3 3 3 6 3 3 6 9 h h 9 9 6 6 6 $ $ # $ $ $ = 6 n D n h 9 9 v S W / ) ( E S c 9 9 c c c c 9 9 h 9 c n n n n n c 6 6 6 9 h h c b S D n 9 9 c n B c c c v S E ! E S n v b c h h c b n b c 9 $ # 3 B S S v 6 3 6 v R W ! W G S v h v n G W E B 9 6 3 3 : # + # : 3 6 6 6 6 6 6 6 3 $ # @ # $ 3 8 9 n n v 9 6 6 6 3 6 9 b n B n b c 6 6 6 9 c b n b 3 3 : 3 6 3 : 3 3 6 3 $ $ # $ 6 6 h c c 9 9 6 3 6 3 3 3 6 9 v n D S b 9 6 9 v n n v 9 6 6 v S D W W R D n b h 6 $ $ 3 6 6 6 3 : 3 3 , , 3 3 7 9 c m c 9 6 $ # $ 6 v D E R S 9 $ # $ c G W _ 3X) E P D S S F Y S c 6 3 9 n ! 8X7XG n 6 $ $ $ : 3 $ $ : 6 6 9 9 9 6 $ $ 3 : @ + + : 3 6 6 6 6 3 3 $ $ $ $ : 3 6 6 9 9 9 6 3 3 6 6 6 6 h v v h 6 3 6 3 3 $ : 6 c h B S n c 6 6 6 3 3 3 6 h c v n v n b h 6 3 3 3 3 6 9 b S B v 9 6 # $ 9 n D D P Q / 7X7X/ R n 6 $ 6 6 6 6 6 6 6 6 6 3 $ $ 6 B E ) rXrX7XF c 6 3 : 6 9 9 3 3 6 h 6 3 $ # : : : : # # # : 6 6 3 6 h c n v 6 6 6 4 6 3 6 6 3 3 6 6 3 : $ $ 3 h S P R G S h 3 # + @ # $ 3 6 9 c v v c 6 3 $ : 3 $ 6 n W 3X0X8X( G c 6 6 6 3 $ $ : 3 6 $ 3 h n B c 6 9 c n n n v h 6 6 3 $ + + $ 6 h c 9 6 : : $ # # # : $ 3 6 3 3 3 3 6 9 n D F G D n 9 6 6 6 6 6 6 $ : : : 6 9 h h h 6 9 9 c c c h h b n n n c 6 $ # $ : : $ : 6 6 6 6 3 3 3 : $ # @ + 3 c n D S n c 9 6 6 6 9 9 h c 9 6 : $ $ $ $ $ + + + # : 3 : $ $ : $ @ $ 6 v D W ! R b 6 3 3 6 c h 6 3 $ $ : 6 n B D D n 6 $ @ $ 3 3 : 3 6 h v n v 9 6 3 : 3 3 b n S D S c 6 3 6 9 9 6 3 : $ + 3 3 6 9 9 h h 9 3 : 3 9 9 6 6 6 6 9 v B D G F S b 6 3 6 6 9 h 9 6 3 : 3 6 1 3 6 n G W W / / / W n S R ( _ W F S 9 6 3 6 6 6 6 9 v c 6 $ : 6 c c 9 h c b b c 6 3 3 $ # $ 6 S E W F G E / W D v 9 9 6 6 3 3 3 3 3 $ $ $ 3 9 v B S c 9 6 3 3 : 3 3 # : 6 v G W / / D h 3 $ @ + # 3 6 c n n n c 6 6 v 9 3 @ @ 6 c c 9 6 3 $ @ + # 6 v n S B b n n n v v c c 9 6 3 3 3 6 6 9 9 6 $ @ @ $ : 9 c 9 6 9 3 6 c B G D n n b h 6 3 # # $ $ : 6 h c v n B b 3 6 9 c v c 9 6 6 6 3 3 3 3 6 6 6 6 3 3 3 6 6 9 3 3 $ @ $ : 3 6 6 3 : $ 3 B E R D B B B B D P P ",
"W R B 9 6 9 c v c 6 6 6 3 9 c 9 n c c n v 9 6 6 h 9 6 3 $ $ 6 b R E D 9 : $ 6 9 n D D D S c 3 6 6 h v b c 9 6 c c c 6 : : 3 6 9 9 9 9 9 9 3 # @ : 6 9 h v n S S D n v c c 9 c n b n c 6 6 6 6 6 : 3 6 c n b c 9 6 3 : 3 3 : 3 6 h c h 6 3 3 6 c D F R G S c 6 6 $ : 6 h B R ! / W R n 3 # $ 3 3 3 6 3 6 h S F G G S n n b c 9 6 6 3 3 3 $ $ 3 3 3 3 6 3 3 3 3 3 3 3 $ $ : 6 9 c h c 9 3 $ @ # 3 B W eXiXaXrX/ G b c n G P G n h : 6 n E ) 8X7X/ B h : $ : 3 3 3 6 6 9 c b c 6 3 # # # $ 3 6 9 9 h 9 6 6 6 6 6 6 3 6 6 6 6 8 6 3 3 3 $ 3 6 3 6 9 b B B v 6 : : 6 c n S S n n c c b b v v c h 9 9 n n b v h h h 9 9 6 6 6 6 3 6 9 c v h 9 9 6 6 c G P R P W 8XrXeX7XW B 6 : 3 h v c c 9 9 6 : $ : $ 3 9 b G / 7X7XW E F D n v h h h n P W E n 3 + $ 3 3 - $ $ = $ # $ # # 3 9 v c u 6 6 6 6 4 6 6 3 6 6 6 6 3 : $ : c R 8X9X_ F n 9 6 $ $ : 3 6 6 h c v c h 6 3 3 3 6 3 : 9 S R W / ! P n 9 6 6 6 # $ 3 6 6 3 3 3 6 6 6 6 9 n D F G G D n b v c c 6 9 9 h c h 9 6 $ @ @ $ 3 3 6 9 6 3 $ $ $ 3 9 b D Y E Y S h : # $ 3 6 6 3 : : 3 3 3 6 6 6 6 6 9 D D S b c n S n n h 6 3 $ 6 9 6 : # + # : $ $ $ $ $ : : $ # # $ 3 6 9 6 3 : $ $ $ 6 9 9 h 9 6 3 : 3 : $ $ $ : : 3 3 : $ $ $ : $ $ 3 c D E / ! R h $ + : 3 6 9 n v c 9 6 3 6 9 9 6 3 $ $ $ 6 c v 9 9 6 6 6 6 6 6 9 6 9 6 3 3 6 6 c 9 3 @ @ 6 v n B n c 9 9 h h 9 3 6 5 6 6 6 6 9 9 9 3 @ 3 c D E E E D 9 3 $ : 6 9 9 6 6 6 6 3 : 3 3 3 6 6 v S G F G R W P b 6 6 D G S c 6 6 4 3 $ $ 6 9 c v v c 6 3 3 9 9 9 c b D B b 9 : + + + $ 6 c B S S S S n n v 9 6 3 3 6 c v h 6 3 $ : 3 6 6 9 v v 9 6 6 : 3 3 6 3 $ $ 6 S G W E G h # + @ $ @ + 6 S E E S n b n b 9 3 : 3 3 6 c c 6 3 3 6 $ # @ + # 3 6 v v b b c 9 6 : : : 3 6 9 9 h c c 9 3 # $ 3 9 v n b h 6 3 3 6 9 c c 9 9 9 c v c 6 3 : : 3 6 6 9 n n B S S S n n b v c c h 9 6 6 6 6 6 6 6 : $ $ 3 : 3 3 3 $ @ @ $ : 3 3 $ + + $ : h n S S b 6 3 3 3 3 $ : 3 9 b n n n b n S P W / W G c 6 9 c n S n c 6 3 3 9 c v b h 3 3 6 6 9 n b 9 $ + + $ 3 3 $ 3 $ 3 3 3 $ + # 6 B G S c 6 6 6 6 v G _ 8X8XR B h 6 : 6 9 6 : 3 6 9 v v b n 6 h S E E S b b E ! / / E S 9 3 9 6 6 6 3 3 $ # + + + + $ : 6 6 9 6 6 6 3 $ $ $ $ 3 9 b D E W E S b c b c 6 6 9 n D P P D v : # $ $ $ # $ : 3 6 6 6 5 6 6 6 3 $ $ 3 3 6 9 n D D n h 6 $ @ @ + + 6 9 c v c 6 3 : : 9 E 9XrXqX/ D 6 + + # $ : 9 D 8XrXuXrX) S $ + 6 h n D S b 9 9 $ 3 6 6 6 6 6 6 6 9 h c c 9 6 6 9 9 9 9 9 6 : $ 3 3 3 3 3 $ $ # $ $ $ $ 3 6 h 9 6 6 3 $ # $ : 3 3 3 3 6 6 6 3 $ + + # 6 c n S D F G F S n 9 3 $ $ : 3 : $ 3 6 $ @ $ c G E R G F ",
"c c 9 6 6 v B D v n G W ( 0X0X( S c 6 6 9 9 v n n n v 9 3 $ : 6 h v c 9 9 n G R W / / E S h 9 c W / / W D 9 $ + # : : $ 3 3 3 6 3 : : 3 3 6 6 3 : $ @ @ $ 6 9 h 6 6 9 9 6 $ + $ n G R E E D v h 9 6 9 h h 9 6 6 6 6 6 6 6 6 3 3 : : 3 3 6 9 c c b v c 9 6 3 : : 3 6 6 6 6 6 6 6 3 6 6 9 v D P P D B v 9 c n D G B n n n b 9 3 $ # $ 3 6 6 6 3 3 # $ 3 6 6 h c n D S v 6 $ @ # $ n S S n c 6 $ $ 3 9 v B S P Y R P P P P P D n h $ > c P E R B 9 : @ + @ $ $ : $ # $ 6 9 6 : $ $ 3 3 : # + @ # $ 3 3 3 3 3 6 3 3 $ $ $ $ 3 6 9 c 6 3 3 3 3 3 6 c v c v n n c 6 : $ $ $ 3 h n S D c 9 6 3 $ : 3 : : 3 9 n B n n b 9 6 6 3 3 6 9 c n n n c 6 # + @ : 6 c n B F E E E G B c 6 6 6 3 6 6 9 h c c 9 6 $ 3 6 n W 9XrXeX! S 6 $ $ $ 3 9 3 3 3 3 3 3 3 6 3 3 6 6 6 6 6 6 c c 9 6 9 n n v 6 6 3 6 6 3 3 $ 6 6 9 c c 6 3 6 3 6 9 n S S B n 6 : @ + + + $ 3 c n n v c c 9 9 6 3 : : 9 D W / ( W D h 3 3 6 9 6 6 6 3 3 3 6 9 n v 6 $ : 9 n B n b 9 $ + + + + # 3 c D D n 9 6 6 6 6 : $ $ $ 3 6 6 6 3 3 6 6 h v c c 9 6 6 9 9 9 9 6 6 3 : 3 3 6 9 c v c h 9 9 3 6 9 h c b n n c 9 6 3 $ : 3 : 3 3 9 c c 6 3 3 3 3 $ # $ 6 c B R R P D n b c c v v n n b h 6 : : $ # @ + + @ $ $ $ $ @ # $ : $ + + $ 6 9 n n c v c 9 6 6 h 9 6 : @ # 3 h n S D S n v c 9 h c 6 6 6 h n B B n b 6 : : 6 c S P G n 9 h b c 6 6 6 3 : : $ @ $ 3 6 9 9 9 6 6 $ # $ b B b 6 6 7 h b S Y / 3X) F 9 3 6 9 9 9 6 $ $ 3 9 h 9 9 c n G E ) 3X! S S W ) _ _ W G n h 9 9 9 6 3 6 6 6 $ # # $ : 6 c c 9 9 9 9 9 9 6 3 $ : 6 S F W / / W E R R P S c 9 v n n 9 6 3 : $ # # + 9 h c v c 6 : $ 6 6 3 3 3 : 6 h b S G R D c 3 $ $ 3 3 $ : 9 c 9 : : $ 3 6 6 6 v v n b 9 6 3 $ $ + # 9 B P / ) / D n 9 6 6 c B D n b c 9 6 6 6 6 6 6 3 3 3 3 3 6 6 6 6 6 6 h n B S n n n v h 6 3 : $ $ $ 3 6 c b 9 9 h c c 9 6 6 9 6 3 : $ 3 6 6 3 3 6 9 6 6 6 6 9 c b b v c 9 9 6 6 6 6 6 3 3 3 c b n n c 3 @ + @ 6 v S S c 3 : 3 3 $ $ 3 h n S F G n 9 6 : $ $ @ $ : : : : : : 3 : # # $ $ 3 h 9 9 6 3 $ # @ @ # $ 6 9 t 6 $ # : : : 3 3 6 3 : $ $ 6 c n S B b 9 3 $ # $ 6 v n R F n 3 + + + # 1 3 : # $ 6 c b v c 9 3 $ : 3 3 $ 3 6 6 3 # + + # 6 n G G n 9 3 : : : 3 3 6 6 9 c c c h 9 h h 6 6 3 : : : $ 3 6 6 c B D S v 3 $ # $ 3 6 3 $ # @ 6 6 9 9 6 6 6 3 3 3 6 6 6 6 6 3 $ $ : 6 c B D S 9 6 6 9 h h 9 6 $ : n / 7X) W F h 3 : 6 9 6 6 9 n G P G G c $ $ : : : : $ # $ : 9 9 9 9 6 6 6 6 6 6 3 3 3 9 c c 9 9 6 3 6 6 h c 6 3 : $ $ 6 9 6 3 $ @ # # $ $ $ : $ # @ @ # $ : $ 3 6 9 h h 9 6 3 6 h n n c 9 h S D n c 6 3 $ $ + + @ $ $ # # # 3 3 6 6 6 6 6 6 ",
"D S b 9 6 6 9 c D G P P W 8XeX9X! F v 6 6 6 9 6 9 9 6 6 6 3 $ $ $ 6 D ( qXuXyX0XR c 6 h h 6 6 6 9 c c 6 6 3 $ $ $ 3 : $ $ $ # $ 3 3 9 c c c v h 9 6 6 6 6 6 3 3 3 3 3 6 4 $ # 3 v D W ( ! D 6 3 : $ $ $ $ : 6 9 c b v h 9 6 3 $ # $ 6 n R _ 8X7X! P n 9 6 6 3 3 3 : 3 6 6 6 6 c n n b 9 c B G D n c 9 h 9 3 $ : 6 6 9 c h 6 : $ : $ $ $ : 3 6 3 6 : : : 6 c n G E E D c 6 : 3 6 3 6 3 : : 3 6 9 h h h 9 9 h b b b b v c b B B b h : > : # @ $ $ , , 3 3 $ $ : $ $ @ + @ $ 6 c b n v 9 6 : : 6 h v b v 9 6 6 3 3 : $ # @ @ # # $ $ $ $ # $ # # : h n E ) / F c 6 $ : 6 9 h 6 3 : 3 3 6 h v B B v 3 $ # : 3 6 6 9 9 9 h h 9 9 6 6 3 3 6 9 c B S c 3 $ : 6 c c 9 6 : $ : 6 6 9 9 h h 9 6 6 3 6 9 6 6 3 6 v b S F G G S b 6 6 6 9 6 h 9 6 3 3 3 3 3 $ 6 v D R W W W W W G v n G W W G n u 6 6 6 6 6 9 h c c 9 6 : : 6 c c c b S D B c 6 $ $ # $ 9 n F R E P P R G D v 9 6 6 6 6 6 6 : $ $ $ : 6 c v S B b 9 3 : : 3 : : $ # 6 D ! _ ( W S 6 @ # $ : $ 3 v G P n c c n n c 3 # $ : 3 h c 9 1 $ $ $ : 3 3 9 c c b n b n v c h 9 6 6 3 3 6 6 9 c h 6 6 $ $ $ 3 9 c 9 h 6 6 6 h v B S S n v h 9 6 $ $ : 3 6 9 9 c n B n v c h c b v c c 9 6 6 9 9 6 6 9 9 9 6 3 3 6 6 6 6 6 3 $ # $ 3 3 6 3 $ $ $ 9 S G D B c 6 $ $ 3 3 6 6 6 6 6 c v 9 6 9 S W / / W D x 6 3 6 9 9 9 6 6 6 6 3 3 3 3 $ # # 3 9 h c 9 3 : @ @ $ : 3 6 3 3 3 $ # # + # 6 n S b 6 : : 7 n F W ^ ! E B 6 3 : : 6 c c h h 9 9 9 9 6 9 6 6 9 9 c c c b S G D n h 7 6 8 6 6 6 6 3 $ + + # 3 3 3 3 3 3 6 6 6 6 3 : : 3 3 6 9 v S D D B c 6 6 3 6 6 3 6 c F W W R B h 3 @ $ 6 6 $ $ $ $ : 6 h h 9 6 3 3 6 6 9 h c c c b c 6 # @ : : 3 3 6 9 v n S n 9 : 3 h G 7XpXpXrXF 6 : $ @ $ 3 h n W eXuXrX! S 3 + @ 6 h c 6 6 6 6 6 6 6 6 6 6 6 3 6 6 6 9 6 6 9 h 9 9 6 3 3 : : 3 : $ : 3 3 3 3 : $ # # # $ $ 3 6 6 $ @ @ $ $ $ $ : 3 6 6 9 6 3 $ @ @ $ 3 c B D G R ! W P v 6 $ : $ $ $ $ $ $ # $ $ $ 3 9 n n S S n 9 $ + # : 3 6 9 c c 9 3 3 3 3 6 6 6 6 9 9 6 6 6 9 h h c n B n B B v 9 3 3 3 6 6 6 3 : $ $ # # $ = 6 v G E W P B c 6 : $ $ 3 3 : $ # @ # # $ : : : 3 6 c c 9 : @ + $ 6 b S G R R R D n 3 $ @ @ $ 3 3 3 $ + @ $ : $ $ 3 3 6 c n n v 9 6 3 3 $ $ : : 3 6 6 6 6 3 $ 3 6 3 9 9 6 $ + # $ # $ $ 3 6 9 9 6 6 $ + + $ 3 3 6 9 6 6 3 $ + + + + 3 9 S E W R n 9 : $ 3 9 c b b c 9 6 6 6 c D G D v 6 : : $ 3 6 3 3 3 6 6 9 9 6 9 9 6 h b b c c 9 6 6 3 3 6 3 3 : $ $ $ $ : 3 6 6 6 c D E W P B c 6 : @ # 6 b D D D n h 3 6 b D D S n n n n S S n c 6 $ # $ 6 c b n n h 3 $ $ $ : 6 9 n D B 6 @ + $ 6 6 6 6 3 3 6 c v c 6 6 6 3 : + + $ 6 9 6 6 6 ",
"h 9 6 : : 3 6 3 + $ 9 B F D B n v 9 9 c 9 9 9 6 6 6 6 9 9 9 6 6 $ : v R W / W G h $ $ 3 3 3 6 6 6 3 3 3 $ $ 6 6 9 h v v n G R P S b h c b B S S c 6 6 6 3 : 3 6 c n n v 9 9 6 6 6 9 v n B S n v 3 $ + + @ 3 9 h b n S S B n c 9 6 6 6 9 c n n b 6 6 3 3 6 9 h c h h 6 3 3 6 6 3 3 6 3 : 9 G E G c 3 + @ @   X $ b S G F D n h 9 9 9 6 $ # 6 c 9 6 3 3 3 3 : $ : : $ 3 6 9 c v c 9 6 3 $ $ : 3 6 9 h c c 9 6 3 : 3 6 c n n c 6 6 6 6 7 9 c h 9 9 h 9 9 6 3 3 3 : 6 6 9 9 b S F G S n c v v v v b c c 9 6 6 6 3 3 $ # $ $ : 6 6 3 $ # # $ 3 3 : $ $ $ : 3 9 n S S h 6 3 6 6 : $ $ 3 9 b S S n b v n S G G G n 9 6 h b B S B b 9 6 6 9 n S B c 6 3 9 c n n c 3 + + $ $ : 3 3 6 6 6 6 3 $ @ : v D D n c 6 6 9 b D ! 9XeX) G b 9 6 6 6 h 6 : 6 9 c n n n v c B W / W B n G / ) / R G n c 9 c 9 6 6 6 3 3 $ @ + @ $ 3 6 6 9 9 6 6 6 6 : : $ 3 h B P W W E D v c b n v 9 9 b D F S b h 6 $ @ $ : 3 3 6 6 6 6 6 6 6 6 6 6 6 3 3 6 h b B S S v 3 @ # $ $ $ : 6 v v c 9 3 $ $ 6 B E 3X8X/ S : # 3 $ @ : h D W 9XuXrX/ n 6 $ : 9 n D S n n 9 6 3 6 9 6 6 6 3 6 6 6 9 9 6 6 3 6 c v n c 6 6 3 6 6 6 6 3 $ # $ : 3 3 6 6 6 9 9 6 6 3 : : $ : 3 6 6 3 3 6 6 3 $ $ $ $ 6 v S G D F G D S v 6 3 6 6 3 $ 3 6 9 6 : $ # $ : 6 c n F D b 6 $ $ 3 3 : : 6 c c 9 9 6 9 6 6 6 3 : : 3 3 6 9 9 6 6 3 : $ 3 6 6 6 c c 6 3 : $ $ 3 3 6 6 6 6 6 6 9 c c v h 6 6 6 3 $ : 6 9 c 9 3 : 3 6 3 # : h n D G S v # X   # 3 3 6 h v b n n b 9 3 $ + # # $ $ # # # $ $ @ + # 3 c S G G S 6 $ $ 3 3 : 3 6 c v h 6 3 3 3 6 6 9 9 6 6 : $ $ 3 6 9 c b b v 6 $ @ $ 3 : $ $ $ $ 3 6 6 3 3 $ # # $ 3 6 9 9 c 6 @ # : 3 6 b n n n c 6 3 6 h v v h 9 6 6 9 n n n c 9 6 6 9 9 h 9 6 6 9 9 h 9 6 6 6 3 : 3 $ $ : : 3 6 9 9 9 6 3 3 6 6 6 9 c n n v h 9 6 3 3 h c n n c h 6 : 6 9 c v h 6 : 3 3 6 6 3 $ $ $ $ $ # 3 6 6 6 9 9 6 6 6 3 6 c n n 9 6 3 $ : 3 6 6 : $ # @ + + @ # 3 3 : : # + # 3 h n G R F n 9 3 3 6 9 b n n b v c 9 6 6 6 6 6 6 9 6 6 3 3 3 9 v F R W W G S n h 6 $ $ 3 3 3 3 3 : $ # $ : 3 c B P E W R D c 3 : $ 3 6 9 6 3 $ $ $ $ $ $ $ @ + # # $ # + + $ 9 h n n S S v 6 # + + $ 9 n S B v 9 $ + + 3 9 B R R D n c 6 : $ # + @ $ $ # @ @ # # 3 6 9 6 6 6 3 $ : $ $ 6 6 6 3 3 : 6 h n n n b v c c 6 $ 3 b S B c 6 6 6 9 9 c n Y / 8XeXrX9X/ G 3 + X : 6 3 $ $ + @ : 9 n G R R S b 6 $ $ 3 6 6 3 3 6 6 6 3 6 c S R W W P n 6 : $ : 3 6 3 $ $ $ 6 9 9 9 9 c h 6 6 h n G E W E G n 9 3 3 9 D W W R D v 6 $ : 3 3 c n R _ 7X/ R D c 6 3 3 6 3 6 c c n S B n h 6 3 : : : 3 3 3 3 3 6 6 6 3 : 6 v n S S b 3 : 3 3 6 3 3 6 9 9 6 3 6 ",
"c v S P G S c 6 c c h 6 6 6 3 : + @ : 6 6 9 c c 6 6 3 $ 3 v n v 6 : 6 c B G W W / W S 6 $ 6 c h 6 6 6 3 3 6 h 9 9 b D E / ) ) / S S E ) 7X) W P n c h c 9 6 6 6 v h 6 : $ 3 6 h c c c c c c h 9 3 : $ : h D E / E R E ! W G n b c 9 9 9 9 6 3 3 3 $ # $ 6 v n n c 6 6 6 6 : 3 6 3 6 9 9 n P W E n c 6 : $ + # $ 6 9 c c 9 3 : 3 9 6 6 6 6 h h 9 6 $ $ $ $ 3 6 n G W E D n c h n b n n n v h 6 6 6 6 9 9 9 6 6 6 3 6 6 6 6 6 6 6 c v S F F B v c 6 3 6 6 : $ $ 3 6 c b v v v c 9 3 3 6 c c 9 3 $ 3 6 6 6 6 9 6 6 3 3 6 9 9 9 9 9 6 6 3 : 3 6 9 9 # $ 6 v S F G S 3 $ # $ 6 h b n 9 3 : 6 6 6 8 c b B G P F b 6 3 : 3 3 3 3 3 3 3 3 : : 3 : $ $ $ 3 6 9 9 6 3 : $ # # $ 3 6 6 6 6 6 6 3 $ : 6 9 6 3 3 : 3 9 n D P D D n 9 6 3 : 6 v n S D S 9 $ # $ : 6 6 3 3 6 6 v v n n v 9 6 3 3 6 6 6 6 c 9 $ + @ $ 3 c n n n 9 6 3 3 3 3 3 6 9 9 9 9 h c v b 9 9 6 3 3 3 6 6 3 9 b S D D B c $ $ $ 3 6 6 $ # @ $ 6 v n c 6 6 6 6 6 6 6 9 h h 9 3 $ # $ 9 v v c h 9 6 9 c b h 3 3 9 S W 8XrX9XR n 9 6 3 3 6 6 c n R ( ( R b 6 $ # $ 3 6 3 : $ 6 6 9 c h 9 6 6 6 6 6 3 3 6 9 c h 9 6 : 3 6 9 c 6 6 : $ $ 3 3 3 6 6 : + + @ : 3 $ # $ $ $ $ # : 3 6 3 6 9 c c 9 3 $ : 9 h 9 9 v S G F G S c 3 $ # # # # # # $ $ $ : 3 6 c n S D b v 6 # + $ 6 6 9 h c c h 9 6 3 6 6 6 h c c 9 6 9 6 6 6 c S R W W E G n 6 3 $ $ 6 6 6 : $ $ $ #   + 6 n P ! / / R D v 6 3 : 3 6 6 6 3 # @ $ $ $ 6 : $ # # $ $ @ + @ $ 6 v G E W E G n 9 $ @ $ : v v c 3 # # # # 3 6 c v v c 6 6 6 6 3 3 3 $ $ $ # # $ 3 6 6 6 6 3 3 6 6 6 6 6 3 $ $ # @ $ 6 h v n n c 9 6 : $ $ 6 6 9 9 6 6 3 3 @ # : 6 c S W ) eXeX/ n 6 $ $ 3 6 9 c c 9 6 6 9 D P E R D c $ # 3 6 6 3 6 6 6 3 6 6 3 6 c S F R D n c 6 3 6 6 6 3 3 $ @ @ $ 3 6 6 6 3 3 6 c D E ! ^ E B h 6 6 7 c B P ! W S h 6 3 6 c B S S S F / / E n 9 9 9 3 3 3 9 v b c 9 3 6 3 $ $ $ 6 9 9 3 : $ # $ 3 6 6 3 6 b F G n h 6 9 6 6 3 # + + $ c S E / ! E F D D F R W R B c c n n c 6 $ $ : : $ 3 6 6 6 3 3 3 9 6 6 3 6 v S D D S v 6 @ + $ : 9 n W 7X7XE v 3 6 3 $ $ : : 3 3 $ # + + # # # # @ $ $ $ 3 6 3 : 3 6 v S G P G F v 9 4 $ $ 3 4 4 6 6 6 6 6 6 3 : + # 6 S E / / W D v 3 # @ : 6 h 9 3 $ # $ : 6 6 6 3 $ $ $ : 6 h c n S D D B v 6 3 $ $ $ 6 c S G D B c 3 : 6 h c c 9 3 3 6 9 v B B S P E E G n 9 3 @ + @ : 9 b n D S S n c 6 3 6 h n S S n S S n c 6 : 3 6 6 6 9 c c 6 $ : 3 3 : 3 : $ $ # @ @ # # : 6 h c c h 9 6 6 9 c c c 9 6 # # : 6 v D G S 3 $ 3 c b v c h $ 9 S W ! R n c 6 6 h n B n n D ! / ! E F v 3 # 3 $ $ $ $ $ 6 9 n n S G G D S b 6 $ + + + + + # 3 6 3 $ 3 9 b n ",
"9 6 6 6 : # $ 6 v n n 9 3 # + + : : 3 3 3 6 6 3 $ $ $ 3 h n S B 6 $ 3 9 n R / ) / W S 9 $ $ 6 9 u c c 6 9 v v b 9 6 9 n B b c b S S G W R D v 9 9 6 6 9 9 6 3 $ $ % + # $ $ $ 3 6 6 6 6 3 : $ # 3 6 h v B G F F B c 9 9 9 6 6 9 n S E / W D 9 : @ # $ : : : $ $ 3 6 9 c h 6 3 3 6 6 6 6 9 n S B c 7 3 : @ $ 3 $ 9 c n n b c 6 3 $ b ( uXpXrX/ D 6 $ @ # : 6 c R eXuXuX9X! b + + 3 h b b n c 6 6 9 9 6 6 6 6 6 6 9 9 h 9 9 c c h 7 6 6 6 3 : 3 $ 6 3 3 6 3 : : : # $ $ # : 6 h 9 3 : $ $ $ $ : 3 3 6 9 9 9 6 $ # @ $ 6 v S S D G W E D c 3 : $ # : $ $ : $ $ # + 3 6 9 c B F G D 9 $ # : : : 3 6 6 9 9 6 3 3 6 6 9 9 h 9 9 6 6 6 6 6 6 9 c c v b h h 9 6 6 6 6 6 3 3 3 3 : $ 3 6 6 h S R E P S v 9 6 : # $ 3 3 : $ # + # $ $ : 6 6 9 v n n 3 + @ $ : 9 n n S F R G n u $ + + $ $ 3 - $ + + # $ # $ 3 3 6 c B S n 9 6 3 6 6 3 3 6 6 9 9 9 6 3 $ $ 3 6 9 9 6 : @ + $ $ 3 3 6 h c 9 6 3 # @ # : 3 6 6 6 6 6 3 $ @ + + # 3 9 b F P S 9 3 3 6 6 c B S B b 9 3 3 v S S B n 9 : $ 3 6 3 6 6 6 3 6 h h h 6 6 9 c c c 9 6 c 6 3 3 3 3 3 3 @ # : 3 3 3 3 3 6 9 v S D D S n c 9 6 3 6 9 v b F D b 6 3 6 c n S S n c c n S n v 6 3 : $ $ : 6 c v c 6 6 3 : : 3 6 v S S c 3 : $ 3 6 6 9 6 3 3 6 9 9 9 6 6 6 3 $ @ X   @ 9 S P / ! G b 9 v n n S B n b v n v 9 6 : : 6 6 6 3 3 # : 6 c n S S S c 9 6 c c 9 6 $ $ $ $ $ 3 6 h c S n c 6 6 c n B n v 9 3 $ : : $ 3 3 $ $ $ $ : 3 @ # # # $ : 3 6 9 c n n v c 9 6 3 3 $ # $ 6 c n n n v 9 4 + + = v G W ( / R n 9 # + + $ $ # + % + @ $ : 3 3 3 : 6 3 3 6 6 6 h v S S b 6 3 6 9 9 c v B D D n c h 6 h n S n 9 6 3 c n S G P E ^ ) 7X7XW n 6 # + @ 6 6 3 $ @ # 3 6 x n D G D b 6 6 $ 3 3 3 6 9 9 9 3 6 9 c n D D G n c 6 : $ $ : 3 $ $ $ $ 3 9 v n S S n 9 6 9 v n D D G G n : @ , D W E D S n c h 6 3 $ $ 3 b P / ( / F 9 3 6 c h 6 6 h n G E W E D n 9 6 $ $ : $ 6 9 c b n b c h c c c v h 3 # @ @ $ 3 6 6 : $ $ 3 9 n B n b c c n b c 6 3 3 3 3 : 3 6 6 6 : # $ 6 c n S S b 6 3 : 3 9 c n b c h 9 c 9 6 6 9 c h v B R / / E B h @ +   + $ 6 9 9 6 6 6 3 $ $ $ + $ 3 h B D n h 6 $ $ 6 c v 9 6 6 v n n n v c 9 6 3 3 3 3 3 $ $ 6 9 S W ) ) W S 9 3 $ 3 9 c b b v h 6 6 6 3 3 3 6 6 6 6 6 6 6 6 h c v v u 9 9 9 6 6 6 6 6 6 6 3 - 3 3 3 3 $ $ $ $ 3 3 3 3 6 h h h h h 9 6 3 : 3 6 9 9 6 3 3 n R W 3X) W S c 6 3 @ $ 9 G _ eXrX0X! n 3 @ $ 3 6 9 9 $ $ : 9 S W ( / n 9 $ + + @ $ : 3 $ $ $ : : 3 6 9 6 6 6 6 : $ : 9 c b v c c 6 : $ @ $ h b v c c 6 6 3 3 3 3 3 3 3 3 3 6 9 6 3 6 9 b n b c 9 6 3 3 3 3 : 3 6 6 6 : 6 B R W E D v 6 : : 6 6 3 : 3 $ 3 3 3 6 9 h 9 ",
"3 3 3 3 3 : $ $ 6 6 6 9 6 3 : : $ : 3 6 9 6 6 6 6 6 6 6 6 6 6 6 6 $ $ : 3 9 v v 9 6 6 6 6 $ $ 9 G G G n 9 #     # : 3 3 6 c n b n c 9 6 $ $ 3 3 6 3 3 3 3 $ # #   + 9 D P G n c 3 3 : 3 3 6 9 c c c 9 6 3 6 6 6 : : : : : : 3 3 6 9 n S n v 9 3 $ $ $ 3 : # # : 6 6 9 6 3 3 $ # # # 3 6 6 6 6 # $ + $ 6 c n D S 6 6 6 9 c b v 9 6 6 c G R G S n 9 6 6 9 h 6 : 9 9 v n b c 6 6 3 6 6 3 # $ : 3 6 c c h 9 6 6 6 6 6 6 9 c c h 9 6 6 6 6 6 6 v n c 6 3 : : 6 c c 9 3 : $ $ : : $ $ $ $ $ : 3 3 6 6 9 9 h c c 9 9 h n B B n n 9 6 6 9 c 9 : # $ $ @ + + # : $ $ $ $ $ : 6 c n D D n 6 : $ $ 3 h b c b c h 9 9 6 6 6 6 9 9 9 6 6 6 6 3 9 n G E E R F S n 6 # + $ 6 6 6 6 3 $ + + + @ 9 n R _ 7X) W P 6 3 : 3 6 6 6 6 3 $ : 3 : $ $ $ # $ # @ + + @ $ $ 6 n F R R D b 6 $ # : 9 n D S c 6 $ # + # 6 b D G D n 9 6 6 3 $ # # $ $ # + + $ : 6 9 9 9 6 9 : $ $ 3 6 6 6 6 $ $ 3 h v b n n n n c 6 : 6 9 v v b c 6 6 9 h h n B R / 0XyXyX9XG c $ # $ : 3 3 3 $ @ # 3 v F W W E B 6 $ $ 6 6 6 6 9 6 6 3 : 3 6 b F W W R S v $ : 3 6 6 6 : $ 3 3 6 6 9 c c 9 6 3 9 n G E W E G n 9 3 3 c G P E P S c 6 : : : 9 c D E / 3X) W n 9 6 3 6 3 3 6 h n B n b h 6 6 : : 3 3 6 6 3 6 6 3 3 3 6 h b B R P S 9 3 6 6 6 6 6 $ @ : c D R P P F D D G P G B b c c h 9 9 9 6 3 3 : $ 6 9 h b c 6 : $ 3 6 6 v n D P G S v h 6 3 $ @ : c P / 8X7XW B 6 $ @ + @ $ : : $ $ $ # @ # $ $ $ $ 3 6 c n c 6 6 h n S F G F D n c 9 9 c c 9 6 6 9 9 6 6 : $ $ $ 3 9 S W / W G b 6 3 : 6 6 c n n 6 : $ 3 6 9 9 h 9 6 3 $ 3 9 n B B n B G D n 6 3 3 3 3 3 6 h n n c 6 6 6 6 6 6 9 6 6 6 3 6 h v b v c h n n 9 : $ $ $ $ : 9 G ( 7X) / R v h 3 # : 9 S E ) ) / G n 6 : $ 3 9 h 9 6 3 $ : 6 c n n v 6 # @ + # $ $ $ $ 3 6 c h 6 6 6 6 9 9 9 6 3 : : : 3 6 h c 9 6 : @ @ 3 b n c 6 6 v B S D S c 3 3 9 c b h h b S F P F S n h 6 3 $ # $ : $ 3 6 c b B D F R F n 6 $ $ : $ # # : 6 6 3 $ # $ $ $ $ $ : $ $ $ $ : 3 3 3 3 3 h v b b v 6 3 6 B S B v h 9 6 6 : : 3 3 3 $ $ 3 6 6 6 3 9 n D G n n b n n b h 6 $ $ $ : 6 9 v n S n c 3 $ $ 6 6 6 6 c n n 3 + X # # $ 3 = # # 3 h n D D S n c 6 : $ $ 6 9 9 v S W / ( ! E G n v 3 : 3 9 c v n n n n v h 6 3 3 3 6 6 6 : $ 3 6 6 n n n m c 6 6 6 $ $ 3 6 6 3 3 $ 3 3 3 $ # # @ # 3 6 6 6 6 h l h c c c h 9 6 9 l n B n h 6 6 6 6 3 3 6 6 3 $ : 6 n F ! / W P B c $ + @ 6 9 c b c 6 3 3 3 6 n B b 9 3 $ : 3 6 6 3 3 : $ # # $ : 3 6 : $ # # $ 6 c n S n c h b n S n S G R F S v 9 9 6 : # @ @ # $ $ 3 6 9 6 : : 6 n D B v n D R R G B 9 $ $ 3 6 6 3 3 9 c v v c 9 : $ : $ # # # + $ $ : 6 6 3 3 3 ",
"6 9 n G E E P D c 6 $ $ 3 6 6 6 3 : : $ # + @ 3 n P / _ / E S 6 3 : : 3 6 6 6 3 + # # - 3 $ % $ $ 6 6 3 $ + + $ c S R R R E G B 6 , # # 3 9 9 6 $ # + # $ 3 6 6 6 9 9 6 6 6 6 3 3 3 : $ $ # $ : 6 9 h 9 9 9 6 3 9 9 6 3 $ # # # # $ 6 9 c c c 9 3 $ @ @ : 6 9 h 9 3 : : $ # $ 3 9 n E _ 7X) E n 6 @ $ 9 c b b c 9 6 6 c n G E R n 9 $ @ @ $ 6 9 6 3 6 6 9 9 6 c n B D G D n 9 6 6 6 6 6 3 : # $ $ : 3 6 6 6 6 6 c n F W ! R n 9 6 : $ 3 h G W W D n 6 : 6 n D F B n D R R D n b 9 6 3 : 3 9 v n b c 9 3 $ $ : 3 h v c 9 6 $ @ # 6 6 6 3 6 n S D B v h h 9 6 $ +   + : v D E W W F S S D G R W R n c v B n 9 3 : $ : 3 6 6 3 3 : 3 3 6 6 6 6 6 6 v n S S n 9 $ + @ $ 3 h S E W W n h 6 6 6 3 3 3 6 $ $ $ $ $ : $ # + $ $ $ : 3 $ 6 6 6 6 h n D F R F n 6 : 3 6 3 $ $ 3 6 9 9 9 6 6 3 # # 3 n R W / W P B 9 : $ $ 9 9 6 : $ $ : : 3 6 6 6 3 : : : 6 9 h c n B S n 9 3 $ 3 3 : 6 h D D S v 9 6 9 h n n c 6 3 3 9 c B S G G R ! ! P n 3 @ $ $ : 6 6 6 h v b v h 9 9 c n b v b n n n v h 9 6 6 6 3 6 c c c 9 6 6 3 $ 3 : $ $ $ $ $ $ @ $ 3 9 v n S n 6 6 h n S B n 9 9 3 $ $ 6 n R E n c 6 6 6 h h 9 : 3 b F E W R S 9 3 6 c n v h v F E W / W G c 6 3 $ # $ $ 3 6 c n n B S S S n b 6 3 $ # @ # $ $ 3 6 3 $ $ 3 6 6 6 6 6 6 6 9 9 9 9 6 6 3 $ : 6 c 9 9 6 # $ v D D n b h 6 3 3 3 3 6 6 6 3 3 3 6 6 c c n S S n n S D G S c 3 $ @ + # 3 9 v n n c h 3 $ # # $ : 6 h n n 9 $ + $ $ 3 3 3 3 $ 3 h n B b c 6 3 : 3 3 3 6 h h 9 n P / ) 7X_ P c 3 : 6 9 c c b v v h 9 9 6 3 : $ 3 6 6 3 : 3 6 v n n v c h c c v v c 9 6 3 3 3 6 6 6 3 3 3 $ # # $ 3 6 6 6 8 9 9 h h 9 6 $ 3 6 h n n n b 6 6 v D F D n h 6 3 $ : 6 v D R / / E B 9 $ @ # 6 h c 6 3 : 3 6 P W W R S 6 + + $ $ 3 3 3 3 3 3 $ $ : 6 9 6 6 6 3 3 : 3 9 c n n c h c m b c v b v n n c 9 6 3 # $ $ $ $ 3 6 6 6 6 3 6 c b v c c 9 9 b S n h 3 $ 6 6 6 3 6 9 b B D D n 6 $ : 3 : $ $ # # $ $ $ : 3 : $ : 3 6 6 6 3 # + # @ + $ h G W E B h 6 : 3 : 6 9 9 9 6 : $ : 6 6 h c 6 6 9 c b c 9 6 3 : 3 : $ # @ # : 6 6 3 $ : 3 : 3 6 6 x 9 6 3 6 v D R E R D v 6 $ + + $ 6 c v 9 3 # # 6 c b n D G F S 6 $ @ $ 3 3 : 3 3 6 6 3 6 6 3 $ 3 $ $ 3 3 6 h c n n n b c 9 6 3 c c 9 3 : 3 3 3 3 3 $ # # $ $ $ 6 6 3 6 6 6 6 6 9 6 6 $ $ 3 6 6 3 6 h b n n b b b b c c b n n v 6 3 3 6 6 c n B G G B 6 $ : 6 6 h n F W W G n 6 3 $ 3 9 c n D S B c 6 $ @ # 3 3 6 6 6 6 6 : # @ + @ # @ # # @ + X + $ 9 n S F R / W D h 6 9 v n B n n n c 6 $ @ $ : 3 6 6 3 : $ @ : 9 n n 9 3 : 3 6 3 $ : 6 6 3 3 $ $ $ $ # @ # $ $ : 6 6 3 3 3 6 : # @ $ 9 b v 9 3 3 6 9 6 6 9 ",
"n n S P G n c 9 c c 6 : $ 3 6 3 3 3 6 h c 9 9 c v n S G G D n 9 3 3 : 3 6 6 : $ $ $ $ $ $ $ % + # # # # $ 6 h c h 9 9 c c 6 : $ @ # 3 c n S n c 6 # + + 6 B Q / W R n 9 - $ # # # @ + + + + # $ 3 3 6 3 3 6 6 6 3 6 h b n n c 9 $ $ 6 n S n b v S B c 6 6 c n n c h 9 6 9 c n B D R _ 0X9X8X! H 6 + + $ 3 : 3 3 + @ 3 9 n D P P S n 9 3 : 3 6 6 6 6 9 9 6 6 6 9 D G F S n 9 $ : 6 3 6 3 $ # $ 3 9 c n S B n c 9 9 v S F R E P D 6 3 6 n F E W E G b 6 6 : $ 3 6 b D / 8X3XP v 6 h h 9 6 9 c n S P P F S b 9 6 : $ 3 6 6 6 9 c c 9 9 9 9 h b n n 6 3 $ $ : 3 6 6 3 : 3 9 c n n n n v n B B n b h 6 3 : 3 3 6 6 3 $ $ : 6 c n S G h 6 3 $ 3 c S F S n n v h 9 h c 6 9 c n F / _ / R n 6 @   X @ $ h c c 9 3 3 : $ $ # $ : 6 B F D c 6 6 9 h c n n c c v n n n n v c 9 6 6 6 3 6 6 $ 6 h n P / ( ! n h 3 : 3 9 c n n n v 6 3 3 6 3 3 3 3 6 6 6 6 6 c b n v c v v c 9 6 6 9 6 6 6 6 h h 9 6 3 3 3 $ $ : 6 h 9 3 3 6 c c c 9 3 3 7 3 3 3 3 6 3 3 9 B / 7X7X/ P n 6 # + $ 6 S W 7XeX9XW D 9 # @ 3 9 c 6 3 @ + 3 n R W W F c : + + @ $ $ : 3 3 3 3 6 6 9 6 6 6 6 6 3 3 3 6 9 h h 9 6 : $ # @ $ 6 b n B 9 6 6 h h c c 9 : $ 6 9 h 6 6 h c v n n n c 6 6 : 3 : $ $ 6 9 9 6 9 n F R E G S 9 3 $ : : $ $ 3 6 6 3 $ $ $ $ $ : : : 3 3 $ # $ $ $ : 3 6 v n v c 9 6 9 c b n n 9 9 6 6 6 3 3 6 6 6 6 6 6 h h 6 3 3 6 c c 9 6 6 9 9 6 6 6 6 6 6 6 9 c n S n c 9 : : 6 v S G F G A b 3 X + 3 9 c 6 3 : 3 6 c n S F G S n 9 3 : 3 6 h v v n D D D B n c 6 6 3 3 3 9 c n n S D S n 9 6 6 6 6 9 9 6 $ $ $ 3 9 h c b 9 6 3 3 3 $ $ $ 3 6 6 6 6 6 6 3 $ : 3 3 6 9 h h n n n b b n n B v v v b c h 9 6 3 3 9 c v c h 9 6 3 3 9 b D E ! E G n 6 $ $ : 6 b n B n c 6 3 3 $ : 3 3 3 3 3 6 6 3 3 3 : : $ $ $ # # $ $ @ @ # $ 6 n R W P S S n m n S D G F B S n c 6 3 $ $ 3 $ 3 $ # : 9 c c 6 3 6 9 c c c c c c n G S h $ + $ : 3 3 3 6 6 9 h 9 6 6 : $ $ $ $ $ : 3 : $ $ : : 3 6 6 6 6 6 6 3 3 $ $ $ 3 9 c n B n c 9 9 6 6 9 9 3 $ # # $ : 6 9 9 c c 9 3 6 c b n n b 9 3 6 3 3 3 3 : 3 : $ 3 : 6 v n D G D n c 6 3 : : : 3 3 3 = $ $ # # $ # % + + + 3 6 c c c c 9 6 6 3 $ : $ : 3 3 3 3 $ # # # $ : 3 6 6 : : 6 9 9 9 9 6 9 h c b n B n b 6 6 6 6 9 6 3 6 3 4 $ # 3 n D G n v c 9 9 6 6 6 6 6 6 3 3 6 6 3 6 3 6 9 c n B D G G S n n n n v 6 3 h S D S n n h 6 3 6 9 9 h c v c b n c 6 : $ 3 3 9 h c v v 9 h 6 3 $ # # : 3 3 6 6 6 6 3 6 6 3 3 $ @ @ : 3 3 # : 6 v n c 6 3 + $ 6 c S F G G n v h c h 6 6 6 3 9 n S S b 6 : : : 3 9 v c 6 6 9 9 6 3 $ @ $ 6 B D D n b n n c c 6 6 6 3 : $ $ $ $ 6 9 h 9 6 6 : $ $ $ : 3 6 6 ",
"@ # : 6 6 9 v B D G G n 9 6 : # @ $ v R / _ / W v 3 + + + + @ $ 6 3 $ @ # $ $ : $ @ $ 6 9 9 9 9 6 6 c n D P R G G S c 6 3 9 v h 6 6 9 h 6 3 : $ + $ 9 n P W ! W G n 6 3 : 3 9 c b c 6 $ $ : 6 9 6 6 6 6 6 3 6 9 n n S D D D B n 9 3 $ 3 3 6 h b D S n 6 $ 6 9 c 9 h 6 $ : 9 b n n n S S n b 9 6 $ # + $ 6 v D P / / E D c 6 : $ 6 c D E W ! E G v 6 3 3 3 6 9 9 6 6 6 3 9 c n n 6 $ # : # @ # # @ $ 6 9 h h 9 9 9 9 h 9 6 6 3 : $ : 6 c b b h 6 + + 3 n n c 6 6 c n D P D c 6 3 c v v c b S G R R E R D n 9 : + $ $ : 3 6 9 h c B D R E R S c 6 # @ # $ $ : 3 3 6 3 $ # + + $ $ 3 3 : 3 : : $ : : 3 6 9 h b v 6 $ 3 9 n S n v 9 h 9 6 3 3 3 3 3 3 : 3 6 6 6 9 h D G D n b n A B c 9 3 : $ 3 6 h c n S S n 9 3 $ 3 3 6 3 6 b n v 3 + + $ $ $ $ : 3 : 6 b B B n n h 6 $ $ : 3 6 9 n S E ) 8X7X/ R n c 6 6 9 c v v n n n n c 9 6 3 3 3 3 6 6 3 : : 6 h n B B n c 9 h 9 9 6 3 6 6 6 : 3 3 3 3 3 $ # : : 3 6 6 6 9 x h c b b c h h 9 c n B B B h 3 3 6 h 9 6 3 6 6 6 3 9 n P E W R n 9 $ @ + $ h v v c 9 3 $ 3 c n S n c 9 3 $ $ 3 3 3 3 3 : $ $ 3 3 6 6 3 $ # # $ 6 c b n b b b n n n S D D D S n b n c 6 3 $ $ $ $ 6 : 6 9 9 3 $ 6 v n n b v b B G E R n 3 # 3 6 6 6 6 6 h c n n c 6 $ $ 3 3 # @ # @ # # $ $ 3 3 6 3 6 9 c 9 6 $ # $ # $ 3 b R / ! n 6 # $ : 3 6 9 6 3 : : 3 3 6 6 9 c h 6 6 c n S n v 9 3 $ $ $ $ $ $ 3 6 6 3 : 3 : 3 6 6 9 9 6 3 3 6 b D P G n c 6 : # + @ : 6 3 6 : $ 6 6 6 9 c v v b c 9 : @ + 3 3 3 3 3 $ @ $ 6 6 3 3 3 : : : 3 6 6 3 6 v n n c c v b v h 8 6 6 6 3 3 3 $ # @ # : 9 n n b h 9 9 h c h h 9 6 3 3 3 3 3 6 6 h v S S S B n b v c S B B B v 9 6 6 v S F G G B c 6 6 3 6 9 c n D F R D v 6 3 3 6 9 c b n S B v 6 3 $ $ 3 6 6 6 6 6 : $ $ $ $ # # $ # @ + + @ : h n B G G G S b h 9 v n B D D n v c : $ # @ $ 6 c b c h 3 # $ 6 h c n c 6 : # $ : $ $ + @ 3 6 3 6 6 3 3 3 : : 3 3 3 6 3 3 3 3 3 6 6 9 h c c 9 3 # + # $ 3 6 6 6 6 6 $ : $ # $ 6 9 6 6 3 6 b S S B B b c 6 3 3 9 n D S S n c h 6 6 c n G W ! W D 9 3 9 9 9 6 6 6 3 $ + : S ) eXyXrX0X/ R n 9 3 @ + @ 3 6 v S S v 6 6 h h h c v v c c v v t 6 3 $ $ $ @ + @ # # 6 v c 9 3 $ $ # $ : 3 : 3 9 v B G G F b h 3 , , : 3 3 9 h c n B n b n G F G S n n c 6 3 $ @ @ $ 3 6 9 v c 9 6 3 3 3 : : : 3 9 h h c c n n n v 9 3 : $ : 3 9 n n n c 9 9 c c 9 6 9 h c 9 6 6 6 3 : 3 3 $ $ 3 6 6 6 3 6 3 3 : $ # # $ : 6 6 9 9 6 6 3 : 3 3 3 3 6 9 c c 6 6 : $ $ @ + + + 3 n E / ! E D n B D R R F B b 6 6 3 6 6 : $ $ @ $ 3 6 6 9 b D / / W P S b v n S D D n b S S v h 9 c n b 9 3 $ $ $ 3 6 6 6 x n W Q F b 9 9 h 9 ",
": 3 3 3 6 h h 9 9 6 6 6 9 c n n n n S D F R R S c 6 $ + @ 3 9 x c v c 9 6 6 $ $ @ # 3 9 c n B v 3 + + 3 6 3 3 3 6 9 v n n b h 6 3 # # 3 3 1 6 9 v S W ) 8X3XW D 9 3 3 6 c v b n v v h 6 6 6 6 3 3 3 3 6 6 6 6 h b B n 9 9 v n v 9 9 9 9 9 6 6 3 : : 3 3 3 # + + 3 6 6 6 6 9 h c c 9 h h 6 3 6 6 n n c 4 4 c S P R R D v 9 6 : : : h F / 7X) W D 6 + @ 3 6 h 9 6 $ # 6 b D / 3XW n : + # # $ 6 3 3 3 3 : : 3 6 6 6 6 6 6 6 $ : 6 n S n 9 9 v v c 6 6 9 n B n c 9 6 3 : $ $ $ : 3 3 6 6 3 3 9 c v n n v 9 9 c n n 6 3 3 6 6 6 6 6 c b S P F n 6 3 6 3 3 3 : : $ @ @ # : 3 : : 3 : 6 9 3 # + @ # # $ 3 n R E D n c 6 6 6 9 c c c h 3 3 3 3 6 9 h 9 6 6 6 c c 9 6 6 6 6 6 3 $ 1 3 : 3 3 6 6 6 6 6 6 h c c v c 3 : 6 D R W E G D v 6 + + # 6 9 h 9 6 3 3 6 c n D P R P S c 6 $ : 6 6 6 9 h h 9 6 6 6 6 6 3 $ $ 3 9 c v n B D S n c 9 9 9 9 9 9 6 3 : 3 $ : 6 6 3 : : $ $ 3 3 6 6 9 6 h h 9 6 3 : : 3 3 9 9 6 h n S n B n b n B n b b b b h 3 3 3 6 b D D S n c 6 3 3 9 c S R E W ! P v 3 : 3 3 h n S S n v 6 : $ $ $ 3 6 6 9 6 3 $ # # # # $ : : $ $ # $ $ 3 6 c n G ! / W G n v c n B S S B n c 9 6 3 3 $ : 6 6 6 3 # # 6 b n c 6 3 : 3 3 3 6 6 3 6 6 6 3 $ # $ $ : $ $ 3 6 9 h h 6 6 6 : $ $ 6 6 9 6 6 3 3 3 : 3 3 6 6 6 3 $ $ : : : 3 9 h 9 6 6 : 9 c v v v n b 9 3 : $ 3 6 9 9 h h 9 6 6 9 n n n b c 6 : 3 6 9 6 3 : : 3 : : 9 n / ) 7X( E F n h 3 : # @ @ # 3 6 6 3 3 3 # + # $ $ 6 h v n B n c 9 3 $ $ : $ $ $ $ : : $ $ $ $ $ $ 3 3 3 : 3 6 c S D S b h h c c b v v b c 8 3 3 6 6 h h c c c c c b n B n c 6 3 6 6 6 6 6 6 6 6 3 $ : 6 6 3 6 6 h v B S F P F F B v 9 6 6 6 c n D G n 9 6 h c c 9 9 c b v c h 6 $ $ $ $ : 3 6 6 9 h h 9 6 $ @ @ # # : 3 3 6 6 6 9 9 9 6 6 3 $ $ 3 3 6 3 3 3 6 3 6 $ + @ # $ h D ! ) W n 9 9 c n D D n 6 3 v S B h 6 3 3 3 $ : 6 6 c n n S G D v $ $ 6 n D F G G P F S n b v c c h 9 : @ $ 6 h c 9 6 6 6 6 6 3 : $ $ $ $ 3 3 3 3 6 6 9 v c 3 $ 3 6 c D W E D c 6 6 3 : 3 6 c n G E E D h 3 : 6 B W 7X9X0X7XW P G F P R R R R S v @ + 6 S E _ ) / D c $ @ +   @ 6 n G W W W W E R W W / / W D v 6 $ $ $ # $ 3 3 $ @ + : v G 3XeX8XP b 6 : $ 3 6 6 6 9 v n S D S b 9 3 > : : > 3 h B F P F D n h 6 6 3 3 6 3 3 : 3 $ 3 6 c v v c 9 h l c b b v v v h h h 9 9 6 3 $ + + # $ $ $ $ $ 3 6 6 6 3 3 3 : $ $ # # # @ + + @ $ 3 6 6 6 3 $ 6 6 c n v 6 $ : 9 v c 6 3 $ # $ 3 3 3 3 : $ $ @ # 6 b G R G n c c 9 3 : : 3 6 6 : @ # $ + # 6 9 S S S b h 9 9 6 6 3 6 9 h 9 6 6 9 9 c b n b c c c n n B E 7X9X8XR S n S D S n n 9 6 h b c 9 6 6 3 6 3 6 6 9 h n F P G S n B D D ",
"6 6 6 6 3 6 6 6 3 3 3 6 6 6 6 9 c n c 6 6 9 h h 6 6 3 3 6 6 9 v D G D b 6 6 3 3 9 v S G D v 6 # + + $ 6 9 3 $ # 6 c n S G G D n c 6 3 3 3 6 c v S G E R F D n c 9 3 3 3 6 v n n S S S S n 6 : 3 9 h 9 3 $ # $ $ c c v b c 6 3 3 $ 3 3 3 3 3 6 6 1 1 3 3 3 3 : : 6 6 9 c c c c b n n n n n b v c n b c 6 3 6 9 9 h 9 9 6 3 : 6 h S P W / W G b 6 $ + $ 9 v n n n 9 3 3 3 : 3 6 6 9 6 3 3 : 3 3 3 : $ $ : : 3 3 $ $ @ + @ 3 c S G G D n c c B D F F P P G D n h 6 6 3 3 3 : $ $ 3 9 9 9 6 6 6 6 h n S n h b G R F h 3 $ 3 6 3 3 3 6 9 c c c 9 6 3 : $ # $ $ : : : $ $ : 6 6 6 6 6 6 9 6 3 3 3 $ $ : 9 n D G B c 9 3 3 6 9 6 : $ $ $ : 3 3 9 h h h 6 6 h b n n b c 9 3 3 6 3 3 3 $ : : $ $ 3 9 b n n n n c 6 3 3 6 6 6 9 6 6 6 3 # : $ $ # @ + # $ 9 6 c b c 6 6 6 6 6 3 $ $ $ 3 3 3 3 $ $ : : $ 3 3 6 6 3 6 6 9 c 9 9 9 9 v v v b n v 9 6 6 6 9 9 6 3 : $ $ 3 9 c S G S b c 9 6 6 9 h h 7 6 3 3 3 3 3 6 6 9 9 c n D D D B n n b n c c 9 6 c D P P D b h h 6 6 9 c b n n B B b h 6 3 $ - 6 6 c v v n v 9 4 3 $ $ $ 3 3 6 6 6 6 6 6 6 3 : : $ # # # # @ 3 9 c n S b 6 $ $ 3 9 n S D D B n b 9 6 6 3 3 3 9 n S n h 9 : $ : 9 c h 9 9 6 6 3 3 : # @ $ h n n n b b v c h 9 6 6 6 6 3 : : : 3 9 c c 9 9 6 3 # + + # $ $ 3 6 6 6 6 : # $ $ 3 : $ : 6 h n G F S v c c 9 9 6 3 b G E W E F v 6 3 9 n W 8X8X3X/ G n c c c v c v 6 : : # 3 S ) rXrX0X) W S c $ + + @ 3 c S P R P D B S G P P D S v 9 6 6 3 6 3 6 : $ $ @ @ $ 9 n D R G b 3 $ $ 3 3 6 3 $ 6 9 B F P D n 9 3 $ : : 3 6 6 c n S F G S n b B D D n c 6 3 $ # $ $ 6 6 9 c b b c c h 9 7 6 6 3 3 6 6 6 6 6 : 6 6 $ 3 3 : $ $ 3 6 9 h c h 6 3 9 6 : : $ 3 6 3 : 3 3 6 6 6 : 3 6 6 9 6 3 3 3 3 6 6 3 $ # # 3 6 6 6 6 6 3 $ # # 3 6 9 n n n c 9 6 : $ @ @ @ @ $ 6 9 c h b C F G P P P P G n 6 : 1 3 3 6 6 3 3 3 6 6 6 9 c n D G R E W R E E E P n c c n B B v h c b b c h 6 : $ : 3 3 : 9 S E / ! R S 9 3 : 6 6 $ : 9 S W ) 7X/ n $ # : c G W / W D b 6 $ @ $ : 3 3 3 $ # @ @ + + $ 6 n D G G D B n B G R R P P R G n 6 $ @ # $ # @ $ 6 9 b S n 6 $ $ 9 9 c c c c c b S E _ 7X7X/ G b 6 : $ $ $ $ 3 $ # - c D W / / W n h 3 : 3 9 n D W W R b 9 c v h h 9 3 $ : 3 9 b S D D S B n c 6 6 3 3 6 6 6 6 9 9 c b n n b c 9 9 9 9 c n D P P G S v 9 6 # # 6 n F P D n 9 : # $ $ : 3 3 3 6 h v n D G S c 3 # $ : : $ : h n n c h 9 6 6 3 3 3 3 : 3 : $ 3 6 : $ > : , 6 l c h 6 : : 6 9 v n n n v 9 9 6 6 6 6 : $ : 3 6 6 3 3 3 3 6 9 6 6 6 6 3 3 6 6 6 3 6 9 v n S G F S b b c n n n D G R W E E E R S 9 $ # 3 6 9 6 6 6 3 3 6 : $ $ $ 3 9 c B B n c l n D F ",
"$ : 3 6 9 c c 9 6 6 c n n c 6 6 6 6 3 : : $ $ : 3 3 3 3 3 3 3 3 3 3 6 6 6 6 9 n R E G n 6 3 3 $ @ # 3 h h 6 $ $ 3 6 9 h c n D D h 3 $ : : $ 3 6 6 3 3 3 3 3 3 6 9 3 3 3 : 6 9 9 9 c n B B b 9 6 h 9 9 6 6 6 6 3 @ # $ $ $ 3 6 6 c c c c h 9 9 9 c h 6 3 3 3 3 3 6 6 9 c n B B n n n n n n S S n 9 3 3 c n n S F G D v 3 $ 6 9 9 9 v D W E S h 6 3 6 9 c v n S S S c 6 3 $ : 6 6 6 6 9 9 6 $ # + # @ # @ + # $ # @ : h n G G F D S n c 9 h b S F S n c 6 3 @ @ $ 3 6 h c 9 6 : $ 3 6 h c c 6 $ $ $ 3 3 $ # $ 3 : 3 3 3 3 $ # # $ : : 3 6 6 6 6 6 $ : 3 6 9 c c 9 3 $ $ $ : 3 6 6 6 6 3 : : $ $ 3 9 9 6 $ 3 c S S S n b v 9 6 6 6 9 b n n n v h 9 6 6 c S R E R G c 6 6 9 9 9 6 3 $ # @ $ c E 9XrXrX9X( R S v 3 + $ # $ 3 6 v n c 6 3 3 3 6 9 9 h 9 c v c h h 6 : 6 3 : : $ + @ : 6 c 9 : $ $ : 3 3 : 3 3 6 b S D G D n c 9 9 9 6 3 3 6 6 h b n n n n S D D B n n b v 6 $ $ $ 3 6 6 9 h h h 6 3 > 3 6 3 : 6 9 c n n S D D S b 6 : $ 3 6 9 v n S B c 9 h b v c 9 6 c v c 9 6 6 3 : 3 # # - 4 6 6 6 6 3 $ # # + + $ 6 6 6 9 9 9 6 6 6 3 $ $ : 6 9 9 h 6 6 6 $ # @ + + # 6 n P W ! W S n n S F R P S 6 3 6 9 c 6 3 $ 3 3 3 3 3 6 b S F E / W G v 9 6 n S S n n S D S n b b n n c 6 6 $ $ 3 6 6 6 6 h F G D n 9 3 : 3 : 3 6 6 9 v B D R D c $ # 6 n G / / R v 6 3 $ @ $ : 6 9 c b c 9 @ + $ 9 D / 7X7X/ W G D G R W ! W ! W G n 3 + + c B S n b 9 $ @ $ $ $ 3 c S G R D D D G R ! ) 8X8X3XE b 6 3 : : 3 3 : : $ + : n / 8XeXqX/ n 3 $ 6 9 9 h v B F F G n 6 3 6 6 6 3 3 3 6 c n D F F D S n 9 6 6 3 : 6 3 3 3 3 9 c m m n n c c c b b n n S D D n 9 6 6 3 $ $ # $ 6 h 6 : # $ : 3 6 6 : : : 3 3 3 6 9 6 3 # + + 3 9 9 6 6 3 3 6 9 h c 6 6 : : 3 6 6 6 $ $ $ $ : $ : 6 : 3 $ $ 3 6 u m S G D n c 9 6 6 9 6 6 3 $ $ # @ : 3 6 6 6 6 9 9 9 9 6 3 3 6 9 9 9 9 9 6 h B G G n b v v c v B G 7X8X7X/ E D B n B n h 3 3 6 h 9 9 6 6 3 3 : : : 6 6 9 c n S S n 3 # + $ 3 6 v B E W ! W G v 3 # 6 9 9 9 9 6 6 3 $ 6 n P E F n h : # # : : + + + $ 6 6 6 6 3 # + $ $ : 3 3 3 3 3 6 6 3 $ # + + $ 9 b D F D h $ @ + + $ 3 3 3 6 6 3 6 9 c n n n n h 3 : 6 6 $ # # # % + + + $ 9 v n n v c c v n n c 9 3 $ 6 B R W R G 9 X X : h b 9 9 6 3 3 6 6 9 : $ $ $ : 3 6 6 6 6 3 3 3 6 9 v n n B b c c v n c c h 9 6 3 : 3 v n n v h 6 3 3 9 9 6 3 h D R G n v v n n c 6 6 3 # + @ @ $ $ $ 6 3 3 : 3 6 h c c 9 v n S D P G B b n D E ( ) ( G n 9 6 3 6 h c 6 6 9 9 6 6 6 6 6 6 6 6 6 6 3 : 3 3 6 6 6 6 6 3 3 3 6 6 3 : $ : 6 9 h 9 6 3 3 9 n B b 6 : $ 3 h G G D c 6 h n B S S S n c h 8 3 : $ $ $ $ $ : 3 3 3 3 3 6 6 9 c ",
"6 6 6 9 9 9 9 6 9 9 c n B b 9 6 6 3 6 6 6 6 6 3 $ $ 3 h S W ) 3X/ R S v 6 # + #   + $ $ 3 4 3 $ : $ @ + + @ 3 9 n n n v 9 6 $ # 3 : $ : $ # $ $ 3 3 : # # : 3 3 3 3 6 c v n n n c 9 h v v v v c 9 6 6 6 6 6 6 9 v v h 9 h n S D n c 9 6 6 6 6 9 6 6 6 3 3 3 3 3 $ 6 6 6 6 c n S G G G S B n v 6 6 6 c S G S n v 9 9 9 h c b n b b n c 6 3 3 $ # 3 3 3 6 h v c 9 3 : $ # # $ 3 6 6 3 6 c c 9 6 6 3 3 : 3 3 6 9 6 $ : 3 6 9 3 # + + 3 S W / E S b v v n D S c 6 6 b n n v h 6 3 3 3 6 6 9 c c v n S n 9 # @ 9 B G P F D S B n b b b c 9 9 6 $ $ $ 6 6 9 6 6 6 6 3 $ # @ @ $ : 3 3 3 3 6 9 9 9 9 6 : : 3 6 v F E P n 9 6 6 3 : 3 6 n D E / W S 9 3 6 v P _ 9XqX8X) E G S S D G G G D n 6 + : n W ) 8X7XW B 6 # + +   $ c G R E E E P E W ! ! W G D n 9 6 3 3 3 6 6 3 $ @ + 3 b R / 8X7XE c 3 3 3 3 9 6 6 9 9 n G G G B v 6 : 3 3 3 6 c B G P R G D v 9 6 9 9 6 6 6 3 3 : : 6 6 9 9 v c c b b n n n c v h 6 9 9 9 6 $ # + @ # $ $ 3 : : 3 6 6 6 3 6 6 : $ $ @ @ # # @ $ : : 3 6 9 9 $ $ 6 c c 9 6 3 3 3 6 9 9 3 # + 3 3 6 6 6 3 : $ $ 3 9 c n D F S c 6 3 $ $ $ $ : $ $ $ : : : 3 3 n S D S n n n c 6 3 3 6 9 9 6 9 6 6 c v v c h h b v c b G / 8X9X! R B n B D S n c 9 9 c v c 9 6 6 3 3 6 6 6 h n G R R D b 6 : : 3 3 3 6 b E 7XqX8X/ B : + 6 n D G F D n h 6 3 6 9 v h 3 : : $ $ $ $ + + # : 6 9 6 6 6 6 6 9 c v n n n b c 6 : 3 $ @ + + $ h S R G B 9 $ @ $ 3 3 9 6 3 3 6 b G W ) _ E n 6 6 3 : + + + $ 6 3 : 6 h n S D G n 9 6 3 h n G R R F B h v D E G n 6 # + @ 6 v v c b n n b c 9 6 6 3 3 6 9 c h c c c c u c 9 6 9 c b c h b D R R S v 9 $ $ $ 6 B W / E n c 6 3 3 $ $ 3 9 c c l v S P P F S v 6 # @ + + $ 6 c n n 9 : # $ 3 3 3 6 3 $ $ 9 9 9 6 3 3 6 9 D R E R S c 3 $ 6 9 b n n c 9 9 9 9 6 3 3 6 6 9 6 6 6 6 6 6 6 9 6 6 6 6 6 6 6 3 : 3 6 6 b D F D n v 9 h c b n S n b b n G E E P 9 3 3 9 c h 9 9 6 6 3 3 3 $ $ $ : 3 3 6 c n S B n b c c v n n B n v 6 +     + # + # 3 6 6 3 3 6 6 c b n b 9 6 v D G S v c b S F G R G n v n n v 3 : $ $ $ 3 8 h 9 9 6 $ @ @ : 9 c b n c 9 3 # + # : 6 n G W / _ / R n 6 3 3 6 9 3 6 c n B n c 6 + + $ 6 v S B n h c b S D S n c 6 6 $ + # 6 S W eXrX8XG c 6 6 : 6 6 3 3 : 3 3 3 6 6 6 6 6 6 3 $ : 3 3 6 c n D R W W P S h 3 $ + $ # @ @ @ $ : $ 6 3 3 6 6 6 6 6 9 9 6 $ $ 6 b S D S c 3 6 n F P D n 9 : 3 h n B h b F / 0XeX0X/ S c v G E W E G E W ( 8X7X_ W P B c 3 + X + $ : 3 3 6 6 3 3 3 3 $ $ : 3 3 3 3 3 $ $ : : 3 3 6 6 6 6 3 3 6 h n n n v 6 3 $ $ $ 3 3 6 h c h 6 6 6 9 h 9 3 6 c n n c c c n b 9 6 3 $ $ 3 3 3 : : $ $ $ $ $ 3 3 7 9 ",
"W E R P B 9 6 9 c S W 7X8X) W G v h h c h c 9 : $ # 3 c F 8XuXuXqX) E B h 3 # + $ 6 n G E R D B v n S F G B v x 9 6 6 6 4 3 6 3 3 3 $ @ : c S D D B h $ + # $ $ : : 3 6 n F E E S h 6 6 3 $ $ 3 6 c n D D D S S S D D S n b h 6 : $ $ : 3 6 6 h n n b c h 9 6 3 3 3 3 6 9 c c 9 6 6 6 6 6 3 - 3 - 6 9 c c c 9 6 9 6 3 6 3 $ 3 6 6 3 3 6 6 3 3 6 3 6 9 c 9 3 $ : 6 6 : @ @ $ 3 6 6 6 6 6 3 : $ $ : 3 6 c b n n b c 6 $ # @ @ # $ 3 6 c S G D S S D F R E R B h 6 : : 3 6 6 3 3 3 3 6 6 6 c n S P ! ! E D D R R P S b c n n n c v c v b b h 6 : : 6 6 3 3 h S E / / W D h 3 : 3 6 1 6 v D E / / R 9 $ # 6 n E ) ) W D c 6 $ # $ 3 3 $ 3 6 3 $ @ @ + 3 b G E W E F n b n G E W W W E G c # + @ : 3 3 3 6 6 6 9 6 6 6 3 6 c v c c c n n D E ) 0X8X) G n 9 6 3 : : : $ 3 3 3 h G ! ) _ W S 6 $ 3 6 h c n G E P n h 6 6 h c 9 6 3 : 3 9 b B S S S B n v h 6 6 6 6 6 9 9 9 h v n B S B 9 h c v n B S F R R D v h 6 3 3 : 6 n G P B h 3 $ $ : 6 6 6 3 : 3 h B G G S c 6 $ @ # 3 6 6 6 9 n n b c 6 6 6 6 6 6 6 3 : 3 3 $ $ $ : 3 6 6 6 6 9 6 6 6 9 v n n S n v h c c h 9 : $ : 3 3 3 6 6 : 3 6 6 6 9 9 6 3 3 3 6 6 6 6 9 h h n R E F n n v n n B D R E E R R W W R n 6 : : 6 9 c c c 9 3 3 $ $ $ 3 3 6 9 b B S B n h 3 $ 6 9 n S D F D n v 9 3 $ + $ 3 $ 6 3 $ $ : 3 9 n R E G n 9 9 6 3 $ # # $ 3 9 v n b c 6 3 $ @ @ $ $ $ : 3 6 6 6 3 # + + @ : h n n c 9 3 $ @ # $ 3 h n D F D n 9 6 6 9 9 9 9 9 9 h n n 9 3 $ @ + + + : 6 9 c c c c c c c v h 3 $ + $ 3 S ! / W D v 6 @ # 9 h 9 6 6 3 3 6 6 3 : $ # $ 3 6 3 6 6 3 6 6 9 v S G P F S c 7 : 3 3 3 3 $ # $ 3 6 6 6 6 6 6 6 6 h h 9 9 h b n B D S b h h h c c v 9 3 # $ : 3 6 6 6 3 6 v S G G B n n D R R W W E R R R W _ ) ) / R n 6 6 : $ 3 9 h 6 6 9 9 6 6 3 3 3 6 6 6 6 3 $ $ $ 3 3 9 6 6 6 6 3 3 3 : : 3 6 6 6 3 3 $ $ 6 h b b c 9 $ $ 6 h h 9 9 6 9 9 v S F D S B v h 6 3 $ $ $ : $ $ $ $ $ 3 6 9 c c h 6 6 6 6 6 c 9 3 % + + # 3 6 6 6 6 $ + + $ n D D A c 3 : h W 7X9X3X( ! W W 7X) R c 6 h n B S n 6 # @ 3 9 c v v c 9 6 3 3 3 b n c 6 3 : : : # 6 n P E G n c 6 6 6 6 6 : # + 6 6 6 $ + + +   + # 5 v n n v 9 6 6 c n n v 9 9 6 h v B D B n G P R G S n S S n c c c v v c 9 9 6 6 6 6 9 h c c n n c 6 9 n S D n b h 6 6 6 6 6 # : h S G E R G c c n F D n 9 6 $ @ @ $ $ $ : 9 c c 6 3 6 n R W / E n : + @ : $ 3 9 D W W E S x : @ @ 3 6 h n B v h h n D F G G S n h 6 3 3 3 : 3 : 6 c n n b c h 6 3 3 3 3 6 9 6 6 6 6 3 3 6 9 c b n n D G R P b 9 6 6 9 9 9 9 6 3 3 6 h c c n D S n c 9 3 # + $ # $ 3 6 6 6 6 v v n b h 3 $ # 6 6 6 3 3 5 c c ",
"n n n n c 3 # $ b D / 8X8X_ W R F G G R W / / E S c 3 @ $ n R E G n 9 # X   + $ 6 c D E E R F G E E ! _ ) / R D c 6 $ 3 3 3 6 3 @ + # 3 B ( qXeX) E b 3 $ : 6 v b B S D D D B c 9 6 3 6 3 : 6 9 n G R P D S n v 6 6 3 6 6 6 6 6 3 6 h n B n v v v b n n n S D D n v 9 9 6 3 $ $ # $ 6 9 6 $ # $ 3 3 6 3 $ # # $ 6 6 9 6 3 $ # @ $ $ 3 7 9 6 6 6 h c v v 9 3 $ 3 9 c h 6 : : $ $ 3 3 6 6 : : : $ 6 h S G P D B v 9 6 6 9 9 6 6 3 : $ # # $ 3 6 h l c c h 9 6 6 3 6 6 6 9 h 9 9 h n D G D S n c c 3 c R 3X9X8X_ W B n S D S c 6 3 9 h c c h 9 6 3 3 3 3 6 9 c b B n n h 3 # # : 3 6 v G W ( 3X( R h $ $ 6 9 c n b h 9 6 3 9 B F D B b 9 : @ # $ + + + + : 6 6 6 6 $ # # $ 3 3 3 6 6 9 6 3 3 3 : # + @ 6 n P R F S 3 @ + # $ $ : 3 3 3 3 3 9 b S D S n c 6 3 3 3 @ $ # @ @ @ + # $ c n n n c 9 6 6 n n c 9 9 3 6 n E ! P v 6 @ + : b n v 9 6 9 c c 9 6 6 3 : 3 3 3 9 6 9 9 6 6 6 6 c v n n b v c c n B n c 9 6 3 3 9 h B F D n c 9 9 6 6 3 6 9 b B S S B n n n n n 9 3 $ + + + # : 3 3 6 : $ 3 6 3 9 9 h h c n D D D n c h n R / 7X/ R n 6 $ 3 9 c h v v c c c 9 6 9 6 9 h 9 6 6 : 3 : : 6 9 h 9 9 9 9 9 6 3 : 3 3 9 h v n v 6 3 6 v n B n 9 3 : 3 c b B B b h h v S S n v h 9 6 6 3 3 $ $ $ : 3 3 $ 3 6 c n n n b h h v n n v 9 : + + + @ $ 6 9 6 3 6 3 3 9 n S n 9 6 3 3 c W 7X) P G E ( ) ) / F c h v S D b 6 $ $ : 6 h c b c 9 3 $ 3 9 c n n c c 6 $ + + : c S P W / / W P S b 9 6 3 $ 3 6 h b 9 9 6 6 3 # $ 9 S G D n v c c n F F D S b 9 6 6 : 6 S / 0XeXqX7XP n c c h 6 6 3 6 6 6 9 h 9 9 9 v c 6 3 3 $ 3 6 h c B G D D S B 9 6 : $ $ @ # : 5 9 t c c c c c h 9 6 3 $ $ $ $ + @ 6 n B b 9 9 c S E _ ( F h 6 9 9 h c n S E _ eXeX) D c 6 6 9 n n S S D P W / / / ! W G v $ + + + # $ 6 6 3 6 3 3 3 3 3 : $ $ $ $ 3 6 6 6 6 3 $ $ 3 6 h c b n S G R E G b 6 : $ 3 3 $ : 6 c c v 9 6 9 9 9 h 9 3 3 3 3 6 9 9 9 9 9 6 : 3 6 9 h 6 : : 3 : $ : 3 6 6 6 6 6 6 6 6 # 3 6 c v c 9 6 3 $ # # + + # 3 6 c n B n 9 : 3 6 c n B n 8 # $ @ $ $ @ # $ 3 3 6 6 6 3 6 c n n n c 6 6 3 $ # $ @ : 3 3 6 6 6 6 3 3 3 3 6 6 6 6 3 3 3 6 6 3 3 6 $ 3 c n B b 6 3 + + + + $ 3 6 6 $ $ 3 c c 9 c n ! 8XrXyXeXW c : 6 6 9 b D E W ! W R F D B h : + + X   + @ 3 h n G G B 9 6 6 9 c n B D S B v 9 6 9 h n G P D n 9 $ $ 6 n B c 6 $ 6 6 6 6 3 : $ # # : 3 3 6 9 9 9 6 3 3 6 6 9 9 6 $ + @ : $ $ $ # $ # $ $ $ $ : : : 3 6 3 $ $ : : # $ 9 S R W W R v v D E E D 9 : 3 3 3 3 6 9 9 6 c 9 6 6 3 : 3 9 c v c 9 6 6 6 3 : 3 6 c v b v c 6 3 $ $ $ $ 6 c D R _ 8X) P n 9 6 6 6 3 6 b D D S n n n h 3 $ $ 9 c c 6 3 , $ $ ",
"$ $ $ $ $ # # @ @ $ 6 h v c h 9 9 6 9 v n B n n n v 9 3 # # # + + $ b P R B 9 3 $ 3 6 6 6 9 6 6 3 h S W _ ) ! R m 6 $ # # # $ # $ $ 3 6 c n G G P D v 6 : 6 c n E W R D n n n B S S c $ + $ 6 c n S B n b n n v 9 6 6 6 9 6 6 9 9 h c b v h 9 9 9 9 c c b S D F G D n c 3 + # 6 G E W G n 6 $ + # $ $ $ 3 9 c c n S G E R S 9 : $ 3 : # $ 9 c c 9 6 3 $ $ 3 6 6 : 3 3 : : 6 9 6 3 3 6 h n F G D 9 6 : 3 9 v n n n c h 9 9 8 6 6 6 6 6 6 6 6 6 6 6 9 9 9 9 9 6 3 3 3 3 3 3 3 9 v S F F D n v h 9 n n b v n S F R ( ! G v 6 3 8 9 9 6 6 6 6 6 6 3 : $ $ 3 6 6 9 v D D S b h 9 c v B S S S b 6 # + X X @ 3 3 6 6 3 3 $ : 6 h b n n b c n D B v h 9 h c n G G S n v v c 6 $ # @ # 3 6 9 9 9 6 6 : $ # : 9 n n c 6 6 : $ # $ : 9 n F / _ _ W G b 6 3 6 6 6 h c n B n 9 6 : # $ 6 c v b b v 9 9 n D S n b 9 3 $ + + 9 R 3X9X9X3XF 6 3 6 9 h 9 6 6 3 : 6 6 6 3 : : 3 3 $ : 3 3 6 6 c n P W / / E S l 3 : $ $ # + @ $ $ 3 : 3 6 6 6 9 6 9 9 9 6 6 6 6 h D G G n c c c b F F B 9 3 6 c c n n v b F _ 9X9XE D S G G R R R P E W ( ) ) / W W G n 6 @ + $ $ 6 9 9 9 6 6 6 6 6 : : 3 3 6 6 6 $ : 3 6 3 : : 6 3 6 6 6 3 6 9 h b n c 6 $ $ $ : 6 6 9 c h 6 6 6 h h 6 3 3 9 v b c c n S S b 9 9 : 3 3 3 : : $ $ : 3 6 6 6 9 9 9 9 6 6 6 6 6 6 3 : $ : 3 3 6 6 3 $ # @ + : b D G B c 6 6 h R ) _ W D S S B S D n 6 : 6 c n c 9 9 $ : 6 9 h v b c h 3 : 3 3 6 9 9 6 3 3 6 6 6 6 c S n c 3 # # $ $ $ : $ @ # $ : : : : # @ $ # # : c v 9 : : 3 6 9 h c 9 6 c D W W / R D n h 9 v b G R E G D D D D S n h 3 $ # # # # 3 v D G D v 9 c c n S B n c 6 b c 9 6 3 3 c S / _ W n 9 c n S R G b 3 $ 3 6 3 3 6 6 6 6 6 6 6 3 9 c n B n h 9 : : $ $ : 3 9 c h c 6 # + $ $ 3 6 6 9 c c h 9 6 9 h c c c 9 h v v n c 3 6 c S D D S b 9 6 3 3 6 3 6 6 6 9 9 9 6 6 6 9 h c c b n S S B v 9 6 9 9 B S n c 9 6 6 : : 9 n D F P F S n 9 3 $ $ # $ : 3 9 h h v n n v 6 $ $ 6 9 9 9 9 9 6 6 9 h 9 6 6 6 9 S E / W E G D n 6 # + + $ 6 9 c c c 9 $ + + $ , 3 6 9 3 $ $ : : $ $ $ $ @ @ + @ 6 v S D D S b b b b v 9 6 h n n n c 9 6 3 3 6 3 $ # # : 6 9 6 5 6 6 6 3 $ $ 6 v G / 3X) W D 6 + . + : 6 8 3 + + 3 n P R E ! / _ / R S n c c 9 9 h h c n n b 3 $ $ 3 9 b n S c h 9 9 6 : : 6 v S P R D 9 $ : n G W / W G n h c v B G G S c 6 3 $ 6 c c 6 : $ 6 9 c c c 9 3 # $ $ $ @ 6 n S B 9 9 9 c B G G S c 3 3 9 c c 9 8 6 : # # 3 c b n h 6 > @ : 9 c 9 6 3 6 h b n B n n c c n v 9 6 6 6 9 h h n G P F v 6 : $ : 6 9 c n S S n v 9 3 $ $ $ $ # + @ # + # + @ $ @ + # $ c S W ) 7X7X) / E G D B v v b c v b B S n h 3 3 9 9 h l 9 3 3 3 ",
"6 6 6 6 3 $ + @ + $ 6 c n c 9 6 $ $ $ # $ $ 3 6 6 6 6 6 3 $ # # $ : 6 b n c 6 3 $ $ @ # 6 c n B S n c 9 9 c b v 9 6 9 c v c 6 3 $ % + + + + $ 6 c n n c h c v c 6 6 $ @ @ : c F W / G 6 $ : 6 h h c h 6 6 9 9 6 3 : $ $ $ : 3 6 6 6 6 3 6 9 v n P P G n c 9 6 3 6 3 3 3 3 : 3 6 6 9 9 6 3 6 9 9 c v 9 6 9 B G P b c h c v c c c h 3 $ @ $ : 3 6 6 6 h v b B S B n n S R E W W E F G G W _ 7X) ! D v 6 3 6 6 6 6 3 6 9 h h 9 6 3 6 6 6 6 6 6 3 : , 3 6 6 6 6 6 6 3 6 6 : $ 3 6 6 9 9 6 3 3 6 9 c n n c : # 6 c v b b c 6 9 n G F D S n b c 9 3 : $ $ $ : : $ $ $ 3 6 h v c 9 6 6 3 9 b n n 6 # + # : 6 6 6 6 6 3 # $ 9 D F S c 9 : 3 D 7XqX8X_ / ! ! _ 3X/ D c 6 n S S n v 6 # # 6 6 9 h 9 9 9 9 6 6 c n n c 6 $ : $ $ 6 v G E W G B c 6 6 6 6 $ $ # : 6 6 3 $ # $ $ @ + : n G F n c 9 9 c B D S b c h c v v n S G R W W W P S S B n c 9 9 c v b 9 9 9 9 9 6 9 h v b v h 9 9 c n D D S b 9 6 6 3 6 : $ 3 6 B P R S n n S S S S v 3 : $ $ $ @ # : c b v 6 6 9 v D / ( W n 6 3 : @ $ 6 v D W _ / E n : + # : 6 c b n n n n S G E W W P B 9 3 3 : # 3 $ 3 6 9 9 c h h 6 6 6 3 3 3 3 6 9 6 6 6 3 : 3 c b n B S F P R F D v 6 3 6 9 6 6 6 6 9 9 9 h b n S S v 6 6 3 $ : $ : 6 6 3 3 6 9 h n B n 9 3 $ 3 6 6 6 6 6 6 9 c 9 6 6 6 6 h n S D S n c 9 3 $ $ + # : $ : 6 9 c 9 3 # + : 6 6 9 3 : $ @ # : $ : $ # # @ @ $ 6 n B S B n v h 9 6 3 : $ : 6 6 6 6 6 6 9 6 3 $ $ : 3 6 9 9 9 9 6 6 6 3 : 6 c S R / ( R v : + + + : 6 9 6 3 $ : 6 b S D D E 7XeX9X( R n h 6 3 6 c G E E E E G S n b c 9 : # # $ # # $ 6 c B G G D v 3 # # 6 D ! / R S b b n n n S S n 9 : $ 3 3 6 6 6 : + # 6 c c 6 $ # : $ + @ 3 c v c c c 6 : 6 c n b 9 6 : # + 6 6 6 $ # # $ $ + # # $ $ @ @ # 3 6 9 6 3 $ 6 c W / E S n S D D S n 9 3 $ $ 6 9 v v c h 6 3 : $ # $ 6 h b n n n 6 6 3 $ $ : 3 6 6 6 3 3 : $ # @ $ $ + $ n ! 8X9X/ E G G S c 9 9 B S D D D D S n c 6 6 6 9 c b b 9 6 3 3 6 6 6 9 6 3 6 6 v G E W A c : + + 6 S R ! / / W D c 6 $ , 3 3 6 7 9 h 9 3 : $ : 6 6 6 9 v c 9 6 6 6 6 6 v c 9 9 9 h b S F W _ 7X) P c 3 $ : 3 6 6 3 $ # # $ 3 6 6 6 6 6 6 3 3 : 3 9 c 9 # + + # $ 3 3 3 : 3 c F W W R G E G n c b D F G c 6 $ $ 6 S R R R D c 6 3 6 v B E E E R D c 3 $ 9 n R / W n 6 : $ 3 9 c c 9 6 3 + $ 9 B S b 6 3 6 9 n D D n h 9 6 9 n F E R D n 6 $ + @ $ 3 9 b c 9 6 3 6 n B n 6 9 c n n n n n D F R R R P P R W R S h 6 h n n c c n D S b 9 3 $ $ $ 3 : $ $ $ 3 6 6 6 n E ) 8X3X/ G b 9 6 6 6 9 9 9 6 3 6 6 6 c 9 6 6 c G W W D c 6 $ # $ 3 3 6 6 9 c n S S n c 6 6 9 9 h v c v 9 3 $ : 9 v n v n G E R S c 6 ",
"9 h D ! ! G n S ! ( _ ! D c 9 h S D n 6 $ $ : 6 9 h h h 6 3 : 6 9 b n n b h 6 $ + + : c S G W / / / R B h 6 3 $ 3 3 6 c c c c h 3 $ $ 3 9 D G G b h h n G F D B c 9 3 6 6 6 c P 9XyXeX_ E S h 9 9 9 6 3 3 6 6 9 9 h c c c 9 6 3 : 3 3 6 9 v S G E R F n h 6 3 $ $ $ $ : 3 6 9 h 9 h h h 9 9 6 6 6 : $ $ $ 3 9 v B C b 9 v P ! / W P c $ $ h B S n n E 0XeXqX_ R c 3 6 n B S S S G R ! ) _ / E F n h : +   + $ 6 6 6 6 6 6 6 6 6 3 : : 3 3 6 6 6 6 3 3 3 3 3 6 9 c v c h n G E R n h 6 3 : # # : 9 h c v c 9 6 6 9 h 9 6 6 6 6 6 6 6 c c 9 3 $ $ 9 9 6 3 3 : 3 3 6 6 6 6 9 6 6 6 h h 3 $ : 6 6 h 9 9 6 3 3 $ + + + $ 3 6 c S D n 9 3 6 c n D F B 6 $ $ 6 6 : $ : 3 6 9 9 9 6 6 h c v n n c 6 $ @ $ $ : : 3 3 3 6 3 6 6 3 3 9 h 9 6 6 6 6 3 6 6 6 3 3 6 6 6 v n v 6 : + X + $ 3 6 6 $ $ 6 6 9 h c 9 c R 8XeXeX8XW B 6 3 6 h S R E E E E W E F n c 3 @ + + + X @ 3 n D F G S c 3 6 9 b n b b n n b 9 6 9 v B R E D c 6 3 6 c n A v 3 # # 6 9 6 3 3 : 3 $ $ 3 6 6 9 6 9 6 6 6 9 9 6 3 : $ $ $ 6 6 3 # + $ 3 : : 3 $ 3 3 3 : $ - 3 6 3 3 3 6 v G W E n h v D P G D n 3 : 3 6 6 6 9 9 9 c 9 6 6 6 6 6 9 c c h c c h 6 3 3 3 6 v n B n h 6 : $ : 3 6 h n D W 3X3XW S c 6 3 $ : 6 b S D D n n n b 6 $ : 9 c c c c h 9 9 6 9 9 6 6 6 9 b G / ) ( ! F c 6 + + $ 9 n G P G B b 3 X X @ 3 9 6 6 6 3 3 $ # # $ $ $ $ $ 3 6 6 9 c n n n b v v n B n c n G W W G n 9 3 $ $ : 3 : $ $ : 3 6 6 9 9 6 3 3 3 $ 6 n G E W R S 6 +   @ 3 3 : $ $ 3 c R / ) ) _ ( / R n v b B B h 6 6 c n n b c : + # 6 c B D G R P F n c 6 $ 9 G _ ) ! F h $ $ n W W F S n c 9 6 c S W / G 3 @ 6 b S D S b 6 : 6 v b n n b 9 3 @ + + : 9 b B n 6 3 h S F D n h c v n B S S B v 9 9 9 v S R W W D c 9 9 9 9 h h 9 9 c v v c 9 9 9 9 9 6 6 6 6 6 6 6 h S R ( 5X_ R b 6 3 6 9 b n n v 9 9 3 3 6 6 3 $ : 3 3 6 6 6 : $ $ # 3 3 6 9 v S E ( ) _ W P P F S c 9 6 3 3 6 6 9 9 h c h 9 6 6 3 3 3 6 6 6 6 6 9 c c c 6 $ $ $ + # 6 c S R W ( _ ) ) ( W R F S n c b D W ^ W R G F D n v c c n D R P B 6 $ $ 3 3 $ $ # @ : 9 b B B G W _ ( G c 6 : $ : 6 6 6 6 6 $ $ # # 3 9 v n n n n n c 6 3 3 u c b v 6 : $ $ 3 9 b n v 6 $ @ + @ $ 3 9 n B n 9 6 6 h n R ( 3X) / E D v 9 9 9 9 h c c 9 3 $ # # $ $ 6 9 9 9 9 b n n n c 6 3 3 6 6 3 $ $ $ $ 6 9 c n n n h 3 3 9 9 9 6 3 $ 3 9 B D R E F n 6 3 6 6 3 3 $ : 3 6 6 6 3 $ 3 c D R W / / / W S h 6 6 6 6 3 3 6 9 6 c c b B n 9 3 : $ $ : 3 3 6 6 6 3 3 3 6 9 c n S G F S 9 3 : 3 : 3 3 3 6 6 9 9 h 9 6 : $ 6 S E E D v 6 $ @ @ $ $ # $ $ : 3 3 3 $ @ @ + # 9 W 0X0X/ R c @ + $ 6 6 h 7 3 : 6 v C S ",
": 9 G ) 8X_ E G D D D G n 9 3 6 n n n v 9 3 $ 3 9 c v v h 3 $ $ 6 h h 6 9 9 6 3 $ $ 6 9 n S S b 6 $ # $ 3 : : 3 : 3 : : : : $ # + # $ 3 6 c v 9 3 $ 3 h c h h c 9 c D W ! R D B B n b n S P E R D S S S S n h 6 : $ $ $ 3 6 9 n F G S 9 6 v B S S B v 6 6 9 9 6 : 3 c D E / / R h 6 n W E B h 3 3 3 3 3 6 3 3 6 6 6 6 6 6 c B B D n c 3 # @ $ $ 3 6 b D D c 3 3 : 3 3 3 6 c n n h 9 9 9 9 v n n n c v b c 6 6 6 9 c S G G B c 6 9 9 6 6 3 6 6 6 9 9 6 3 6 9 c c c v n S D D C b 9 6 9 b B n v h 6 $ : 6 c n S F G G S b 9 3 $ $ $ 3 3 3 6 c v b n S b 6 3 : : 3 6 9 9 9 9 9 9 9 9 9 6 6 v F W / E P S b 9 : @ # # : 6 9 9 c c 9 # + + $ : 3 3 3 6 3 $ $ 3 : $ $ # @ + + 3 c n D S S n b v b b v 6 6 h v v v c 6 6 3 3 6 3 $ $ $ 3 6 h 9 h h 9 3 $ 3 6 c D / 7X) W G 9 + X # : 3 3 6 : @ 3 n R E P R W ) _ E S n c c 9 9 c n n B B n h 3 3 9 c n c v c 9 6 3 3 3 9 9 B R P D B 9 3 3 n ! ( W G S n b n b n G G n 6 $ $ 6 6 6 6 3 # $ 9 n b 9 6 $ 3 : $ @ # 6 c b n v 9 6 9 n D D n c 6 3 3 6 9 c 9 9 6 # + : 9 h v c 9 $ # 3 6 9 h 6 3 : 6 n G G B b n B B b l 9 3 3 : 6 c B G F S n 9 $ @ # : 6 c b B S n c 6 3 $ : 3 3 : # @ @ # # @ @ # # # : 6 b P / 7X3X( / W P D B n n n b c b n S S v 9 6 9 h c h h h 9 6 6 6 6 6 9 6 6 6 3 3 6 c c 6 3 3 9 b G W _ _ / / R G n h 6 9 c v n n n v v b c 9 6 6 9 n S D B b 6 3 : 3 3 3 : : $ 3 c S G R W ) qX9XW c # $ 3 6 6 9 6 : # $ 3 3 9 c b v c c 9 3 $ @ $ : $ : 3 : 3 3 $ # : 9 n D S n n c 6 3 6 6 h n D G D c $ $ 6 n P / ) / P S c h h b B D G D S n 6 $ # 6 b n D D v 3 $ 3 6 3 : $ $ $ $ $ : 6 6 3 3 6 6 v n n n b 9 3 3 h n B F F S c 6 9 h 9 6 3 6 9 6 $ # # 6 9 h c h 6 6 6 9 h c n G W / ! F B B S S n c c 9 l b n C S S S D B h 3 # + @ $ 3 3 3 : : 6 9 v D G W ! W G v 6 6 6 6 6 6 6 6 6 9 6 9 c 9 : $ 6 D E ) 7XW n $ + + $ 3 3 3 $ $ 3 6 9 6 : # + @ 3 c S W ) ( S 3 # 3 6 v n n c 6 $ $ $ $ 3 3 3 6 c D F P D c 6 6 3 3 3 3 3 6 c S G E W E G S D F G G F R E R E R P G D n v c 9 9 6 3 3 3 3 3 6 6 3 3 3 1 : 1 6 6 6 c c c c c 9 6 3 4 6 5 6 6 3 $ $ $ : : : # @ $ 6 v n n v v c n G ( ) E h $ @ @ # $ : @ + + + @ : 3 9 h c v n n v 6 6 9 n G / _ / P B c h 9 6 6 6 6 6 6 3 6 n D G S n 6 $ # @ $ 6 c S W ( 3X) W G c 6 6 9 h 9 9 c S G D B c 3 $ $ 6 9 9 6 6 6 9 n E ! E S b h 6 6 6 6 6 6 6 3 : 3 6 6 3 # # 3 c n B D G P G G S n c 9 6 3 : $ $ $ : 3 c B F W ! R n h 6 9 9 9 6 6 3 : $ # $ 6 n D E W P b 6 : @ @ $ 3 6 9 6 3 : $ : 3 6 9 6 : # # + $ 3 3 6 6 3 6 3 3 3 3 6 9 c h 6 3 3 3 3 6 6 6 6 6 3 : $ $ : 6 6 6 6 9 v D R W ",
"@ # 3 9 9 6 : 3 # # $ $ : $ # + # $ $ : 6 c n D B n c 9 6 6 3 3 # @ # 6 6 6 6 6 9 6 6 3 $ $ : 3 6 9 9 9 6 6 6 3 : 6 n F R W R S 6 # + + + 3 9 6 $ # : 9 v n n S E / 0XrXeX( D c h h h h n P ! ! R F D D S c 6 $ # @ + @ $ $ 3 c S D D S v 6 : 3 9 b P / W D c 9 n n S D B n c 3 : + : c c 6 $ # 3 6 6 6 6 : $ $ $ $ 3 6 6 c n b 6 3 3 6 c b v 9 $ + @ 3 6 3 $ $ $ $ $ @ @ $ $ # # # $ : 3 6 6 3 # : c F E E P G S S G R G v 6 3 $ 3 9 h c b c 6 6 6 3 3 3 6 9 c v b v 9 3 : : : 3 6 h v 9 6 3 3 $ 3 : $ $ + $ n / 8X9X) W R S h 9 6 h n S n S G G D b 6 3 3 9 c n b c 9 6 6 6 9 9 9 6 3 6 6 c n E W E D c : + + 9 n P W / W F B 6 $ # 3 6 6 6 6 3 9 6 3 $ : 3 3 3 6 9 c c 6 6 6 9 c c c c c h 9 c v S G W ( / E b 6 : 3 3 3 3 3 3 : : 3 6 6 6 h c 9 6 3 3 3 9 c b h 6 # + + # 3 3 : $ : 9 D E W W E P P D n b n R P n 3 @ $ c S G P S c 6 6 6 9 n D R W W P n c $ 3 v P ! / W D 6 $ 3 c n b c 9 6 3 : 3 9 B G S 9 3 6 b D P G n 6 3 6 n F R E R n h 3 # @ # 3 6 n n 9 $ 3 v S S n v c c b n n b n n B S D D P E / W R B c 9 h c v n n B n B n c 6 : : 3 3 : : $ : 3 3 6 9 B E / 9X8X! S c 6 6 9 b v c 9 6 3 6 6 c c 9 3 6 n G G S B c 3 $ $ 3 6 6 9 9 h v B D D n n v c c c c c c h 3 # : 9 v n n n h 6 : : 3 3 3 6 6 6 h n S n c 6 $ $ : 3 9 c c S E ( ) ( W R D n S P F n n D _ ) ( E G G S n v c b n n n v h 3 : 3 3 3 3 3 $ 3 3 9 b n B D F F G n 6 $ $ 3 3 6 6 6 3 : : : $ $ $ 6 c n n n n n c c b n S D n 6 3 $ $ 3 3 : $ 3 $ $ $ $ $ 3 6 c b n S n 9 6 v E _ 7X8X7X/ R D n b c 9 9 9 6 6 : $ 3 9 9 6 3 : : 3 3 6 n R / / E G n 9 6 6 6 3 6 9 h c b D G D c 6 6 6 6 6 6 6 + # 6 n R / _ / D b 9 9 h c c h # $ 3 6 6 3 $ $ $ 6 n R ! / W R F S n b h 3 : : , , , 3 3 6 h b n B n c h 9 9 9 6 6 6 6 6 3 : 3 # 6 n G R R G B 3 $ @ $ 3 6 6 9 6 6 6 6 6 3 6 6 6 6 6 6 6 3 : $ 6 3 : $ 3 3 6 6 9 9 6 6 3 3 3 9 n D G P G v 3 # @ @ 3 9 h 9 9 9 3 3 3 3 6 6 9 h v c 9 6 6 n n c 9 3 $ $ $ $ 6 v G F D n n S D D B n c 9 b G W W G B h 3 3 6 6 3 : : : 3 6 6 9 9 c 9 6 3 3 6 v n b n n v c h 9 9 6 6 6 6 6 6 6 6 6 : $ $ $ $ $ 3 6 6 3 # $ 6 c n G D n 3 @ + + @ $ : : : 3 3 : : 6 3 6 6 6 3 3 3 3 3 9 h 9 9 6 3 3 3 3 : 3 9 9 6 6 3 $ $ 3 c n n n B n c 9 h c c c 9 6 3 9 S R W D n c 9 6 3 3 9 B D S b 9 3 $ $ : 6 6 6 6 6 6 6 6 9 6 3 3 3 6 6 6 9 9 9 6 3 # @ $ 3 3 : $ $ # @ : : $ $ $ 3 6 6 6 6 : $ $ 3 3 6 3 3 9 n S P P S 6 : 6 c b c h 9 9 9 9 6 6 9 h c n n 9 $ @ @ @ # @ $ 3 6 6 6 3 3 6 3 3 6 3 $ 6 n / ) _ R n 6 $ $ 9 c c 9 6 h c c 6 3 : $ $ : 3 6 : 3 : : 3 3 : $ $ $ 6 9 c 9 9 9 ",
".   + $ 3 6 6 3 3 3 : $ $ : 3 : + # $ 3 9 c v n B B n b b b b n b n D R R D c 3 6 : : 3 3 : 3 3 3 6 6 6 9 h 9 6 3 : 9 n D W / W S 6 # + + # 6 3 # @ 3 c D E / ) ) / W P S B n n b c 9 6 6 c n n 9 6 $ $ 3 h B G D G F F S h 3 3 6 n W 7X) G 6 @ 9 v D E E G b 9 9 9 n F P G S c : 3 h S D n h 6 6 6 h v n b 9 6 3 @ + + 3 c n n 9 6 6 c B G G S v h c B D S n n h h 9 6 c S R W S n h 6 9 c n n 6 3 6 h c c h 9 c 9 9 h 9 3 : 3 6 9 h v D ! ) ) D b 6 3 3 6 c n n B n c 6 6 3 $ 3 3 3 3 3 6 6 3 3 $ @ $ 6 6 6 9 v D W ( ) _ / W R D B v 9 6 6 3 9 9 9 9 h h 9 6 9 6 6 6 6 6 6 6 3 6 h v c 6 $ $ $ $ $ 3 6 v D R ! ( 3X7X) ! R F G D n c b G E W W W R G D b h h n D P R D c : $ $ $ : : $ $ 3 6 n B S G W ) 7X_ S h : $ : 3 6 6 6 3 $ $ $ $ 3 9 c n n c c v v h : 3 9 n B v 6 3 $ $ 6 h b b v c : $ # $ $ 6 c n S S b 6 3 9 n G / 3X7X_ W G n c 9 c b b v h 6 6 3 # + # 3 9 c v 9 9 c n n h 6 3 3 3 3 6 6 : $ # : 6 c n n b h 9 9 6 6 9 h h h h 6 h B P R D v 9 6 6 6 6 6 3 3 : 6 6 3 3 : 3 9 v D E / ( / R n h 9 6 6 6 6 6 6 6 9 c n n n n c 9 3 $ $ 3 3 3 6 6 3 6 6 9 9 h b B D G D n 9 3 $ 3 $ 3 6 6 9 9 h c c h 6 # : b F R W G c $ + # $ : $ $ $ $ : 6 6 3 $ + + + 6 S / 7X9X3XF 3 X + 3 9 9 6 6 6 3 $ $ : # : 3 6 b G R R v 9 6 9 6 : # @ : 3 6 h n F R P n n n S D S S D n S R W E G B n c 9 6 6 3 $ $ $ 6 6 6 6 6 6 6 : $ : 6 c v c h 9 c c h 9 9 6 6 6 9 9 6 3 3 : $ $ @ $ $ $ 6 c b c $ $ h D E W R D 3 + + # 3 $ $ $ + + @ $ 6 6 9 c b b n n 9 3 3 6 h n S S n v 9 6 9 6 9 h 9 6 3 3 9 b D R G A h 3 3 3 3 6 6 9 b S W / ! W G c 6 3 6 9 h h v S D B 9 : # : 6 6 9 9 9 6 h n S A n c c 9 6 6 6 9 9 6 6 3 : 3 3 3 : : : $ $ $ 6 9 v n n n n b c 9 6 6 6 3 3 6 3 3 9 n W ! W D n v h 9 h h h 9 6 6 3 $ : 6 v S G D n c 3 $ + @ $ 3 3 3 6 6 6 3 3 6 6 6 6 3 6 9 c n n c 6 6 6 6 6 6 6 6 6 9 h c c 6 $ @ # : 3 3 3 3 3 6 $ $ 3 6 9 9 6 6 $ : 3 6 h n S S 6 6 : 3 v R / W n 6 $ $ $ $ 3 9 b b c h c n D D b c 3 X + : 6 6 3 : $ : 6 h c h 6 3 3 3 3 3 6 9 b n n b 9 3 3 6 B S n c 6 6 9 h c v m n n v v c n B n c 9 h 9 6 $ 3 3 3 6 6 6 6 # @ $ 3 3 : $ @ X # 6 c n D D n 3 # @ : 3 6 9 9 6 3 6 9 6 3 3 3 $ $ : 3 3 6 6 9 9 u c 9 6 3 $ $ c m v c c v v n n c 6 3 3 9 n B S n n v h 6 6 9 c c 6 : : 3 6 9 6 9 9 6 6 3 6 9 c c v c h h 9 9 9 9 6 3 3 3 3 6 : : : : 3 6 6 6 $ # @ # 3 9 c v 9 3 $ @ @ $ : 3 6 3 : $ # : 6 3 6 3 6 c c 9 6 6 : 3 9 c n D D B c 6 3 : $ : : $ $ $ # # $ : 3 6 6 6 6 6 3 # : 9 G E P B c 9 h v F R G B b v c 9 6 3 3 3 3 6 6 6 6 6 3 : : $ : 6 6 9 9 6 c S R E ",
"9 9 6 6 9 b n n n c 9 9 6 3 6 9 n B S n b 9 3 : 3 6 6 6 6 6 6 9 n D W ) 7X8X_ W 9 $ @ : 6 6 3 : : $ # $ 6 h v b c 6 6 3 $ $ 3 $ : $ 3 6 6 6 3 $ # 3 c S G D B n c c 9 9 9 n D F D n 7 $ $ c G P / W P S v h c v S G P P G b 6 : 3 6 n G G B h 6 $ 3 6 3 $ $ $ $ $ $ 3 6 6 3 6 6 9 c n D D n 9 6 6 9 b D P G D S 9 6 6 6 6 6 6 6 6 3 : 3 6 h b n 6 6 6 h c c n B E W W R G D S B D B c 9 9 b A S n n S G S v 6 $ # $ $ $ 3 6 6 3 3 6 c n F W / / R D c 6 3 3 6 6 9 6 6 3 6 h h 6 3 3 6 v G ) 8X( b $ + $ $ 3 6 3 3 $ 3 h c 6 3 3 $ $ 3 6 b E / W h 3 $ 3 9 b S B 6 3 $ # $ : 3 6 6 9 b D P D n b h 6 $ $ 3 6 6 c S P W W W P S S D R R D G E W W W E P R G B c h 9 9 6 6 6 6 6 6 6 6 6 3 $ $ : 6 6 h v c c n n c 9 3 3 3 6 6 6 6 3 6 3 : $ $ : 3 : 6 9 n S b h c B F W / W n 3 + $ $ $ $ # + X X $ : 6 6 h v n n B n 9 : 6 B E / / / R S v c h 9 9 9 9 6 6 6 9 b S F S 9 3 $ $ # $ 6 b P / ) ) ( R S 9 $ 3 6 c n c b S P F c 3 3 $ 6 9 9 6 3 3 6 S D R W W G b h 9 6 9 c 9 3 $ 3 : 3 6 3 : $ 3 9 A F R E E E R F S n 9 6 3 3 3 3 : 3 6 9 n G E R G n b b h 9 9 6 9 3 $ # # : 9 b G W W F n 6 @ + $ 3 6 6 6 6 6 3 3 6 6 9 6 3 : $ $ $ # $ 3 6 6 6 6 6 6 6 6 9 9 h 9 6 6 6 3 6 6 6 3 6 6 3 : $ : 6 c c v b c 6 3 3 h c b n c 6 : $ 3 9 S R P n 3 # # $ : 6 c S S n 6 6 c D G n 6 : 3 3 c G G c 3 : 3 3 6 6 : $ $ # : 3 9 h c n n c 3 3 6 h n B S S b c h h 9 6 3 6 6 9 h 9 6 6 6 3 6 3 3 3 3 3 3 3 3 3 6 9 9 9 6 3 3 # + + + + + : 9 n n h 9 3 $ $ $ 3 3 $ 3 3 3 3 9 6 1 $ $ $ $ 3 3 : 3 6 6 3 3 3 3 3 3 3 6 v S S 6 6 n R R n 6 3 $ 6 n G G S c h 9 6 9 c b n B n 6 3 : : 6 9 9 6 6 3 3 6 6 9 9 h 3 6 9 h x c h 9 3 3 3 3 6 3 3 $ : : 3 3 : # @ @ + $ 3 6 6 3 : $ @ $ 3 6 6 : : 6 c b h 3 : 6 9 c c v c 6 6 9 c c b v b n v 9 3 : $ $ # # # $ $ 3 3 3 3 3 3 6 6 3 $ 3 b G / 7X8X( c 3 3 c S D D D v c 9 9 6 3 3 3 3 6 3 3 6 3 3 3 6 6 : $ # : 3 3 3 3 $ $ $ 6 9 9 c 9 6 6 6 6 6 3 : : 3 9 9 6 : $ 3 c D W / / / / _ / R v 3 @ X + + # $ $ 3 c n S n b h 6 6 3 : : $ 3 6 h h 6 3 3 6 9 6 6 3 3 6 h n S P W ! ! W E W W / ) ! S 6 : 3 : $ : 6 c v c 6 : 3 9 9 6 6 3 6 3 3 : : 6 6 $ + + # 9 D ( 8X7XP n b S B 9 : : 6 6 6 9 h c n D W E G n c c n D G H D S v 6 $ $ 3 6 v D F G G S c c 9 6 6 6 9 c n F W ) ) W G n n h 6 9 h 9 6 6 9 6 9 9 9 9 9 9 c v c c c 9 6 : 6 6 3 3 6 6 6 6 6 3 3 6 6 9 9 6 6 3 3 $ : 3 3 6 3 3 3 3 $ $ 3 3 $ $ 3 9 h v n n B D P R E E G n 3 @ + $ $ $ $ # # $ $ : 3 3 3 3 6 9 9 9 6 3 # @ @ $ : $ : $ # $ $ 3 6 3 6 6 6 6 3 3 3 6 9 h h 9 c c c c 6 $ # 6 S R R G F W / / ",
"P F S n D W ) 7XW R G F S b h h B S S n c 6 3 3 3 3 : $ : 3 6 9 v b D R R F S v 6 : $ 3 6 9 9 6 $ $ $ $ $ $ 3 6 c b n S B c 6 9 c S D S B 9 # @ 6 6 6 6 6 3 : $ # $ : 3 9 b S S n c 6 6 n W 8XqX/ ! E G S v c h c v h 6 6 6 6 6 3 6 3 : $ $ 3 6 S G E / W D v 9 9 6 6 6 3 3 9 c n S D S n h 3 6 6 6 3 $ @ # 3 h R ! ( / R n 9 6 h 9 9 6 $ $ : 3 3 3 : : 6 c D E ! / / W F B c 6 6 3 3 : $ 3 6 6 9 9 v n B n c 9 6 9 9 6 9 9 6 3 3 : : 3 6 b D F W E D c : # $ : 3 6 6 6 6 6 9 6 4 3 3 3 6 c b c 9 # $ 9 3 $ : : 6 6 6 6 9 9 6 3 $ $ 9 S P W E G c 3 $ $ : 6 9 6 c h 9 6 3 $ $ $ 6 9 c n n b c c c c h 6 : # @ $ $ 6 b S S n b n S D S n b c v S R W E D n c 6 3 6 6 3 3 3 3 3 3 9 9 h c 9 6 3 : v b n n b b n b c 9 6 6 3 3 6 9 9 6 3 $ # $ $ $ : 3 6 9 9 $ $ 6 v n D D n 9 : @ # # $ # # $ 3 6 3 3 3 6 6 9 9 6 6 6 6 3 3 6 6 h 9 6 6 3 6 6 6 6 9 9 6 6 6 6 6 9 n B n n n h 9 c n n h 6 3 9 n D E W G c 6 9 9 6 9 9 n G G b : # $ 3 6 9 9 6 6 6 9 9 9 9 6 3 3 6 6 9 h h 9 6 3 : 3 3 3 3 3 3 $ $ @ @ # : 3 3 3 6 6 9 9 6 : : 3 3 6 6 6 6 b G W E B c 6 9 9 c n b h 9 9 c h 6 6 c b n b h 6 3 # # # $ $ 3 3 6 6 6 6 3 : 3 3 3 6 v D R / / R v : $ 6 9 h 9 9 h c c 9 6 3 : $ $ : $ 6 6 3 3 3 3 : 3 # $ 6 6 6 : $ $ 3 6 v B n c 6 6 c b S D n 6 $ + # 3 6 3 3 9 v n S G P R R G n h # + + $ 3 : $ $ 3 6 c n n b c 6 6 6 6 3 6 h v c h 9 9 6 9 h c c 6 6 6 6 c n S F F G S B D E W W B n c h 6 3 : 3 9 9 c c 9 6 3 3 6 6 6 3 $ # $ 6 n S B c 6 @ + : v D D n n n c v 9 6 6 3 : : 3 : 3 9 b n S G G B 9 3 3 c n n n n c 9 9 v v 6 3 6 S F S c h b b v 6 6 6 6 6 9 9 9 n b v c c c c 9 3 3 6 h c b b c c 9 9 9 9 9 9 9 6 6 3 3 3 3 6 6 6 6 6 6 6 $ $ $ c b n b c 9 3 $ $ : 3 6 6 6 3 3 : 3 3 : 3 6 9 h b v h 6 3 6 c n S S B n 9 3 $ @ $ $ $ $ $ # $ $ : 3 6 6 9 h h 9 6 : 3 6 3 9 9 6 3 : 6 b n b v c c c c c 9 3 : : 6 6 6 6 6 9 9 6 $ $ 6 c b n n n B S D D n h 3 $ $ $ 3 6 6 6 9 9 c v n n 9 $ + X 3 9 B P P S n B R R D v 6 $ # $ $ : : $ : 3 9 9 v c 6 3 3 9 h 9 3 : $ $ 3 6 6 6 6 6 9 9 9 6 6 9 n B D G R R G G 6 3 9 n S b 9 6 6 3 3 3 6 6 6 6 3 $ : 3 3 3 6 6 9 6 6 3 $ : : + + + @ 3 n W ) ( n 6 : 6 9 9 c n S D S c 9 9 6 9 9 c 9 6 9 9 9 9 3 3 6 6 6 3 $ $ 6 3 3 6 6 6 9 9 h c c n S F R E ! / 7X0X) P c 3 # # : 6 h h 9 9 : $ : 6 6 9 c b n B n v n n n b 6 3 3 3 6 6 3 3 3 3 6 6 3 : $ # $ 3 3 6 6 6 6 6 3 : $ : 6 6 9 6 h 6 3 $ : v F E / _ / W E R G S v 9 6 9 6 6 6 6 6 6 6 6 6 3 : $ $ $ $ $ $ $ @ @ # : 3 3 3 $ $ 6 n n S S n c 6 : $ : 6 c n S D G G G G G S 9 3 6 n S D D D D G F ",
"G P R G F P R R W W R D n v c h 6 6 3 : 3 3 6 9 6 6 3 3 $ $ 3 5 9 c c 9 9 c c c 9 6 6 6 6 6 6 3 3 3 3 $ # $ $ $ 3 9 9 h c 6 3 c E / E B c : + @ # # # + + + + + 3 6 9 h v n B n 9 7 7 9 c n S C S n l 6 7 9 9 9 9 9 6 3 6 n D G F S v 6 : $ : 6 6 c n G W / W R B v 9 6 6 9 h c B D D n c 6 $ $ 6 9 h h 9 9 c n G G B c 6 6 6 9 9 9 9 6 3 3 3 : 6 3 : $ # $ 3 6 9 c n n n n n b h 9 9 6 6 6 6 6 3 6 b G W W W R v c h c c h 9 9 6 3 3 6 6 c B G F D v 3 + + # $ 3 6 6 6 6 3 3 $ 6 6 5 6 6 : 3 6 h v h 6 6 6 6 6 6 9 h 9 9 c c c 6 : $ 3 : : 3 : 3 : $ : : 3 6 9 h h 9 6 : 3 9 b n B n 9 : : 6 v E W P c 3 $ $ # 3 6 c b b h 9 9 n B B n 9 $ + + 6 h 9 3 $ $ : 6 9 c 9 3 $ : 3 6 6 9 c b b c 9 9 6 9 n D D n v 9 6 6 h c c v c 9 v c v n n v h 9 9 9 6 3 3 6 6 9 6 6 3 $ $ 3 3 : $ # + + 3 b G R D n 6 $ @ : 6 6 3 6 6 6 9 9 6 6 : : $ $ : : 3 6 3 6 9 h h 6 3 6 $ 3 9 B S v 9 v S D n 9 $ $ 6 9 v n S n c 9 9 9 9 h h 9 6 3 3 3 6 6 6 9 9 6 3 3 6 9 c v c c 9 9 h h h 9 6 6 6 6 6 3 3 3 3 3 6 6 9 6 $ @ # : 6 c v v 6 $ + + # $ 3 6 3 # % - 6 3 $ $ 6 c n b h 6 3 3 6 h b n B B n c 6 : $ # $ $ $ $ $ : 3 3 6 6 9 9 9 6 6 3 3 6 S G W W G c 3 3 S G R D B B n h 9 6 3 3 3 6 9 6 3 6 3 : : 3 3 6 6 6 9 6 6 6 6 6 6 6 3 3 3 3 3 3 3 3 3 6 6 9 v n n b 6 + + 6 n F E / / ! / 7X3X! n 9 $ @ @ + @ # $ 3 9 n n n v 9 3 $ # # # : 6 6 3 6 6 6 6 6 6 6 6 6 6 6 h n S F / ) / P B S P E ! E S 6 # $ 3 3 6 6 6 6 6 6 6 3 6 6 9 9 9 6 6 6 $ $ # # + . X 3 D / 9XeX8XR c h b b c 6 6 c n v 9 9 v S G G G S v c b B S n n v 9 9 6 : $ $ 8 c n G G n h 9 9 9 v b b n P 7XyXuXrX7XE n 6 : 6 9 n v h 6 3 6 9 9 6 6 c B S B n n n b h 6 3 6 6 9 6 6 6 6 6 6 6 6 3 3 : $ $ 3 3 3 3 3 : : 3 3 3 3 : $ # $ : $ $ 3 3 h D / ( W P R ( / P c $ $ : $ 3 3 3 6 6 3 : $ : : 3 3 6 3 3 6 3 $ @ + + + $ $ 6 6 6 $ + $ 6 6 9 6 3 3 3 3 9 c B S B c c n n 9 # + 6 S P F G R / / ( / G b 3 # $ 3 h n G W ! E B c 6 6 6 $ $ : $ : 6 9 6 +   X + $ : $ 6 h h 9 6 : # @ # : 6 6 3 6 6 6 c D R E S b 6 3 3 6 9 9 6 6 6 6 6 3 3 6 6 6 6 3 : : $ # 3 3 $ @ # 3 6 6 6 9 c c 9 6 3 3 6 6 9 c v S F G S n 6 $ @ 6 c b v h 3 @ + + $ 6 G F S c 9 9 h v v b 9 3 $ # $ 3 9 v c 6 3 $ + + + $ $ $ 3 6 6 6 : $ $ $ $ 3 6 3 6 6 9 c v b v c 3 @ + @ + + @ # 6 h c 9 3 : 3 3 h c c c v c v b n b 9 3 3 6 9 9 6 6 3 3 3 3 3 3 3 6 6 9 9 6 6 6 3 3 3 3 3 6 h h 6 6 3 3 h S R W W P n 3 # 6 c n B B n 9 9 h v b B n n b c 9 6 6 c c 9 6 3 : $ : $ # $ : : # $ 6 c n n n b 9 6 9 n G W / E B 9 3 6 6 6 3 6 c D E _ 7X7X/ P n 9 3 6 9 c v n S F P ",
"W R n 6 $ : 9 v D G B 6 $ $ 3 : 6 6 : $ 3 6 6 6 c v n n c 6 3 5 v S D n n n v 9 6 6 3 6 6 9 h 9 6 6 3 : 3 6 6 6 6 6 6 3 3 : : 6 6 9 6 3 3 $ $ $ + + # $ 6 c m v 6 3 $ : 3 6 6 6 6 , 3 6 7 6 6 6 , : : , 3 6 7 6 3 6 3 : 3 6 9 c c c c v n b b n n n x $ $ h S D D S n h 6 6 9 v n n n c 9 3 : : 6 6 6 6 6 6 3 3 9 h 9 6 9 h 9 9 c h 9 6 6 3 3 $ 6 6 3 : : 3 3 : 3 $ + + + $ 3 6 3 : : 3 3 3 6 3 3 3 6 c v v c 9 6 6 9 v n c 9 9 c h 9 h c b n n h 6 3 $ $ $ $ # $ $ $ 3 3 6 6 9 6 3 $ $ 6 h S ! eXrX( c : 6 c n G D S b h 9 9 9 3 3 3 3 3 6 6 6 3 6 6 6 3 : : 3 6 6 6 3 $ # # # 6 9 c c 9 6 6 6 h c 9 3 3 6 6 3 3 : : 6 v F ! ( / / ( / E S h 3 + X X @ $ $ 3 c n S S n h 6 3 3 3 3 6 6 6 6 9 9 3 3 6 6 6 6 3 $ 6 9 c n F W / / G P E ! ( / W P c 3 # 3 6 3 6 9 9 h 9 6 : 3 9 h 6 6 3 : : 3 3 : 6 : + X # c F W / / E S n n n c 6 3 3 6 6 6 6 h S G E E F b 9 9 B P R D S S b 9 6 3 : 6 c F E E S c 9 c c 9 6 6 6 h B R W / W R D n n b c c 9 6 6 6 6 9 9 9 9 h 9 h c n b h 6 6 6 6 6 6 6 6 6 9 9 9 6 3 3 9 c c 6 6 6 6 6 4 3 $ 6 6 6 3 $ $ $ $ 3 6 6 6 6 9 c n n S S S G E E G c 3 $ $ $ $ 3 : : $ # # $ 3 6 6 3 6 9 9 9 3 $ # $ $ $ : : $ # : $ 3 6 3 3 9 h 9 6 3 6 6 6 9 9 9 c v v c 6 $ # : S D D S D W / ( W G n 6 $ $ 3 6 c b n b v c 9 9 6 : + X + 6 v n n c 6 3 3 6 6 6 3 $ $ 3 6 : $ : # # : 6 9 9 9 9 v v B G S v 6 : 3 3 3 6 6 3 3 3 9 9 9 6 9 c b n v c 9 6 6 6 3 # 3 3 6 9 9 6 6 6 6 6 6 6 6 6 6 6 9 h c v c 9 3 $ 3 $ : 6 6 $ # 3 9 c n n c 6 $ # 6 9 v n S G G S 9 $ @ 3 6 : : 3 6 6 6 : # $ : $ 3 3 3 3 3 3 : $ 6 6 3 6 h h c b n B D S S S S n c 9 3 : # # $ $ 3 6 6 6 6 6 6 6 6 9 n D S b h 9 b n v c 9 6 3 3 : : 3 3 6 6 6 6 9 6 3 $ $ : 6 6 6 6 6 6 6 3 3 3 9 c B F G n 9 3 3 6 n P E D n B b n B n v b v h 6 6 6 9 9 9 9 6 6 6 3 3 : $ $ $ @ # $ 3 6 9 9 h 6 3 3 6 n W ) / S c 6 6 : 3 6 6 b n D R W ) ) / D c 6 6 6 6 h n P F B l 6 3 3 , + 3 c G / 7X3X/ S c 3 3 6 6 3 3 3 3 $ # # # $ $ 3 6 c S E ( 7X) / R B c 9 6 9 c D D S b v n S B n c 9 6 9 h b n B n c 6 : $ # # + + + + # : 3 3 $ # 3 6 9 6 h n G W W R D n 9 6 h l h 9 9 h c b S S n c b S R ! / / P n 6 + + 6 F / 7X) W F v 6 $ # + @ $ # $ c G E R S b 6 $ 3 9 v n v c 9 6 3 3 3 6 6 h n S S 9 9 6 6 6 6 6 3 3 6 c S G R E G B v h 9 6 6 6 6 6 9 9 6 6 3 3 6 6 h c 9 6 6 3 $ 6 6 6 3 : 3 3 3 6 6 9 9 6 6 3 6 6 6 6 3 6 c n S D S v 3 # @ # $ $ : 3 6 6 6 6 6 6 6 6 3 6 9 h h v v c 9 9 6 6 6 3 3 6 6 6 3 3 : # # $ $ $ @ $ 6 v n c 6 : $ @ # + + + # $ 3 6 9 6 6 3 : : 3 h n F P S 9 3 6 c v n n h 6 6 c B D ",
"R G S b 9 : @ + $ : $ # : 9 b b b b c 9 6 6 6 6 6 6 u n n 9 6 4 6 9 c c c 5 3 6 9 h n S S S S S D G R W E n 9 6 9 9 6 6 6 h c c 6 4 6 6 6 6 6 3 $ # # 3 9 n S n 9 3 # # 3 c n B b c c v l 6 , $ 3 3 3 , , 3 9 c D S B b h 6 3 6 v B B n v c h h 9 9 9 h v n S S n n c h h 9 6 6 3 6 9 c c c c c c c h 6 6 6 6 9 c n b 9 9 9 9 h 9 9 9 9 6 6 6 6 3 6 6 3 6 9 9 6 $ $ : 8 c n n n 9 6 $ $ $ 3 6 6 3 3 3 3 : $ : : 6 6 9 h h 9 9 6 6 6 c n S S n c 6 $ # $ $ $ : 3 # # $ 6 6 6 6 4 4 9 6 3 6 3 3 9 v v h 6 3 h n B S B b h 9 c c h 6 6 3 6 6 6 6 9 6 6 3 $ : 6 9 c v v b n S D S n 6 3 # $ 3 6 3 6 3 6 9 c n n v c : @ # 3 h C I I D S P ! W G c 3 $ $ # : 3 $ $ : 6 6 9 h 9 6 3 6 9 9 6 $ $ $ 3 6 6 6 6 6 6 9 h h 9 9 c v n G E E R G b 6 9 n D S c 6 3 6 3 6 9 6 9 6 6 3 3 6 3 3 6 8 9 6 6 3 : : # @ + X + 6 S E 3X_ G 6 # 6 c v h c n D D b 6 6 9 9 c c v h 9 c c 9 9 9 9 6 6 6 3 : 3 6 6 h v h c 9 c c c B G G F G / 9X9X7X! F h : # $ 3 h b c 6 3 3 6 6 6 6 9 n S n v v B S B c 9 6 6 6 6 6 3 6 6 6 6 6 6 3 3 $ # $ 3 6 3 3 6 6 3 3 6 4 3 6 6 6 h 6 $ $ : 9 S W ) ( R G W ! R B 9 6 9 6 6 6 3 6 6 6 6 6 6 6 6 : $ $ 3 3 $ $ $ + @ # $ : : : 3 6 6 v S S c 6 3 3 : 3 6 c n G G S S D R G 9 $ 3 9 n S B D R E R B c 6 3 : : 9 n E / 7X3X! F b 6 6 6 3 : : 3 3 3 $ $ # + + $ 6 h n D P P G S v 6 3 : 6 9 c c v c 9 c S R P n 9 6 6 6 c n n v h 9 3 3 $ @ # # # $ # $ $ : : $ 3 6 3 6 9 9 c S F G n b 9 3 3 6 9 c v n D P P D n v 6 9 b S G D n 6 +   @ 9 S / 7X( P n 9 6 6 3 $ @ + @ 3 9 n G P D 9 $ + + $ 3 6 9 c c c h 6 # + # : 6 9 9 9 6 6 9 9 9 6 6 3 : : 3 6 6 6 6 9 n S n 6 3 : 6 9 b n n v 9 9 9 9 9 9 6 6 9 9 9 9 6 6 6 3 3 3 3 6 9 9 9 h 9 6 6 : $ $ : 6 h b B n 9 3 3 3 9 b S S n 9 6 : : 6 c b v h 9 6 6 h n B n b v h h 9 h h 9 6 6 6 3 : $ $ $ $ # # $ : 6 c n n n n c 6 : $ c S n c 6 6 9 9 9 6 6 3 6 B E ! R S v 9 6 6 9 v S G R P P C l 9 h h 6 3 $ $ 3 6 9 c c h 9 3 @ @ $ 3 3 $ 6 v D W ( ( ! F n 9 9 6 6 h c h v S R G n 9 6 9 9 9 6 6 6 6 6 9 h b n v 6 3 3 9 c 9 3 3 6 9 9 9 9 6 6 h b n B n 9 $ @ + + 3 c F P S 6 6 c D E ^ ( ( W P b 6 : $ 6 6 9 b S P ! 7X0X) E n 3 + : n G E E R B 6 : $ 3 : 3 6 3 3 9 c n n n n 9 6 9 n B B n h 3 $ : 9 v S G G D B v b b n n b c 6 3 6 6 c n D P G n 3 + @ 9 9 3 : 3 6 h 6 $ $ 3 6 h D D n 6 $ @ @ # @ # $ # : 9 n n n c 9 6 3 3 6 6 9 9 9 9 9 c v b b v 6 $ @ # @ @ # $ 9 n n c 6 3 3 $ # $ 6 n D G S B c 6 6 6 6 6 6 6 3 3 3 3 3 : $ : # + # 3 9 n G R P n c 6 $ # # $ 6 c S F D S v 6 : $ 6 n R / ) 3X( W E R F S n b n G D n c c ",
"_ _ 3X7X/ S 6 @ + @ + + # 3 6 c n S n c h 6 : $ + + # 3 6 3 3 3 6 9 9 9 6 6 6 6 6 h n B P / ) / D n G W W E G b 3 # # : 6 6 9 h 7 7 6 3 3 6 6 6 9 9 6 3 $ $ # # @ +     6 / rXrX) E D S B c 9 6 6 h c c v c h v G R R D n b b v S S S n h 6 6 3 : 3 9 b D G G G b 9 6 h c c n D R / qXuXuX3XG n 6 6 9 c b v c 9 9 6 3 6 9 9 c n B S D S v c h 6 6 6 6 9 6 6 6 6 6 6 6 6 6 3 $ $ $ 3 3 6 6 6 3 3 6 3 3 3 3 : 3 3 3 3 $ $ 9 S E E E E W / ! P n h 3 $ $ $ 3 6 6 6 3 $ 3 6 6 3 $ - 6 6 6 1 $ # # @ # $ $ : 3 $ $ : 3 6 6 6 6 6 3 : 6 6 c B S n v v n n 6 @ # 9 n S D P E W ! / ! R n 9 : 3 6 v S G E W G c 6 6 3 $ $ @ $ 3 6 9 9 3 @ + X + @ # : 6 6 9 6 3 : # @ $ : 6 9 9 6 6 9 n E W R n 9 6 3 6 9 9 6 6 3 6 6 6 6 6 6 9 9 3 $ $ 3 3 3 3 3 3 : 3 3 6 h h h c c 6 3 3 3 9 h c b C D F B h 3 : > 3 9 c c h 6 $ # # 3 6 n D S n c 6 h h v n v 6 : $ : 3 9 c h 6 3 $ # + # $ 3 6 9 9 9 6 3 # @ $ 3 6 6 6 9 c c c c c c 9 6 3 $ + + + # @ 6 c h 3 : $ 6 9 c n n c c c n B b 9 6 6 6 9 h h 9 6 3 : : 3 3 6 6 6 6 9 9 6 6 3 $ $ 6 9 h c c c 6 3 6 h n F E W G b 6 3 3 9 S D S v c 9 h n n S S S n c 6 9 c c c 9 6 6 3 : $ $ : : $ $ # $ 3 9 b n n v 9 6 9 v R ( / G h 6 9 9 9 7 6 7 c S W 3X8X7X( P l 3 3 6 c n G P F D c 6 3 6 6 $ # 6 S G E E D c 3 # 3 3 6 6 6 3 6 6 6 h h 9 9 9 9 c S G R E E R F D c c v n n n B S n n b v c h 9 h 9 h h h v n n v 3 : 3 6 6 3 $ $ : 6 9 9 6 $ % + # $ c S G W / R n c c n n B S B n v h 9 6 c n n n S G W / 8X8X! n 6 + $ c E ) 3XW G n 9 3 $ $ # $ $ 3 3 6 v S S n c h 9 6 b S n 6 3 # $ 3 9 n D F G G D B n c 6 3 3 3 6 9 : 3 n ) 8X_ D 9 3 : : 6 9 9 3 3 9 9 : # + 3 v b b v 9 6 : @ @ # $ $ $ $ 3 6 9 9 9 6 3 3 3 3 3 6 c n c 9 c n D D v 3 $ # @ + + @ $ 6 h n n c 6 3 3 6 6 6 9 c c v h 6 6 6 6 6 6 3 3 6 6 6 6 3 3 $ @ # $ $ 3 9 v b v 9 6 $ + + $ : 1 6 6 6 9 6 3 3 $ $ $ 6 c D E W R G D D B B B B D P Y G P E W R S c 6 $ $ # + + 3 c v S B h $ + + # 3 c D / 9XrXrX9X8X/ E n 3 $ 9 b b h c B R W G b 9 6 6 6 6 6 3 $ 3 h c c h 9 6 6 9 6 6 6 9 h 9 6 h v n B B S E / / E S 9 # X + $ @ # + + $ 6 c S P / ) 8X8X/ n $ + @ 3 6 9 9 6 3 3 : $ # $ $ @ # : 6 c n S B v 6 # @ @ 3 c c c v n D D n 9 : @ $ 6 D E / / E G b 6 6 6 6 6 6 6 6 6 6 6 6 6 6 6 3 3 3 3 $ + @ + @ 3 b S G R G b 6 3 9 h l c h : @ : 9 n B n n b h 9 3 3 9 c c n S S S n n n c 6 3 3 3 3 3 1 1 $ $ $ $ $ $ $ $ # : : # $ $ $ $ $ $ : 6 6 6 3 6 9 9 c c b n S S b h 9 h c h 9 9 9 6 6 3 : : 3 $ # : 6 n B S S n 9 6 3 9 c c c c b c 6 3 # + @ : 6 b S D D D B c 6 3 : 6 l S E W Y D S ",
"3 3 3 6 6 3 $ $ 6 6 6 3 : # # : 6 9 9 9 9 h c n S S b 6 $ 3 6 6 3 3 3 6 6 9 9 9 9 c c c v n n h 9 3 : 3 3 6 c 9 9 6 6 6 6 9 6 6 3 3 3 7 h 9 9 c h c 9 : # $ $ $ $ 3 : # : c n S b h 6 3 $ 3 9 b D G G D n 9 3 3 : 3 : $ 3 6 3 3 $ $ : 3 3 6 6 : : 3 3 : 3 3 6 9 c c c c n S G P D D F G S b 6 @ $ # $ : 3 6 6 9 3 3 6 9 9 c n S D B b c h v n n 3 3 3 6 6 6 3 : 3 6 9 9 9 6 3 : 6 6 3 3 6 9 9 9 3 3 6 9 v S D S n b 6 $ 3 b G R F D D G D S n n n v h 9 6 9 9 h c 9 6 6 6 6 4 - # # $ $ $ $ 3 3 9 9 9 6 3 3 9 B ! / W G v 6 3 : : 3 h n n D R W ) ) ! D c 6 6 9 6 h n D D B v h 6 3 $ + $ v R ( 7X) W S h 6 6 6 3 3 3 6 3 3 3 : # @ $ 3 9 n F E ) ) / R B c 9 9 9 h n S D B v v n n b 9 6 6 6 9 n n B n v 6 $ @ + @ @ + # $ : 3 6 6 6 $ : 3 9 c v n F W ! P B n 9 h c c h 9 9 c n B S S B b v b D G E E G c $ + # 6 G ) 8X/ P S c 6 $ @ + + + # 9 v G E E S h 3 $ 3 h n n c 6 : 6 3 3 3 6 9 v n n b h 6 6 3 3 6 9 9 6 $ 6 D W W S b v n c 6 6 3 3 9 c v h 6 6 6 6 h h 6 9 9 6 6 $ 3 6 6 6 3 3 3 6 6 9 6 9 9 6 6 $ 3 6 6 9 6 9 c D G B 9 3 3 : : 3 6 6 6 6 6 6 6 3 6 6 9 h h 9 h c b v c h 9 6 9 6 9 9 6 6 6 3 : $ @ # $ $ @ $ 3 c v v h 6 3 $ $ # # $ 3 6 6 6 6 9 6 6 3 , , 6 c F Y D c 9 7 7 l v n D R R G n c v v h 6 6 3 $ $ + @ 3 h n n c 6 $ + + # : 6 v G 9XrXuXuXqX! n 9 3 3 3 6 9 c n B W E D c 6 3 3 : 3 3 $ $ 3 c n n b c 9 6 6 3 6 6 c 9 9 6 9 b B B S D R ! W G 9 3 # + + # 3 c n c 6 3 b W 7X9X9X7XW F v 3 @ # : : 6 9 c b S R E P c 6 3 6 9 n G G D n 9 $ + @ : 6 9 9 h c n D G n 6 3 $ 3 c F E R D n 6 : 3 h b n v c c c c c c c c c 9 6 6 3 3 9 6 9 6 3 6 c c c c 9 : # : c B n 6 @ @ 6 c B D S 6 6 6 6 6 3 : 6 6 9 n S S B n v h 9 9 6 6 6 6 6 6 6 9 c c 6 $ @ $ $ $ $ $ : 6 6 6 6 3 : $ $ 3 6 c b B S D S B B S n v h 6 6 6 6 6 6 6 : $ $ $ $ @ : 9 S R W W E n 9 : $ $ 3 c n R R F n 9 : $ 6 v B G P E W W W F F B l h b C S B S G P G S c 9 6 6 3 3 3 3 3 6 $ 3 3 3 3 : $ $ h b D P G n 6 $ $ $ : 6 6 6 3 : # $ 9 S B 9 : : 6 9 c b n c 6 3 6 6 3 : 6 c n n B n c 9 6 3 3 6 c c 6 @ + 3 9 9 3 6 v D R W W E D n 9 3 # # # # @ : 6 h 6 $ + + 9 v n S F G B v 3 @ X X + + @ $ 6 9 h h 9 6 3 : @ + + # $ 3 3 : @ : 6 c B S B n c c n S D n c c 6 6 6 3 3 3 3 6 6 6 6 6 6 6 9 c c c 3 @ @ $ 6 n b D R R F n 9 6 : 7 h c b b c h 9 9 6 6 v n n n c 9 6 h G 3XeXeX( E S c 6 3 3 6 c n b h 9 h c c c c c v S E W R D n 6 : $ $ : 3 3 6 6 3 : # # $ $ $ 3 6 3 $ @ @ $ 6 6 6 6 6 3 6 6 3 3 6 6 3 3 3 6 6 6 6 c S R W R F B c 6 $ $ 3 $ $ + + $ b P W E G n 9 $ # # + @ $ 3 9 c n B S ",
"  + $ 6 c n S S S S b 9 6 $ $ 6 h c c c c c n D R P B 6 $ 6 c v n n b 9 6 : $ @ @ $ $ $ : : $ $ # $ 3 3 3 3 6 6 9 b S S S n 9 6 3 6 9 c n n B D E R D v 6 9 c b D G S 9 3 +   $ D E / / E S c 6 3 3 $ # @ + $ 9 B G G S b 3 + + $ 3 6 9 c b v c 6 3 # @ : 6 9 9 6 9 9 6 6 h h 6 6 $ : 6 6 3 6 6 b b n b h 3 3 3 v n n n b c 9 9 9 9 9 6 9 9 6 6 c 9 6 3 : 3 6 6 9 h c c 9 6 3 3 $ : 3 6 9 b n n c 9 3 $ 6 b D D D n 6 # $ 6 c n b c 9 9 9 c b n D S n 9 6 9 h h h h 6 3 $ - $ # - $ # @ # 3 9 c S S S n c 6 3 6 v n n v h h h 9 h 9 6 6 h D W / E P S c 6 3 8 c G P Q E D b 9 9 v v 9 6 3 3 3 6 9 9 9 6 $ % + # 3 $ 3 6 6 v S G ! W F n h 6 9 h 6 9 h c n G G B c 6 6 6 9 9 9 6 6 6 6 h c c c c 9 6 6 6 6 6 6 6 c c c 9 6 6 6 h b n v 6 $ # # # 6 c D E G c 3 9 D R / / / W F n c 6 3 6 6 9 c n R W ) 8X3XE n 9 $ 3 b E ! E D n 6 3 : 3 6 6 6 3 3 3 h n B n v c 9 9 v S S b 9 6 # : h S F F D D n n n n n c 9 6 6 9 6 6 c G W W n 9 : $ : 6 6 6 3 3 6 c 9 $ + # b S S n h : @ @ : $ $ # $ : 6 9 n n v 9 6 3 : 3 6 6 9 h h 9 9 v n B v 3 $ $ # @ + $ : 6 c n b v 6 3 $ $ 6 9 c n G D n h 9 9 6 6 6 6 6 3 3 6 6 3 3 $ @ # # $ 6 c G P P D n 9 : $ + $ 3 6 c n S S c 9 3 $ 3 c D W ( 3X3X( ^ E F D b b S R E E W ( _ / R c 3 : : $ @ @ : 6 9 h 9 3 : $ # $ 9 S W ) ) ( W F S n c c 9 9 9 9 6 6 9 c S D n 9 6 9 c h v v 9 6 6 9 h 9 6 6 9 c v v v v c c 9 6 9 b n n c c S R R n 6 3 9 9 9 6 3 3 $ # 6 6 9 9 c D R R R n 3 + + 3 b S n n c 3 $ +     + + # 1 3 9 b b n v 6 # + + $ 3 6 6 9 9 6 9 6 6 : : $ $ 9 D W / W E D c 6 6 6 6 9 6 6 3 3 6 6 3 $ 3 6 9 9 6 : @ X + # 6 B E / _ R D n 9 6 6 6 6 6 6 6 3 6 c v c n b c c 9 3 6 c D P E W E F B b 9 3 3 6 6 3 3 : : : 3 3 3 : : 6 $ 6 9 c h 9 6 $ @ @ # $ 3 3 6 6 3 3 : $ 3 6 9 c 9 6 6 6 9 9 h h c h 9 6 3 3 3 3 3 $ $ $ : 6 6 6 6 9 n D D S n c 6 6 3 3 $ +   + 3 v D P P D v 6 6 3 $ # $ + @ 3 6 c B F P D n n c c 6 6 6 6 6 h v c 9 6 3 $ $ 3 3 3 : $ $ # # $ 6 6 6 6 3 3 3 , 6 6 9 c h 6 3 3 6 6 9 c v c h 9 $ 3 9 b B n c 9 3 : $ # @ @ # 3 3 9 c 9 c c 9 6 + + $ 9 S W ) 3X_ R c # . + # $ : + X @ $ : 9 n B S B c h h 6 3 6 3 $ $ $ $ : 3 9 h c h 6 6 : $ # $ : 3 : $ $ + $ 3 c S G R G n 3 @ # 6 6 3 : 3 6 6 3 3 : @ + + 3 6 9 6 6 6 3 3 : 6 3 $ 3 9 b D ( / G h 3 3 6 9 h h c c n D G D b 9 3 3 6 9 c b h c 9 6 9 n S S n 9 3 : 3 6 c n D D S n S F P G B n b n B D G S c c c c c 9 9 c n S F G S c 6 $ # @ $ 3 3 3 3 $ 3 3 3 3 3 : $ $ @ $ : 6 9 v n b b v h 6 6 6 6 6 b c c 9 3 : 3 9 b B S S B B n h $ # $ 6 6 6 $ $ # # # $ 3 3 3 6 ",
"9 9 6 6 h B F P E R P F S b 9 9 c n n n n n v c h 9 9 9 9 9 9 c v n b 9 6 3 : : 6 6 $ $ $ $ : 6 6 6 3 $ # # 3 c G W ! W P n c c b B B n n v c c c c c n n n D R / ) ) / R 9 + # 9 S ! ) _ E n 6 3 : $ : $ + @ 3 h n D G D b 9 h 9 b n v h 6 : : 3 9 v S G F F G B b c 9 6 3 3 3 $ 3 c G W ( / E 9 : # 3 9 6 6 9 6 9 3 $ : 3 6 h b n c 6 $ # + # # $ : 3 : 3 6 6 9 9 6 3 3 3 3 6 c c h 6 h n S B n c 6 : @ + # $ @ $ 9 n n v 6 3 3 3 6 6 9 c v v 9 9 6 6 6 9 9 6 3 3 6 6 6 3 - $ # # # $ 3 8 c n v c 6 $ + + # : : 3 3 6 6 9 9 6 3 $ $ : 9 S G F F D S B n n S G R E E P R E R G n 9 4 3 $ % + + $ 6 v n v 6 # + + @ 6 b P _ eXrXeX9X3X! G v 6 3 v v b c v G W W S c 9 6 3 6 6 6 3 : 6 h h h 9 6 3 3 6 9 h h h c 6 6 c n B n B G 3X7X/ S 9 3 # + @ # # $ 3 : : 6 n G / 7X0X7XW D : + + 3 6 6 9 9 3 3 3 6 6 3 : $ 3 3 6 c n S B n 6 $ @ @ $ 6 c v b n B D n 9 $ X : 6 S / _ ! G B h 6 6 6 9 9 9 9 9 6 6 6 6 6 6 6 3 : : : : $ @ # 3 6 n G R G n c 3 $ 3 c v 6 : 3 $ : 9 S F S b c 6 6 6 9 9 c n B n D S B n c 6 9 3 3 $ $ 3 3 3 3 # $ $ $ $ $ $ : $ : : : : : $ : 6 6 6 6 9 9 c n v n S D D S n b h 9 9 9 9 9 9 9 6 3 3 3 : $ $ 3 9 b D F D b 6 3 3 6 u c v n n v 6 6 # + $ 6 c n D P F S B c 7 3 9 9 h c h 6 9 h b b b c c c v c 9 6 6 6 6 6 9 9 3 6 3 $ $ 6 6 6 9 9 6 : $ : : 3 7 6 3 $ @ $ 6 c n n c 3 : 6 c c c c c h 6 3 3 6 6 c b b v c 9 6 3 3 3 6 6 9 9 6 $ @ $ 3 : # 3 c E 7XeXeX9X/ G n 3 + + @ + + + @ + @ : 6 9 n S S D B b c 6 : # $ $ # # $ 3 9 b n c c 6 3 : $ # @ : $ # # # $ 9 S W / W D v 9 6 6 9 h 9 6 6 6 6 6 : $ $ $ 3 9 c c 9 6 9 c 9 3 $ # 9 h n F F G S b v 9 9 c 9 6 9 h S G D n c 9 9 h c b n n n h 9 h G W ( _ / R n 9 $ : h S G S n n n S S S S B S G ! / / W F B h 3 6 6 6 6 9 h 6 6 3 : # + # $ # $ $ $ $ $ $ $ $ $ 3 3 : 3 3 6 6 6 6 9 h c b n n n B S F P G n h 3 $ # $ 3 3 $ : 6 h n D D B c 6 $ : : $ $ $ + + : n G E W W G n n n B v 6 3 3 $ : : 3 3 3 3 $ # # + @ # # $ 3 9 9 c b n c 6 6 h 9 n n n v h h h 6 9 h h c h 6 3 3 3 3 6 6 9 6 3 3 : $ @ + + + $ 3 c n n c c 9 6 6 6 3 $ # # $ $ # + + 3 b S G F S 6 $ + @ $ $ 6 v R ! ! R B h 6 : : 3 3 : $ # $ $ $ $ $ $ $ $ : 3 $ $ : 3 $ + + @ $ : 9 v v v c 9 9 9 9 9 6 3 : : $ 3 : 3 6 9 x n n S n c h h c n S S c : # $ 6 c B S n 6 3 3 6 6 6 3 3 3 : : 3 $ : 6 n R G n h 6 $ $ $ $ 3 3 6 9 6 9 h h 9 9 h c 9 6 3 6 6 6 9 h b v n B v 6 : $ 3 9 S E E D n n D R _ 9X9X7XE n : @ # 6 v G R G n c 6 3 3 $ # $ 9 v B S n c 6 3 + X X + @ + $ 6 b S F F D D S B G G P G D n h 6 $ # # $ 6 9 9 9 0 $ 3 6 6 3 3 6 ",
"rX9X! S h 9 9 9 3 6 c B F R R G c 6 : $ $ : 3 6 3 3 9 n n v 9 6 6 6 6 6 9 h c 9 9 h c n S S D R ! W B 3 + + @ 3 9 c c h h 9 9 n ! 4X0X9X) E n 9 3 $ # : 3 6 c n B S F P D c 3 $ 9 c S F G D b 9 3 $ : 6 9 9 h v S D D S b 6 $ 3 b D P P G n 9 6 6 h n B B n c 9 9 9 c n n 9 3 : 9 9 9 6 6 9 h 9 6 6 c n n 6 @ # c n n v 9 : # 3 b S n c 6 6 3 3 : : : 3 6 9 b n n n b h 6 6 6 6 6 6 6 : 3 9 v v 6 3 : : $ # # $ 3 3 6 h 9 3 : : : 3 6 6 v S G G S B S D B c 6 6 6 6 9 9 6 6 3 $ $ # + # : 9 n D ! / E n 9 3 : $ 6 9 n G R F B b 6 3 6 c n F E E W W E P D n v v n G G F R W W R D n c 9 6 3 3 6 6 6 3 3 3 3 - $ # 3 9 v S G P F v 9 3 3 6 6 6 9 3 $ @ # 6 n S b 6 3 3 6 9 c b v 9 6 6 6 3 6 9 6 v v n n n c 6 6 6 6 h b c 3 @ $ 6 h 9 6 9 B P E E W F n c 6 $ $ + $ 3 3 6 6 6 3 + + 3 v n S S n n c 3 +   X + + @ $ 6 9 c c h 6 6 : # # # $ 3 3 3 : : 3 6 v S S b c v n S D D S n c 9 9 6 6 : : 3 3 6 9 9 6 6 6 n n v 9 3 : : 6 6 v D P P G B n h h 6 6 9 n B n h 6 3 6 c n B S S n 6 3 9 D / 8X9X8X/ D v 6 $ 6 b n n c 9 9 9 9 v c v n n S G G P D n 9 : # $ : 3 3 6 6 3 $ @ + @ # : 3 : $ # $ : : 6 9 h h 9 6 6 6 6 6 6 6 6 6 6 6 6 6 h b D R W W G n 6 3 3 3 6 3 +   % 9 B G E R D c 3 $ $ : + # +   $ n R W ( W F n h 9 6 3 $ # $ 6 9 6 6 3 6 3 3 3 : $ $ $ $ $ $ 3 3 6 9 c 3 6 6 6 9 c c c c 9 6 6 6 6 9 c n c 9 6 : $ 3 6 b n c 6 $ @ + + + @ # 3 9 b B S D n c 9 3 # @ $ # 6 c n n c 6 3 3 3 9 v h 3 + + # 3 h v n D D n 6 $ 3 9 9 6 6 : : $ $ $ : 6 6 6 3 3 # + @ $ : 3 $ # + @ $ # : 9 h b c 6 6 3 $ : 6 6 6 6 6 6 3 : 3 $ @ $ $ 3 6 6 3 $ 6 v c 9 6 3 # : c G E W R S 6 $ 3 9 c 9 6 6 9 c h h h 6 6 9 n b c 6 6 3 3 6 : 3 6 6 6 9 9 9 9 9 h h 9 6 9 c b n B n b c 9 9 c c 6 : 3 h n B b v c c S E / ) ) ! D 9 $ # $ 6 h c v c h 6 6 6 $ $ $ # $ 6 9 9 c h 9 6 6 : $ # + + $ 6 v S G F c 6 6 n G D S S D B c 6 $ @ $ 6 9 c 6 # @ @ # : $ 3 $ @ $ 6 v F 7X0X) E S v 6 6 : $ $ : 6 c n S F D v 3 6 n E / W P S v 6 3 : $ 6 6 6 3 6 n F R F D n c c c n D W W P b 6 6 6 3 6 6 6 6 : @ + + # $ # + + + % $ 3 6 6 9 c n S B h 6 6 6 6 6 6 3 $ # # # @ + $ 6 D R W E D h $ + $ $ $ @ + + + # 3 h S R E G n 9 : # $ 6 h h 9 6 3 3 h n b 9 6 3 3 6 6 6 3 3 3 : $ 3 3 6 c S R / 9XqX8X/ P b 6 : 6 9 9 6 3 : $ # @ $ @ + + + # $ 3 6 v S S n n c 9 6 9 n n c 9 6 6 3 : 3 3 @ # 3 c n G D B v 6 $ 3 3 6 9 9 h v b S G R W R S b h 3 3 9 n B v 9 6 6 9 n G ! 0XeX9X) G c : # 6 c c 3 6 6 9 h 9 h b n S F G D b 9 3 : 6 n R P n 3 # 3 : $ $ 6 v F E E R D n 9 6 6 6 6 6 $ + $ v G G F R ( 9X9X! D B ",
"G F S b c 9 9 6 6 8 6 9 n D G S c 6 6 v n c 9 6 3 6 9 h h 9 6 6 v c c c h h h 9 h c n n n n n n R E D 9 3 6 9 9 3 3 $ $ 3 6 9 v h B Y ! W S 6 $ + $ 6 c n n v h 3 @ + X X + $ $ 3 6 c n n v 6 3     + 3 6 6 6 6 9 c c 9 6 : $ 3 h B E _ ) E B c 9 6 3 3 6 6 9 9 6 6 6 6 6 6 6 6 6 6 3 $ + + # 6 B R / 3X/ S 9 9 6 h h 9 6 : $ 3 6 c n n n B n c 6 6 9 b D R W W E P S v 6 3 3 3 6 6 6 : $ : 3 $ 6 3 : : 6 9 c h 9 3 $ # $ $ : 3 6 6 6 6 6 6 3 : 9 9 c b c 6 6 6 c v v h 9 9 6 6 6 6 3 3 : $ : 3 3 9 9 6 9 n S S D n v c 9 6 : $ @ + + : h B G R G B c 6 $ # $ # # $ 3 6 9 n D G D S n v 9 6 6 3 3 6 6 6 9 6 4 $ $ : $ $ : 3 $ # $ $ $ 6 6 6 3 3 6 6 6 6 6 9 c c 6 6 3 6 9 c v c v h 6 3 3 9 n n v c 9 6 3 $ $ $ $ 3 4 6 9 9 9 c 9 6 $ + $ h D E 3X8X) R b $ X   # $ $ + + + # $ h v S G S n h 6 6 6 3 $ $ : : $ # $ 6 c c h 6 6 3 3 : : $ $ $ # # # $ 3 h D R E S v 6 # + $ 3 3 3 : : 3 3 3 $ $ @ # 3 9 h 6 6 6 6 9 6 $ $ $ 6 c G E W R D c 6 6 c c h 6 9 B F P D S v 6 $ 6 c b n b h 6 9 v n S D D n h 6 3 3 9 n D S n n S G G D S n b n D G G B b v n c h h 9 b m S D D B c 3 $ % # = 6 6 6 3 6 6 6 3 3 3 $ $ $ $ $ $ 3 9 h c c c c v b c 9 h n n n c 6 $ # $ 6 c c c n n n n h 9 6 6 6 6 6 : 3 : # @ : h n n c c b B G W / W B h 6 3 3 $ : : $ $ : 3 6 6 3 3 $ : h D P G D n b l 6 3 6 c v v h 9 h n n b v v c c 9 9 c n B n 9 6 : 3 6 3 3 3 $ # % + + 3 6 6 # # $ 3 7 6 6 6 6 6 3 6 6 $ $ 9 S G F v 6 3 $ + + + # 3 n W 3X3XP v 6 3 # $ 3 : $ $ $ $ $ : 3 6 c n v 9 6 $ # $ $ 3 $ # 3 9 b B D D n h 9 9 9 c 9 6 3 : $ $ : 6 9 n G E / 3X) W B v n S S n c 6 3 : : : 3 6 3 $ $ @ : 6 9 9 h c 6 6 $ + $ v D R D S c 3 $ $ $ $ 6 6 6 6 6 9 c t 9 9 6 6 6 6 3 6 6 9 c v S F P R D B c 3 3 h n D D D D B B D R W ) ) / P b 3 $ $ b S G P S h : + 3 9 6 3 9 S P F n h : # # $ 3 6 6 6 6 3 6 c n b n n D R G S n n c c 6 3 # + + # 6 c b n n v h 9 c v 9 3 # + $ 6 h B F F S h : $ 6 9 h h h c v n n S n c c n B n n v c n G ( 7X7XE S c h n P ! ( W P n c 6 6 9 n D F D n c c c c v c 6 3 : $ 3 6 6 6 $ + + + $ 3 3 6 9 6 9 6 3 3 $ : 3 6 6 6 3 3 9 c B F D c $ @ + + # 3 9 9 6 6 6 6 6 9 9 9 6 3 : 3 9 b n c 3 @ . + = v G W W R c 3 # # $ # $ , 3 : : 3 6 9 h c c v n B D G R R D S n c 6 3 $ # + + + # : 6 6 6 6 3 # + + $ 6 c n B D G D S n h # + X @ $ $ : 3 $ $ 1 3 3 : 3 6 c n B S D D S n 6 6 9 n S G G S 9 3 3 9 c 9 6 3 3 : : 6 6 6 9 c c v c c n W 3X8X) W S 9 $ @ @ + 3 6 6 9 h 7 3 6 6 9 h c v c c h 9 v S P E E D n 6 : # $ : 6 9 v n n 9 $ # 3 9 c v c t 6 6 6 6 6 h n P ( 5X7X3X3X",
"@ # : 3 6 6 6 3 $ $ 3 8 c n B n 6 $ 3 c b c c 9 6 6 6 6 6 9 v b v c c h 6 6 6 9 9 6 6 3 : $ : : $ 3 3 6 n W 8XeXeX8XW B 6 : @ + @ @ + # # + @ : 6 c n S D S n b 6 6 $ # + @ # # 3 6 c n n c 6 6 3 # # # # $ 3 3 $ $ 6 b F W / W c 6 6 9 h 9 9 9 9 9 9 6 $ # $ 3 6 9 9 9 9 9 9 9 c c 3 # 6 v S D F G S b v c 9 9 6 9 c n S D S B b c 9 9 c n n n c 9 9 n F / 7X8XW F n 9 6 6 c n S S B n n S G F n n S F E ! / W S b 9 6 6 6 9 9 c 9 6 3 $ # @ + @ @ $ : $ # $ : 3 3 3 3 3 3 3 3 6 6 6 6 9 h c v b n n n D P R R n c 3 # # : 3 6 : $ 6 c B G F D c 6 : : $ 3 $ % X + $ v R W W E B n n n n c 6 3 $ $ $ 3 3 3 3 - 3 3 $ # # @ # : 3 6 c b m b v c 6 6 h n B n v c h c c c c v c c 3 3 3 6 6 6 6 9 6 6 3 $ # @ @ + + $ 6 v n n c 9 6 6 6 6 3 $ # $ : : $ # 3 c B D G B c 3 + + # 3 6 n E _ _ R n 9 6 3 3 : : $ $ $ $ $ $ : $ $ $ # $ $ $ $ $ : $ # + + : 6 h n n c c 9 9 9 6 9 9 6 3 3 3 6 6 6 6 6 c c b B n 9 6 6 B S n c 9 $ @ 3 h n B n b 6 : : 6 9 h 9 9 6 3 $ # $ 6 n S G S n 6 6 $ @ # 3 6 6 6 6 6 9 9 9 h c h 9 6 3 6 6 6 9 v b n b v b c 3 @ # 9 G R P D n n S W 3X9X9X7X! v 3 + + 6 n G G D B v 6 3 3 3 3 3 6 h n n n c 9 $ +     + + $ 3 v n G R R D B n S F P G S n h 6 3 $ + @ : 6 h 9 3 $ # : 3 : $ $ $ $ 6 c n R W E G S b 9 6 6 6 6 6 c B D P R G B v c D W ! R B c h h c v c 6 6 3 6 b P / _ W G n c b B D R E P S c 6 6 9 c c 6 6 = $ $ # # $ 3 # + + + # $ 3 6 9 v n S S n 6 $ $ $ $ # # 3 6 9 9 h 6 3 $ 3 h b c v 9 9 6 6 3 : $ : 3 $ $ 3 c D R W W D 9 $ + # 6 B P G n c 6 3 3 : 3 3 $ $ $ 3 6 6 6 6 6 3 3 6 c D R R G P / / E n 9 $ @ @ $ : : $ : 3 : $ @ + + + @ $ 3 6 c B D W W R v 5 6 $ + 3 6 6 6 3 3 # # + + # $ 6 n G R B n h 9 9 6 6 9 v n n c v n B S B n c 6 3 3 6 6 6 6 6 6 6 6 b D / 9XuXuXrX/ n 6 + + + + $ 6 h b v n c 9 h n S S c h 9 c B P ! ( ! R n : O # , : : 6 B W W D c 6 6 9 c c c 9 6 6 3 6 v D F S b n B B n c 6 $ # # 3 6 6 3 3 6 9 c c n n h 6 9 x c D S v 6 3 6 9 6 6 c S W 7XyXuXrX/ G n c 9 6 : $ 3 6 6 9 6 $ + + $ 6 n F G b 6 6 6 6 6 6 6 6 6 6 3 $ $ $ $ $ : $ $ # @ $ $ $ : 9 R W E S c 3 @ @ # : 6 h v h 6 6 : : $ # $ 3 3 6 6 9 c v n n v 9 : # + + @ @ @ +   + # $ 6 9 c 6 7 3 3 9 c l 9 9 3 $ $ $ : 3 3 6 9 6 6 3 9 D E E / F n h 3 : 3 $ $ # $ 3 6 c n B n v 6 $ # $ 6 h v v 9 3 $ # @ # 6 v S F D v 3 @ + $ c G ! / E S 6 : # $ 6 6 9 9 9 6 v G W _ _ W c : @ 3 6 6 9 c 6 6 6 6 6 6 9 c D D n 9 3 3 6 6 9 h b n v 9 3 : $ $ $ # @ + + + $ 3 9 9 h c h 9 6 3 $ $ 6 B G R G S n v 9 $ @ @ + # $ # $ 6 9 9 3 6 6 v v 6 3 3 : : : 3 6 h v b ",
"3 3 6 9 9 6 6 6 9 6 h c c h 9 6 9 9 c c c n n c 6 : $ 6 h v b n 6 3 # # # + + # 3 6 b S S S n c 6 $ + + $ 3 9 n S S b 6 $ 6 9 6 9 6 : + + : 9 c S S S S b 6 3 : 9 9 6 : $ $ $ 3 3 4 6 6 6 3 $ # + + $ 3 $ # +   # $ 6 9 l n n l 6 $ : 9 9 6 3 3 3 3 3 3 3 $ # $ $ 3 6 6 6 6 6 6 9 h 6 3 3 6 c F / _ R c 6 6 9 c c h 9 6 6 c b v 9 3 6 c c c c h 3 3 3 6 6 6 6 6 9 9 6 6 9 h c c 9 9 h c v n n n c h c b c 9 6 6 c b n n b c v n R W ) 3X/ G c 3 # $ : 6 c c 9 6 6 6 6 6 6 $ # $ 3 6 9 h h h 9 6 3 : # + + # 3 9 A S n h 6 c n S G P R G n c 6 : $ $ 6 9 9 6 $ % # $ $ $ # # # $ 9 n E 8XqX) R S n c 6 6 3 $ 3 6 h v n n b 6 3 9 D E W E G B c 6 3 3 3 6 6 3 6 c S F F S B b c v b B G E W S 9 6 6 9 9 9 6 6 3 $ # % + # # + + + $ : 3 6 6 6 9 b S B c 3 $ 9 c h 7 3 : : $ @ @ @ @ 6 n E / E S n 6 3 $ 3 3 $ @ $ + $ 6 c n P E P n c 6 $ $ 6 9 9 6 6 6 6 9 c b v 6 3 3 6 9 6 6 3 3 $ # # : h S G R ! 8XrXqXW n c 9 c l 9 9 7 , 3 : 3 $ @ # @ @ : $ 6 6 9 b D D B 9 3 6 n n c h 9 9 9 6 3 : 3 3 : : 6 v D G B h 6 6 6 6 9 h 9 h c n n D R R G D n 6 3 9 n S C n n h h c n F / 0X0X0X/ D 6 # $ 9 9 c c 9 3 3 9 c b c v S P R D v 6 3 6 v D G S c 9 $ # # 3 6 h n S R E G b 9 9 9 9 6 3 : $ # 6 b S F G G S S D S n 6 # + + # 6 v v c 9 3 : 3 9 v c 9 6 6 c n n n n c 6 9 c 9 6 b D ( qXiXdXuX_ S c c n n n S S B b 6 3 $ 3 9 n S G D D A v c 9 9 6 6 $ - 6 3 $ # # + + + $ 3 3 3 6 1 3 : # : 9 c c b v 9 3 6 c B D D n 6 #     + $ 3 6 6 6 9 9 9 c n n c 6 : # + @ $ 3 # X   . + 3 D E W G B 9 $ $ 3 6 3 : : 3 3 3 6 6 9 c c c l c c v B F F S n c 6 $ @ $ # + + $ 6 9 c b c 3 + + $ 3 9 c n S D S c 6 6 6 3 $ $ 6 6 0 - % # $ 9 n S S n 9 6 6 6 6 c b b v 9 3 3 c R W W D v 6 3 : 6 6 6 6 6 6 6 6 6 6 b D D b 9 9 h v n n S B n b h 6 3 : : 3 : : # + + $ $ : 3 6 c c c h 9 6 c b R E R D n b c 7 $ @ $ 3 : # $ $ 6 6 5 6 6 6 6 9 9 6 6 6 6 6 6 9 9 9 9 6 3 : $ @ # $ $ $ 9 S E E G D b 9 v D G G b c 6 3 3 6 9 9 6 6 9 c h 9 6 6 9 9 9 6 3 : $ : : 3 6 6 6 6 3 3 6 6 9 c 9 3 + + # 3 9 v n c 6 3 : 9 G / ) / G v 3 : $ 6 6 : 3 n W ) / S c 6 : 3 9 h 9 3 # $ 6 n E W P b 6 $ # $ 6 9 6 3 6 9 c c 6 : @ + @ $ $ : 3 3 6 6 6 3 3 $ $ 6 b C S m 9 9 c v c 9 6 3 3 $ $ 3 b G / qXrX0XF c 3 3 3 9 c h 6 6 6 9 h c v v v c 6 $ @ # $ 3 6 6 3 $ + X # 9 G / 9XrXeX/ B 9 # + # 6 h b n v : $ 6 n S b 9 6 7 3 l n c h 9 3 6 3 3 $ $ 3 7 6 9 6 6 6 3 3 3 3 9 n G R R D v c 9 6 : $ $ $ : 6 n n b 9 3 6 c S W / ! G n c 9 3 : $ # # # : 6 c B S S n c 6 : $ $ +     + $ c S W / / R G G S v 6 3 $ $ 3 $ $ $ ",
"P F D B n c h 6 6 6 9 v v h 9 c b n n c 6 6 3 6 6 9 c n c 6 $ # 3 3 3 : # + X + + @ $ 3 : @ + @ 3 6 6 3 , 3 3 3 : : $ $ 9 S G F 9 $ + + +     # 6 n E ) / S 3 + $ $ $ $ # @ + + @ $ : 6 9 c h 9 3 $ # # # $ $ $ $ 3 h n S n b h 6 3 3 6 6 3 : $ 3 3 $ $ 3 b F W ( ( / E D b h c n B c $ + $ : 3 3 3 $ # # # $ : 6 9 h h 9 3 : > 6 c S P F n 6 $ : 3 3 : 3 3 6 9 6 c c c b h 6 6 6 8 6 6 9 9 c B F E W P S c 6 3 h n D G G D S n n D W / ( ( W n 6 $ $ 6 n P E F h 3 : 6 9 : $ 9 B P G n h 6 $ $ + $ 3 9 9 3 : 6 c v n n B G R R D S S S n h : @ + + # 3 h n n n u 6 9 c 9 3 $ @ # $ 6 c B G F S 9 3 # : 6 9 c c v c b B n c h c B S n h h c S E ( 3X/ D b c v B W / / R n 9 6 : 9 c n S S B b c c l h c 9 6 $ # $ $ $ $ # + + + # $ 3 3 3 6 6 3 3 3 : : : 3 3 3 # $ 6 c n S n b $ @ + + + $ 3 6 6 6 3 $ : 6 h 9 6 6 3 3 9 v b c : + . . @ b E ! P S c 3 # @ # $ $ $ $ : , 3 6 7 9 h h c b S G E P G S n v 9 3 $ + + + + @ @ : 3 3 3 : @ X + @ $ 3 9 c n S D D S 9 3 @ X + # > $ # # $ $ : : $ $ 3 6 h n S D S B l h 3 , 9 n S C v 9 6 6 6 6 6 6 3 : $ 3 3 $ 3 5 c c h 6 9 S W ( 7X3XE n 6 # @ + + $ 6 c c h 6 3 3 3 6 h c b v c v n S F E / W P h 6 $ 3 3 3 3 6 B B v 6 $ 3 9 c v c h h c 9 6 9 c c h 9 9 9 9 c c h 6 $ @ # $ 3 3 h n G F D n v c h c n S B n v 6 6 3 6 9 9 h b B F P P R G n v 9 6 : $ @ $ 3 6 9 9 3 # + # 3 6 c 9 6 + + , 6 9 c l 7 6 , $ , 9 n S n 9 : > # @ + @ 3 h B / 8X/ n , + @ @ $ : $ $ # 6 c b b c 6 $ @ + $ 3 6 h c 9 9 9 9 6 : @ + @ + + + @ $ : : : : $ @ # 3 h c n n c 3 $ $ $ # $ # $ 3 $ @ 3 c P / 3X) ! S 6 3 3 3 3 : : 3 3 3 3 6 b S S b 6 $ + + @ $ $ $ $ +     + : c G E W R S h $ O @ 6 b W ! W D h 3 $ 1 6 6 6 3 $ 6 v B P F D n 9 : $ $ 3 6 9 h 9 9 6 3 : : 6 h b B S S S B b h 7 7 6 3 $ # $ 3 6 9 9 6 $ @ $ 7 l c c c c h 6 3 $ @ @ $ 3 9 b S D S b c 3 $ $ $ $ # @ @ $ 3 9 n D S B n b l 3 # $ 9 n C n c 6 # + % $ $ 3 : # # $ $ $ : # # 6 h v n n v 6 6 6 9 h h h h 3 6 n E ! R S v 3 $ $ 6 h 9 3 : # $ $ : : $ # $ 3 h c 9 6 3 + + $ $ $ : $ + @ 3 c D W ( / D 6 3 $ $ 3 3 6 6 6 6 6 6 3 3 : $ 6 c S F V 7 7 h b D E E D 9 3 9 9 6 $ + @ # $ 3 3 3 $ , : 6 6 3 3 3 , 3 6 9 7 : # # $ $ $ $ # @ # : b b c 9 6 3 3 3 6 9 9 h b S F P C n 9 3 9 B P E B c 6 3 $ @ + # @ $ # @ : 6 h 9 6 3 3 6 7 h b S F E ( 3X( D 6 @ + + + + X     + # $ 6 6 6 $ $ 6 6 9 9 6 3 : : 3 $ $ $ $ $ : 3 6 3 3 3 3 , $ # + # $ : 3 3 $ @ + + @ : 6 9 9 6 3 # # # # $ 3 9 c S D D B B S n v 3 $ @ # $ # $ $ 3 6 n G G B v c 9 9 h 9 6 3 $ $ : 9 C E _ 3X/ W n 9 : $ $ $ $ $ ",
"aXiXuXyXrXrXrXrXrXeXeXeXeXeXeXrXuXuXuXuXuXuXuXuXaXiXuXrXqX7X_ / 7X3X3X) _ / / / / ! ! W E E E W / ( ( / ( ) 5X7X3X3X( W W W W E ! ! ^ ( _ 3X3X3X3X5X9XeXeX9X5X3X( / / W W / / / / 3X0XeXrXrXeX0X( ! ^ ) 7X0X0X8X3X_ / W ! ! / / ) ( _ ) 3X) ) ) ! ^ / ( 3X9XrXyXuXiXuXuXeX) W R W ! ! W W / / / / / ! W W W / ) _ 7XqXrXrXeX0X7XW W W W ! / / / R D c $ + @ $ 6 B S D D S b 9 6 6 6 6 c c v v c n n n S B v 9 6 6 6 6 9 9 9 6 6 9 c S E 3XrXuXuX) G h $ + + # $ : 6 h n n b c c S S n c 9 6 9 v G E / / W B 3 + @ $ $ # 9 F ! / G n h 6 6 9 c b b v 9 3 6 n D G n c c v v v c 9 $ % # $ : 6 9 n F ! ) 8X0X8X7X3X/ ) 8XqXqX3X/ ! ^ ( / / 3XqXuXpXvXkXdXyXqX3X) 3X( ( _ ) 3X7X3X( ! ! ! ( 7XqXeXeX_ ( _ 3X8X8X8X8X8X7X3X_ ( / / ( ) ( / ! ! / ( ( 3X3X8XqXeXeX9X8X/ / / / ) 3X3X) / ! W W W W / / ( ) 3X3X8X9XeXeX9X7X) ^ ^ ( ( ( ( / ! W ! ) 5X3X7X3X_ ( _ 3X7X8X7X3X3X) _ ( ( _ 3X7X7X7X7X7X7X8XrXrXrXqX0X3X_ ( ( ( ( ( ( ) 3X7X9X0X7X) ( / ( ) 3X8XqXqX0X3X/ E ! / ( ) 7X8X8X3X! W E ! 3XqXrXrX8X3X( ^ / ( ( ( ) _ ( _ 8XyXaXpXrX9X3X( / / / ( 3X) ) ) ( ( ) 7XqXeXqX7X) ( / ^ ! ( ( ) 3X) ! G 9 # + $ $ +   + @ $ 3 6 9 c c c 9 6 3 : 6 v D P R G D n h 3 $ # # $ $ $ 3 6 9 9 : 6 c v c h 6 6 $ 3 c B S B c 9 3 $ $ # $ $ $ $ $ 3 h B S b 9 9 v B G E P n 6 1 6 6 9 9 9 6 h b D F B h 6 6 6 6 6 3 : $ $ : 3 3 3 3 : $ 6 c b n 9 6 3 $ # $ 7 B R ^ W R E / 9XrXiXuXrX7X/ ! W ! / ! ! ! / 8XeX0X) W W ! / ) 3X_ W R ! 3X0XeXrXeX_ ! E R P P P P Y R E E R P P P P P R R R R E W ( / W P P E / ) ) ) ( ( ( 3X8X8X/ ! ! ^ ! W ! _ rXyXuXrXqX( E F E W / / ( / / W ~ ~ ! / / ! W E W W ( ) ) ) ( ! E E W / 7XrXuXaXaXuXqX( E P R E E E R R E W / / ( / / W / / _ _ ^ ! ! ! / / ! ! ! ! W E W ! / ( / ! E E ! / 3X7X) ( ! E E W W ! ! W ! / ( 7X8X8X! / 8XyXuXuXyXrX3X) / / ! W E E W W ! / ( ) 3X7X8X3X/ W E R R R Y W ( 8XeXrXyXyXrXrX9X4X/ / ^ ! / / E D v 3 $ $ 9 c 9 $ # $ 1 3 $ $ 3 3 3 3 6 6 v n c 6 3 h b b 9 9 9 9 9 h h 9 6 3 3 6 3 3 6 c S F R R D v 3 $ 3 3 : : : + + : $ 6 9 6 3 $ $ 6 n G W / E n # X + + # $ 3 6 6 6 6 3 $ # $ 6 n D W ! R B b h h b v b b b b v b S F G S b 9 $ + 6 S E ! / ( / W W ! ^ / ( ( / ! ! ! ! W W W E E W E W ! ! ! ! ! ! ! _ 7X8X8X7X( ! W W W E ! ( 3X3X3X3X) ( ( ^ ! W ( ( ) ) 3X3X3X3X/ / _ 8XeXrXeXqX( ^ ! ! ! W ! / ( ( 3X7X7X_ ( ( 8XeXuXuXrX7X/ / eXqX8X( / / _ ) 3X5X3X) ( ( ( ( 4X) _ ( ( / ( ( ! ! ! ! ! ! ! ! ! ! ! ! ! W W W ) _ ( / ( ) 8X9X7X7X7X) ) 7X7X3X( / / / ( ) ) 7X3X) _ _ _ ) 7X9XyXuXuXyXrXqX3X/ R E W ^ _ 3X3X) / / 3XqXrXrXrXyX",
"CXCXCXCXAXGXHXHXJXHXHXGXDXAXAXAXAXAXAXAXAXAXAXAXAXCXNXxXxXbXNXBXxXlXkXkXlXlXkXkXcXlXlXkXhXhXhXkXzXbXbXbXcXvXhXgXvXkXkXkXkXlXxXbXkXlXlXkXlXLXBXBXBXbXbXbXbXbXLXNXCXCXCXBXZXCXAXAXZXNXlXhXhXhXkXlXhXhXhXkXzXbXbXbXxXlXkXkXkXlXcXxXbXbXbXNXNXNXNXNXNXLXxXcXxXbXNXBXCXVXNXbXxXlXlXxXxXxXlXjXlXbXNXBXNXbXlXjXhXhXhXkXxXxXbXbXxXlXkXhXhXhXhXhXvXkXhXgXpXyX3XR n b c 9 6 3 6 c v n n v $ 3 h S G E E G 9 : $ 3 6 6 6 6 6 3 3 6 9 c n n v c 9 6 9 b B B S n b v 9 3 : : 3 6 3 # + + + # $ 3 9 h c h 9 h 6 c B F E E F D n h 3 3 3 3 3 3 : $ # $ 3 6 6 9 6 6 9 9 6 6 6 6 0 6 c c c c 9 5 6 $ # $ $ # 9 E aXlXBXNXxXxXxXxXZXVXBXmXxXlXlXlXzXbXbXxXxXlXkXlXlXxXzXkXlXkXhXkXxXlXkXkXxXNXCXAXVXBXNXNXNXNXbXzXbXxXxXNXCXAXKXGXGXGXKXKXGXGXGXGXAXAXAXZXBXBXNXLXbXbXNXAXGXAXCXBXCXBXbXxXxXbXNXNXxXLXCXGXHXAXNXbXbXNXBXVXCXAXAXCXAXKXGXGXGXAXBXNXAXAXCXBXBXCXCXBXBXBXBXCXAXAXAXAXGXGXDXAXAXCXCXCXNXNXBXZXCXZXZXCXAXGXAXVXNXmXmXNXAXAXAXCXBXmXbXbXxXbXbXmXbXlXlXlXxXxXlXjXhXhXkXlXxXbXBXCXAXAXCXBXmXlXgXpXpXdXgXjXbXbXbXbXzXkXhXhXgXgXhXhXkXlXzXlXbXxXlXlXkXhXhXkXzXzXzXcXzXkXkXlXxXbXNXmXmXNXbXzXkXlXxXNXbXhXaX8XE v h n n 9 6 9 G R ! ! R S h 3 6 3 : # @ $ 6 9 b n S S n c 6 3 # @ + + + @ 3 c R W W E G G S c 9 6 6 9 9 9 6 3 # # # $ 3 9 9 9 6 $ + + + + + $ 6 6 9 9 9 6 6 h c c c c 9 6 6 h P E F b 6 6 3 : c 6 6 3 3 6 6 9 6 3 # + # : 3 : 9 3 # X   X 1 A 8XuXpXpXpXgXlXlXgXgXpXpXpXpXpXgXgXgXgXdXpXdXpXpXaXaXpXgXhXkXzXlXhXgXhXhXhXgXfXpXdXpXpXpXpXaXiXuXpXpXpXaXaXpXpXdXdXdXdXpXpXpXfXgXgXgXgXgXdXpXpXpXpXdXdXfXgXgXgXgXhXhXhXhXhXhXhXhXgXdXpXpXpXpXdXdXiXaXpXdXdXdXpXpXpXaXaXpXpXpXpXpXpXdXgXhXhXhXhXhXhXjXkXlXhXgXdXpXdXgXgXhXgXgXdXpXdXpXpXdXgXkXlXlXhXgXgXgXhXkXlXkXhXgXgXhXkXlXkXjXgXhXhXkXlXkXhXhXgXdXdXdXpXpXiXuXaXaXpXpXpXdXdXdXgXgXhXlXlXlXhXgXhXhXhXcXbXbXbXbXBXbXlXvXhXvXkXlXxXxXxXlXvXhXhXhXlXbXbXbXxXxXlXkXzXlXhXhXgXgXhXhXbXbXbXxXxXbXbXNXxXkXgXuX7XS 3 + # $ 6 6 5 6 6 6 n v 9 3 # + + $ $ 3 3 6 9 n D G G D n 9 6 6 6 3 3 3 : 6 6 9 v B n n S D D D S n 9 3 # @ # + : b _ 7X_ E G S S F / _ R h 6 9 9 6 3 3 $ $ $ 3 6 6 h h 9 6 9 v n n v v c 9 6 3 3 6 n F ! 7X_ G c h n D D n v $ # n / uXgXxXBXxXjXhXvXkXhXhXjXkXlXzXNXBXBXVXBXbXlXlXkXlXlXlXkXhXhXgXhXhXgXfXdXgXgXhXlXlXjXhXhXlXmXBXbXNXNXNXNXVXVXNXbXbXbXbXbXzXlXlXbXNXNXbXlXlXxXbXbXLXNXNXbXkXhXgXhXhXxXBXBXbXlXvXkXkXjXjXlXxXbXbXvXlXlXlXxXNXBXBXCXCXCXBXNXbXbXbXxXbXbXbXbXbXNXNXNXbXlXhXgXgXgXgXvXlXbXBXBXNXLXNXbXNXBXBXNXxXkXhXlXzXxXbXNXNXxXxXlXlXlXlXbXNXZXAXAXAXZXNXbXcXlXlXlXzXlXkXkXlXlXvXkXhXgXdXdXgXgXgXfXgXzXAXHXHXGXHX",
"VXVXVXBXBXNXbXbXbXbXbXmXNXNXNXbXbXbXbXmXBXCXAXAXbXxXjXgXgXgXgXgXgXgXhXkXbXNXNXBXmXbXbXxXxXbXBXBXbXbXzXzXkXkXkXzXbXmXNXNXbXxXxXbXbXbXlXjXhXhXhXkXbXNXBXBXbXzXkXkXxXbXNXBXVXCXAXAXVXVXBXNXbXbXxXlXbXxXbXzXkXkXkXkXhXhXlXbXNXNXbXbXlXzXxXxXxXzXlXkXzXbXNXVXAXGXGXGXVXBXbXxXbXmXBXCXBXNXbXxXxXxXxXbXBXBXVXBXmXzXkXhXjXkXlXlXzXzXlXkXxXbXNXBXAXAXBXlXpXyX7XW R E R D 6 $ 3 9 c 6 6 3 6 9 v S G P F n 6 : : 6 9 9 9 9 h h 9 9 6 6 9 c B D D S n b c b c c h 6 3 3 6 6 9 9 6 3 $ 3 6 h c n b c c h 9 6 3 3 3 9 v n D G D S c 3 $ : : : : : $ $ 3 c S G D B n n c 6 3 6 v n B n c 6 $ + $ # # 3 3 @ 6 E rXgXzXlXlXxXmXVXBXBXBXBXNXBXBXCXAXAXVXNXBXBXVXAXAXAXAXAXAXVXBXBXbXNXCXAXCXNXbXbXNXNXNXBXBXBXCXAXBXbXzXlXlXzXbXNXBXVXAXAXGXHXHXHXAXAXAXAXDXAXAXCXNXBXVXAXAXCXVXBXBXCXAXGXGXGXAXCXCXCXCXAXAXAXAXAXAXAXAXAXCXBXNXNXBXBXBXBXBXVXCXAXCXAXGXHXGXGXGXAXBXNXmXbXNXBXAXAXGXGXGXGXGXAXCXCXGXGXGXDXCXBXNXmXNXVXAXAXAXCXNXNXVXAXGXHXGXAXVXNXNXbXlXkXkXkXzXbXVXCXCXBXNXbXbXmXbXbXbXzXlXlXlXlXkXhXhXgXdXdXgXgXgXhXkXkXjXhXjXkXxXbXbXbXbXbXbXbXbXbXbXmXmXbXbXbXbXbXNXNXNXbXbXbXxXxXzXzXxXbXbXxXbXbXbXNXbXkXpXeXB : @ : : : 6 c S D D S S S S S 9 3 $ : : 3 3 : : 6 c B G F D S v 9 6 9 9 6 3 $ : 9 n P ! 7X7X/ S h 6 6 6 3 6 : 3 3 3 : : 3 6 6 3 6 6 9 h c c c 3 3 3 6 6 6 6 6 6 9 n D G B v c 6 6 6 6 9 6 6 9 3 3 6 c n G W / W E S c 6 3 3 3 + + # 3 c G / eXpXhXkXkXlXlXxXxXzXlXkXhXhXdXpXpXdXgXgXgXgXgXhXhXgXgXgXgXgXgXgXgXhXhXhXkXkXlXbXbXbXNXBXBXBXmXxXkXgXgXgXhXjXlXkXhXgXgXgXhXhXlXlXlXhXjXlXzXbXmXNXNXNXNXbXbXlXhXgXgXgXhXhXgXgXgXgXdXgXdXpXpXpXpXdXpXpXpXpXpXpXdXdXdXdXpXaXiXiXaXpXdXpXpXfXhXjXlXxXxXbXxXlXkXhXgXfXfXdXdXgXgXgXhXlXlXzXkXgXdXdXgXkXbXlXlXhXhXhXkXzXxXzXzXzXzXzXzXlXlXhXhXgXgXhXjXkXkXgXgXdXdXgXgXgXgXdXfXgXgXhXjXlXlXhXhXhXjXkXzXbXbXlXlXbXBXBXBXBXNXBXBXNXbXbXzXxXbXCXAXCXBXbXxXxXxXxXbXNXBXBXNXNXNXbXmXNXNXbXzXkXhXjXhXjXlXlXzXbXmXCXbXhXiX8XD 3 @ 3 $ # # # # $ 4 6 6 $ # # + + # $ $ $ 3 6 4 3 3 $ $ $ 3 9 n n S b c 6 6 6 6 6 6 9 h 9 6 9 c v b 9 9 3 : : 3 9 n b n 9 $ @ + # 6 6 6 6 6 6 9 c n n v c 9 9 h c v 6 6 6 6 9 n D D B n n n v 9 6 : 6 6 6 6 3 $ $ 6 c S G D n 3 # n 0XpXkXNXAXCXBXVXCXAXAXCXVXBXbXzXhXkXkXkXzXxXxXxXbXmXNXBXBXVXBXBXNXmXbXbXbXbXNXBXbXbXbXbXbXbXBXCXCXVXBXbXbXbXbXbXbXbXbXbXbXmXBXCXCXCXVXNXbXbXNXBXCXVXBXBXBXBXBXBXbXkXhXhXhXkXxXbXBXCXBXbXlXhXkXzXBXVXBXBXBXBXBXBXBXBXBXNXmXNXNXNXVXAXAXDXAXCXBXNXBXBXBXNXbXbXbXbXxXbXBXCXCXVXCXAXAXCXBXNXNXNXVXCXBXNXmXbXxXlXkXkXbXxXbXbXzXkXhXhXxXbXNXBXBXBXBXNXbXxXbXmXNXNXNXBXBXNXxXkXhXhXhXhXhXkXbXVXAXAXDXGX",
"AXAXAXAXAXGXHXHXAXAXCXBXNXNXNXNXmXbXbXNXBXBXVXBXVXVXNXbXzXxXzXkXzXlXkXkXkXlXxXbXbXNXBXVXAXAXDXAXBXNXBXBXBXmXxXlXbXbXVXAXAXAXAXAXVXVXAXGXDXAXCXAXAXGXGXAXAXVXBXBXAXAXAXCXVXBXBXVXDXGXDXAXCXVXVXVXNXNXVXAXAXDXAXVXmXmXNXVXAXAXAXAXCXCXAXAXCXVXVXBXBXNXNXmXmXNXBXCXGXAXVXNXNXBXBXAXAXGXGXGXFXAXBXVXBXBXBXBXNXNXBXBXNXbXzXkXlXbXBXCXBXBXCXAXGXHXAXbXjXuX/ 9 X + # # $ 3 6 9 c 6 $ 5 3 9 6 6 6 9 6 6 6 : 3 3 3 3 6 6 6 6 6 3 : $ : 3 h n D F D c : $ $ 6 3 3 3 3 3 3 c c 9 3 6 n D R ^ ! E D n h 6 $ $ @ + # # $ 3 9 n B D S n 9 3 # + + + + @ 6 n G E / 3X8X) E S c 3 $ $ 3 6 6 3 $ + $ 6 h c 6 h E aXbXAXCXAXVXBXVXAXAXGXHXGXAXAXDXAXDXAXAXBXxXkXhXzXbXNXAXAXAXCXAXAXAXAXDXDXAXAXAXAXCXBXBXBXVXVXVXAXAXAXCXVXVXAXAXAXAXGXGXGXGXHXHXGXAXBXbXbXbXNXBXBXCXAXAXCXCXVXVXmXmXbXbXNXNXVXCXAXVXBXBXVXAXGXHXHXGXGXAXCXNXbXNXmXNXCXAXCXNXbXbXBXCXGXHXHXGXGXAXGXDXAXAXAXAXCXCXCXAXAXAXDXDXDXDXDXDXGXGXAXCXBXBXbXmXbXbXbXbXbXmXmXBXCXAXAXBXmXbXzXzXbXNXBXbXbXbXNXBXBXBXBXCXAXGXCXBXbXkXjXkXlXkXbXbXmXBXCXCXBXNXbXbXbXBXVXVXNXbXNXNXBXAXAXAXCXVXDXAXAXAXVXNXbXbXNXNXNXNXNXNXNXNXmXNXNXNXNXmXbXxXzXkXlXzXhXdXuX3XD 6 $ 6 6 9 c b S D D S D P P D c 6 6 6 h h 9 6 6 3 3 6 9 h v n S F E E R S b c 6 : $ 3 9 n n v 9 3 3 9 6 3 3 $ 6 9 6 6 3 3 3 3 3 6 6 6 6 6 6 3 $ @ + + # # # # 3 6 c n n n c 9 h 9 9 h 9 3 $ # 3 6 h c c 9 6 : 9 c n n c 9 3 $ + # : 6 n D W 9XiXgXkXzXmXmXbXmXmXBXBXBXNXbXlXlXhXlXlXlXxXbXNXBXVXVXCXCXCXAXAXVXBXNXbXzXkXhXlXxXbXBXBXBXVXCXCXBXBXBXBXVXAXAXCXBXbXmXNXBXVXBXNXbXbXxXlXlXxXmXCXAXBXNXbXbXbXxXxXxXxXbXzXkXjXjXhXhXhXgXhXhXhXhXhXhXhXgXgXgXgXgXhXgXgXgXhXhXhXhXhXhXgXgXhXzXbXbXxXlXjXhXkXzXbXbXbXbXbXzXjXgXgXgXgXdXpXfXgXhXlXxXbXxXzXxXxXxXxXbXBXBXBXBXNXNXbXbXbXbXbXbXNXBXAXDXAXCXbXbXmXNXBXBXbXbXlXlXlXlXlXbXbXmXbXmXNXNXmXbXxXxXbXbXbXbXbXbXbXbXbXbXxXzXlXkXkXlXlXzXbXNXBXBXBXBXbXbXzXbXbXzXzXzXxXbXBXAXAXVXbXzXlXlXzXmXBXmXmXNXCXBXlXpX9XS # X $ 6 6 $ # # $ $ 3 6 3 = 6 6 6 9 9 9 9 6 6 3 # + $ $ # # 6 v B G R G S c 6 3 6 6 B D G S v 9 6 6 c b n b b n v n B n c 3 $ @ + # 6 6 h c 9 : # $ # $ : 6 9 c b n c 9 6 3 6 9 c v b c 6 3 3 h b b 6 3 3 6 6 9 v n G D n c 5 # $ v / uXgXxXAXBXbXNXBXAXDXAXDXDXAXCXVXCXBXBXVXVXBXVXAXAXAXCXAXAXAXAXCXCXAXAXAXAXAXCXAXGXGXHXHXDXAXCXGXDXDXGXGXDXGXGXGXGXAXVXBXBXVXVXCXBXNXNXVXAXAXDXHXHXGXDXAXDXDXAXAXAXAXAXCXVXNXmXxXxXxXBXAXAXCXCXAXAXAXBXNXbXbXbXVXBXNXbXxXlXlXkXxXbXmXNXNXxXlXhXkXlXxXbXbXbXxXxXbXbXbXbXbXbXbXbXbXbXNXCXAXGXGXGXGXGXHXJXGXCXBXBXBXBXCXAXVXbXkXlXBXVXCXBXmXmXNXNXAXCXAXGXAXCXBXVXCXAXAXCXVXVXCXVXAXAXCXAXCXBXBXBX",
"HXGXAXCXVXBXBXCXCXAXAXAXAXAXAXAXAXAXAXAXAXVXNXNXBXBXBXbXbXbXbXbXbXxXlXkXkXlXbXNXbXBXAXGXHXGXAXBXCXNXmXmXNXBXCXAXAXAXAXAXAXVXNXNXCXAXAXAXCXCXVXVXVXBXNXbXNXVXCXCXCXCXVXVXBXNXBXVXBXBXCXCXAXAXAXGXGXGXHXHXHXGXGXAXBXBXNXNXBXBXCXCXGXGXAXAXAXAXAXAXAXAXGXGXAXBXNXNXbXBXVXVXCXCXVXCXAXAXAXAXAXVXBXSXAXAXVXBXBXVXAXAXGXHXHXGXDXAXAXVXbXzXhXgXhXbXCXCXlXpX7Xn $ $ 6 5 n D G G D 9 $ 6 n D n 6 3 3 3 9 9 6 6 3 6 h v b h 9 6 6 6 3 3 : $ : $ $ 3 : $ : $ : : 6 6 3 $ 3 + $ $ @ : h b n h h v n n b c 9 9 6 6 9 6 3 3 6 6 6 v S D S S F R E P S v 6 3 $ : 9 D W / R B c v 9 6 6 6 3 3 3 0 6 $ + $ 3 n _ pXmXGXGXHXAXNXNXVXAXGXHXHXAXCXVXAXDXGXGXAXCXVXBXVXCXAXGXAXAXVXBXCXCXAXHXJXGXAXAXGXHXJXJXHXDXAXCXBXCXGXHXHXGXGXDXGXHXHXHXHXHXHXGXJXGXVXbXxXzXbXbXCXAXGXAXAXAXAXAXAXAXAXDXAXCXBXNXVXCXAXAXAXAXGXGXHXHXHXGXDXAXVXVXGXGXHXJXGXAXVXVXBXNXBXVXBXBXVXVXCXAXGXJXJXJXJXHXGXGXAXAXAXCXCXCXCXVXBXNXbXxXzXxXbXBXBXBXNXbXbXbXCXAXDXGXGXGXAXAXAXAXAXAXCXBXNXNXBXBXCXCXCXVXBXNXNXBXAXAXAXVXbXzXkXzXbXBXVXBXNXbXbXbXbXbXNXVXCXCXAXVXNXNXBXVXAXAXBXVXCXAXAXAXAXAXBXBXVXCXAXAXCXCXVXVXCXCXBXbXzXlXlXzXNXAXVXbXdXqXn $ $ c S D D S n S D G E W W P h 3 @ # 3 b G W E R P G n 9 : $ : : $ $ 6 9 h 9 3 : $ $ : 3 3 3 @ + @ : 3 6 c v 9 6 3 $ # $ $ # $ @ # : 3 3 3 3 : 3 3 6 6 6 9 9 6 3 : @ + + $ $ 6 c S P R R G B h 6 3 6 h n D D v c 9 6 6 9 h c c v S R R S A ^ yXfXgXgXgXhXhXkXlXxXzXlXlXbXmXBXAXAXAXCXCXAXVXVXmXNXBXVXAXAXVXNXBXBXBXVXVXNXbXbXBXCXAXAXAXDXGXGXVXBXNXbXbXbXbXmXbXNXBXCXAXAXAXAXGXAXCXNXbXxXxXzXzXzXxXbXbXNXBXCXAXAXAXBXBXVXAXAXNXVXAXAXAXAXAXVXNXNXbXbXbXbXbXbXbXbXxXxXbXNXNXNXBXBXCXDXGXAXVXNXbXbXbXbXNXNXNXNXVXCXAXCXVXNXbXlXkXlXxXbXBXVXVXVXVXCXAXAXAXCXNXbXNXbXxXzXxXxXbXxXhXhXhXhXkXzXxXxXbXbXxXzXzXbXbXmXNXNXNXNXNXBXVXBXCXAXVXBXBXNXmXNXVXVXAXAXCXVXNXbXbXzXkXkXlXzXzXzXhXhXkXxXbXmXbXbXNXNXVXAXAXAXVXVXBXNXNXBXVXAXAXAXVXVXVXAXAXVXBXBXCXNXgXuX_ n @ + 9 c 9 3 # # 3 6 u n n n n c 6 6 3 6 v n n 6 $ 3 = 6 6 + + $ 6 9 9 9 6 3 $ 3 6 c n B B b 9 6 3 3 : : 3 3 3 3 : : # # + + + # : 6 9 v b 9 6 h 9 6 6 6 3 $ $ $ # @ : : 3 6 9 9 9 c v b v h h n n v 9 9 n G P S h 6 $ $ 3 9 c n G / rXpXkXCXHXAXCXAXDXDXBXnXzXlXlXlXbXNXBXCXAXAXCXCXGXAXCXBXNXBXBXBXCXCXAXDXGXHXGXAXCXVXBXVXAXDXHXHXDXAXCXAXAXAXAXDXHXHXDXBXbXlXhXgXhXkXNXAXDXCXCXAXCXAXAXAXAXVXBXNXSXAXAXAXAXAXAXAXNXNXNXNXmXxXNXCXGXHXHXGXDXCXBXVXVXCXAXAXAXGXGXGXAXAXDXGXHXHXGXDXBXCXCXAXCXVXBXNXBXBXCXDXHXGXGXAXAXBXzXjXkXxXBXAXAXCXCXCXCXCXAXHXAXAXAXAXCXNXbXNXbXNXVXBXNXmXbXbXbXbXbXbXbXbXmXNXbXNXbXbXbXNXBXVXNXVXVXAXAXAXAXAX",
"AXAXCXBXbXzXlXlXVXAXAXGXAXCXBXBXAXAXGXHXHXGXDXDXGXGXGXAXCXAXAXAXCXAXDXHXHXGXGXGXGXGXHXHXGXGXGXDXCXNXxXlXlXxXNXCXAXAXAXCXCXCXCXAXBXNXNXbXNXBXCXCXCXAXAXGXJXJXJXHXHXHXGXAXBXbXbXbXCXAXAXAXCXBXNXNXBXVXAXCXVXCXAXDXJXJXJXJXJXHXGXGXGXDXAXCXAXAXAXCXVXBXNXNXNXbXNXNXBXBXbXzXzXxXmXBXVXAXAXAXAXBXbXbXNXVXAXAXAXBXNXbXVXAXGXHXHXGXAXCXBXNXbXzXzXbXNXbXkXgXyX_ P S n n P W ! W G n 9 9 n n v 6 3 3 6 6 9 9 6 3 : 3 3 3 6 3 3 3 6 6 6 6 3 6 3 3 6 3 : : : : 3 3 3 $ @ $ 6 9 9 c n S F R E ! _ 7X_ R n 6 $ $ 6 c v v c h v b c 6 6 c b b n n n v c 9 9 6 3 $ 3 h h 3 $ $ # # : 6 6 9 c c 0 3 $ $ $ $ 9 W uXkXCXAXAXNXzXzXzXzXlXlXbXBXAXGXDXAXAXDXGXHXJXJXHXHXGXAXVXCXAXAXGXHXJXJXHXGXAXAXBXCXAXAXCXCXAXAXHXHXGXDXAXAXCXCXNXNXBXVXAXAXAXCXAXAXAXAXCXCXCXAXAXDXAXAXAXAXAXAXHXHXHXJXHXDXAXAXVXNXbXlXkXlXbXNXZXCXAXAXAXAXCXVXVXVXCXAXAXAXCXCXAXAXAXHXGXAXAXCXBXNXbXzXlXxXbXbXNXBXBXCXAXDXGXHXGXAXCXCXVXVXAXAXAXDXAXCXVXBXBXAXDXDXDXAXCXVXBXNXBXVXCXCXAXAXDXGXHXHXHXGXAXCXBXBXCXCXCXCXAXGXHXHXAXBXbXlXhXlXbXNXAXGXHXHXAXBXbXbXbXbXNXSXAXAXAXAXHXGXAXCXBXBXNXNXBXVXAXGXHXGXDXAXAXCXAXAXGXAXAXAXBXVXDXJXGXBXgXeXD 3 # 6 c n S S b c 9 6 6 3 : : $ @ + @ $ 6 b B G G S b c h c v v c 6 $ # $ 3 6 c 9 6 3 : $ $ 3 6 3 3 $ $ # $ 3 $ $ $ # 3 9 v v 3 $ # $ 3 6 9 c v c 9 6 6 6 c v n v 9 $ + # $ + # # 6 c b n n c 6 3 : 3 9 v n n c 6 : $ : 6 9 c c 9 9 9 9 6 c ^ uXkXMXnXbXMXBXVXAXAXBXbXbXmXBXCXVXBXNXbXbXbXNXBXNXNXbXbXBXBXCXAXCXCXCXAXHXHXGXGXHXJXJXHXGXAXVXBXNXBXCXAXAXAXAXCXCXCXCXAXAXAXAXGXVXBXBXBXVXBXBXBXZXCXAXAXCXCXBXBXNXNXBXBXBXVXCXCXAXAXAXCXCXCXAXGXHXGXGXAXAXAXGXGXAXDXDXGXGXGXAXBXlXkXkXxXxXbXbXbXBXVXCXCXAXAXDXDXAXCXBXNXNXBXAXAXAXAXVXNXxXlXlXlXbXNXBXCXAXAXCXBXbXxXlXlXbXbXNXNXNXBXNXmXmXNXBXVXCXBXNXbXbXmXBXBXVXBXmXbXbXbXBXVXNXBXNXbXbXlXhXkXbXmXVXAXAXGXGXAXVXVXCXAXGXGXAXCXVXNXbXbXNXVXAXAXbXbXbXbXBXBXNXNXBXBXNXNXBXBXVXVXDXAXAXAXVXBXBXVXAXAXbXgXuX/ c 6 6 6 8 9 9 6 6 6 c c c 9 9 c n n c 3 $ 3 3 6 n R rXuXrX( G 9 # + # $ 3 $ 3 6 6 9 n D R W W G n h 6 3 $ $ $ : 3 6 6 3 3 3 6 v S S B c 3 $ $ $ 6 9 6 6 6 9 c b n n 6 6 c n S S D G W W P B n B B b 6 $ $ 3 3 3 3 6 $ # $ 3 6 h B W 8XuXfXlXNXbXbXbXNXBXBXBXBXBXVXAXGXJXJXJXJXHXHXHXVXVXBXBXCXAXHXJXGXGXAXVXCXAXGXGXGXAXCXBXNXNXNXNXNXNXNXNXBXCXAXAXAXAXAXGXGXAXCXCXAXAXAXAXAXCXBXBXBXBXVXCXVXBXNXNXbXbXbXmXBXAXGXHXGXGXDXDXGXAXBXNXVXCXCXCXAXAXAXGXGXGXGXGXGXGXHXHXGXGXGXGXGXGXGXGXGXGXGXHXHXHXHXHXmXbXbXbXNXBXBXCXAXAXAXAXCXCXCXCXAXAXAXAXVXNXbXmXGXDXAXBXbXxXzXxXbXbXNXBXVXVXVXBXAXAXDXAXAXAXAXVXAXAXAXNXbXbXNXNXBXCXAXGXHXHXGXGX",
"DXDXGXHXHXHXHXHXGXAXAXAXCXCXAXGXHXHXHXHXDXCXVXVXAXAXAXAXAXAXAXAXAXAXDXGXGXDXAXAXGXGXHXGXGXAXAXAXGXGXAXVXNXBXCXAXAXAXGXHXHXGXGXGXJXHXHXHXHXAXVXBXbXbXbXbXbXNXCXAXDXDXAXAXAXAXDXHXHXHXHXGXAXCXAXAXAXAXAXAXVXVXVXNXNXNXBXCXCXVXBXBXCXCXAXAXAXDXAXCXNXbXbXbXbXNXNXBXVXCXVXNXNXBXCXAXAXAXAXAXAXAXVXVXCXCXCXVXCXAXDXGXHXHXDXVXBXVXAXAXAXAXDXAXAXAXVXbXgXuX( b 3 $ , 7 6 6 3 $ : h n n b c l 9 3 3 7 3 3 6 3 6 h n F W W W E R D B n n n n c 6 $ # $ 3 9 h h 6 3 $ $ $ $ 6 v G G B l c v b n B n v 9 : + + 3 b G / 7X7X/ R B c 6 6 3 3 $ $ : 3 6 6 3 3 : : $ $ $ $ $ $ : , 3 6 9 c u 6 $ # $ 6 6 $ 9 E uXkXCXCXVXNXNXNXVXAXAXAXAXGXGXAXBXbXbXbXbXBXAXAXHXHXJXHXHXGXDXCXVXBXbXxXxXmXBXCXAXCXCXAXAXAXAXAXCXCXAXAXDXAXBXmXbXnXzXnXbXVXAXAXNXbXbXNXNXBXCXAXCXCXCXAXAXBXNXNXlXxXmXVXCXVXBXBXAXAXGXDXAXAXGXGXGXGXGXAXCXVXBXmXxXbXbXmXNXBXBXBXBXNXVXGXHXHXGXDXGXAXCXCXVXCXAXAXAXAXDXGXGXDXAXAXCXCXAXGXHXAXAXAXAXAXDXGXHXGXAXAXAXDXGXGXGXGXGXGXHXHXHXGXAXCXVXBXCXCXAXAXAXAXAXAXGXHXHXHXGXGXGXDXAXAXAXGXGXGXAXBXbXbXbXbXNXVXCXAXAXAXAXVXNXNXbXbXbXNXVXCXBXNXbXzXzXzXbXbXNXNXbXbXlXlXlXbXBXVXCXCXVXVXAXAXBXbXgXrXP 6 : 6 9 S R W W / 7XqX7XP h 3 : $ : : : 3 6 6 3 3 $ + @ 3 9 9 6 6 3 3 6 6 9 9 3 6 6 6 6 3 : 3 6 9 6 6 3 $ # $ 3 6 6 3 : 3 6 6 6 6 6 3 9 n B B b c 6 3 3 6 9 h 9 9 9 9 n G W P c - # 3 6 9 9 6 $ $ 3 9 b S G G D B n c 9 6 : $ $ & # + $ $ 8 T uXkXNXNXVXBXNXVXNXNXMXNXBXBXCXAXGXAXGXHXGXAXAXAXAXAXAXGXJXHXHXJXHXJXHXGXGXAXCXAXAXAXGXGXGXAXAXCXNXBXVXAXAXAXBXNXbXbXbXNXVXVXNXbXbXxXbXNXCXAXDXGXGXGXGXAXCXAXCXVXCXCXAXAXAXVXNXNXBXAXAXAXAXAXBXVXBXCXAXAXAXAXVXVXBXBXBXCXGXHXHXGXCXBXBXVXBXBXCXCXAXAXCXBXNXNXVXCXVXBXNXNXNXNXNXVXAXAXDXHXHXGXAXCXmXbXbXNXVXAXDXGXAXAXAXVXVXCXAXAXGXHXHXHXGXGXGXGXHXJXHXHXGXHXHXHXJXJXHXAXAXAXAXAXHXJXJXHXGXVXbXbXxXbXNXBXVXCXCXBXBXBXBXBXBXBXBXNXbXbXbXbXNXNXNXNXbXbXbXNXNXVXCXVXbXmXBXBXBXNXNXNXBXBXBXBXmXbXbXNXAXGXBXhXiX_ S b D F S c 6 6 6 8 6 6 v D E / _ / R F n h 9 n G E / 3X) W G c $ # 6 6 6 6 3 3 3 3 $ $ $ 3 6 6 6 6 9 6 3 $ $ 6 9 6 : $ $ 6 n W ) / G b 6 $ $ 6 h h c c c c c h 6 3 6 9 c n n b v v n B v 6 3 6 6 6 6 3 6 6 3 : $ @ $ 3 3 : $ + # b ) uXhXCXJXHXHXGXJXJXGXAXMXzXlXnXBXAXHXHXHXGXAXAXHXHXAXBXNXNXBXBXCXAXDXAXAXAXAXAXAXAXAXVXBXBXNXNXBXCXCXVXCXAXCXNXzXlXxXNXVXCXAXGXGXGXGXAXAXGXGXDXAXCXCXAXAXAXDXGXHXHXDXCXNXmXbXbXbXNXBXBXVXAXAXAXAXAXCXCXAXCXVXVXCXVXBXmXNXBXAXDXGXHXJXJXJXHXHXHXHXGXGXGXGXDXCXCXCXBXNXNXNXBXCXAXZXCXAXGXGXGXGXGXJXJXHXAXBXxXlXlXlXbXNXNXBXCXAXVXCXCXAXGXHXHXGXAXCXVXCXGXHXGXAXGXAXAXAXAXAXAXAXAXGXHXHXGXDXAXAXAX",
"BXVXCXAXAXGXHXHXHXHXHXGXAXAXAXCXVXBXVXAXGXHXGXGXAXAXAXAXAXDXAXAXGXGXDXAXAXVXNXbXzXzXzXbXMXBXBXBXNXbXbXBXCXAXDXHXHXGXDXAXCXBXBXBXAXAXAXVXBXBXVXVXCXBXmXbXbXNXVXAXAXAXAXAXAXVXNXbXzXxXbXBXBXBXBXBXCXAXDXAXDXHXHXAXBXmXbXbXNXNXBXCXAXAXAXDXDXGXGXGXGXDXAXAXAXAXAXAXGXGXGXGXAXAXCXCXAXAXDXDXAXCXVXCXAXAXAXCXAXDXHXJXJXGXAXCXCXCXAXDXGXDXDXDXHXJXJXGXmXdX7Xv # $ 6 h v B D D P W W R D n 9 9 h h 9 h 9 6 3 # # 6 n D E Y P F B B C B B v 9 6 $ # : 3 3 3 6 3 3 9 h 9 6 6 9 b B S D G D G B c 6 3 @ + + @ 3 3 6 h v c 9 6 9 c n S S b 6 3 3 3 3 6 9 h 9 9 6 6 6 6 6 9 6 6 : @ @ $ $ $ + # 3 9 h 9 c W uXlXCXCXHXHXHXHXAXCXBXBXNXNXNXNXNXNXBXBXBXNXxXxXmXNXBXVXAXCXCXCXBXBXNXNXbXbXbXbXzXxXbXBXVXVXBXNXbXbXbXbXbXbXNXNXNXBXBXVXAXAXAXAXCXAXAXAXCXVXVXVXVXCXCXVXCXAXAXAXDXGXGXGXGXGXGXGXHXGXDXAXAXGXHXJXJXHXGXAXCXBXVXCXGXGXHXHXAXAXCXAXAXAXAXAXVXNXbXbXbXmXNXNXBXZXAXDXAXAXAXAXVXBXNXBXCXAXAXAXAXDXGXGXAXCXCXCXCXAXAXDXAXGXGXAXAXCXAXAXHXJXJXGXAXBXxXjXhXhXkXbXBXCXAXCXCXCXAXAXAXAXAXVXVXNXVXAXAXAXAXAXAXAXVXNXbXbXbXmXBXCXDXGXHXGXAXCXCXCXCXCXAXGXHXJXHXHXGXGXGXHXHXHXGXDXAXGXGXGXAXAXVXBXAXGXGXBXkXuX3XC 7 > $ 9 n S D D P W E b 3 6 n S m 6 $ $ $ 3 $ $ $ # # @ @ + + @ $ 6 6 9 9 6 : 3 3 3 3 > # $ + @ # $ 6 b G W / / W S v n n v h 6 6 9 6 6 9 6 n n G W R D c 3 $ $ h G / rXaXuX3XR h @ X # 6 6 6 3 3 : 3 9 v n S S n c 9 6 3 $ : $ 6 c c 6 c ! pXNXGXGXGXAXAXCXAXDXDXDXAXAXAXAXGXGXDXAXDXGXGXGXAXCXVXVXBXBXBXCXAXGXGXGXGXGXDXAXCXVXVXCXAXAXAXCXbXzXkXkXbXNXAXAXCXCXZXCXAXGXGXAXNXmXmXBXCXGXJXJXJXJXGXAXAXCXAXAXBXVXCXAXGXGXGXGXAXDXGXGXGXAXCXBXbXbXbXbXbXbXNXNXAXVXBXNXbXbXbXNXAXAXHXHXGXGXDXAXGXAXAXDXAXCXBXBXCXCXCXVXCXCXBXNXbXbXBXCXAXAXDXGXFXAXAXAXVXVXCXAXAXAXAXAXAXAXAXCXAXGXHXJXHXHXGXGXJXHXGXAXAXGXHXHXHXGXHXGXAXbXkXkXxXbXNXVXCXAXDXGXGXGXDXAXAXAXAXVXmXbXNXBXAXDXAXCXNXbXbXbXNXNXBXVXGXGXAXBXBXAXHXHXGXGXGXDXAXAXAXVXNXNXBXAXDXAXCXAXAXNXhXiX7XB $ @ 9 b b c 9 6 6 9 v n n n n 6 3 c n G S c 9 c b n n b c 9 9 c b n n n c 6 3 3 : $ 3 : # + + @ $ 3 3 $ # + + $ 3 3 3 6 6 4 9 n n v 6 3 : $ : 6 9 6 6 3 3 : 6 v B n 9 3 $ : $ + # 3 h c c 9 6 3 3 6 3 6 6 6 6 6 3 : 6 6 7 6 3 $ 3 C ) uXhXVXHXDXAXAXAXGXGXGXCXbXkXhXhXhXhXkXzXbXbXNXAXGXGXDXAXAXDXGXGXGXAXBXbXbXbXbXNXVXAXGXHXGXAXCXCXVXVXCXAXCXVXVXVXNXbXbXbXbXbXbXbXNXBXCXAXCXBXBXAXAXCXBXBXBXZXZXAXCXCXBXNXNXNXNXbXzXkXzXbXVXAXAXAXVXBXBXBXCXCXCXVXBXmXbXbXmXBXVXAXAXAXBXBXBXVXCXBXVXCXAXAXCXVXVXCXVXBXNXNXBXBXVXCXAXAXAXGXHXHXGXAXAXDXGXAXNXzXhXhXkXkXnXbXNXNXNXbXbXbXmXVXAXAXDXDXAXAXGXHXHXHXHXGXDXGXGXHXHXHXHXHXGXAXCXCXVXBXBX",
"NXbXbXxXbXNXVXAXHXHXGXGXDXAXCXVXbXbXbXbXbXbXbXbXNXBXVXCXBXNXmXbXBXBXBXBXBXBXBXBXmXNXVXAXAXDXDXDXVXBXBXCXAXCXVXCXBXBXBXVXVXBXBXBXBXBXBXBXBXCXAXAXAXDXHXJXJXJXJXHXGXGXAXCXVXVXCXAXCXCXAXAXAXVXBXBXDXGXDXAXCXBXNXmXNXNXBXBXVXAXAXAXAXAXCXCXVXBXBXBXCXCXAXGXGXGXAXCXVXCXAXAXGXGXHXJXHXGXAXAXAXAXHXJXHXHXAXCXNXbXzXlXlXbXBXAXGXDXAXAXGXHXHXGXAXGXAXBXbXfX9XS 3 # # # 3 6 c n S D D S v 9 6 3 3 3 9 v n n v 6 6 c n b 9 9 c B F R P D 9 : + # # # $ 3 n n S D S n c 6 : : 6 n D P E ! 9X9X) P n c 9 6 h 6 6 6 6 6 3 : $ # @ + + + $ $ $ $ 6 9 6 3 : $ 3 3 3 $ # # $ $ $ $ : 3 9 n S D n c 9 6 6 6 b _ aXxXCXBXZXCXCXCXGXGXGXAXBXbXbXbXBXAXGXJXJXJXGXAXzXlXlXxXbXbXNXNXBXNXbXzXxXbXBXAXGXHXJXJXGXCXBXNXVXVXVXVXVXVXAXAXVXVXCXCXVXBXBXNXNXNXBXVXAXAXGXHXHXHXHXGXDXAXAXCXDXDXDXGXGXHXHXJXGXDXAXAXAXCXVXBXCXAXAXAXAXNXbXzXbXbXBXBXBXmXbXxXNXBXCXCXVXNXNXNXBXCXGXJXJXJXJXHXAXAXCXCXCXAXAXGXHXHXAXCXBXCXAXAXGXGXGXAXCXBXmXbXmXNXNXBXBXVXVXVXCXAXAXAXGXGXAXAXBXBXBXCXCXCXVXBXmXNXBXVXCXVXBXBXbXbXNXVXVXVXVXAXHXHXHXHXDXAXVXBXBXCXCXCXCXAXAXAXAXAXDXGXGXGXGXGXGXGXGXGXGXGXGXGXGXGXGXHXJXJXHXHXAXVXVXNXbXxXhXyXE c h c b n n n c c h 9 6 : $ 3 6 9 9 6 6 3 # $ + + + # # $ $ : $ $ 6 9 9 6 6 6 c h 9 9 6 , $ @ $ $ 3 9 B R W W G n c h v B D S h 6 3 6 6 6 v B S F R G D G G S c 9 n D G G D n b h c n b 9 6 6 9 6 3 : $ $ $ $ + + # 6 6 : # $ @ # 3 6 6 $ 6 E uXxXAXDXAXNXNXNXBXBXBXBXVXAXGXHXAXAXAXAXDXGXGXGXAXAXAXAXAXCXBXVXVXAXAXGXGXGXGXAXCXBXNXNXNXNXmXbXNXNXNXNXNXVXAXAXAXAXAXAXGXHXHXGXVXbXlXkXkXzXbXNXNXBXCXAXDXDXAXAXCXVXBXBXCXCXCXCXBXNXNXNXBXCXAXAXDXAXCXBXBXCXAXDXGXAXAXCXNXbXzXzXmXmXbXbXNXBXVXVXBXVXAXCXCXCXCXCXAXAXGXHXJXJXHXGXBXNXbXxXzXlXlXzXAXAXAXAXCXCXAXAXAXAXAXAXAXBXmXbXxXbXBXAXGXHXHXHXJXHXGXAXAXGXHXHXAXCXCXAXCXVXVXAXAXAXDXAXAXAXDXGXDXGXGXGXHXHXGXAXxXzXlXlXzXbXbXbXNXNXBXVXVXBXVXVXCXAXGXAXAXAXAXCXGXGXDXAXAXDXGXGXGXGXGXHXHXDXAXGXHXKXbXdXeXF : X + : 3 : 6 h n S E W G 9 3 6 6 6 6 9 9 v n v c v n S D D n h 6 6 h 9 9 6 3 6 h c 6 : $ 3 : + + @ # # @ + @ 3 c n D n u $ + # 3 6 9 6 6 6 3 $ : 3 9 b n v 9 9 6 # : $ @ @ + + @ : c b v 9 6 3 3 6 B S S n c h c b b b c 9 6 3 6 S 7XuXhXbXAXAXVXVXVXNXbXbXbXNXVXCXAXAXCXVXBXmXbXbXbXbXNXNXNXbXbXxXCXAXGXJXHXGXAXCXAXDXGXGXGXAXAXCXNXbXxXxXbXmXNXBXbXbXbXNXVXVXAXAXAXAXGXJXHXAXVXAXHXJXJXGXCXBXNXNXxXbXNXCXAXGXDXAXAXCXBXNXNXBXCXAXGXAXNXxXzXxXbXNXAXAXAXGXGXHXJXJXGXAXCXNXbXbXbXbXbXbXNXAXAXDXDXGXBXBXVXVXVXVXBXBXAXAXVXBXNXNXNXNXbXbXbXNXBXBXNXmXbXbXbXNXVXVXVXVXBXNXNXBXCXAXCXCXAXAXAXGXHXJXJXJXHXGXGXGXHXHXHXHXHXGXGXGXGXGXHXHX",
"CXAXDXGXAXBXbXzXlXlXbXBXVXNXbXbXBXBXVXBXBXBXBXCXCXAXGXDXCXBXNXmXmXmXbXbXbXbXNXNXBXBXBXBXBXMXmXmXNXBXBXCXAXDXGXGXGXDXAXAXAXAXGXGXHXJXJXJXJXHXGXDXGXGXAXCXCXAXAXDXGXAXAXVXNXNXVXCXAXCXBXNXNXNXBXVXNXmXNXNXmXxXxXbXBXAXGXGXAXAXAXAXAXCXCXCXCXAXAXAXDXAXCXVXCXAXDXGXAXAXCXBXBXBXVXCXAXAXCXVXBXVXCXCXHXGXHXHXGXCXNXNXbXNXCXAXAXVXNXNXBXBXCXCXCXAXCXmXhXaX3Xb # + $ $ @ # $ $ $ # @ # 9 S / 9X0X! S c n n n S D R E G b b B F P D B B G P G G S c 6 6 9 n E ) 7X/ G n 9 6 6 9 h c b n v v 9 : : 3 6 9 3 : $ $ : : : 3 $ $ # @ @ + @ # 3 3 6 6 6 6 6 6 6 6 6 6 3 $ $ @ : 6 b G W / / / G D F F D B S _ aXxXCXCXGXHXHXJXHXHXHXHXHXHXGXDXAXAXAXAXCXBXNXbXNXNXNXBXCXAXAXAXVXBXNXbXxXlXlXkXbXBXAXAXAXVXNXNXbXmXNXBXCXAXAXAXJXJXHXAXCXVXCXAXHXHXHXGXAXAXAXAXAXAXDXDXDXDXAXAXBXBXBXBXVXCXAXAXGXGXHXHXGXAXAXCXVXVXVXVXVXNXbXbXzXxXbXNXCXAXGXGXGXGXGXHXHXAXVXbXbXbXNXDXJXHXGXGXGXGXGXAXCXBXNXNXVXCXDXHXGXAXCXVXAXAXAXAXCXBXNXNXNXmXNXBXVXAXAXAXNXbXzXlXzXbXBXAXAXAXAXGXGXAXAXAXAXAXAXAXAXAXGXHXGXGXHXGXAXBXbXzXbXbXbXbXNXVXAXDXAXAXAXAXAXCXCXCXAXCXCXBXNXNXBXBXGXHXHXJXJXJXJXHXHXHXHXHXHXDXCXVXDXAXVXbXxXlXgXrXS : $ 9 c c 6 6 6 3 6 6 6 $ : 6 S G P G n 6 + + 3 3 9 b c 9 6 3 6 6 h b v c h h 9 9 c b c v n n n n n n n n n c 6 $ @ # $ 3 6 6 9 6 9 c n S D S h 6 : 3 3 9 c v b c c c n D D n 6 3 6 c n v 9 6 3 3 : : 3 3 $ # @ + + # $ $ $ $ + @ 6 h b b S ( uXlXCXAXGXDXDXAXVXBXBXBXVXCXVXVXHXGXDXAXBXNXbXlXlXzXbXBXVXCXAXAXAXGXGXGXGXGXAXAXGXAXCXVXVXCXAXDXAXAXVXNXNXBXCXAXAXAXGXGXAXAXVXVXVXNXbXzXzXzXzXzXzXzXxXbXNXVXAXAXVXVXBXCXAXAXDXDXVXBXNXNXBXCXDXGXHXGXAXCXVXBXBXBXxXbXNXBXBXNXbXbXbXbXbXbXbXVXAXGXAXAXAXVXCXAXAXCXBXBXbXxXzXxXbXbXVXVXAXAXVXNXbXbXzXbXVXAXDXAXNXbXbXbXBXCXAXAXVXBXVXCXAXGXGXAXBXNXzXlXlXlXlXxXbXNXDXAXAXVXBXNXbXbXbXbXNXVXAXAXAXDXAXAXAXVXVXCXCXVXBXNXbXxXzXxXbXNXNXNXmXbXxXzXxXbXBXVXAXAXAXGXHXJXHXHXGXGXDXGXGXGXHXHXGXGXGXGXGXJXJXHXNXgXrXE 6 # $ : : : c R _ 0X0X) E B b n S B 9 6 6 c v 9 6 6 h S / eXrX) S 6 $ + + $ 6 c b v 3 3 $ $ : 3 : $ $ : 3 6 v n B n 9 6 # + + + # $ 3 $ $ : 3 6 n G 3X) W B v S G R G S h $ $ 6 c v 6 3 @   X + # : 6 6 9 9 9 6 6 6 9 9 9 6 c n R 3XyXdXlXBXDXDXAXAXAXAXAXVXCXAXHXHXHXHXHXHXGXAXAXAXBXBXNXNXBXVXVXVXbXmXBXCXAXAXAXAXAXSXVXNXNXmXmXNXbXbXbXBXAXAXGXGXAXAXAXAXAXAXDXAXBXBXVXAXGXAXAXAXCXCXAXAXAXAXCXBXSXSXAXAXAXAXBXNXVXCXAXGXGXAXAXVXbXmXNXBXVXCXCXCXBXBXNXNXNXVXAXAXCXCXVXVXAXAXAXAXJXHXHXHXHXDXAXAXAXCXNXbXxXbXNXBXNXNXNXmXmXNXBXBXAXAXAXGXGXGXDXDXVXCXAXGXHXHXGXAXVXBXBXAXAXAXAXCXNXmXNXBXVXBXNXNXBXCXAXGXHXHXGXAXGXAXBXbXzXlXlXlX",
"AXDXHXHXGXCXBXbXlXlXbXBXCXVXBXBXNXbXzXkXjXlXbXBXAXGXGXGXAXBXNXNXVXCXCXAXAXGXHXJXGXDXAXSXVXVXAXAXAXAXAXAXAXAXAXAXGXGXGXGXGXDXAXCXBXBXBXBXCXAXGXGXGXDXAXCXVXVXCXAXAXAXAXVXNXbXzXkXxXbXNXCXAXAXAXAXDXAXDXGXAXNXbXbXCXGXJXJXJXJXHXGXAXAXAXCXCXCXAXAXGXDXAXAXAXDXGXHXGXAXVXNXbXbXbXbXbXNXBXCXAXAXVXNXzXxXbXVXAXAXGXHXJXHXGXGXGXDXAXAXAXCXVXBXVXAXAXBXlXpX3Xv @ @ 3 6 c b n B n 9 3 3 3 6 h n S S n n v c n D D n c 9 3 9 n P G h 3 h D / 8X8X/ G h $ $ 3 c D D n 9 6 6 9 n D D n c 9 9 6 3 3 6 9 c n P P B 9 : # @ $ $ : : : 3 3 : 3 9 9 h h 9 h c c h 9 6 6 3 3 3 3 3 6 b D F B h 3 > $ 3 h b c n / aXbXGXGXJXHXHXHXAXAXCXCXAXGXDXAXCXVXNXNXNXVXAXAXHXGXGXGXDXAXCXCXAXAXGXHXGXAXCXBXmXbXbXNXBXBXNXbXlXzXbXBXCXAXAXAXCXCXBXBXNXNXNXBXmXNXBXVXCXAXGXGXGXGXDXAXAXAXCXCXAXAXAXAXAXCXVXVXCXAXAXAXAXAXAXAXVXNXbXbXNXVXAXAXVXBXNXBXCXAXDXGXAXAXAXGXHXGXVXmXhXgXgXhXkXlXzXxXNXBXCXDXGXDXAXAXAXAXAXDXAXBXbXbXzXbXmXBXAXAXAXAXAXCXBXBXVXCXAXAXAXAXVXbXbXbXbXbXzXxXbXNXBXBXBXVXBXBXBXCXCXBXBXBXGXGXAXAXCXCXCXCXbXzXkXhXkXxXNXCXGXAXAXNXbXNXVXAXAXAXBXbXbXbXNXBXCXAXAXAXCXCXVXBXBXBXCXAXAXAXCXVXBXmXVXAXVXzXdXeXD : # 3 6 3 $ 3 6 6 c n v : X X # 3 6 3 $ @ + @ @ $ 9 v c 9 6 6 6 6 6 h c n n b b c c n B R ( 3X7X( W G n S D S n b 9 3 $ $ $ : # 9 D / 3X3XW D h 3 3 h v 9 9 c n n b 9 9 n G W / ! G h $ @ @ $ 6 9 c c c 9 3 $ : $ # @ + + @ # 6 6 x v b c n ! uXhXNXVXDXDXDXAXAXAXAXAXAXGXGXDXCXCXAXAXAXAXVXBXNXNXbXbXbXkXhXhXxXbXNXBXCXAXGXGXHXHXHXHXHXGXDXAXDXGXGXAXAXAXAXAXBXBXCXAXCXBXbXbXNXBXAXAXGXHXHXGXDXAXVXNXbXbXbXbXbXbXxXxXbXBXCXGXHXHXGXGXDXDXAXAXVXBXmXbXxXzXlXlXVXCXAXAXAXVXBXNXAXAXGXAXAXAXAXGXAXAXAXAXGXJXJXJXGXGXAXBXBXBXCXCXAXAXAXAXAXAXAXGXAXAXNXbXbXbXNXNXbXmXBXCXAXAXAXAXDXGXGXHXHXGXAXCXBXBXVXCXAXAXGXHXGXHXHXGXDXAXAXVXVXVXVXVXBXNXbXxXzXbXNXVXAXAXVXNXAXAXAXCXVXBXBXCXCXAXDXGXDXAXCXCXAXAXGXGXGXAXAXAXGXGXHXHXHXHXHXGXHXHXHXGXGXGXHXJXJXHXNXgXuX/ v 6 3 3 : $ 3 6 6 6 3 6 D / ( W F n c h 9 6 6 3 : 3 6 n E ) ) E n h 9 6 c n b 9 3 @ : 6 3 : v E ) ) R B 9 : 7 b C S 9 : + + : 9 c h $ $ 3 h v h 9 c n n v 6 h S G P D n 6 $ $ 6 v n b n n B D G D S c 9 3 $ $ 3 9 b S G R R R G D W 7XuXgXVXJXDXAXDXCXAXAXAXAXHXHXHXGXGXGXGXGXHXHXHXJXJXDXAXCXVXVXBXCXCXAXAXAXDXDXAXVXVXVXVXVXVXAXAXAXAXVXBXNXBXBXVXCXCXBXBXBXBXCXAXAXAXAXCXAXDXAXBXxXlXhXjXzXNXVXVXbXbXbXVXVXVXVXAXBXBXVXCXAXAXGXHXGXGXAXCXVXVXVXVXBXNXbXlXlXbXBXVXBXBXBXNXBXVXCXCXbXbXxXbXbXbXbXNXBXVXAXAXAXAXCXCXAXAXAXCXVXBXVXVXBXBXBXBXNXNXBXBXHXGXCXBXBXVXAXAXVXBXNXNXNXbXxXlXkXzXbXVXVXVXNXNXbXbXbXbXNXVXCXAXVXBXBXBXVXCXAXAX",
"AXVXBXNXNXBXVXCXAXAXCXVXVXAXAXAXAXAXAXAXCXNXbXbXBXBXBXBXNXbXbXxXbXbXNXBXVXCXAXAXAXCXVXNXmXmXNXBXAXAXAXAXAXAXAXAXDXDXDXDXAXAXAXCXCXCXCXBXBXCXCXAXGXGXGXDXAXCXVXBXNXNXNXNXNXNXVXVXBXBXVXCXAXAXGXHXHXHXHXGXAXNXlXhXlXzXbXBXVXVXVXCXDXGXGXAXAXCXCXCXAXAXAXCXBXNXmXmXCXCXAXAXAXAXAXAXAXAXAXAXAXAXVXBXbXbXbXbXNXNXNXBXNXBXVXAXAXAXAXAXAXCXVXVXAXHXJXGXAXhXrXG 3 $ $ $ 6 6 h c c 9 6 6 3 3 9 n S n c 9 6 $ 3 6 6 6 3 6 9 b Y ) ) R B S W ! G n c c h h 3 $ : 6 6 3 : 3 6 6 6 9 6 3 3 6 c c 9 $ # $ 6 h c v 9 $ + + $ 6 v n n 9 6 3 3 6 9 9 c b v b b v c c n G E W / / E G D D D B b c 9 : $ @ $ 3 n _ pXNXHXHXHXAXBXNXmXBXBXVXCXAXHXJXAXAXAXCXAXAXAXGXVXBXNXNXBXBXVXCXDXAXAXAXAXAXCXCXAXCXBXNXBXAXAXAXBXNXBXBXBXBXBXBXAXGXHXHXHXAXCXBXAXAXAXGXGXGXAXAXCXVXBXNXbXzXkXkXhXkXxXbXVXVXAXAXAXAXGXGXGXGXDXAXHXHXHXJXHXDXCXBXBXBXBXBXBXVXVXCXAXAXCXBXbXbXbXbXAXAXAXVXVXCXCXVXmXbXbXbXbXmXNXNXbXNXCXGXHXGXAXAXAXAXAXGXHXHXDXAXVXNXbXxXzXxXbXmXbXNXbXbXbXVXAXAXAXAXAXAXDXDXDXGXCXAXHXJXJXHXAXBXbXbXbXbXNXCXAXAXAXAXVXBXBXBXBXVXVXAXSXVXNXbXbXbXNXCXAXGXGXDXAXAXJXJXGXCXmXbXxXzXxXbXNXBXCXAXAXDXDXVXAXAXCXzXdXeXD : @ $ # # + + : 6 6 6 3 : $ # $ $ # + # : 3 : @ $ 6 c n F P F G D S S P W W E n c v S P ! / W R D D G F R E G D S b c 9 3 # + 6 c D W W R G R / / W F n c 9 6 9 6 6 3 9 n E 7XrXrX) S 6 $ @ @ 3 6 6 3 $ $ $ : 3 6 v G D b 9 h n S G F B 9 9 R uXzXCXAXAXCXAXDXFXDXAXAXAXGXHXHXGXGXHXGXGXAXAXVXbXbXNXVXVXVXAXAXCXAXAXCXCXCXCXVXBXBXBXVXCXAXGXGXHXHXHXJXJXGXAXAXAXAXDXHXHXGXAXAXGXHXJXJXJXHXGXAXAXDXGXHXGXAXCXBXVXAXAXAXAXAXCXZXAXDXGXGXAXCXBXmXmXNXBXVXCXVXBXNXNXBXAXGXHXGXAXVXVXAXAXAXAXVXNXNXAXAXAXCXNXxXxXbXBXBXBXmXbXNXBXBXVXVXNXbXbXNXAXAXAXAXAXAXAXAXAXAXAXAXCXVXNXbXxXzXmXNXNXNXNXBXBXVXCXCXAXAXAXCXCXCXBXVXVXVXVXVXBXNXmXNXNXBXVXCXCXCXAXAXAXVXVXAXAXAXCXAXAXGXGXGXDXDXHXDXCXNXmXbXmXNXVXNXxXlXlXxXmXBXAXVXbXlXkXzXbXNXAXAXSXBXNXNXNXVXJXGXbXdXyX_ D b c h h c c h 6 3 : 3 9 c 9 h c 9 9 9 6 6 3 3 3 : 3 3 6 6 9 h v n b n S D S n 9 6 3 3 6 c n S D F n b c h 9 9 h h v h 6 # # 3 6 9 3 3 $ : 3 $ @ # + $ # + # $ $ $ # + + # @ @ 3 c P W ! W G B c 9 h h h 9 3 $ $ 3 6 9 c c 6 $ $ v ) uXhXBXAXbXkXhXlXbXNXBXBXCXCXBXBXBXNXNXBXBXCXCXVXCXAXAXAXAXCXVXbXbXbXbXmXNXmXbXNXbXzXkXkXzXbXbXCXAXAXAXVXNXbXbXbXNXBXCXCXCXCXCXHXJXGXBXmXBXCXAXDXGXAXCXVXAXAXAXGXAXDXGXDXAXAXGXHXHXGXDXAXDXGXHXGXDXDXAXAXAXAXVXVXAXAXAXAXGXGXAXAXAXCXBXNXBXAXAXGXDXAXDXDXGXGXHXHXAXVXmXbXbXNXBXCXAXAXCXCXCXCXVXBXBXCXAXDXAXAXAXAXAXGXDXAXAXAXAXJXHXGXGXAXCXBXNXNXVXAXFXFXAXVXNXVXBXNXbXbXBXVXCXNXNXCXGXHXHXGXGX",
"CXCXCXCXCXCXCXCXAXAXCXBXBXAXAXAXGXDXAXAXAXCXCXVXmXNXNXBXBXBXNXbXBXVXCXCXCXCXCXVXGXGXGXDXAXVXBXBXNXBXVXCXAXAXAXAXNXbXxXlXkXlXxXbXBXVXAXAXDXGXGXDXAXAXAXCXCXCXCXCXAXAXDXGXGXAXBXbXbXmXBXAXDXDXDXGXAXAXCXBXBXBXNXbXzXlXlXxXxXzXzXxXNXBXCXAXAXVXVXCXAXDXGXDXAXVXBXBXBXCXAXHXHXGXAXVXCXCXBXNXNXNXNXmXBXNXbXbXbXbXbXxXmXBXAXGXDXAXCXCXAXGXGXAXCXBXNXxXhXiX) b $ $ 6 6 6 3 : $ $ 3 3 3 : 6 h n S S n c 6 3 $ : 3 6 9 h v b B n n h 6 3 6 c D E W E D n 6 3 $ $ $ # # $ $ $ $ $ # # $ 6 b n c $ @ $ $ $ $ $ $ $ $ + + # 3 6 9 9 9 c h h h c n D D S n b n n S R W W W W G D D F P P F F n h 6 # # $ v / pXNXHXGXGXCXBXNXGXHXHXDXAXAXCXCXAXAXAXGXHXJXJXJXJXHXGXAXAXVXBXNXbXmXNXBXCXAXDXGXAXAXAXAXAXCXCXCXCXBXNXmXbXbXNXBXNXBXCXAXAXGXHXHXGXGXGXGXGXDXAXCXGXGXGXAXCXNXbXxXNXNXNXNXbXbXbXzXbXNXVXAXGXGXGXGXCXCXCXCXCXDXGXHXHXHXGXAXAXCXCXCXAXAXAXCXCXCXAXGXHXJXJXGXDXGXGXAXAXAXCXBXNXBXBXBXBXNXNXBXBXAXGXHXDXAXBXNXbXbXbXbXxXxXxXxXbXBXAXDXJXJXGXVXBXAXGXGXAXAXCXCXCXCXAXAXAXAXCXCXAXAXAXAXNXNXBXCXAXAXCXBXBXVXAXDXGXDXAXAXNXNXNXNXNXVXAXAXCXCXBXNXNXBXAXGXCXCXCXVXVXAXDXGXHXHXHXGXGXGXGXHXAXAXAXBXbXkXdXqXD 3 @ @ + # # $ 6 6 3 $ $ 3 6 9 6 6 6 3 3 6 6 3 : $ 6 b E 9XuXuX_ E n 9 h B F G v 9 9 c n G Y G c h B W _ ) ) / R D n n v 6 3 6 3 : # + + + : h B D B h 9 h c c c 6 : $ 3 6 h b n B n n n n B B D B b 9 3 $ 3 6 B P / 7X/ G 9 $ $ $ 9 c c 6 h W uXlXDXHXJXDXAXBXBXMXmXbXbXzXzXzXNXBXBXBXBXVXVXBXmXbXbXmXBXCXDXHXHXHXJXJXJXHXHXDXAXCXBXBXBXVXAXAXCXVXCXAXAXDXAXAXAXCXBXBXBXVXCXCXCXKXGXGXGXCXCXCXDXGXHXHXHXGXDXAXAXAXBXmXbXbXbXNXNXBXCXAXAXVXBXNXmXNXVXAXGXGXAXAXAXVXNXbXbXNXVXCXxXxXbXBXAXAXCXVXCXCXAXAXAXBXBXBXVXVXBXNXNXBXVXCXAXAXDXDXDXDXAXAXAXAXDXGXGXGXDXAXNXBXVXCXAXCXCXCXBXCXAXAXCXVXNXmXbXmXNXBXVXBXNXbXmXNXVXAXDXDXAXAXCXCXAXAXAXAXVXBXmXNXNXBXBXVXVXVXBXBXCXCXAXCXCXCXCXAXAXAXAXDXAXAXmXbXbXmXBXVXCXAXAXAXAXAXAXBXNXbXbXbXbXbXNXNXNXAXAXAXlXiXeX) R S c c n D D n c 9 9 c B P E ! / E n h 6 3 3 6 6 6 6 6 3 3 6 9 9 9 6 6 3 3 6 6 6 6 6 : $ 3 3 $ $ 6 B G R R G n c h B B b 6 # + + + $ : $ $ 3 9 n D G G B 9 : @ + $ 3 9 n S n h 6 3 6 9 6 3 $ : 3 3 6 6 6 6 3 3 6 6 c 6 3 # + # 9 W uXhXCXGXGXBXxXkXbXNXBXBXBXBXBXNXxXzXkXhXjXkXlXlXzXxXxXbXNXVXAXGXGXGXGXHXHXHXGXAXBXVXAXAXAXVXNXbXxXxXzXkXjXkXzXbXNXNXbXbXbXNXCXDXGXHXJXJXAXNXbXzXbXBXCXAXAXAXAXAXAXAXGXHXHXGXAXDXGXHXJXJXHXGXCXBXCXBXBXBXBXCXAXAXAXVXNXbXmXBXAXDXJXJXHXDXCXBXNXNXmXmXNXBXBXBXNXNXBXBXBXBXVXVXVXVXVXCXCXCXAXAXAXCXCXCXAXAXCXBXNXbXlXxXbXbXmXBXVXVXNXmXmXNXBXNXNXNXbXbXNXVXAXAXSXVXVXAXAXAXAXGXGXAXCXCXAXGXGXDXAXAX",
"AXAXAXGXGXHXHXHXCXCXCXCXCXCXCXCXVXVXCXAXGXDXAXAXCXCXCXAXAXAXCXVXbXbXbXbXbXNXBXBXVXVXCXAXAXAXCXCXAXAXCXCXBXNXmXNXCXCXVXNXbXxXxXzXlXlXkXkXkXzXbXmXBXCXAXDXGXGXHXHXJXHXAXCXCXAXDXGXHXGXAXCXBXNXNXBXVXBXNXbXbXBXCXAXHXHXDXAXVXBXBXNXbXbXbXxXxXbXxXbXxXmXBXAXDXDXDXAXCXCXCXCXVXBXmXbXlXzXzXzXbXBXAXAXBXBXBXBXCXAXGXGXVXVXAXDXDXAXAXAXDXGXHXJXHXHXAXBXkXaX( h @ $ 6 9 6 6 6 3 3 3 : $ $ $ : : : : $ : 6 6 n S D S n c c h 6 $ @ # : 3 6 6 9 c c 9 6 3 $ $ 6 9 c 6 3 $ # # + + + + + # : 6 3 $ 3 9 6 3 $ $ : 6 6 3 : : : 9 S / 7X8X) ! B S G W W R D n c n P / / R B b G E / 3X) ! P D S n c 3 $ # 9 E uXhXNXNXVXCXAXHXHXHXHXGXGXGXDXAXCXCXCXCXCXAXAXAXCXCXCXAXCXBXmXbXbXmXBXCXAXAXAXAXDXHXHXGXCXNXbXlXzXzXxXbXNXBXVXAXHXGXAXAXCXCXAXAXCXCXVXCXCXAXAXAXVXVXVXCXBXbXbXzXzXbXmXBXAXGXHXHXHXHXHXGXAXVXNXbXNXBXCXGXGXGXAXAXDXGXGXGXGXGXGXGXGXGXDXDXGXGXGXDXHXHXHXAXAXGXHXHXJXJXHXGXAXAXAXVXVXVXCXCXAXAXAXAXAXAXBXNXNXBXCXAXGXGXGXAXAXVXBXBXBXVXVXVXVXBXBXBXAXAXAXDXAXAXAXAXBXNXbXlXlXbXNXBXbXbXbXNXVXVXCXCXNXBXBXCXAXAXAXAXGXGXDXGXAXCXBXNXVXVXVXNXbXbXbXbXVXVXNXbXbXNXVXVXNXBXNXbXxXxXxXxXBXVXHXHXAXmXgXeXD : @ $ @ $ $ : # $ 3 9 c c h v v c c 6 3 3 6 6 3 6 c S F F C c 6 $ @ # : 6 9 9 9 6 6 : $ # # @ $ # $ 6 6 : $ : : 9 n P R S b n G P D n c c h c B D G D S v 6 : $ 6 6 6 6 6 6 6 6 9 c c 9 6 6 6 h 9 9 9 6 3 3 3 6 9 6 6 9 B G P G S n c c b D 3XuXhXlXzXNXVXAXVXbXbXMXBXVXVXBXBXCXCXCXCXAXAXGXGXGXAXCXBXBXBXCXAXAXGXHXHXGXGXAXCXVXCXAXGXHXGXDXAXBXBXCXDXHXHXHXHXBXBXbXbXbXNXVXCXCXCXCXAXCXmXxXxXzXxXbXbXbXbXNXBXAXAXAXAXAXAXAXAXAXAXAXAXAXAXAXAXBXNXbXxXbXbXNXNXbXbXbXmXNXBXNXmXbXbXNXCXDXGXAXCXlXkXhXkXlXlXlXlXxXbXBXCXAXDXAXAXCXCXCXBXBXCXAXAXAXAXAXCXBXNXbXbXNXNXBXBXNXbXxXxXbXBXAXDXGXDXAXVXCXCXCXCXAXGXGXDXDXAXAXGXDXCXBXBXNXBXCXDXGXHXHXHXAXAXAXCXVXVXCXAXGXGXGXAXAXAXAXDXGXGXAXAXCXAXAXDXGXAXCXBXBXCXAXAXAXAXVXNXBXVXAXAXAXAXVXBXmXzXlXnXCXCXlXpXeX/ S h 3 # # $ @ + + + # : v E ) 0X9X7X/ F v 6 $ # @ + $ : : : 3 6 n G / _ W B h 6 6 9 3 6 6 6 3 : $ : 3 6 9 h h 9 9 6 6 6 3 $ $ 3 6 9 6 6 3 # $ 6 n P 7X9X3XE n 6 + + 3 6 6 6 9 v n c v c 6 3 3 6 6 3 : $ @ # 3 9 v b n b c 9 6 $ $ v ( rXpXhXzXzXlXlXlXlXkXhXhXzXbXmXlXlXjXjXlXbXBXVXlXkXhXhXhXhXlXzXmXBXCXAXCXBXbXzXzXlXkXkXkXzXbXbXBXBXNXbXbXxXxXzXlXzXbXBXBXBXNXmXmXbXxXbXNXVXAXGXAXAXCXBXVXVXBXNXbXbXNXBXVXBXNXmXbXbXbXbXbXmXNXNXmXNXBXAXDXGXGXDXBXBXCXAXAXBXbXbXlXbXmXBXBXBXNXmXCXAXAXDXAXCXBXNXNXBXVXCXAXCXBXNXbXNXNXVXAXHXHXHXHXAXNXbXzXlXlXzXzXxXbXNXBXBXBXNXbXbXbXmXNXNXNXNXbXbXmXNXNXNXbXbXBXVXBXBXVXAXAXAXHXGXDXGXDXAXAXAX",
"HXHXHXHXHXHXHXHXJXHXAXAXBXbXxXxXbXbXBXCXAXAXAXAXHXGXAXCXBXNXNXmXbXbXxXxXbXNXVXCXBXNXbXbXbXmXNXBXBXBXCXAXAXBXNXNXCXCXVXbXzXkXkXkXzXzXzXlXzXbXmXNXBXBXBXNXmXmXNXBXZXCXCXAXAXAXAXDXAXAXCXVXBXNXNXNXBXVXCXCXCXCXAXDXAXFXDXAXVXSXVXBXAXNXbXbXbXbXbXbXBXmXbXmXBXCXDXDXAXBXbXbXbXbXNXBXCXCXBXbXmXVXAXGXGXGXAXVXAXAXAXAXVXBXBXVXAXAXAXVXbXzXlXlXbXAXAXBXhXuX/ h + # 3 3 6 6 6 6 6 6 6 6 3 3 3 6 6 3 : $ # $ c G G S c 9 : $ 3 9 9 9 9 6 6 6 6 - $ 5 9 6 3 3 3 6 6 6 6 $ + + + # $ 3 6 6 6 6 6 9 c c c b c 9 6 3 $ : 3 $ 3 h R 8X8X^ S h 3 # $ 9 c c h 9 6 3 6 9 6 $ $ 3 c n D D C n b b D S n c 9 9 B ) pXbXBXbXlXjXkXxXZXAXGXCXBXBXVXVXZXVXBXBXVXVXCXCXAXCXAXAXAXAXAXAXCXCXBXBXBXBXBXBXCXCXCXVXBXBXNXmXbXbXBXAXAXVXNXNXNXBXAXAXAXVXNXbXxXzXlXzXxXbXNXBXNXNXBXVXCXVXVXVXNXBXVXAXAXGXDXDXGXGXGXGXGXAXAXCXCXCXCXAXCXVXVXCXCXAXAXGXAXVXbXzXlXzXxXbXbXNXBXCXDXAXCXBXBXNXBXBXAXAXAXAXAXAXAXAXBXBXbXxXxXmXNXNXbXmXmXbXzXlXlXlXbXbXBXCXAXCXBXNXbXbXNXAXAXCXCXAXAXDXHXGXAXBXbXbXAXGXGXAXAXAXAXVXVXVXAXGXGXAXAXAXHXGXAXAXDXGXHXHXDXAXAXAXAXAXAXCXAXVXVXVXVXAXAXGXGXGXAXVXBXBXBXNXAXAXAXAXCXAXAXDXDXAXAXAXNXhXpXqXP 9 9 b v 9 3 $ $ 3 3 3 6 h c c h 9 6 6 6 6 6 3 9 c n D S n h 3 $ @ $ 3 3 $ : 3 3 3 $ # # # # $ $ $ $ $ # + + # 9 n S D B h 3 : 6 9 3 # # 3 c G / 7X0X7X( P n h 6 : $ : : $ : 3 3 3 6 v B D D n h 9 6 6 6 3 3 3 : $ $ $ 3 c n S n n v 9 h b D 3XiXlXBXCXAXAXAXSXnXnXbXVXGXJXJXJXAXAXNXbXbXxXxXxXbXbXNXBXBXVXVXVXCXAXAXAXAXAXAXCXCXCXBXVXCXAXCXVXbXzXkXkXlXxXNXBXAXAXVXbXbXbXNXNXBXNXBXCXBXxXlXzXNXBXAXAXCXBXNXmXNXBXAXDXGXHXHXJXHXGXAXCXBXBXBXBXAXCXCXVXBXNXbXxXlXkXhXhXkXzXbXbXxXxXbXBXBXNXbXxXxXzXjXgXgXhXhXhXhXhXjXkXxXbXNXBXBXBXNXbXbXNXBXBXBXNXmXbXzXlXlXxXmXmXNXNXNXmXbXmXmXNXNXBXCXAXDXAXBXNXbXzXbXBXVXVXmXxXzXxXbXbXNXVXCXVXNXbXzXzXxXbXCXAXGXHXHXGXAXAXAXAXCXBXBXBXVXAXDXGXGXAXCXVXCXVXVXAXCXCXCXAXAXAXAXAXCXCXCXCXCXCXAXAXAXDXDXAXAXHXJXGXkXaX0XD $ + @ @ $ 3 : : : $ # $ : 3 6 c n n v 9 9 6 6 9 9 6 $ @ @ : h S W ) eXeX/ b 6 3 3 9 9 9 c c 9 6 3 3 3 3 $ # % % # $ 3 3 3 3 3 3 6 9 n n c 6 : # $ 9 S G S h 6 : $ : 3 3 6 h h 6 6 6 6 6 3 $ : 3 3 3 $ $ # # $ 6 9 c 8 x n B S B n G ! 9XiXhXbXkXhXjXlXxXxXzXxXNXBXNXbXlXgXdXdXdXdXdXfXgXgXhXjXkXhXhXhXhXhXjXlXxXbXbXbXxXlXlXkXkXlXlXlXkXkXjXkXzXbXbXlXkXkXkXkXjXhXhXgXgXgXgXgXhXjXkXlXbXNXBXCXCXCXCXAXCXVXVXAXAXVXNXkXhXgXgXhXlXbXBXNXmXbXzXzXzXzXxXbXbXmXBXNXzXhXhXkXlXbXmXVXAXAXAXBXBXAXDXGXAXAXAXVXVXNXNXVXVXVXVXNXbXbXxXbXbXbXbXlXkXkXkXkXkXhXhXhXhXhXhXhXlXxXxXbXbXbXbXmXbXbXbXbXbXNXBXBXBXNXNXmXNXNXNXNXNXbXxXlXlXbXBXAXAXDXGX",
"VXCXVXBXCXVXBXVXAXAXGXGXAXAXAXVXAXAXAXGXGXGXGXGXHXGXAXNXxXkXhXgXgXgXhXjXlXzXxXbXNXNXbXkXhXhXhXhXgXgXdXdXgXgXgXhXgXhXhXhXhXgXgXgXhXkXbXVXVXVXVXVXmXNXBXVXVXmXzXlXzXxXbXbXxXxXzXlXkXkXlXkXkXhXhXhXhXhXhXlXxXlXlXxXxXbXzXjXhXjXkXzXlXlXkXhXhXhXgXgXgXgXhXhXkXkXlXzXxXlXhXhXhXkXxXNXBXNXNXmXbXlXlXkXzXbXNXNXmXmXNXNXVXCXBXBXCXVXVXAXCXBXNXbXbXVXCXNXgXiX7XF v 9 9 9 6 6 3 6 9 c c h 6 3 3 3 3 3 3 3 3 6 c B S b 9 6 $ : 9 n n v 9 9 c c c 9 6 6 6 6 h h h h 9 $ # 3 6 9 6 $ $ # $ : : 6 9 9 c b c h 6 6 6 6 6 6 6 c n S n l 6 3 : $ $ $ $ : 3 6 6 6 : $ @ + + @ # # $ $ $ # # @ $ 9 S G S c c v G _ uXdXhXgXhXbXNXAXGXHXHXDXCXbXlXzXNXBXCXCXmXxXlXlXzXbXNXNXBXNXbXxXbXbXxXzXxXxXxXxXzXkXlXxXbXbXbXbXzXzXbXNXbXbXbXlXlXhXkXxXbXlXlXxXBXVXAXGXGXAXBXNXbXbXbXbXNXNXNXNXNXbXbXbXbXBXCXCXDXAXAXAXBXNXNXNXCXAXGXHXAXBXNXNXBXVXAXHXHXAXVXNXbXnXbXNXBXBXBXNXBXBXmXmXNXbXbXbXbXbXbXbXbXbXbXbXNXBXCXAXCXAXCXbXbXbXbXbXmXNXNXbXbXbXbXxXzXlXkXhXzXbXNXAXVXbXbXbXNXAXDXAXAXBXbXbXxXbXbXNXVXBXBXBXmXNXVXAXDXAXCXVXVXAXAXAXCXAXCXNXNXbXbXxXbXBXVXVXNXbXbXbXbXbXbXNXAXAXGXHXGXAXBXNXbXbXNXVXCXBXNXNXxXzXNXBXbXlXdXuX7XE R P S b 9 6 6 6 6 6 6 6 3 3 3 6 3 3 3 6 6 9 6 6 6 c b v h 9 3 $ $ 3 3 6 6 6 3 3 6 6 3 3 6 6 3 6 c n n B n n n b c 7 3 : > $ $ $ $ @ + @ $ 3 B F W ( ! G n 9 $ $ $ $ $ $ $ $ 3 9 B R / 8X8X/ B 6 3 6 9 h h h 6 6 6 3 $ $ 3 $ 3 3 3 $ : , c ! uXzXNXNXAXDXHXGXBXMXbXlXzXmXBXBXNXmXbXbXxXbXNXVXNXBXBXNXmXBXAXCXAXAXCXBXBXVXAXAXVXNXmXmXbXbXbXBXBXBXbXhXgXfXfXgXhXzXzXhXkXkXhXkXjXlXNXAXCXbXlXxXzXbXlXhXjXlXlXzXbXxXlXhXhXkXxXbXNXNXBXBXmXxXzXkXkXzXnXbXbXkXhXzXzXxXxXlXkXkXlXlXlXbXlXhXhXgXgXgXhXkXkXlXxXzXlXlXkXkXkXkXkXkXkXzXbXbXxXkXhXgXgXhXhXkXjXhXlXkXkXlXbXbXbXxXbXBXVXCXAXVXbXzXkXlXbXBXAXAXAXAXAXAXHXHXHXGXAXVXNXbXxXxXbXbXbXxXbXNXBXBXAXAXAXAXAXNXbXbXNXbXNXVXVXBXCXAXAXAXAXGXGXDXAXBXbXbXxXxXxXbXbXbXxXbXxXlXlXlXkXlXkXkXkXlXlXlXbXNXGXCXlXpX9XG 3 + + : 9 c n S B n 9 6 $ # @ @ # $ $ 3 3 6 n W ) ) R S 6 + + 6 n S n b 9 6 3 3 6 8 9 9 9 6 6 3 $ $ 3 9 9 h c c c c n B n b h 6 3 3 9 v c 6 3 $ # @ # $ 3 6 c b n b h 9 9 9 9 9 c n W / ! G n c 6 3 3 $ # # $ $ # @   + 6 D W / 3XeXyXuXdXgXhXhXgXhXjXkXbXBXNXmXbXxXlXkXjXhXhXhXjXhXhXhXkXlXzXmXBXbXbXlXhXhXhXgXgXgXhXhXhXlXzXlXjXjXkXlXlXzXxXzXlXlXlXxXzXkXhXhXhXhXjXkXzXbXbXbXbXzXhXhXhXhXkXzXbXbXxXzXkXhXhXgXfXgXgXhXzXbXNXNXbXbXlXkXhXhXhXhXlXlXkXlXzXlXlXlXlXkXzXxXkXgXhXjXkXzXzXkXhXhXkXxXBXBXBXNXBXBXBXVXVXNXbXbXxXbXbXmXmXbXbXzXzXzXkXxXbXbXxXlXkXjXhXhXkXxXNXBXNXbXbXbXbXbXbXbXNXmXbXBXVXVXVXVXVXNXbXbXbXbXbXNXAXAXGXGXDXAX",
"GXJXJXHXDXCXVXBXBXCXAXHXHXJXJXGXAXAXDXDXAXAXAXAXAXAXAXCXBXNXbXbXbXbXbXzXkXgXdXpXpXpXdXgXhXgXfXfXgXgXgXdXdXdXdXdXgXgXgXhXkXjXhXhXhXjXjXjXjXkXkXkXbXbXxXxXxXxXxXbXbXlXhXgXfXpXdXgXhXhXkXkXhXgXpXpXaXpXdXgXhXhXgXfXdXpXpXiXiXaXaXaXaXaXaXpXdXdXdXdXgXgXgXhXhXgXgXgXgXhXhXhXhXgXdXpXpXdXgXgXgXdXfXgXhXkXzXzXzXxXbXNXBXAXAXVXbXlXhXhXlXxXbXbXbXbXbXlXkXgXuX8XW G B n 6 6 6 6 6 9 9 9 : @ + # $ $ $ # + $ 8 v b h 6 3 3 6 6 3 6 h n n G F S v v S D D n b c c c 9 h n R Q G v 9 6 3 3 3 3 3 6 6 6 3 6 9 9 6 6 6 3 3 6 c n S S B l 3 # : : : 3 3 3 3 3 3 3 3 3 3 3 3 6 3 : $ # $ 3 6 v D D v 6 $ # 6 S 7XyXiXiXaXdXhXzXNXCXVXNXbXxXkXkXhXhXhXhXjXlXzXxXbXbXNXBXBXxXjXhXhXhXhXhXhXgXgXgXpXpXpXdXdXdXdXdXdXdXpXpXaXpXgXgXgXhXlXbXzXkXhXgXgXhXxXNXBXmXlXhXgXgXgXfXdXfXdXdXgXgXjXzXxXxXxXxXlXlXlXzXlXlXkXjXgXgXgXhXhXkXhXhXgXdXdXfXgXgXhXhXhXgXgXgXgXhXkXxXNXBXNXlXkXlXbXbXAXCXmXlXhXhXhXhXhXhXlXbXbXxXzXlXlXkXhXhXhXhXkXlXzXzXxXzXlXlXlXlXkXkXlXbXbXNXmXbXBXbXlXjXkXzXxXbXBXBXmXxXzXkXhXhXjXhXhXhXhXhXhXhXhXgXgXgXgXgXgXhXkXlXzXxXxXxXxXlXzXlXlXzXxXzXlXlXjXkXzXbXmXbXbXxXbXNXCXGXHXAXBXmXNXmXNXBXNXxXpXeXY 9 6 c v n n D D S n 6 $ @ # $ 3 6 9 9 h c v c c c 9 3 $ $ 3 3 3 3 : $ 3 3 6 6 6 3 : 3 3 3 : : 3 9 v S E 8XqX8XR n 6 $ # + # 3 9 c v c 9 3 $ $ + # : 3 3 : $ $ b n S D S h : + # 3 B / 7X3XW D 9 $ 3 6 9 h h 9 h 6 3 3 3 : $ : 3 3 $ # : 9 C ) pXzXbXjXhXhXzXxXBXmXnXkXhXgXjXzXNXVXCXCXCXAXAXVXAXCXVXCXCXAXAXCXbXxXkXhXhXkXlXlXzXlXzXxXxXzXxXbXNXBXVXCXCXBXbXbXbXzXhXhXhXkXxXmXBXBXCXAXCXmXlXhXgXgXgXgXgXgXgXhXjXkXkXkXhXhXgXgXgXgXhXkXbXmXbXxXbXlXkXlXkXjXhXhXkXkXlXzXzXzXlXlXbXbXbXxXbXlXkXzXkXlXkXhXhXhXgXhXlXbXbXbXbXbXbXxXNXbXzXkXjXhXhXkXlXxXxXzXkXhXgXhXkXzXzXkXkXlXbXmXmXNXBXBXBXbXbXzXbXNXVXCXBXbXzXlXbXNXBXNXNXBXBXVXDXGXAXCXNXlXhXhXhXkXlXxXbXbXzXlXkXjXlXlXkXhXhXgXhXhXkXzXxXbXbXxXzXlXkXhXhXgXgXhXkXkXhXgXgXfXdXdXgXfXgXgXhXhXhXkXkXhXpXrX) S 6 $ 3 6 6 3 3 3 3 3 $ $ : 3 3 $ $ $ : 3 3 $ 6 b S S B b 9 : # @ + + + + # $ 6 c v c 9 6 3 3 3 3 3 6 $ 6 c n G P P G v 9 6 h n S R ( eXqX/ n 3 $ $ $ $ : 6 c b n D R ) 3X_ W S c v B R W ! E G n h 6 3 3 6 6 9 6 3 : : # 3 9 h 6 9 B ( rXaXgXhXhXgXhXgXhXhXhXhXhXhXhXhXhXhXjXjXkXlXlXhXdXpXaXpXfXhXkXhXhXhXgXdXpXdXfXgXgXgXgXgXhXjXlXlXhXhXhXgXdXpXdXgXhXjXlXbXxXlXkXhXhXhXhXkXzXbXbXlXkXhXhXhXhXhXhXhXhXfXpXaXpXpXdXgXhXhXhXhXhXhXhXhXhXlXlXlXkXhXhXhXgXgXhXlXlXzXbXzXbXxXzXbXzXjXhXhXhXkXxXbXNXBXCXCXBXNXbXbXNXNXNXbXbXxXxXbXBXVXCXmXbXbXbXmXBXBXNXNXNXbXbXbXbXbXbXbXbXmXNXBXNXBXBXxXzXzXlXkXlXzXlXlXlXkXzXbXbXbXBXVXNXNXBXCXAXAXDX",
"NXNXxXxXxXxXNXVXCXAXGXGXCXVXNXbXbXNXVXCXAXAXVXBXbXkXgXaXuXuXuXiXiXaXuXuXyXyXyXyXuXuXuXuXuXyXyXuXpXgXhXgXpXiXuXrXeXeXrXyXyXrXyXuXiXuXuXuXuXiXpXpXpXaXiXuXuXiXpXdXfXpXpXaXuXrXrXrXiXiXuXuXuXyXrXrXeXrXrXyXuXuXuXuXuXrXeXrXuXgXlXlXgXaXyXeXqXqXrXyXaXpXdXdXdXiXuXuXuXuXuXiXiXiXiXiXuXuXuXuXyXrXrXyXiXiXiXiXiXpXgXhXjXkXhXgXdXgXfXpXiXuXuXiXaXpXaXiXrX8X/ W E W W R S c 6 : $ $ $ $ @ @ $ 3 6 6 9 9 6 3 : 1 $ # $ : c v c 9 3 : 3 6 $ 3 3 $ $ 3 6 3 9 9 h c c c h v S S n 9 9 c v c c 6 6 9 6 $ $ 3 $ $ 3 6 9 h h 6 6 6 3 6 6 6 3 6 $ : 3 6 6 6 3 3 3 : 3 3 3 6 6 h B G W _ 3X/ G S 6 6 $ # + % 6 m ! 7XqXqXqXqXqXrXuXuXuXyXyXyXuXuXiXaXuXyXrXyXuXuXpXfXgXgXgXpXuXuXuXuXuXuXiXiXuXiXuXuXuXyXrXyXyXyXyXyXyXuXuXuXuXyXyXrXrXyXuXuXuXuXrXrXyXyXuXuXuXiXiXiXiXiXaXpXpXpXaXiXaXpXaXiXuXuXiXuXuXiXiXuXuXyXuXyXrXrXyXiXpXpXpXpXaXuXuXyXrXrXrXrXuXiXaXpXgXgXhXhXgXpXuXuXyXyXrXyXyXyXuXiXaXaXpXaXiXiXuXuXyXuXiXiXiXuXuXuXuXuXuXuXyXyXyXuXuXiXiXaXiXiXiXiXiXiXuXuXuXuXuXuXuXuXiXiXuXuXuXiXiXaXiXiXuXuXuXiXpXpXuXuXrXeXeXuXiXpXpXpXaXiXuXuXuXuXyXyXuXaXaXiXuXuXiXaXpXpXgXkXxXmXkXhXhXgXgXhXhXhXgXgXhXgXgXgXiXqXG 9 6 h c b B D P G n 6 $ @ $ $ 9 9 6 3 3 6 h c 9 9 9 6 6 6 6 3 6 9 9 9 c c c 9 6 6 6 6 6 3 3 : # # @ @ $ h b c 5 - - 5 6 3 $ - h c v c h 6 3 3 3 : $ @ # 3 6 6 6 c P ) 3XW B 9 $ + + : $ $ $ $ 3 3 9 c 9 9 6 6 $ $ $ 6 6 6 6 c n S B n n B P ) rXpXgXhXkXkXjXgXpXiXuXuXuXuXiXpXdXhXkXkXlXbXbXlXgXfXgXhXlXlXzXlXhXgXfXpXaXaXiXiXiXiXuXuXuXyXyXuXpXpXdXgXgXgXgXgXpXaXuXuXyXuXiXpXdXdXdXpXiXiXiXuXuXuXuXiXuXyXrXrXyXuXuXaXaXiXuXuXuXuXuXuXuXuXiXaXaXiXaXaXuXuXaXaXuXuXiXpXdXgXhXjXhXjXhXgXdXpXaXpXpXdXgXgXdXpXaXpXpXdXgXdXpXpXaXuXrXrXeXrXyXuXiXpXaXaXaXaXiXuXyXuXuXiXaXaXaXpXaXaXiXaXpXdXgXdXpXaXuXuXuXuXuXyXrXrXyXuXaXpXpXpXdXpXpXpXpXpXpXiXiXpXgXgXgXaXuXyXrXrXuXuXiXaXiXiXuXyXrXrXyXuXuXiXaXiXuXuXuXuXuXyXrXrXyXyXuXuXyXyXuXuXuXuXuXuXuXuXiXiXpXiXuXrX_ S 3 @ 6 6 h c h 6 : $ $ $ $ : : $ : 6 c n D D D n c 6 : # + + @ 3 v S E R S 6 $ 3 6 3 $ $ $ : 3 : : : 9 6 9 9 9 9 6 6 $ $ $ : 6 6 c n D F B 9 3 3 3 3 $ $ 3 6 9 6 6 9 6 9 9 h c 9 3 3 3 6 9 9 9 9 9 9 9 9 h h h 9 6 3 3 $ $ $ +   + 6 Y 0XuXiXpXaXuXpXgXhXgXdXdXpXiXiXuXuXaXpXpXpXpXpXhXhXhXhXgXuXyXyXpXdXdXpXuXuXuXuXiXuXuXuXuXaXpXpXiXiXiXuXuXiXuXyXyXrXrXeXrXrXrXyXuXuXuXiXiXiXiXaXdXgXgXdXdXdXpXpXpXpXiXuXyXyXyXyXuXuXuXiXaXiXuXuXuXuXaXpXgXgXfXpXiXuXuXuXuXuXuXuXuXuXiXiXiXuXiXpXfXgXhXhXlXxXxXbXbXbXzXjXhXgXdXpXpXaXuXuXuXuXiXiXpXpXfXgXgXgXgXgXlXxXxXkXgXgXdXpXdXpXpXpXpXaXaXaXdXdXgXgXgXgXdXdXgXhXhXhXjXhXhXkXlXbXbXbXNXCXGXGX",
"R E E / ( _ 7XeXrXuXuXyXeX7X_ / ) 7X) ) ) ) ( ( / E C h 3 3 6 9 9 h 9 6 6 9 c n S S S n h 3 3 h G ! ) _ W D 9 : 6 9 h c n b c h c c 9 9 u v c c 6 6 3 3 6 c n S D G G D S S n c 3 3 3 3 6 7 9 9 9 h b D E ) 8X5XY B c h b R ) 3XE F n c 9 9 c v c n B S S n c c b b n n b c h h 9 9 c v n n v v l c c v n S D G P G D S G W / ! F B v v b n n c h 9 6 6 6 c v 9 $ + + @ @ # : 6 6 9 c c 9 3 : $ 3 : : : $ $ $ 3 3 6 6 9 h 9 9 9 c v n S B h 6 3 3 3 3 : 3 6 6 9 9 c v n F E W R n 9 $ + + $ 6 6 n b v v v n n n 6 3 3 9 9 6 6 6 3 6 6 9 9 6 3 : 3 6 6 3 3 3 : : # 6 B E W R B c 6 : # # : 6 n D G G S v 9 6 3 6 6 3 6 9 9 9 b F ) 8X7X! D 9 $ $ v B C n b b c h v b b b b v c h 9 h c c b n B S B D F P R P S B 9 6 9 b n v 9 9 6 6 6 6 c n S D F D S B n n n v B D E _ ) / R D n c 9 6 6 9 9 6 7 6 : $ 9 F ( 8X7X) / R S c 6 $ # : h S Q 7XqXeX7X/ R F S v h 9 9 c n B D F P R W ! W R G n 9 6 6 c n n n b c c h c c h h h h 9 c c c 9 9 c v c v c v n n B G G P F B h 9 h h c h c c c b n n n 9 9 9 h B E _ ) ( W F b h 6 3 3 6 9 h c c h c c n b h 6 9 b S G R D b 6 3 6 9 h c c n n B B n b h 6 3 3 3 h b v h 6 3 3 6 6 9 9 v c 6 : # # $ $ 3 3 3 3 6 6 9 9 6 6 6 6 6 h c v 9 9 6 3 , 6 6 3 : $ : 6 3 $ $ $ 3 3 6 3 3 6 6 6 3 6 3 : : $ $ : 6 6 3 $ : 6 h c h 7 6 6 6 : $ $ : > 3 6 6 9 9 9 6 3 6 9 9 6 3 : 3 6 6 3 $ - 3 6 c n B n v 6 $ : 9 n G / 8X9X0X_ B h 3 6 9 9 9 c B S S B F ! 4X3XR F S S C S F F S S n n b b n n S B v 9 6 9 h c 9 9 c b v n B B D S S S B b c c b n n b c c v h h h c b n F G S n v c c b b n n c h 9 h c c c c v c c 9 9 c v h h h 9 9 9 c n S E E P n h 9 6 6 9 j h c c h 7 9 h l l h 9 h 9 6 6 3 : 3 3 3 6 6 9 9 6 6 6 6 6 6 6 9 9 6 9 9 6 6 9 9 h c b n n n b 9 3 , 3 h C P W W R S b h 9 6 c c c c c 6 6 c G P G b 9 6 6 6 9 9 v n B D S n c 6 6 9 c n n n c 9 6 6 6 9 9 9 h h h c v S G F D S B B B n n B S S F P F C b h 3 : : 3 3 : 3 6 6 6 9 9 6 : $ $ 3 9 n D F S n b 9 3 $ + + $ 9 b D D b : + + @ @ $ $ $ $ $ $ : : 3 3 9 v c 6 3 $ 6 6 6 6 6 6 6 6 : 6 3 3 3 6 6 6 9 9 6 3 3 3 : $ $ # + + $ 6 b D E W E P D b 9 6 3 6 6 6 6 9 9 9 9 6 6 : : 6 c S G R F B n n D E 3XqXrXyXeX_ F n h 6 6 h h 9 h h S G W W R n 6 6 n n B n n b v h 6 h F ( qXyXrX7XG 9 3 9 h l n B S D D S n c 9 c B D D S D P W ) 9X9X_ F n c 9 9 6 6 3 3 6 6 9 x h c c v n b h 9 3 $ 3 6 m G R E P S b h h b b c 9 3 $ : 6 h b S D G n h c b n b n n v h c v n D F F D B n c c c 9 c c c c 6 9 v S R / ( / W P D V B F E W E P F S A n n c c c n S F R P F D S n S D P W / ) 7X0X",
"G D c $ + + 3 v / / / R n 9 $ # - 4 5 9 9 9 6 : 3 3 3 $ $ 3 6 3 3 6 9 c c 6 $ $ 3 6 h h 9 3 @ + $ 3 6 6 6 6 9 h 6 6 6 6 6 9 h v c b n n b c 6 3 3 $ # # $ $ $ : + # 3 6 n R / / W P n 6 $ # # $ 3 6 D / 7X9X9X7X( R B 9 $ $ 3 $ 3 6 h c n S D S n n c 9 6 3 3 6 b v c 6 3 3 6 6 6 6 6 3 6 6 6 6 : : 3 6 6 5 6 6 6 3 6 9 h b n b c 6 6 6 3 6 6 6 6 3 6 c B G G n $ + + 9 D R R F b 9 6 $ # $ $ $ # $ : 6 6 3 3 3 $ : 3 6 n E W E n 9 9 n n 9 : $ : 3 6 6 9 9 9 6 6 6 6 9 h c c c c 6 : # : c n n 6 3 $ $ $ 3 9 9 6 6 6 6 6 9 9 6 9 9 c v b c 9 9 6 6 6 3 3 : $ $ : $ : : : $ : : 6 6 6 6 6 6 6 3 # $ $ $ 3 3 : $ $ $ 3 6 3 $ 3 6 c n n b v 6 : : + @ + + + # 3 9 c c h 6 3 6 6 3 9 6 : 3 6 v S G P P C l 7 6 9 v F W 8XrX0XR 9 $ @ @ $ : 6 c b n B G W ) _ W D n n n G W / E F S 9 6 6 3 6 9 9 9 3 : $ $ $ 3 3 3 6 9 h c c h 9 6 6 3 3 6 9 v n n v 9 6 9 3 $ $ 3 9 9 h h 6 3 6 9 v n c h 9 3 $ $ 3 3 : $ # $ $ 3 6 6 6 3 3 : $ # + # 3 h B F G D c 3 $ $ $ 3 9 h v v 9 : # $ $ : : 3 3 3 3 3 $ @ + + : c b c x 9 h 9 6 3 3 : $ # @ # $ $ : : 3 3 3 6 6 6 6 6 6 6 @ $ $ : 3 6 9 6 3 : $ $ $ $ : : 3 3 3 6 b E / W v 6 # $ : 3 3 6 6 6 6 6 3 $ # # : 6 h v c 9 6 3 6 3 : : : $ : 3 $ $ , 6 9 9 6 3 3 $ $ 3 3 6 9 h b n b 9 3 3 , : 6 6 3 : : : : 3 $ $ $ # 3 c S F F F G S b 9 $ +   + 9 D E ! E D 6 + + # : 3 $ $ $ $ # + $ 6 c v 6 6 : @ @ # $ : 6 3 3 3 3 6 6 3 3 : , 6 7 6 3 3 3 3 : $ # @ @ X $ $ 6 9 c b n c b v c c h 9 9 9 6 9 6 6 6 6 3 $ + + $ 6 9 c h 6 h 7 9 b F / 7X8X_ W S 9 3 6 6 6 3 3 3 6 n / 9X9XE B 6 $ 3 6 c v 9 6 : : : $ : h B F D n c 9 3 : 3 6 6 : $ : : $ # $ 6 9 l c c h 6 9 n F R R R G n c 6 3 $ $ $ # $ $ : 3 3 3 3 3 6 6 3 # X X @ : c n n c 6 3 : 3 : 3 : $ # + +     + 3 c n B B B B S G P G n h 6 9 c c v v 9 6 9 6 6 $ # # $ # # $ 3 6 6 n G W W F n h 6 6 6 9 9 6 3 3 3 6 6 6 6 6 6 c n G ^ / E b c B W / P n b B D Y R P F B c c 9 h v b c 9 9 9 9 9 9 6 3 $ # # @ $ : : $ $ : 6 6 3 $ @ @ @ + + + @ @ $ 3 3 3 @ $ : 6 c S D G 9 3 6 9 9 6 6 6 c n R / ! S 6 : 6 3 3 6 6 6 9 9 6 6 6 6 9 9 9 9 6 6 6 6 3 : 6 n R ! ( / R v : + : 3 3 6 6 6 6 6 3 3 6 6 6 6 3 3 c 9 6 3 3 c n n D P _ eX9X/ D 6 $ + @ $ 3 $ $ $ $ $ # # $ $ $ 3 6 v D E W P n h : $ 6 S E / / W b 3 3 c c 9 9 9 n n n c 6 # + $ c n b 6 : 3 6 l c v 9 3 : $ $ 6 c b n n c 3 # $ 9 c c 6 6 3 $ # # + + + + # 3 6 6 6 3 # @ $ 3 3 $ # $ 6 6 9 9 9 6 6 3 @ + + + + @ $ $ $ $ @ + $ : 6 9 v c 9 6 6 $ $ $ $ 3 3 3 6 n n S G G F D S S V h 3 3 c S D B n h 6 3 $ # : 6 b W eXrXrX7XE c 6 6 b n 6 + + ",
"0X7XW n 6 $ # # + # # + # 3 6 c c t 6 $ # $ 3 3 3 6 6 6 h n D D n n n S B v c b G R P S b 9 : # + # 3 9 v b b n R R E R D c 6 v E / 7X8X) W S c 3 3 3 6 6 6 6 3 # # # 6 c S G E G D B b 9 3 # + + $ c D R E R G S n c 9 6 3 6 6 h c c c v n B D P F n 9 3 $ : 3 : 3 6 6 6 6 6 6 6 6 6 $ # $ : 3 3 6 9 v n n c 9 3 : 3 h b n B B c 9 6 6 3 3 3 3 6 6 9 6 : $ : $ $ 3 n F P G D S S b 6 $ + # $ : 3 3 6 6 6 6 6 6 : 3 : : 6 h c 9 $ + X + # $ : : 6 6 6 6 6 6 6 3 # : v G E G B c $ # $ 6 9 h h 9 6 6 3 $ @ @ $ $ 3 6 9 6 6 6 6 6 : : 3 6 6 6 6 6 $ $ $ 3 3 : $ : 3 : $ $ $ 3 9 9 9 9 6 3 3 9 c h 6 6 6 3 : : 3 : $ : 6 v S F P F n b 6 $ $ + + # 9 n G W W n 3 $ 3 6 3 # @ $ 3 3 $ $ 3 6 9 c c c h h 3 @ + # 3 6 6 c S D S v 6 : 3 3 : : 3 6 6 9 3 3 6 c c 9 6 9 3 6 9 x h 9 9 9 c 9 9 c c c c h 6 6 3 : $ @ # $ 3 3 6 6 6 6 6 9 h v D R R D n 9 9 6 9 9 6 6 9 9 6 b E 7X8X/ D v 3 6 9 b n h 6 6 3 3 3 3 3 6 9 6 6 6 6 6 6 6 6 6 : $ @ # 3 6 9 c 6 3 3 3 : $ 3 6 6 c n n n c 6 6 3 : $ $ # # # # $ @ + + @ $ $ 3 + + + @ : 6 h h 3 : $ $ : 3 : $ $ : $ $ @ + + + : 6 v S G P R E E R S c 6 9 c c 7 6 3 $ 3 6 9 6 6 $ @ $ $ $ : 6 v n D F D n 9 6 6 6 6 9 6 : # # 3 3 6 9 9 6 9 h S D E ( ! F C S E W P n b G E E E P D B b 9 6 6 9 c 9 6 9 h c c 9 6 - + + # 3 6 9 9 6 6 6 6 6 3 $ + @ : 6 6 6 : # + + $ $ # + : $ 3 6 6 6 3 $ 3 b b 9 6 9 v S D S n c 6 3 3 6 6 6 9 9 9 6 3 3 3 3 3 3 3 6 6 6 6 $ 3 9 n E 8XrXrX( R b 3 $ $ 3 6 6 6 9 h h h 6 3 3 3 6 c n S S B : 3 l S E ( 7X8X9X7XR c : # + + $ $ $ $ $ 6 9 6 9 6 3 3 6 h b n S S n h 3 $ 9 F eXuXyX) P c $ 3 6 h c v B G P G h 3 3 9 b b c c h c B G R G n c : @ @ $ # # $ @ # + + + @ 3 9 9 6 3 3 $ @ + + + $ 9 n B n h 3 # 3 6 6 3 $ $ # @ $ 3 8 9 9 6 $ + X   + $ : $ # # + $ 6 9 v n n n c 6 3 3 3 6 6 6 $ $ $ $ 6 S P R P D S B b v b n G R W W R B 9 6 6 3 : $ 6 S W / / W F n 9 : $ $ $ : 3 6 h B F P B n v v b b v c 6 $ @ # : 6 h v h 6 : $ @ + @ # : 3 $ + + $ $ $ : $ $ 3 3 3 3 6 3 6 b F W ( / ! R S v c h 9 9 9 6 6 6 9 c c 9 9 $ $ : 6 9 6 6 3 6 6 9 n B n n n v h 6 6 3 $ $ 3 6 h c 9 6 3 $ 3 3 3 3 3 3 3 3 : : $ 6 9 h 6 @ # # @ $ $ 9 R ( / n c D ( 7X7X( R B b n S S n c h 9 6 3 $ $ $ $ $ $ : 6 9 9 6 3 3 6 : $ $ # @ + + + # 6 h 9 6 3 @ + + @ $ 6 h n G E R B 6 $ $ $ $ # $ @ @ 3 9 n F ( ) ) / G c 9 c E / ! F v 4 +   % # $ 3 6 6 6 6 6 6 6 6 $ @ # : c B R W E D n v S n S B v 6 3 $ # $ $ $ $ # # $ : 3 6 6 6 6 : : $ $ 3 9 c c c v 9 c n n b h 9 9 b V V b c c h 6 6 3 # @ 3 6 9 b h 6 c D D G G B 6 3 3 6 9 6 6 3 ",
": 3 $ $ $ : 3 3 9 c 9 6 6 6 6 6 6 6 6 3 3 6 6 6 3 $ $ 3 6 c n n b 9 3 $ $ : 9 n W _ 7X_ E n 3 + $ : 3 3 6 c b n n S G W W S 6 6 h b n n n n b v h 9 9 c c c 9 6 3 $ $ $ $ # # $ 6 9 h h h h c c h 9 h c c 9 6 6 9 6 6 6 6 : : 6 v S D D B 6 $ : 9 c h 6 3 3 3 3 6 3 3 : 3 6 6 6 6 6 6 6 6 : @ + + $ 9 n S S n v 3 $ + + $ $ 3 6 6 6 3 $ $ $ : $ 3 : $ $ $ # @ + $ # $ $ # + @ # @ $ : 3 $ $ $ @ # # # $ : : $ $ 6 6 6 6 : @ @ $ $ 9 B G G D n h 6 3 6 6 6 6 6 $ # # 6 n S n h 3 : # $ 3 6 3 6 h n B b 6 3 : 3 6 h h 9 6 : $ $ $ 6 3 3 3 3 3 6 9 B S S n n n n v v h c b n D G D B n c 6 3 3 3 3 $ 3 6 6 9 9 6 6 # @ $ 3 h B D S n b c h 6 $ + # : 6 n D S 9 # + + @ # $ # # $ $ : 3 3 : 3 9 c c 3 3 6 h c v h 6 6 3 : 3 6 6 6 3 6 6 6 6 6 3 3 : 3 $ $ # # @ $ 3 n D W / / W F B v 9 6 6 6 6 9 9 9 9 9 6 3 $ $ 3 v n D G D v 6 3 b F _ eXrXrX0X( S 9 : $ # : 3 : $ 3 v G E G b 6 3 $ 6 9 c c 9 6 3 $ $ 3 b ! eXeX) E n 3 # : 6 9 6 9 v B n h 6 6 9 c n n n b n S W / ( / E B 6 : + + + # # + + # # $ 3 6 6 6 6 3 : # + X $ 9 S G D n c 6 3 6 6 6 6 3 @ X X + : 6 v v c 9 6 3 3 6 v n c 3 # - 6 9 n S n n v 9 9 6 # $ 3 6 6 $ # # 6 c G W ! R S n 6 6 9 b S G G G S B b 9 6 3 6 6 c n G R P B c c B B b 6 3 h n b n n B D B c 9 9 h c 9 6 6 3 3 3 $ $ - 3 3 $ # # + + # $ = = $ # # + + # + + # $ $ $ 6 6 6 : : 9 D W ) ) / D 9 9 6 6 3 : 3 h S D P D n 9 6 3 3 6 8 9 9 6 6 9 c c c b n n n c 9 6 6 3 3 $ 6 b B n 9 6 $ $ 3 3 6 6 3 : $ # $ 3 6 9 c h 6 3 $ @ # : c B D P P S D R ) 7XW n 6 3 6 h c c 6 3 : $ $ : # $ # @ $ 6 n S G D n c 9 3 $ 6 6 c c 6 6 6 3 6 h 9 6 $ $ 6 6 6 $ $ 6 S F D B c 3 $ 3 6 6 6 3 $ 3 6 n G W _ 3X_ P S b h c S G S 9 $ # : $ $ # @ @ # @ # $ $ $ 3 @ # $ $ 6 c n S b n b v v b c h 6 3 : : : $ $ $ @ $ $ $ 3 6 6 6 9 9 6 3 $ # $ 1 6 6 9 c n F E E S n n B n v c h 6 6 c c h 6 $ $ 3 6 6 6 c S W 3XrXrX) S 3 : 3 : 6 6 3 $ $ 3 9 n F W ) 8X8X) W D 3 $ + @ : 6 c n D B c 6 $ $ $ $ # # @ @ # : 3 3 $ 3 6 h c h h h 6 6 v D G S n b c n B S D F F F F G S c 6 6 3 # : : 6 9 c v n c 9 6 6 h n S D G R R D c 6 3 3 3 6 9 c c h 9 3 : 3 3 3 3 3 6 6 6 : $ : 6 c c v S G D n 9 6 9 9 3 3 : c G E W E G S n b n b c h 9 9 9 c x 9 6 6 3 : $ $ 3 3 3 3 3 3 3 3 3 $ : 3 3 : 6 b G D c 3 3 6 c n D F D n b 6 3 3 3 3 3 3 $ 3 3 3 3 : $ : 3 $ 6 9 9 6 $ # 3 n D G n c 6 $ #   + $ 9 n G G H 6 $ + # $ $ # # # 3 n W ) _ W G c 6 6 9 h n B b 9 3 : 3 6 6 6 6 6 6 6 6 9 c c c 9 9 c n S G G P E R S c 6 6 9 h v c c h 6 : @ @ $ 6 h c v h 6 6 9 9 6 3 : : 6 9 S D B c 9 n S D ",
"S n c 6 + .   : G W / E D 9 + X + @ # $ $ - $ # + # 3 9 c 6 3 # $ $ 3 3 3 : $ 3 3 6 6 3 6 3 3 6 6 6 6 3 : 3 3 : $ $ $ # # $ 3 9 n n S n n n c 9 9 6 9 9 c h 9 9 6 6 3 $ $ $ 3 3 9 c c h 9 6 h v D E ( 7X7X! D n 6 6 6 6 6 3 $ 6 n E ) 9X8XG 3 $ 6 c c 9 6 6 3 : @ $ 6 c S G P G 9 3 : 6 h 9 6 6 3 , : : : 3 6 6 c b v c c b n G W W W G n 9 6 3 3 : # # $ $ $ 3 $ $ 6 9 9 6 $ + + + $ 6 h n n n 9 6 6 6 6 6 6 6 $ @ X   + 3 h v n n n n S F R R S b h 9 9 v n n v 9 9 6 3 3 3 : $ $ : 3 6 3 9 n E / ! P S n c h 9 h c c 9 6 6 6 9 6 9 9 9 c B F / _ E n c G W E G B n B D R W E D B v c h 9 6 9 h h h h 9 h h 6 3 # @ # @ $ : : $ # 3 h 9 3 $ $ # $ # + + @ $ $ 3 : $ 3 3 3 9 v F F B 7 : 6 9 6 , , j n G W / W b 6 : 3 6 3 6 9 6 6 6 6 9 9 9 9 h h 9 9 6 3 3 3 3 h D ! ( / P n 6 $ $ 3 6 3 3 3 3 3 3 6 6 6 6 6 3 6 9 c h 6 6 9 n D G G W 8X0X_ S 6 # $ $ $ $ $ : : > $ # $ $ : $ 3 9 n G E W G n 9 3 : 6 G / / E D c 8 6 9 c c h h b S B 9 $ # 6 c v c c 9 6 6 9 c c c 9 4 $ $ 6 c n G D n 6 6 3 3 9 v v 6 $ + # # + + + + # $ 3 3 6 3 > $ $ > $ $ 3 6 6 3 3 6 6 6 6 6 $ + + + + # $ $ $ % # $ $ 6 6 c c h 9 3 6 3 3 3 3 3 3 3 6 c S R E G S S D S b 9 6 c B D F D n 9 3 $ : $ $ 9 F ) rXuXeX7XD h $ # # @ $ 3 3 6 v D D D D G W ! E D n 9 $ @ + $ 9 B H S n c # + + + # # # # + + $ 6 6 6 6 - 6 6 9 6 9 h v S E / / R F S n n D G F D n c c 6 9 9 9 6 3 : : 6 h c c 9 6 6 6 9 v n n n b c 9 9 h 9 6 $ : 9 n n c h 9 6 3 $ $ : 6 6 6 6 3 : : 3 6 6 3 : 3 : 3 6 9 c V D S l h S _ 9X7XE P F D D n S n v b v h 9 6 6 : $ $ : $ + + $ $ @ : $ # $ > : $ @ $ 3 h c b c 9 1 $ 3 9 c n n D D B n c 6 : @ @ $ # # $ $ : 3 9 b n G G n h 6 6 c S / 3X! n , @ @ @ @ : 7 D F G D n 9 : $ : : : : 9 n F R E R D n v n n n n c 6 $ @ @ $ $ 3 3 3 : 3 3 3 6 6 6 3 $ 6 9 n S S D D D S S n c 6 , 3 h B S D D n c 6 3 3 3 : : : 3 3 3 3 : $ : $ 3 6 9 v D P R S n 9 $ + + @ 6 n D G S S D D B n 9 $ + + + $ 3 : 3 3 $ $ : : $ $ $ : 3 6 6 3 3 @ # 3 9 c c 6 $ # @ : h h 6 c D _ ) W b 3 3 6 9 n n c 6 $ # $ 3 6 6 9 9 6 h c 6 : 6 6 h n F W / _ / G 9 : 3 3 3 3 6 3 3 9 v n B n n c 6 6 3 $ @ @ : h n D P R W / / ! Y B 3 O X X + # , , $ $ $ # # 6 c b c 9 6 3 $ 1 6 9 9 6 3 # $ 3 9 v v c 9 9 9 6 $ 3 8 6 6 3 : : 3 6 : $ : 7 c B S S B l 9 6 : : 6 6 6 9 h h h h 9 6 , : $ 3 : $ # $ : 3 6 6 3 $ @ @ : 6 6 6 3 $ # + + +   + + # 3 3 $ + + + 3 S / 0XeX0X/ D c 6 6 B 3XrXqX! S 6 $ $ 6 b n B S B n n S B b 6 $ @ 3 v R / ( R S 6 + $ 9 n n 6 3 3 h l 9 v D ! ) ) / W W / 7XrXyX( b 6 6 9 c c n S G G G P P ",
"3 : 3 6 6 $ @ @ $ $ $ : $ # # # $ # # # $ : 6 9 9 6 6 $ $ h n c 6 3 b P R D n c 6 3 3 6 6 6 6 6 6 6 6 6 3 6 6 6 6 3 3 6 3 $ 3 c F / 9XeX9X/ S 9 3 : $ : 3 6 6 6 6 6 6 6 3 $ 4 9 B D S n 9 6 9 l I W 8XeXqX7X! D 9 @ + $ # # $ $ 3 3 6 8 6 3 : 3 6 c n B D G B c $ $ c P ) rXuXeXF h 3 6 9 9 c b S G G S n 6 $ 3 v n b 9 9 v S G R P B 6 $ $ : $ $ 3 : $ : $ + $ 3 6 6 6 6 3 $ $ + + + @ : h n n h 6 6 3 $ 3 6 3 : # + @ $ 6 9 h 9 3 $ + X + # @ # : : $ $ 3 9 c n n n b c 9 6 3 3 3 3 3 : # $ 6 v D P P R G S B S n n n S G R G B c 6 3 : $ 3 9 D E _ 3X( R B h 3 $ @ $ 3 3 9 n F P F S n n n n S n c 6 $ $ $ : h c b v h 3 $ @ + # $ $ $ $ $ # # $ 3 6 6 : $ : 9 h 9 6 c P / _ ) / E D n c h 9 c h 9 6 6 9 c c h 9 3 3 3 6 9 h 9 6 6 6 9 c b n n B n h 9 9 6 6 $ , 6 9 c 9 3 3 6 3 3 , $ 3 3 3 3 3 3 : 3 6 6 6 $ @ + # $ 3 v D ! / R v n / 9X9X( R D B n B S n c 9 6 6 6 6 3 $ # $ 3 3 3 6 6 6 3 : : : $ $ : $ + + # : 6 9 6 3 3 @ # $ $ 3 9 c G R R D b 6 $ + @ $ $ $ $ > 6 c G W ) ) / G b c n n E / E n 3 + @ @ $ $ 3 9 c v x 9 6 6 : $ $ $ 6 h B P E R F S B n n S D b 6 6 3 $ # $ $ $ : : : : 6 6 6 6 6 3 : # : 9 9 v n v v c b n b 9 6 6 6 v n n n c 6 9 9 6 3 # @ 3 9 9 9 9 9 9 c D G S h 6 6 h v n v 6 @ X + 6 v F ! / / W W E S h : @ @ # $ 3 6 h h 9 3 3 3 3 3 $ @ $ $ : 3 3 : $ 3 6 n n n 9 3 3 6 6 c h h l c S P D c 9 h n D F D B 9 6 $ $ : 3 3 6 9 9 c b v h h h v S W ) 8X) W F 9 : @ $ 6 6 6 6 6 3 6 9 9 6 6 6 3 6 3 : : $ 3 h D E ! ! ^ ) ( E n 6 + + @ @ $ 6 n n c 3 : 3 6 h v n c 9 6 3 3 9 h v h 3 : : 3 3 c c c c 6 3 : 3 6 6 6 6 6 6 9 9 c h 6 3 6 b D G D S n c 6 3 3 $ 6 9 h 9 9 c h 9 6 6 3 $ $ : 3 3 3 $ : 3 6 6 6 6 3 : $ # + + @ $ 6 h 6 3 : @ + @ @ # +   $ 9 B / eXyX9XW n : @ 6 S W ( / E n 3 $ : 3 6 c c 6 6 b n S B c 6 3 3 6 c D R E R n 3 : 9 c b b c 9 3 3 3 6 3 3 c E _ / F n F ( ) E B c 6 3 h n D R W R n 9 3 : $ 3 6 6 9 9 6 3 : 6 9 9 c 9 3 $ @ @ # $ $ : $ 3 6 $ # # $ $ : 3 3 : : 3 3 6 6 9 h 6 6 h b n h 3 3 6 v S W / ( / P v $   X @ 6 c n c 6 6 6 6 6 9 c v n b 6 3 $ # : 6 9 6 9 3 3 6 6 6 6 3 $ - 6 c R 8XrXrX_ E C c 6 6 5 6 3 3 6 9 c h 9 9 c h c h 6 9 9 3 $ @ + # $ 3 6 9 9 9 3 # $ 3 6 9 6 9 6 3 6 6 3 3 $ $ : 6 c c 9 6 $ : 3 3 3 6 6 6 6 6 9 9 6 3 3 3 6 9 9 9 9 6 6 6 6 6 3 $ $ : 3 3 9 9 h h 9 6 6 6 6 6 3 : : 3 6 c n n 9 $ 6 D _ 8X8X) G 6 @ + @ 3 v D P E F 6   X : 6 c c v b v c 9 3 3 3 6 6 6 h 6 3 $ # 3 6 b G P E G b 9 9 6 6 6 c S P R G S D G G B 9 3 3 : $ $ 3 6 9 9 9 9 c D D D n h c b c c v c 6 6 3 6 9 S S B c 6 3 3 $ ",
"# # $ : $ @ + # $ $ $ # # $ : : 3 6 6 3 h D W ( / R S c 3 : 6 6 # 3 h b S D S n 9 6 3 6 6 9 9 9 6 6 6 9 c n n b v c h 9 9 6 : $ 3 6 c n n 6 $ # $ : 3 6 3 3 : : $ $ 3 9 c 9 5 4 # # @ # 6 B P Y B B F W ( ) / G c 3 6 v v c 9 6 3 3 3 : $ # # $ # 3 c n S B v 9 6 : : : 3 9 c 6 3 $ 3 9 9 6 3 3 6 3 $ $ $ 3 9 n E E D 6 $ : 3 $ 6 3 : 3 3 9 n R ( 3X7X) W n 9 c S F D v 6 : @ @ $ $ : $ # $ $ # 6 : $ $ # # 3 6 v n D G S n n b n b 9 6 6 $ $ 6 6 3 $ # # # # # : 3 6 6 6 6 3 3 : $ $ 3 6 9 c b S D D S B B B S c c h 6 6 h c h 3 $ $ 6 9 6 9 c n F ( eXeX( C 9 # $ 3 6 6 3 # # : 9 B R ! ( ) 3X) W S 6 + + # 6 6 c n B b 9 3 $ : # $ : $ + + # $ 3 3 3 6 h v b c c 9 6 h B F G n b x h v B D G S D G R F n c 6 6 3 $ $ 3 6 h v b b c 6 6 9 n D P R E W R n 6 : , 3 6 6 9 9 9 c 6 3 3 6 6 3 6 6 6 6 3 : 3 9 c c n n S D B h 6 3 6 6 3 3 c F W W G D B n n n b c 9 9 9 9 v v u 9 5 $ $ 3 3 3 3 3 3 3 3 3 3 6 3 $ $ : 6 9 b n B n 6 3 6 n D D G S v c 6 3 $ 3 3 6 6 6 6 6 6 , : 3 $ 3 3 6 9 6 $ : 3 6 v S S b 6 : # @ + + 3 n D F B v 6 $ + + # @ + + 6 n G / 7X) D v 6 3 6 b S B v c 6 : : 6 6 6 6 6 3 3 6 c b c h 9 c n n S D F E E D v 9 9 h h S S n c 9 3 $ # @ 3 h n n h 6 9 h c c 9 6 3 3 9 n D W / W D c 3 $ # # $ $ 6 6 6 9 9 v B n v 9 3 # # $ : 3 3 $ # # $ $ $ : 3 3 3 6 6 3 : $ $ : 3 6 6 6 : : 3 6 6 , 7 c n Y 8XeX3XD 9 $ @ + + : 9 h h 9 6 3 3 6 9 9 9 c h 6 3 : : $ 6 c n S n c 9 6 3 6 6 6 : 6 9 B P ( 8X3XW G n 9 6 3 3 6 : 3 9 D P F B B F R Y c 6 : : # X X @ + $ 6 6 6 6 3 3 6 6 6 6 3 3 3 3 6 6 3 : # # : 6 c b b 9 3 3 3 : 3 3 3 3 3 6 6 9 6 6 3 : 3 9 v v b h h c h 6 3 3 : 3 3 6 6 6 6 9 6 6 6 3 : 3 3 3 $ $ 9 n n 9 : # $ 6 B W W D 9 3 @ + X   $ v S n 9 3 : # $ 3 h S W / ! R S c 6 9 G R E G B 9 $ + # 6 S E W G n b P D c : $ 6 v B D G R E G c : # 3 6 3 $ 3 6 h h h c n G ! ) 3X_ D S W 8X8XW B c h 6 6 6 9 B D n 9 $ # : 3 6 h v B n c 6 3 3 3 $ $ 3 3 3 : : $ : 9 n D G S v 9 9 n n n 6 3 6 6 3 9 h 9 6 6 6 6 6 c v 9 3 3 6 h b n n S D n 9 $ $ # $ 6 c n B n c 6 3 3 6 9 x 9 6 : $ $ $ 9 S R W S n n n b c 9 6 6 6 6 6 6 v S F R P n 6 $ 6 c c h h 9 6 6 9 9 9 6 : $ $ $ 3 6 3 @ + @ $ 6 9 b n S B 9 $ # : 6 c S D S B c $ + @ 6 9 c c 9 3 $ 3 6 6 3 3 3 6 6 9 9 6 3 $ $ $ 3 6 h c 9 6 3 $ @ @ $ # : 6 6 : $ 3 $ 6 c v v c 6 3 3 9 n G G n 9 3 $ 1 6 c n D F G D n 9 3 : $ 3 h b S F F S v 6 3 $ # @ @ # : 3 3 $ : : $ # @ @ + 6 h h 9 9 6 9 v P F n 6 $ @ @ $ 6 9 9 6 3 $ : 6 n S S b h 9 9 6 : 3 c P ! W G S 6 # @ 3 6 h c c 6 3 # # $ : 6 c n n c 3 # $ $ $ ",
"+ @ # $ # @ # $ 3 6 6 6 6 6 6 6 6 9 h b D W / ! W P S b n G R P D S b c v 9 6 6 6 3 $ $ 3 9 v v 9 9 6 9 9 c n S n B b 9 6 6 6 6 3 6 c S S c 6 6 6 6 3 : : 3 6 9 6 3 3 3 3 3 3 6 h 6 3 $ 3 c n S n v b S R _ 8X3XW D S S S n n b b v c 9 9 6 6 6 $ # # $ $ $ $ $ $ $ $ $ $ $ : $ @ : h n B h 3 3 : 6 h n S D D D n n c 6 3 3 3 : # $ $ $ : 3 9 c B S B n c 3 3 h W ( / G v 6 @ X   + 3 b D P G D 9 3 $ $ : $ : 6 c B R / ! E S v h h v n B c 3 # # # : 6 3 $ 3 3 3 3 6 6 9 6 3 3 6 c B G F G F G D n h 6 3 6 9 c D G D n c 6 3 : 3 3 : $ $ : 3 3 3 3 3 6 6 6 c n P R R G n 9 $ + X + 3 v n n n n n B S B b 6 + + # : 6 6 6 3 3 $ $ $ $ $ : 6 9 9 6 6 3 $ $ 6 h h 9 6 $ @ $ 6 c n c n E 7X3XG 6 $ : 3 9 v n 9 3 $ $ : 3 6 9 9 h h 9 9 6 3 3 6 v B E W / ! G c 3 : 3 6 6 6 6 7 h b S F F B b h 6 : : : # # 6 n F R G R W _ / G v 6 @ + X + # $ : 3 : : $ $ 6 v n n 9 6 3 $ 3 9 c c 6 $ # # : 9 c c v c 9 6 6 6 6 3 6 6 6 6 6 6 3 : $ $ 6 n S n n v 9 9 6 3 3 3 6 6 9 9 h c h 6 3 : 3 $ $ : $ # $ 3 9 c 9 $ # + @ 6 h v 9 # + # + + X   @ 3 6 : $ $ # + 3 b G 7XrX9X/ D 9 3 6 G 7X0X8X_ G 6 $ $ 6 c D F S v b S D S h 3 # $ 6 b F W W E n # + 3 9 c 6 6 6 c c 9 c n G W ) 0X8XW P ! uXaXeXD 9 h 9 6 h c n B n 9 3 3 3 6 9 h v n n b 3 : : 3 3 3 3 $ 3 $ + @ $ 3 h b b b 9 3 : 3 6 6 6 6 3 3 6 6 9 h 6 6 9 v B S B n 6 # 3 b S D F R / R n 3 + $ 9 c B S n 9 : $ : 3 9 9 c c h 6 3 3 6 h b n n c 9 6 9 6 6 6 3 : 6 c n D W / / E S c 6 3 3 9 c 6 3 6 9 h h 9 6 6 3 : 9 6 6 6 3 # @ $ 6 9 v n n c 6 : + + 3 h n B B n h 6 : $ $ $ $ : 6 6 6 6 6 6 6 3 6 6 6 9 6 6 6 6 3 3 3 3 6 c b v 6 3 : $ $ $ 3 : 6 3 $ $ $ 6 h v n v 9 3 : 3 6 6 3 3 3 6 6 6 9 c v S W 0X0XW B 9 6 3 3 6 v W ) / S 6 : $ $ 3 3 6 6 6 : # # @ + # + + @ $ : 3 6 9 # : c F E R S b 3 3 : 3 9 n S S c 9 v S D G D S 9 6 3 : : : 3 9 b n n c 9 6 , > 3 3 3 3 : $ # # # : 9 n D W W P c 3 $ # @ @ $ $ $ 3 6 6 6 6 6 6 3 3 3 3 3 6 6 6 6 6 c S E / / W S c 6 6 3 3 3 6 3 3 6 6 6 6 3 6 3 6 3 $ : 9 b B D S h + X # 3 3 6 6 6 6 6 6 6 6 6 6 3 : : 3 6 6 9 6 3 $ : 6 h c 9 6 : $ : 6 h c n n n v 9 3 3 6 c h 9 6 3 6 9 c B B n c 9 9 9 6 3 : 6 6 6 : $ @ 6 3 : : : : 6 9 c v c 9 3 $ @ @ + # $ $ @ X X # n R ) 0X7XE v 6 6 6 h c c 9 6 3 $ $ # $ $ $ $ : 3 6 6 3 : $ @ $ : 6 h c c 6 3 $ 3 3 9 n n h 6 6 6 b E 7X0X( G v $ @ # 6 c b n n c 9 : + + # $ # # @ 6 v D ! ) / F v $ + + 3 v D / W G c 3 3 6 6 3 6 3 6 h n D F v h 6 $ # @ # 3 3 3 $ # + + + @ $ $ 3 6 3 : $ @ $ 9 F ( ( G c 6 # $ 6 v B S S n 9 6 : $ $ # # : 3 6 3 $ $ 3 6 6 ",
"3 : $ + + # : 3 $ : : 3 6 v n B 6 : $ 3 9 h c v b b S G D h 6 6 n G F B c 9 6 : : 3 3 6 6 9 h 9 9 h h c h b D E 8X9X3XR n 9 : # : 3 3 6 6 6 6 6 9 h 9 6 6 6 3 $ $ $ 3 9 n F W / E E W W G c # + . X $ 6 9 c c 9 3 : 6 c b b c 9 6 6 6 6 9 c c 9 3 $ $ 3 9 c v v 9 6 6 6 6 6 3 6 : 6 h b n h 3 3 9 c B F F D n c 6 3 3 6 6 6 6 9 9 h h 6 6 3 $ + $ 3 3 : 3 : $ : 3 9 6 $ # 3 : # @ + @ 3 6 6 6 3 @ + + # $ +   + + 9 E 9XyXrX) P h : 3 c D / 7X( S 9 : $ 3 9 b c h 9 h n S B n n 6 3 6 c S E W E B h 6 3 6 h b n 6 3 3 6 6 6 9 n E / W S S W ) ( W F b 6 6 9 n D E E G n 9 3 $ # 6 6 6 9 9 6 6 6 6 9 h c h 3 $ # $ $ $ $ : 6 6 3 $ + + : 6 3 3 3 : $ : 6 6 6 9 9 6 9 c n n h 3 : h n G W ( _ W F 6 # + + : 9 v n 9 6 6 3 6 9 c v n b 9 3 : $ : 3 6 9 6 6 6 9 9 9 6 6 : $ 6 b P / eXeX) F n c 9 c 9 9 6 : : 6 c c 9 9 h v b c 9 6 6 3 : @ + @ : 3 6 h 9 6 3 $ # # 6 9 9 9 6 5 6 3 3 3 $ $ $ 6 9 6 6 6 6 3 3 : 3 6 6 6 6 6 6 6 6 6 3 3 6 c c 9 6 6 6 6 6 6 3 $ $ $ 3 3 6 c c c c c 9 3 6 6 $ # $ : h v c 9 6 9 n R eXrX8XP v 6 # # $ 6 D / / S 3 + : $ 3 6 9 n n 9 h 3 $ $ $ : 6 6 6 6 3 : $ @ : v E ! E B c c 9 9 $ 6 b G E G S S G R G n v 9 : $ 3 $ 3 6 6 6 h c n n n n b 9 6 c b b h 6 6 : 3 c n G E W R v # X @ $ : 3 6 6 6 6 9 6 6 6 3 6 6 3 $ $ 3 6 9 9 c n D P G S B n b h 6 6 6 6 6 6 6 6 6 6 3 : 3 6 3 $ $ 6 c n n B n 9 3 $ $ $ @ # 3 6 c c v c h 9 6 3 6 6 6 6 3 : $ $ 3 9 n S S n c 9 h h v n B n h 6 9 6 9 c b B B n : : 6 v B n b n c 9 6 6 6 6 6 3 $ $ $ $ $ $ $ # : : 9 v b c 9 3 3 $ $ 3 6 h v c 6 $ + + 6 F / ) R S c 6 6 6 6 h 6 6 6 6 3 : $ @ : $ $ 3 3 3 6 3 $ $ # @ # 3 9 9 6 6 3 # # 3 9 9 9 6 3 : 6 S W / 7X_ G 9 # + # 3 c v b c 9 3 $ # $ $ 3 3 3 6 v n S S D S 9 $ +   + $ 9 B D B c 6 3 $ # $ : 6 9 9 9 9 c B B n h 3 # + @ $ $ 3 3 # @ + + # 3 6 9 6 6 : @ $ 6 b G / 7X) R 9 $ : 9 v B S B c 9 6 : # # $ 3 9 9 9 9 6 8 6 $ + + $ 3 3 6 3 3 $ 3 6 6 6 $ $ 3 6 6 6 6 3 $ 4 v G R E G S n v 9 6 h v b n S n n b h 6 3 3 h c 9 6 3 3 3 : $ # # : 6 h n S n b h 3 $ : 6 6 6 6 6 6 3 : 6 6 h v n n c 9 3 # $ : 3 6 6 9 9 6 6 3 3 3 6 3 3 3 $ # # : : $ 3 7 h h 9 6 3 6 6 6 3 3 6 9 9 6 6 6 h c n n v 6 $ # 6 h n B n 9 $ + $ $ # @ $ 3 9 h 6 6 6 6 9 6 3 3 3 6 6 8 6 6 3 3 $ $ $ : 3 6 6 6 9 c h 9 9 6 9 c G G D n n S D S 9 v P 3X7XE b 9 3 : : 3 6 6 3 $ $ : 6 n G E W W R G c # + : 6 : # @ 9 G W ) 7X/ E S 9 $ + + $ 6 6 9 9 6 6 9 h 9 c h 6 3 3 6 6 6 6 6 6 6 3 $ + @ 6 9 n D P E P S 6 $ 3 b n v c 9 6 3 6 6 6 3 $ @ 6 9 c c c v v v n n c 3 $ # # $ $ 3 3 3 6 9 h h ",
"$ $ : 3 6 6 6 6 3 : $ $ : 3 6 6 6 3 6 9 9 3 6 h S R ) 9X3XF 6 # $ # $ 3 3 9 h 6 3 3 3 6 6 h v c c 9 6 3 : 3 6 9 v b c 6 6 6 6 6 6 6 3 3 c P ( 8X8X) E B c 9 6 6 6 3 3 6 h b B B C B D P G v 3 + # + + + + # 3 6 9 6 6 3 3 6 9 9 : : : : 3 6 6 3 $ $ 3 6 c v c 9 6 3 $ : 6 6 6 6 9 9 6 6 6 6 3 3 3 6 9 c c c c 9 9 9 6 : : 6 6 6 9 6 6 9 6 6 3 3 6 6 3 $ $ 3 9 c c 9 : + : B Q / W G b 3 X . + # 9 b n n h : @ # 3 6 v D G R R G c 6 6 c n P E D h : @ @ 3 n P P S S S D S c 6 $ 9 9 v S F E W R n h 6 $ # 3 6 3 9 6 6 c B S G W 8X8XW n n E 3X3XE S 9 6 6 3 9 n B S n 9 3 : $ $ 6 9 v n n h 6 3 3 3 3 3 6 3 : 6 $ 3 6 9 v S D S b c b B B v h 9 3 3 6 h h 9 9 9 3 3 6 9 9 6 6 6 9 v n n S G S b 3 $ + + : 9 v n c h 6 : : 3 9 h 6 6 3 @ + $ 9 n P E G B b b b v h h 9 6 6 9 c n c B G P F c $ $ c v c 9 9 h v v 9 6 6 3 : : : : 3 3 $ @ + $ 6 9 v B S B c : + # h b S D S v 6 $ + + 4 b n v 9 6 3 $ 3 6 6 3 3 6 9 9 6 3 3 $ $ $ 3 3 6 9 9 6 $ # + + # 3 6 6 6 $ # $ 3 9 c v c 9 3 : 9 B D G F n 9 : $ 3 6 c B D G F n 6 : 3 3 6 6 6 n P R D n c 6 3 # + + # 3 6 : 6 6 3 : @ + # $ 6 9 c c 6 3 9 n D D n 9 3 # + 3 6 6 6 3 @ @ : 9 c v b b h 6 6 : : 9 n F W / R v 6 $ : 6 h c c c 6 : $ # @ $ 3 c n S B b 9 : $ # # $ 3 6 3 3 6 6 6 6 6 3 3 3 3 9 6 6 6 3 3 6 b E / / E F S b 9 : 3 6 6 h c c c 6 6 6 6 6 9 9 6 $ # 3 c c 6 3 3 $ : 6 v v c 9 6 6 3 3 6 6 6 3 3 $ $ 3 9 c c c c 6 3 3 : $ $ $ : # $ 3 6 9 9 9 9 6 6 6 3 : 3 : # : : 6 h v v c h 6 6 6 9 9 6 3 3 6 6 6 : 3 9 c c 6 3 3 6 6 h v c c 6 : # + + $ @ + + # $ 3 b D G R P n 6 3 6 c v c h 6 3 $ $ $ $ $ $ 6 6 9 9 9 6 6 : : 6 9 c n S G D b 6 6 n G P P G b 6 3 c S G P G n 6 $ 3 9 c D G E R D v 6 : # $ $ $ # + : c W / ( / E S 9 $   @ h D F S b 9 6 3 6 6 6 6 6 6 c c n n c 6 3 $ $ # $ 6 3 3 6 6 6 9 6 : 3 6 9 h 9 h 6 $ 3 c n n v 9 $ X + $ 9 b n n n S S c 6 3 3 # + + # 6 n S G D n 6 3 6 6 6 $ 3 $ $ 3 $ # # # $ $ 3 3 3 $ # $ $ 6 6 3 3 6 3 $ 6 b G F S n n c n D G D n c 6 3 3 6 6 9 h h 9 $ : 6 b n c 9 9 n v 9 3 $ $ $ $ # $ 3 6 9 9 9 6 9 h h 9 6 6 3 : : 6 c B P / 3X3X/ Y n 3 # # 3 6 n S S v 6 : $ $ 6 6 9 6 6 3 $ $ 3 6 v D P D n v 6 6 6 6 3 $ $ $ 3 3 6 9 9 6 3 3 $ $ @ @ $ 6 9 9 b v h 6 6 3 6 9 c v b b v h 9 6 3 3 : : 3 6 9 h 6 6 6 6 6 6 c n n D G D B v 6 $ : 3 9 v n b 9 6 3 # + X + + # $ : 3 3 6 9 c b n n c 9 3 $ # # + # : h B D B n n c v v c 9 3 $ @ # $ 3 3 6 c v c 9 6 : # + @ $ 6 9 9 6 6 3 3 6 6 3 b W 9XrXrX8XW h @ X # 6 b G P S n b n S R ! / / W F n h 3 $ : : 6 6 3 3 3 3 3 3 3 $ $ $ $ : : ",
"$ : 6 6 9 6 3 $ 3 6 6 h h 9 6 6 c v n n v 6 3 3 c S D D R W R S 3 X + 9 b B B b h 6 $ $ 3 9 b b h 6 3 : 3 9 c b n n b v c c 9 6 6 6 6 6 h n G E E E F n 9 6 6 6 9 9 6 6 6 9 h h 9 6 3 : 6 9 9 9 6 3 # # $ 6 b S S B c : @ $ 6 6 n n B n c 9 3 : $ $ 3 3 3 3 3 6 6 6 6 9 9 6 3 6 9 9 6 3 : : 3 6 9 h h 9 6 : # # $ : 3 3 3 : : $ $ 6 c n n c 6 6 6 6 6 9 9 3 3 6 9 9 h c n R / / ! P n 9 $ $ 6 h D R W E D h @   # $ 3 3 3 3 3 # # # @ @ # @ + $ c 9 6 $ $ 9 S D E F n 9 : $ 3 9 b n n v 9 9 b n R G S c 6 3 3 3 $ 6 c n S n c c 3 3 : 3 6 6 3 $ $ $ $ : 3 6 v S W W F v 6 $ @ + + # $ $ $ 3 6 5 9 9 6 3 $ $ $ 3 6 6 6 6 6 c C F ^ / W D v h 3 $ , 3 6 6 6 9 9 6 6 6 6 6 6 : : 3 c n S S c $ + + $ 6 9 9 9 6 6 3 6 9 9 6 6 3 $ $ : 6 6 6 6 6 3 3 6 9 9 6 3 $ $ 3 6 h v n n c 6 6 6 9 h c c 6 : 6 5 c n S n n c 6 c u 6 6 3 3 3 $ # # $ 6 6 3 $ # 3 6 c b b 9 3 3 @ + + # $ + + + X - S / 7X7X/ R v 6 6 c v c c h 6 3 : $ $ $ $ : $ 6 6 6 6 3 % # # $ 6 9 c c c 9 $ # 3 c n n b 6 3 3 c G / 8X8X( b : @ $ 6 h n B S n 9 $ # # % $ : $ $ $ 9 D ! ( ) W n 3 +   + 9 R ! E S b 9 3 6 3 6 6 6 h b n S S B c 3 $ # # $ : : 3 : $ # # # $ $ 3 6 6 6 3 $ + $ n E / W G c $ X # h b B D S b h 9 6 $ $ : $ $ 3 6 6 9 h 9 9 : $ $ 3 3 $ $ $ 3 3 3 3 3 : : $ 3 3 3 3 : # : 6 c b c 6 6 9 h c n S G G P F D B S n c 6 3 3 6 9 h 9 9 6 3 $ $ 3 9 c n n n S n h 3 $ $ : 3 6 6 9 9 6 6 6 9 c v v n c 6 3 $ 3 9 c F R W W R S c 3 : $ $ 3 9 c c h 3 3 3 6 6 h c 9 9 6 3 : : 3 9 b D D B 9 6 h v c 6 3 # + @ 3 9 c 6 6 6 : @ @ @ + $ 3 c n n c 6 : # $ 3 3 6 9 h c h 9 6 : $ $ : 3 3 3 6 9 9 h c 9 6 9 b D D D B n n v c h v n D P R F n 6 $ @ @ + + + + + + # - 6 n n D F D v 6 $ $ $ + + 3 6 c S R ! E S v 9 6 3 3 # + @ @ @ : 3 9 c b b v h 6 6 # # : 6 6 6 6 6 3 $ # $ 6 A / 0XrXrX7XG h $ @ : v S D B v 9 6 6 9 v n n n B n b 6 6 9 b n v 9 6 3 : $ $ 6 n D G n h 3 $ 6 v G / 8X0X@XW S 9 : $ $ $ # + + # 6 9 9 6 6 6 6 9 c 9 9 6 6 c c 9 c S ) ) ! D b n b 6 9 3 $ $ $ : 3 : 6 6 3 3 6 6 9 9 3 6 6 6 6 3 : $ : 3 6 6 6 6 6 9 9 6 3 # + # $ $ 3 3 9 c b n b h 9 6 3 $ $ $ 3 3 3 6 6 6 3 3 3 : # $ $ # @ + @ # $ 3 6 9 6 $ $ 3 D R W ! E B 6 # X $ n E / E D b 6 $ $ $ $ $ $ $ # : 3 3 3 $ $ : 6 9 x c c 9 6 6 c c h h c B F R / / W G n 9 3 3 b S G G G F D n 6 3 $ $ 3 3 3 3 : $ $ $ $ 3 6 9 c v n S S n v b n b h 6 6 9 v n v v 6 # +   X @ n n B b 9 3 @ X @ # $ : 3 3 : $ : $ : 6 6 6 6 6 c 9 6 : # 3 6 6 6 9 9 h h c c 9 6 3 # + # 9 n n S S b 9 h D / 8X9X0X_ R n h 3 $ $ $ $ 3 6 3 : 3 3 3 6 c n b v v ",
"G G S b h 6 6 6 3 6 6 6 6 6 6 6 3 : $ $ : 3 6 9 b B n c 9 : @ @ $ $ 3 $ $ 9 b v c 9 6 6 3 3 3 3 3 3 3 : : 6 9 c n n v h 9 9 c n b b v c c 9 6 9 n n n c 6 3 3 3 v n S n c c c c 6 6 6 3 : $ # + # $ $ $ : : 6 h n n c 6 1 $ $ 3 6 6 9 9 6 $ + + h S W 3X_ P c 3 6 6 9 c h 9 6 6 3 : $ $ @ # : 3 6 6 6 3 3 $ @ $ $ : 6 c h 3 $ @ $ 3 6 9 9 6 6 3 9 n W 8X8X/ S 9 $ $ : 6 9 v n b 6 : @ + @ $ 3 3 6 6 h n D G G D 6 $ +   + 6 n S S S c 6 3 $ $ 6 3 6 9 h b B S B b c 6 $ + + # : 3 3 $ @ + @ $ : 6 9 9 6 : # # : c G / 7X) G 6 $ 3 6 c B D B b c 3 : # + $ 6 h 9 6 9 6 6 3 $ # $ $ 3 6 6 6 4 3 $ 3 6 3 3 3 6 6 9 6 6 3 3 6 v D R Y F C b h j h b V B S S S B b h 3 3 6 h h 9 6 6 3 3 : @ # 3 6 6 v b n b c 6 3 3 6 6 6 6 6 3 3 : 6 6 6 9 c b v v 6 : @ $ 6 6 6 9 b b c 6 3 : : 3 : 3 6 3 3 3 3 3 6 6 6 4 3 6 6 6 3 3 $ $ 3 6 c c 6 6 9 n n v 6 6 $ $ 6 v S S b 9 $ + + + # # $ 3 9 9 6 3 3 6 6 3 3 $ $ 3 6 9 6 6 : $ $ $ $ 3 6 6 h v v c 9 6 3 9 n S D S S S D S n b B P E / ! E c 3 $ $ $ $ : $ $ @ $ 6 v S G E W R D c 6 $ $ $ # $ 3 6 b E ) ) E F n c 6 # + $ : 9 6 $ > 3 7 h v c h 6 6 6 3 : 3 3 6 6 3 3 3 $ 3 6 h B P W W P b 6 3 6 9 c n b c 6 6 6 : $ : 3 3 : 9 n n c c c S D n 6 : : $ @ $ 3 c S F G B c 9 9 c n B S B v c 6 3 : $ $ $ # # # : 3 3 : : 3 3 6 3 3 3 6 9 c n b h 9 h n S D S n n b 9 3 # # $ 6 6 6 3 3 6 6 c 9 6 9 9 6 6 6 3 3 : $ $ $ $ $ 3 6 9 h h 9 6 3 + + @ $ $ : 6 9 v S G R R F n c $ @ # 3 h n B n c 6 3 $ # $ : $ : $ @ # : 9 b S B n c 6 3 9 c c h 9 3 # $ 3 9 v S S n h 6 3 : : $ $ : 6 9 9 6 6 6 : 3 9 v b n n c h h 9 9 6 9 9 h h c v b n b c 9 6 6 6 n P W ! P D b 6 1 $ $ : 6 6 3 $ $ $ $ $ # + $ 9 c c v n 9 h v n B b h 6 : $ : 6 h 9 6 6 $ : $ 3 c D R G 9 3 $ $ $ # : 6 6 9 6 6 3 3 $ : : : 3 6 9 9 3 : : : $ $ 6 v G W / ! G b 6 # @ : 9 c B F D b v S W ( 3X) _ / W F v 9 3 $ # $ 6 3 3 6 6 3 6 6 3 $ # + . . $ n ! eXpXpXiX0XE c + X $ $ $ $ : 6 c n D D S b h 9 6 9 6 9 6 3 6 v B S n n n c b F E G 9 3 3 9 h 9 6 6 3 $ $ 3 6 $ $ 6 n n B n 9 3 : 3 c B E ! E B 6 : # $ : 3 6 6 6 3 @ # 6 c n S S n 6 $ # $ : 6 6 9 9 3 $ $ : 6 c n G B 9 # + # 6 h B D S c 6 3 6 v D E ( 7X7X( E S 9 3 6 9 9 6 6 3 $ + @ $ $ $ : 3 3 : # @ @ # $ 3 : 6 n D D S n c c h 9 6 h B R W ) ) / W D c : $ 6 v B B B n v 9 6 6 9 v c 6 : : 3 3 3 : $ $ $ $ 3 3 6 9 6 $ # $ 3 h h 6 h n S D F D v 3 $ $ $ : + @ # @ @ # $ $ 3 3 6 3 3 3 3 : + : n W ) 3X( W S c 6 3 9 R 7X9XrX0XW n 6 : $ $ : 3 $ $ 3 c S G E P n 6 $ $ 3 6 c b h $ + @ # $ + : c B D n 9 6 X + 6 S D n c h ",
"G G S n 9 3 3 3 9 c c h 9 9 9 6 6 6 9 9 6 3 : 3 9 c 9 : $ 3 6 h n n c 9 6 3 3 6 6 6 9 9 3 $ $ : 9 c v c 9 6 3 : $ 3 : $ $ $ $ : 6 9 h 9 6 6 3 6 3 : $ $ : 3 6 6 9 c c 9 9 9 9 6 6 6 3 6 6 6 6 6 3 6 9 c c 9 , : 3 9 b S B h $ @ # + + + @ @ $ : : 6 b G P S c h 6 6 9 c v c 9 3 3 $ $ $ $ 3 6 6 h c 9 6 6 3 : 6 c n S S S D S n 9 h D ( _ G 9 6 6 c n D D B c 3 # $ 9 S R W W R S v 6 $ + @ $ $ + # 9 D W / / W P n 3 X X 3 b S B n c 6 3 9 h 6 6 6 6 6 h c v n 9 6 $ # # : 6 6 6 h h 9 9 6 3 6 6 6 9 c v 9 6 6 9 h h h 6 +   @ 6 v n c v n S n c 9 3 $ @ + @ $ 8 c S F F B c 9 6 6 3 $ $ $ 3 3 3 6 3 # # $ $ $ $ $ # $ 3 3 , : : 3 3 3 h S P P n v c b B S S D n c 6 3 : 3 6 6 9 6 3 3 6 9 c n c c v n n h 3 : $ $ : 3 3 6 9 h 9 9 9 9 9 6 6 3 : : 3 6 9 b G W 3X7X) E B 6 $ @ 6 9 b S A v 9 6 # # $ 6 6 6 3 3 # $ 6 9 m D G D n c 6 6 6 6 3 $ $ $ 3 3 3 9 c 9 6 3 : 3 3 $ # 3 9 9 v n x 6 3 3 6 9 b n n n v 9 6 6 3 3 6 6 6 9 6 9 6 6 6 6 6 6 c n G G P F B c 3 $ : 6 9 c n c 9 : # # + + @ + $ 3 3 6 9 9 9 c n n n c 6 $ # + @ # : 6 c n n n v h c n v 6 3 @ @ # > 3 6 h c c 9 6 3 : # @ $ : 6 9 9 9 3 3 6 : # 6 n W 7XrXrX8XG 6 @ # : h S F R P S c v R / / / W R F B h 3 $ 3 6 6 3 6 6 : 6 3 3 9 c 6 $ + X X : n ! eXpXgXpX7XE v 3 # @ $ $ # $ 6 c n n b b v v c c c 6 3 3 3 9 n P W ! W R n b n S B 9 $ $ 6 6 3 3 3 3 3 6 3 6 6 6 6 c n b h 6 3 $ 3 h n B B n c 6 3 : 3 3 6 6 6 3 : $ 6 9 S S n c 3 $ # @ $ $ 3 6 6 3 : $ $ $ 3 c c h 6 3 + + + $ 6 9 6 6 # @ $ 9 G ( 9XrXeX8XR 9 $ $ 6 c S D B c 6 : @ @ # 3 3 $ $ $ # # $ $ $ @ $ 6 h c c c h 9 9 9 9 c n D E _ 0XeXeX8XE n 6 3 3 9 c n S S n c 9 h h 9 6 3 3 : : : 3 3 # # $ 6 9 v n v n n b h 9 h h 9 9 c G ! W D h $ # + + @ # 6 c 3 $ @ + # $ # @ # 6 6 3 $ 3 9 v B S D B b 9 3 $ 3 9 n D G R P B c 3 $ $ 6 6 3 $ # 3 h D / ( R c 6 : 3 n E W E D b c 3 $ $ + $ 6 9 h 9 6 $ # @ : 6 b S S n b 9 8 6 9 c 9 3 6 9 h c 9 9 6 6 6 9 9 9 c v c 9 9 6 6 6 h c c 6 3 3 $ # + + $ 6 c n S n 6 # # 3 6 3 : $ # : 3 6 9 c c v c h 9 9 6 6 6 6 c n S F G n 9 6 6 6 6 6 6 6 3 $ + + $ 6 9 c h 6 : $ @ # $ $ 3 6 9 9 6 @ @ 3 c n b v 6 + + 3 b S D G n h 9 6 6 6 $ $ + + # 9 n n n n S P G S v 6 3 3 6 9 9 h c 9 6 6 3 : 3 3 6 9 c c v v c c c c c c 9 6 3 3 3 3 $ : : : : # # $ 6 9 S R P v $ + @ $ 3 6 3 : $ $ : 3 3 3 3 3 3 3 3 3 : $ # + + + $ 6 9 c n v c n D D S n v v n n S n c 6 $ # $ 3 6 h c 9 6 3 : # @ $ 6 c S R W E B c 6 6 9 n G P D S v 6 6 3 3 3 : $ $ $ $ $ $ 6 6 6 6 6 3 : $ : 6 6 $ # @ + # 6 D G F B c 9 6 3 c b G W W B 6 : ",
"3 6 9 c n S G D D D S D D S n n c 6 6 6 6 9 9 6 6 $ : 6 6 9 c b S S S n c 6 3 $ 3 3 3 6 6 6 6 6 8 9 h c c c h 6 3 : 3 h n R ! / W R n 9 3 $ $ 3 6 9 v v 6 3 3 # 3 6 6 c c 6 $ $ $ 3 6 c n D D B h 6 9 c h 6 $ @ # : 9 h 9 6 6 $ $ @ @ # # 3 9 v n n c 6 : $ 3 3 6 6 9 c c 9 6 3 $ $ $ 3 3 6 6 9 9 c h 9 h 9 c n F P G n c c c c 9 h S R R S c 3 : $ # + + + + @ # 3 6 h b n B S n c 6 $ + @ # # @ 3 b G E R D B c 9 6 3 3 : $ # # $ : 6 c n n n c 9 3 # + # 3 3 6 c 6 3 3 # # 6 B E 8XrXrX8XE n : # 3 h n D D n 9 6 c n S S S n S S c 3 3 9 c v 9 9 6 6 3 $ : 6 n n n v 6 $ $ 6 b P ) qXeX9X/ G c 3 + @ $ $ $ $ 3 6 6 6 6 6 9 h v n c 9 9 c c c h n P ( _ E S n b n c 6 3 6 3 3 3 3 3 3 6 6 6 6 6 6 6 9 h 9 6 6 3 $ $ 3 3 6 9 9 9 6 6 9 6 3 $ # $ $ $ : 6 c n b v c 9 6 6 $ @ $ 3 6 6 3 6 3 : : $ 3 3 3 3 $ + + + # $ 3 6 6 3 3 $ 6 S W ) _ W D 6 $ @ 3 c P ! W D c 6 : @ $ : $ $ : $ $ : $ $ : : 3 6 h c c 9 6 9 9 c v v v n S E / ) 7X( P n 9 6 6 v D P E R G n c 9 6 6 6 3 : $ : : : $ $ $ : 9 c n n n n n n b b c 9 6 6 9 c S S n 6 $ + + + 3 6 v n n 6 # + @ $ $ $ $ 3 3 3 : $ 3 6 9 9 9 9 9 9 7 3 : 3 6 6 9 c c 9 c c 9 6 9 6 : $ # $ 9 n P R D c 9 c n G _ 7X) W G n 6 3 # # $ 3 3 3 3 3 3 : : : : 3 : # + # 6 n E / / W B 9 3 : $ : 3 3 : 3 9 c b B S B n h 6 : 6 h v b 9 6 3 6 : @ + $ 6 c n D B 6 @ # 9 h 9 6 3 # + # $ 6 6 6 9 c c c h 9 6 $ 6 D W / W P n 6 $ $ : : 3 3 3 $ @ + # : c n n b h 6 3 $ @ $ 6 9 c h 6 : + $ h D R D c 3 X + 3 b G R P G c 9 3 3 3 : 3 h B D P P F S b h 9 9 6 $ $ 3 3 3 6 6 6 6 6 3 : $ $ $ 3 6 h c n S R G D n c 9 9 9 9 9 9 9 h h h 9 6 3 # + 3 b G R S n 6 # + $ 5 6 9 6 3 : $ : 3 3 : 3 3 : : : : : # @ + X @ 6 c c 6 6 n G R D n v B B c 3 $ 6 6 : : # $ 3 6 c b h 6 : # $ $ : c D _ 8X9X3XE c 3 6 S E 3X8X8X_ E S 9 $ $ 3 3 3 3 : $ : 6 9 b n c 9 : $ : 3 3 : # @ @ + $ 6 6 b S S n b c 6 $ @ $ 6 S W 9XuXuX) G 9 $ + X # 3 9 n G W / R n c 6 : : 3 : 6 v S / ) ! C 6 # # @ + + $ $ 6 9 9 c n n h : @ $ 6 6 3 : $ $ 3 3 6 9 6 6 6 c c c c h 6 3 3 3 $ $ $ : 9 b v b n B S S b 6 6 3 6 v D D v 6 6 h v n D D n c 6 $ $ 6 v n h 6 3 $ : : 3 9 n S D S n v h h c b n B D P R R D v 6 $ $ 6 c n b c 6 $ : 6 b n n b h 9 9 6 6 6 6 7 3 : : 6 h c h 9 9 9 9 6 3 3 3 6 6 6 3 6 9 6 6 3 3 3 : $ $ : 3 6 9 9 9 9 6 6 6 6 6 3 3 6 6 3 3 3 3 3 3 3 3 : @ + # $ 3 $ # $ $ $ 6 6 9 9 h b P W R D b 9 3 $ # $ $ 3 : $ $ $ @ $ 3 3 3 3 3 $ # # $ 3 3 6 c c 6 $ $ # $ 3 3 6 6 6 6 3 3 $ $ h D E E D n n S S c 6 3 3 3 $ # + X + 6 D E ! W P n 9 3 $ = 6 9 c 6 # # ",
"3 6 h b n n n b 9 v B D G D S n c 9 6 : # : 6 3 3 3 6 h c h h h h 9 9 9 6 3 : 3 : $ $ : 3 6 6 9 h 9 9 6 3 $ # + $ : 3 6 9 n D D G D n c 6 $ # $ 6 6 c v v 9 3 $ $ # + + # $ # # $ 3 h B S b 9 9 9 9 b n n c 6 : $ # 6 B G G S n 9 3 $ : : : : : 6 6 6 3 3 3 6 9 c c c v c h h h c h 9 9 9 h b B n B n c 9 6 6 h S G E E P S c 6 6 : : 6 3 3 3 3 $ $ # # $ : 6 9 c c v v b b b n n b c 6 : 3 6 6 c 9 6 3 $ # 3 9 S G F B 9 # + + # $ 3 6 6 6 6 3 $ $ : : $ 3 6 3 6 6 3 : $ # $ 3 9 n G R R G n 9 3 @ @ : 9 n D B v c n G ! 3X8X8X) W F n 9 3 # $ 3 3 3 3 3 3 3 6 6 3 : $ +     + n E eXiXpXuX3XE 6 + + $ 3 $ $ 6 6 h n F F n c 6 6 9 9 6 6 3 3 9 b b n b h 6 c n E E D 9 3 6 c b 9 6 : $ $ $ 3 3 3 6 h v b v h 6 : 3 c D E W W E c 6 $ $ $ 3 3 3 : : : $ : h S D D S c $ + @ : 3 9 9 6 6 : @ $ 6 B D D B c : + + 6 c S F G n 9 6 c n G P W _ 3X( R B c 6 3 6 9 6 6 $ $ $ @ @ : : 3 3 3 3 3 : $ $ $ 3 6 c n S D G b c 9 9 9 h b S P W / / W G c 6 : $ 6 n n n n c 9 6 6 9 c c h h 6 3 : : 3 : $ $ $ $ 3 6 9 6 3 $ : $ 3 h c 7 9 b E W G 9 3 6 6 6 $ # + # + + # 3 : 3 6 6 6 6 6 3 $ : 6 b G ( 8X8X( P b 3 3 b E ) eXeX0X/ D h $ @ $ : 3 : $ 3 9 v G G S h 3 $ $ 6 6 c 9 3 : 3 $ $ 3 3 6 c B B b h : @ + @ 9 F ) 9XrXeX/ c @ + + + 3 6 v S F R G B n 9 6 6 6 3 6 6 c n D G D n h 6 3 : $ $ # # $ 6 b S n h 6 3 : : $ 3 3 # # 3 6 9 c v v c v v c h 6 3 : 3 3 6 9 c b b b c h 9 c v B n b 9 6 : 3 6 9 h 9 3 $ : 3 6 6 6 6 $ $ : 3 6 3 3 3 6 3 3 : $ 3 6 n G G S c 6 9 9 h v n b h h 9 9 9 9 7 6 h n P F n 6 3 6 h n n B n v h 9 6 6 3 6 9 h 9 6 6 6 6 6 9 9 9 6 6 6 3 3 3 3 3 : : : 6 6 : # $ 6 9 h c 6 6 6 3 3 3 3 3 3 3 3 3 3 3 3 6 6 3 : : 3 3 : # + @ $ : 6 9 h 9 6 6 c c 9 h b B S F F F D n 9 + + @ 3 3 6 6 6 : $ $ : : : : 3 6 9 6 3 6 6 9 h 9 6 6 6 6 3 3 3 3 3 6 9 6 $ $ $ 9 v n n n c h 9 h 9 9 9 9 6 : $   X 3 n D R R D c 6 3 6 h c 9 6 3 # $ 6 9 6 6 3 6 3 3 3 3 3 6 9 c b c 6 6 6 3 9 3 6 3 3 6 c b v $ @ $ 6 6 7 6 3 c h h 9 h v n n c 6 $ + + 3 9 9 6 3 $ + + + + 3 6 b n n S n v n B B n h 3 # + + @ $ $ $ $ + + @ : 3 6 c v h 9 v D E ) 0X8X/ F n 9 9 v n n c 6 3 6 6 9 c b c 9 6 : : : : 3 3 3 3 6 9 b S D D n c 3 $ # $ $ : 3 3 $ $ 3 9 h h h h 6 9 c v n n v h 7 6 6 h c c h h 6 6 6 3 3 3 6 6 3 3 3 6 6 c n n n n n n b c 9 6 9 9 9 9 9 9 9 h 9 9 6 6 3 $ # # 3 3 6 3 : @ @ 3 n D D n c 6 $ 3 v n n 9 c G W R b 6 $ : $ 3 3 : : : 3 6 v n n n h 6 3 3 6 6 6 6 6 9 h c v c h 9 3 : $ $ 3 6 6 6 6 6 3 $ $ 6 c n S S D D n 6 $ + + # $ @ $ $ $ 3 c S E ! E S 6 # + + # 3 6 3 $ 3 ",
"c h 6 6 6 6 9 v G R E E G D n c S n c 3 $ 6 c h 3 : $ 3 3 3 3 3 6 9 c n n h 6 3 : 3 c S G S b h 9 6 : : $ 3 6 6 $ : 6 6 9 n S S 9 6 $ % + # $ 6 6 9 3 # # # $ 9 v n c 6 # + + # 6 9 h h 6 $ $ 6 B R 3XeXeX8XW D : + : c B S n v 6 $ @ # # # $ : $ $ : $ $ $ # # @ 3 h n n v 9 6 9 h h c n G W / 0X9X0X) W n 3 $ 6 9 c b n n B S 6 3 6 h 9 6 , : 3 , $ @ @ $ 6 6 6 9 c b c 9 6 6 c h 6 3 9 S E W R n 6 # + + + @ 3 : $ $ $ $ # # : 3 3 3 3 3 3 6 6 9 n F E R D b 9 $ : 9 n P / / W R n 3 $ : 3 6 $ @ # 3 h D W / R S 6 @ $ c G E G D v 6 : @ + @ $ 6 h v v 9 : @ + $ 6 n D G G D c 6 3 6 6 : $ : v b v c c c c 9 9 9 9 c c 9 9 c 6 9 9 h c 9 6 3 # @ @ @ # 3 h n B n 9 # + $ 3 6 : $ : 3 3 6 9 9 v b v c h 9 6 3 3 3 6 c n S S B c 9 6 9 9 9 9 6 6 3 $ + @ 6 9 9 9 6 3 $ # $ : : $ 3 6 6 3 : : : 9 9 c 9 3 $ $ 3 n S G D n c 9 6 6 : : 3 $ # $ 3 n n n v n F R S c 6 3 6 6 9 c c c 9 9 6 3 3 6 6 9 9 9 h c c c h c c h h 9 6 3 6 3 3 : # $ 3 6 3 @ # 9 S G D n v $ @ $ 3 3 : : : 3 $ $ : 3 6 6 6 6 3 : 3 : $ + + + @ 3 c v c c b S S S n n n n n v v v v 9 3 + + 3 6 h h 9 3 : $ # $ $ 3 9 S G P D n l 9 6 h n D B B n h 6 3 3 6 6 6 3 $ $ 3 6 3 3 9 9 h h 6 : : 9 9 3 $ # + + 3 h n G F S v 9 6 6 9 h h 9 h n F W / R b 6 3 : $ @ # 3 9 n D P F n 9 6 6 3 : 3 6 v S E ! R c # . # $ $ $ 3 6 c v 6 9 c v c 3 # # $ : 3 : $ : : $ $ # # $ 3 9 b n S n v h 6 3 : # $ $ : 6 9 9 9 c h 9 $ + + 3 c n S B n v n G / ) 7X) W B 9 6 6 6 n n b 6 $ $ 6 6 c n n c h 9 9 6 h h 6 6 9 b D R _ / R v 3 # # $ 3 6 6 3 $ $ : 3 9 c c 9 6 6 9 9 b c h 9 6 3 6 6 n n v 9 6 6 6 6 3 3 3 6 6 6 6 9 h c v c c c h 9 6 6 9 v n c 6 6 9 9 9 6 6 9 9 6 : : $ $ : 3 3 : # @ + @ : 6 6 3 @ @ $ 8 9 9 9 c S F R R S 9 $ # 3 : 3 3 : # $ : 3 6 6 3 3 6 6 6 3 3 3 3 6 h c h c 9 6 6 3 : : 3 3 6 6 9 6 : $ 3 c n D D F F F D S v 6 # + @ # # $ + # 6 n W ) 7XE D h $ +   + # # 3 6 6 6 9 c 6 6 $ # $ 6 b S D n v 6 : $ # 3 v R ( ) ( W D 9 6 c b m m v l 7 6 $ $ # : 6 c b n D S c 3 $ 6 v n n b 9 $ + + : h D E E P E R R W ) ) / E D 9 + X + $ 6 h h 6 $ $ > : : $ $ # $ : : 3 3 3 6 6 6 6 6 3 $ + + + $ 3 n B n 3 @ $ 3 : @ # $ : 3 3 6 6 6 6 3 $ # $ $ # # @ $ 3 6 9 h 9 3 $ $ 3 3 3 9 h D D B b c c c h 9 7 6 9 9 9 9 9 c v n n b 9 1 # $ $ $ # $ 6 h 9 6 6 9 h 9 6 3 3 6 6 6 6 6 6 h v F R ! _ / F v 6 $ # + + @ $ 6 n / ) / R n c 6 3 6 6 6 c b S G F S b c 9 $ + # + + $ 6 h S R W E D b 6 $ # $ 3 6 3 6 c b n n c 9 # # 3 h n B n b h 6 : $ $ $ 3 6 h c c h 6 $ # @ 6 9 c v B D G R G B 9 # + + $ 6 9 v n m n v 9 9 ",
": 6 c b v 9 3 : : $ @ + @ 6 b B B b 6 # $ 6 h 9 3 $ # # : 3 6 9 6 c c c 9 c 9 6 : 6 n R W R S n 6 : $ $ 3 6 6 3 $ # @ # 6 v n n c 6 1 # # $ 3 6 h c 9 3 $ $ 6 v G G n 6 + + : h S E W R D v 6 3 3 3 : $ 6 n G F D n n n v c 9 3 : $ : 6 9 6 6 6 9 6 : # # $ 3 6 c v n S S S B B c c 9 6 6 6 9 h 9 9 9 6 6 $ # $ 3 c D E R n 3 + $ : 6 h h 9 3 : 3 6 3 3 : : : $ 3 3 3 3 $ +   + $ 6 h h c n S S G D S n c c c h 3 3 : : $ $ : 3 9 9 h 9 6 $ @ @ @ 3 B ! 7X0X) ! n 6 6 c S W 7X7X/ E B 6 $ : 3 3 6 3 3 : $ : 6 6 c c 9 3 $ $ : $ # # + + + $ 6 9 B D S n c 9 6 3 $ 3 9 b P 8XyXrX) P h $ @ @ : 9 6 c D W E G b h 6 3 : : 3 6 b D 7X3XW n 3 @ + + $ # # : 6 9 h h c c 6 : $ $ $ $ : : : : : 3 6 6 6 9 9 h c c c h 9 6 3 $ $ $ : $ h h v n n B S n 6 6 6 6 c n n n c 9 c n S D D S v 6 3 : 6 c n c 6 $ $ : : 3 9 c D F G n b c c c n B D F R W W R c 6 $ : 3 9 c c 6 : $ 3 9 b S S c 9 6 6 6 9 h 9 6 6 6 6 9 c b n 7 6 6 6 6 3 3 3 6 6 6 6 6 6 6 6 6 3 3 3 : $ $ # c c h 9 6 9 h 7 7 6 6 6 3 3 6 6 # : 6 6 3 $ @ + + $ : : : $ $ 3 6 9 9 6 6 n G P E G n h 3 $ # $ $ : : : : : : : 6 6 6 6 3 : $ $ > 3 9 c c h 6 3 : $ $ 3 6 9 9 9 6 6 $ @ : v F E E P D S S n c c : # @ $ $ X X $ c D E ! W F n 9 3 : # # # # # $ 6 6 3 $ : 3 3 3 6 9 n D G B c 6 $ $ 3 6 h n n n n c 8 3 $ : 6 6 v v c 9 6 6 3 : 6 9 c b B S n c 3 $ 6 n n v 6 : $ + + @ 3 v D D B B D P E / _ / G v $ . . . + @ $ $ $ + # 3 6 3 3 3 3 3 9 b S D G D n 9 6 6 9 9 3 : $ $ 6 c n b 9 6 6 3 : # $ 3 : 6 6 6 3 : : 6 6 h 9 3 : : : $ 3 6 6 3 3 3 3 3 6 6 9 9 c n B B n b c 9 6 6 9 9 6 6 9 9 9 h h 9 6 3 : : $ # $ : 6 6 9 9 h v n n n c 6 : $ 3 6 6 6 6 h b S G G D B b 9 : $ : : $ + $ 6 n R ( ) ! n x 3 : 3 9 c n b n B D D b 7 3 : : $ @ @ # 3 9 G R E R D b 9 3 3 3 6 6 6 6 c b n n c 6 $ $ 3 6 6 c c h 9 6 3 3 $ $ 3 6 b S D B 6 6 : $ 3 6 9 9 8 9 c b v c 9 3 $ # + @ # $ 3 6 c n D R / 8X9X8XR S c 9 6 6 6 6 6 3 : $ $ $ : 9 D Q / W E n 6 6 $ 6 6 3 : $ $ 3 c n n c 9 9 9 9 9 6 6 6 6 6 9 h 6 6 3 $ $ 6 v D / 7X3XW P n 9 6 $ 3 6 9 b b n B P E W W G h @   $ , 6 6 6 6 3 $ $ $ $ $ : : : : : 3 3 6 h n G P B b 6 $ @ # # @ $ # + + @ $ 3 6 6 6 3 @ $ 6 9 6 3 $ : 6 9 v b c 6 : $ : 3 9 v n c c h 6 6 9 h h h h h h 9 h h h 6 9 c b v 9 3 $ 3 $ # + # 6 c c h 6 6 3 3 : 3 6 3 3 3 3 3 3 3 6 9 S / 9X8XE c $ + X   + @ $ 3 6 0 6 3 # # $ $ 3 $ $ 3 6 6 h 9 6 6 3 : 3 3 6 3 3 3 3 $ # $ 6 c b c c c n n n n n v h 6 6 6 6 3 3 # $ 9 B F G B n 3 : : 6 9 6 : # # @ + + + @ $ : $ 6 S W ! R B v h c b B S n n n G G S v c c b n ",
"E P n 6 $ # $ # $ $ $ : 6 b S D h 9 3 $ $ : $ # # $ 3 6 9 h h c b n b h 9 6 6 3 3 3 6 9 c c h c c c b n B B n 9 3 : 3 9 c c c h 6 6 3 6 6 6 6 6 3 # $ 3 6 6 6 6 3 : $ $ 3 6 c n G R S 9 6 9 h v n n n n b v 9 3 3 3 h n S S S b : $ 3 b S D S B 9 9 6 6 9 9 6 3 3 3 3 6 9 9 9 9 9 9 6 3 3 3 6 3 : : 3 6 6 6 3 : $ $ 3 9 9 6 6 6 3 6 6 3 3 6 3 3 : 3 6 9 9 6 6 3 3 : $ $ $ @ + @ 3 6 6 6 6 6 3 6 6 c c c v S G D G S c 3 @ + $ 3 6 6 3 3 : $ $ $ $ $ : 3 3 3 6 6 6 6 9 h 9 6 3 : : 3 3 6 9 9 6 6 $ $ : 6 c n S B c h h c c h 6 6 6 $ + + + $ h D R E F b 6 3 3 6 6 6 3 $ $ 6 h 6 6 6 3 6 6 6 6 6 6 h b n b h 6 6 6 6 6 3 3 6 6 6 9 9 6 $ # 3 9 9 3 3 6 6 9 9 9 h n n n c 6 # @ $ 6 9 9 6 3 # + +   + 3 c B S D D B B D G D n c 6 + + + + @ $ $ @ @ + @ 3 3 6 6 9 9 c B F W 8X9X7XR n c c c c v v 6 3 3 h c c c c 6 9 6 $ $ : 3 3 3 3 3 6 h S G D n 9 : $ $ $ 3 3 3 3 : $ : 6 c v n c c v v n B n c h 9 6 6 9 9 9 l h 9 9 9 6 3 , 6 3 : : 3 6 9 v c v n n n n n c 6 6 6 6 6 9 h h 9 9 c c 9 6 3 # : : 3 6 3 $ @ $ 6 b G W E n 3 @ 6 9 v v n S D F G S c 3 $ 3 6 6 : $ # $ 6 b B S n c 9 6 3 6 6 6 7 9 h h h b b c 9 6 3 6 6 6 3 3 h h 9 6 : : 3 6 b n D D B 9 : # $ $ $ $ $ $ $ 3 6 c D E E G c $ + + + $ 6 c v n D P W W E n 6 : 3 3 9 c v h 6 6 $ $ $ 6 n / qXrXqX) R n c c c c 9 6 6 6 6 6 6 6 $ 3 9 v n n c 6 : $ 6 n n v 9 3 # $ 6 b F ( 0X8X/ R D D S n n n b c 9 6 9 b S G D n 9 $ + $ 3 3 $ $ $ $ # $ $ # @ $ 3 6 6 6 $ # $ 3 9 v n b 9 3 : $ @ + @ # # @ $ $ 3 6 9 6 3 3 $ # # : 3 $ # 3 h v n n v 6 $ # 6 6 9 c n S S S h 9 9 9 9 9 6 6 9 h h c b n n n b c 6 6 : # @ # 3 6 6 9 9 6 3 3 3 6 6 3 3 3 3 3 : : : 6 S ! 0XeX9X_ G 6 + X + + X + 6 b n n b v c 6 6 6 6 6 6 6 9 9 6 9 l h 9 6 3 3 : @ @ $ : 3 6 c D W E S h 3 9 6 6 6 6 9 c b n n c 3 $ 6 b S W W G 9 : $ $ : 3 3 $ # # $ $ # $ $ @ @ 6 n F R P P G D n v h 6 9 h n G P G n c 3 : 6 c b v c 9 c h v n n b v c v n n S S n v v 6 6 3 3 : 3 9 c S D B v 9 3 $ : 6 9 9 6 : 3 3 $ $ $ : 3 6 6 3 $ 3 3 : $ @ # : 3 6 6 6 : $ 3 6 3 3 , 6 h l b S D S S b 9 : > 3 6 $ $ : 3 9 v n b 6 3 3 3 3 : : : $ $ # $ 6 n R W / W P n 9 9 v n n b 9 6 6 6 9 6 3 3 6 9 h 9 9 6 6 : $ $ $ 3 3 : # @ # $ 3 c n n n b 9 6 6 b F R ! W P n 9 3 $ # 3 6 6 9 c v v v c 6 3 : $ 3 6 9 9 c B G D n 9 3 3 3 3 6 6 3 $ $ # $ 3 9 9 6 3 3 $ $ $ 3 6 3 $ # + + + # $ $ % + $ # + + @ # 3 9 n F P F F n 9 9 6 3 3 3 3 3 : $ : 6 b F E R G S n h 6 6 3 : : 3 9 9 v n B b h 9 v c 9 6 : $ # # $ # # $ $ : : 3 9 6 6 6 6 3 3 3 $ $ $ 3 6 3 6 h B G G D B v 9 6 ",
"W R b $ + # 3 3 3 3 3 6 h c c c n v 6 $ @ + + : $ 3 3 $ $ # @ $ # : 9 n n n n n 9 6 3 3 $ $ $ $ 3 6 6 6 6 6 6 : + + 6 b n n b v b D W 8XqX0X( W n h 9 c v n n h $ $ $ 6 c v b n h c 9 6 6 9 9 h 6 h n F E W E P 9 $ @ $ : 3 6 6 : $ $ 6 6 9 h 9 6 6 6 9 v b b b 3 6 6 c v c h 9 9 9 6 6 6 6 6 6 6 6 6 6 h b n n v h h c c 9 6 6 c v c 6 6 9 h h 9 9 6 3 : $ $ $ 3 3 3 3 $ + + $ 6 6 6 : $ $ : 6 c v c c n R E R h 3 # $ 3 3 3 $ $ $ $ : 6 9 9 9 9 6 6 6 6 6 6 6 9 c c c c 6 3 6 6 3 3 3 6 6 6 6 3 3 : 3 9 n S D B B n n v 3 + + $ $ $ @ @ $ 6 c W ( _ W D h #   + + @ $ 3 6 c b b v h 3 # $ 3 9 n S S n c 9 3 @ + 6 S W 7X9X7X/ B c 9 c n B n h 9 6 : $ # $ 6 9 9 c B D B 6 # # 9 c n b h 3 $ @ $ 6 B E / W R R R R W / / R n 6 $ + + @ 3 c n v 3 # # 3 3 $ $ $ $ : 3 3 3 6 6 : 6 3 3 6 : @ + + $ 3 l n b 9 $ + : 3 $ @ $ 3 6 6 6 6 6 9 6 $ # + + : : @ $ 9 v c b c 9 : $ 3 6 6 9 c S G F S v 6 h h 9 9 9 h h 9 c c b n n n c 9 3 $ $ $ $ # : 6 6 9 9 6 6 9 9 6 6 3 6 6 6 6 6 9 v n Y / ) ) W G v 3 + # @ + @ 6 S R W ! W G n c 6 3 3 9 c c v B D D n 9 6 6 : @ + @ $ : 9 B R W W R B 6 # : 6 3 6 9 h c n S D B 3 $ $ 6 c S G G v 9 3 : $ $ : 3 3 6 9 9 6 3 # @ : 6 h n D D G F R D v 3 + + $ 6 c n v 9 6 6 h n S R W / ! E D B v b c 6 9 h c c h 9 6 6 6 6 9 9 9 6 3 : 3 6 9 6 6 3 $ $ 3 9 v n c 6 6 9 6 : : 6 6 6 9 h 6 6 3 $ $ 3 6 9 b B S n c 9 3 3 3 3 3 3 h b n S G R E P n c 3 @ + # : 3 9 9 6 6 6 3 $ $ 3 3 3 3 : $ : 6 h n R / / P n c 6 3 : 3 6 6 3 3 # $ $ 3 6 6 3 6 6 6 h c h 6 $ : 6 6 6 3 $ @ + $ $ 6 c n n c 9 6 6 6 c n S S B n c 9 6 3 6 6 6 6 6 6 9 h 9 6 : $ $ 3 9 n n n b c c 9 6 6 3 3 3 6 6 6 3 : 3 9 n S S n 9 # + + @ # 6 - - $ # + # + # + # $ $ $ $ $ # $ 3 : : 6 l c h h h 7 7 9 6 , : $ $ , 3 6 c B G R G B v h 6 3 $ $ # $ 3 6 c n D F S v h h 9 6 $ $ # + + @ $ $ $ : : 3 6 c b n c 9 6 3 3 9 v n b b n n v h 9 6 v v S P P F D D v h 9 c h 6 6 6 6 6 9 c b n b v n 9 6 6 3 6 v b n D R W W G n c 6 6 6 6 6 3 : $ $ 6 6 6 9 c b b 9 6 6 6 6 6 6 3 # + : c B F P S h : $ , 7 n F F F B l 3 : 7 h 7 7 3 3 6 7 9 6 3 3 : 3 6 6 6 3 3 3 3 $ # # 3 6 6 b n B n D G G n 6 9 c b n B n v 6 3 3 9 9 3 : 3 c c c c 6 3 3 : 3 3 3 3 6 c b c 6 6 3 3 9 n F Y Y F S c 6 : $ : 3 h D E / W R D c 3 $ $ # @ # $ : 6 v S G D B n b c c h 9 6 3 : # # + # $ # $ = $ $ : : $ : 3 : $ # # 3 6 6 6 9 6 $ # $ $ # h F qXuXaXyX8XP h h c v S G D v 6 3 6 b R ) 7X/ G S 9 3 $ $ $ : 6 h h c n n v 6 3 $ # : 3 3 : 3 6 6 6 6 6 6 6 3 : 3 : 3 3 3 : 6 6 3 3 $ # # $ $ 6 c P E R D b 9 3 $ ",
"# : 6 6 c b v c 9 6 : $ : 6 h b n B B n c 3 $ 6 n S v 6 $ # @ 3 $ 3 b F Y D S S W / 7X7X/ G 6 + . .   @ $ $ : $ $ $ $ 3 : $ $ $ 6 6 h n n n n v 9 6 6 3 $ @ + @ 9 c v v c 9 3 $ 3 : $ : : $ : 3 6 6 6 3 3 6 6 6 3 @ @ : 3 6 6 6 : 1 3 3 3 6 9 h b n n S S n h 6 h 6 6 3 6 6 9 c v c c c 9 6 : $ $ $ $ $ 3 9 v v 9 9 c n b 9 3 3 6 6 6 3 3 6 h n F P R R D c 6 3 $ : : $ $ : 9 B W ) ) E n 6 $ : 9 c b v b S D D n c 6 6 3 $ # @ O : h B P W E P B c 3 $ $ 3 6 9 6 h n S D n h 6 $ $ 6 h c h 9 9 6 6 3 $ $ 3 9 v S S b 9 : + @ 3 9 n b 9 9 n S D c 9 3 @ + @ $ 3 $ : 6 h n S G W 7X8X) W S v 9 3 6 3 6 h h 6 : : $ 3 9 n F R G D b 9 6 6 3 : 3 3 $ : 6 b n n v c h 6 3 6 6 6 6 h h h h 9 6 3 3 3 9 n P / ( W F S b 7 : $ : h S F n B F W ! E D b : @ @ : 3 6 6 6 6 3 $ # # @ $ 3 : 3 3 $ $ 6 c n F P D b 9 : $ : @ $ $ $ # @ + @ 3 6 6 $ # 3 6 6 h 9 3 $ $ 3 6 h c 9 3 $ $ : 3 6 c n n v 9 6 6 6 c c c h 9 h c c 6 6 6 9 9 9 6 6 6 3 : $ # # $ 3 c b v 9 9 9 9 6 6 : : 3 3 : : : : 6 B E / / W G 3 +   + + + # 3 6 9 6 $ # : 3 : $ : $ # : 9 h 9 6 3 : $ $ 3 6 6 6 3 6 3 : $ : 6 h v b c c n S B n v l h 9 6 6 : $ $ 6 b S G F S c 6 3 3 6 6 3 $ # + + + @ $ $ $ # 3 c G G S n b c c n S S n n B F P D b v c h c c c h 6 6 6 6 9 v n c 9 9 c c n D D G G S b h 6 $ 3 9 n G G R E R F n 6 : 3 6 6 6 3 3 @ + $ 3 $ 3 6 6 6 6 3 3 3 # $ : : : $ $ : 6 n n b v 9 6 3 > 9 n F P F B h 6 3 3 6 6 3 3 3 6 9 c c c 6 3 : 6 6 6 3 $ # # $ $ $ 6 n R W E R D n S W E n 9 c S S n h 6 3 6 9 c b 9 $ $ 6 9 9 6 6 3 : $ $ $ 3 6 9 n S n h 6 6 c B P W / / E G c 6 # @ $ 6 b D R E R G n 9 $ + $ $ $ 3 6 9 c n n n c 9 6 6 9 h h 9 6 $ @ @ $ $ $ : 3 : : 3 6 3 3 = # + + # 3 $ # # $ # # + + + # $ h D W 8XeXqX) R b 3 > 9 n B 9 6 : > 3 c D E ( _ W B c 9 6 6 6 6 6 9 c n n n c h 6 6 9 9 9 6 6 6 3 3 6 6 3 3 3 6 6 6 6 6 6 6 3 3 : $ $ # + + + $ h S G D b 9 3 6 n P / ) ( W D n 9 9 9 c v c 6 9 h b n n n b b c 9 6 3 3 6 6 9 6 9 c c h 6 3 9 h n S n c b D ( 5X3X! F v 6 , h 9 c c v n n c # + $ 6 c c c h 3 9 n P W / ! E S n h 9 n ~ 3X) I b 6 : # $ : : $ $ $ 3 3 $ $ $ 3 6 6 : $ # @ + + @ 3 c c 9 9 h b 9 : + $ 9 S P W R S v 6 3 3 6 9 9 9 6 3 3 6 3 6 3 3 3 : : : $ $ $ 3 6 9 9 h h h 7 3 : : : 3 6 6 6 6 6 8 9 6 6 : 3 v G G D n c 9 h b S D D D D D S b 9 3 $ $ $ 3 3 3 6 6 3 $ $ $ : 6 6 9 v n n b 9 $ @ # 6 n D G G B 6 $ # > 3 v S Y E ! E P D G F P P S 9 $ $ 9 B W ) / D 6 @ @ @ $ $ $ $ # # 3 6 9 9 6 3 $ @ : $ # + + $ 3 3 6 6 6 3 $ $ $ $ # $ : : 3 9 c 9 3 3 3 3 3 $ 3 6 9 v b n B D P E ",
"6 9 h h h 9 6 3 $ : 6 h 9 6 6 6 c b v c 9 3 : 6 v n b 6 3 $ $ 6 C R 3XqXqX) R D B n b c c b n b 9 9 n E W G n 6 $ @ # $ : 3 3 : $ # # $ $ $ $ : : 6 3 3 3 3 6 v B n v 6 $ $ # # @ + @ $ $ $ : 3 6 9 6 : # : 3 : : : : : 3 c n n c 6 : # # 3 9 c c v b b v h 9 9 6 8 6 h c c c c v b n S n h 6 : : : $ @ @ 3 9 9 6 3 3 3 3 : $ : 3 3 3 3 3 $ 3 c S E 8XrXqXW c $ + +     @ : 6 c b n h 3 6 9 6 6 3 : : 3 6 c c c 9 6 6 6 3 : $ $ : : $ $ 6 n F P S n c c 9 9 9 9 c c b n v 9 3 $ 3 9 D W W D c 6 3 3 : $ $ $ $ $ @ $ # # $ @ # 3 b D E W W E G S B n c h b B S D D D c : $ 3 9 v c c h 9 c n n n c c c b n D D D S n v c 9 3 3 3 6 9 n F G D n 9 3 : 3 6 6 6 6 3 $ 3 3 : 3 3 3 6 6 6 3 3 : $ $ $ 3 3 3 3 3 1 3 3 9 9 9 9 6 6 h c D D F D n h 3 : 3 , : : : 7 c c v b 9 3 6 6 3 3 $ $ # $ : $ 3 c F ! ( / W S c h B S S n c 9 9 h 9 6 6 6 6 6 c v h 9 3 $ : 3 3 3 # # $ 3 3 $ 3 h B S n c 6 6 9 n F E ! W G n 6 $ $ $ 6 6 c v n n n b 9 6 : 3 6 6 6 h b B S B b v 6 3 3 $ 3 6 9 3 : # > 3 : 6 6 3 $ $ $ $ 3 3 3 : $ @ @ $ $ # + $ $ $ # + + @ $ 3 6 v G W / E D n 6 : : 9 h 6 $ $ $ : 9 n G W ! W F n h 7 3 3 6 6 3 6 c n n n n c c c c h 6 3 $ $ : : 3 3 : 3 6 3 6 9 h 9 6 6 6 $ $ # $ 3 : $ 3 6 b n c 6 6 9 n D E / ( ( W D c 9 9 h h h h 6 3 6 6 h b b b b v h 6 : 3 9 c h c n F F S 9 6 c n n b h 9 c b D R R S B b v n v c c b b c c 6 # + 3 n D D n c : # 6 B D R R F B c h c v S P P n 9 6 3 3 3 $ $ $ $ : 3 3 6 6 6 6 3 $ @ # # @ # : 6 9 v n n h 6 6 3 : 6 h c h h c 9 9 6 9 6 3 9 n n n 6 3 $ 3 6 6 3 3 6 3 3 6 : @ @ $ 6 9 c v c 9 6 3 3 : : 3 6 8 c n R R G n 9 8 6 9 9 9 6 3 3 6 v S R W E D n n v 9 6 3 $ : 3 3 : : 3 3 : $ $ 3 6 6 6 6 c v 9 3 # # 3 6 n D G B 9 3 + + 6 S E 7XeX9X/ P S S C D P D B v , @ 6 F ) 8X) / S 6 $ @ + $ $ 3 3 $ 3 c n v 6 : $ : # @ # # $ $ 3 6 6 3 3 3 3 3 $ # @ # : 3 6 9 9 6 6 3 3 3 : 6 9 c v h 6 6 3 : 3 6 6 9 c v n b v c h h 9 6 3 3 6 9 h h c c b n v h 6 6 3 3 3 3 6 c v n n c 3 $ 6 b S D G E ! ) 0XqX7XP h 3 $ : 3 6 6 9 9 6 3 : # # $ : c G 8XrXrX0X/ D h 9 h h 7 : 3 b S C l , $ : $ $ $ $ $ $ $ $ @ + @ $ 9 h c c 9 6 3 3 3 3 3 3 3 6 6 3 3 : # @ : v G W / / G 9 $ $ : @ @ @ $ 3 6 c c c 6 3 3 6 3 $ $ : 9 n W 8XqX7XW F h 6 : : : $ $ $ : 3 3 : 3 h c c 9 9 b D G D B n c 9 6 6 3 : 3 6 h h 9 3 $ $ $ # $ $ 3 6 6 6 $ # # # 3 6 n R ! W F n 9 3 $ 3 6 3 6 6 3 : 3 3 6 9 3 , 3 6 9 b B n h h v B S n c 9 3 $ # $ $ # @ $ $ : : $ $ $ $ $ @ @ + @ $ 6 9 c h 9 3 $ # : 6 9 h h 9 3 : 3 : # $ @ # $ # $ $ @ $ # # $ $ $ $ 6 n D R W ) 0XeXrX",
"3 6 9 9 9 6 : $ + # 6 b b c 6 3 3 3 3 3 6 6 6 6 6 6 3 3 : $ $ 3 9 c v c h 9 6 3 3 3 6 6 9 c n S D F F F D b 3 : # # # $ 3 9 c c 9 6 3 : 3 : : 3 $ $ $ $ 3 c D R ! ^ E S c 6 $ $ 9 h 9 3 $ $ 3 3 6 6 6 3 6 c b c 6 3 $ $ : : 1 3 $ $ $ # $ 6 c v n n h 3 3 9 n D F P G n v 9 3 : : : 6 9 h 9 9 h h 6 3 $ # 3 c v b n n n b c 9 6 3 : 3 3 3 3 3 3 $ 6 c n n 9 $ # # # $ : 3 3 3 3 $ + + @ + + $ $ 1 : $ @ @ # : 6 6 h h c b c 6 6 6 6 3 $ $ $ $ $ : 6 B E W P B b c 6 3 3 $ # $ 3 9 c n S B n c c c h 9 3 $ @ @ # # # $ $ $ : 6 6 c c v c 9 6 3 6 6 c c c c v b c c h c b B F E E R F S n v c 9 9 6 6 6 6 6 6 c n n n n n v 6 3 6 9 h b C P W ! W S b 9 9 9 c c 6 6 : : 7 h h h h n n v c h 6 6 9 c c 3 + + 6 n F G G v $ @ 3 c n G G G n c 6 3 6 9 c h 6 6 6 9 9 6 6 3 $ $ 3 6 9 6 6 6 6 3 # @ # $ 6 9 c n S S S S B c 3 6 n D D v h 6 6 6 6 6 6 3 3 9 n n c 6 3 3 3 3 : : 3 6 9 c v 6 : 3 6 h n D G D B v h 6 3 $ 3 6 v G W / / G B 9 $ $ $ $ $ $ $ 3 6 c S F F S n n n v h 6 : $ : $ # @ : 3 3 3 $ $ : 3 6 3 3 3 3 $ # 3 6 6 c c 9 6 3 # X @ 9 F _ yXpXiX0XR B h c B F F S c 9 3 6 B W ) 7X_ E n 6 : $ $ 3 6 6 9 9 c n n h 6 : $ # # $ 3 6 6 6 6 6 6 6 6 6 3 3 6 3 3 3 : 6 9 6 3 3 3 3 $ $ 3 9 n D S v h 3 $ 6 b S G G D n h 9 c c c c 9 9 h c n n b v c c h 9 9 6 6 6 6 3 3 6 9 9 h h 6 3 6 h D R R F E 8XrXrX7X! B 3 $ 3 9 9 9 c h 6 6 : $ $ $ 3 6 9 n R / _ ( E P I C b c h 9 n R ) ( D 6 + # $ $ $ $ 3 3 : $ $ # + @ 3 9 9 6 6 3 $ $ $ 3 6 6 9 9 6 6 6 3 $ @ : S 3X9X3XW F v 6 : $ $ $ 3 6 6 6 9 9 6 6 3 6 3 6 3 $ 3 9 n D E E G c 9 6 3 : : $ $ 3 3 : $ : $ : $ $ 6 v S P R W R F D n 9 9 h c c h v n n 9 : + + : 3 : 3 6 6 6 3 # $ $ : 6 v S F G D c $ # + # 3 9 h h 6 3 3 3 3 3 : : 6 h n S D S n n B n n b 6 $ $ 6 v b 6 3 $ $ + @ $ $ $ $ $ # # # $ : + $ 3 3 3 $ @ + # $ 3 6 6 6 3 1 3 $ $ $ $ $ $ 3 6 6 6 6 : $ # $ : 6 6 9 n P E R n 9 $ # # $ 3 9 n n n h 6 3 3 3 6 6 6 $ $ 6 h c n n c 6 : : : : : 3 9 c h 6 6 3 3 : $ # # : 9 b D G G S n b c 6 6 6 3 6 9 6 6 6 6 6 3 3 3 : 6 S / 3X) W B 6 + + $ 6 6 6 3 3 $ $ 3 $ $ $ 3 9 c h 6 6 c D F b 8 6 9 c c c c 7 3 , > : : $ 3 9 9 c 6 6 3 3 3 $ 6 h n S S n c 6 # X + + $ 6 h v n n S n c 6 6 3 3 3 9 c B F G n 9 6 : 3 3 3 6 6 6 3 3 3 3 6 6 6 6 3 $ $ v P G B h : @ + X   + 3 c S F P D c 6 h v 6 3 # : 6 6 6 6 3 3 $ : 6 6 : $ 3 3 3 6 9 9 9 9 6 : $ $ $ 3 6 6 6 9 9 9 9 6 $ $ 3 c n n c 9 6 3 3 3 3 3 6 9 6 6 9 c h 6 3 $ $ : : $ $ 6 n S F R P D B b c c c c c v c 9 3 : : 3 $ # @ @ # # # $ $ + @ $ $ $ # @ + $ $ : 3 3 6 6 6 ",
"G P R E W W E G c : $ 6 6 3 6 9 $ $ $ 3 3 3 6 9 9 h 9 6 3 3 3 $ $ $ @ # 6 v B S B v 6 $ # 3 c S E W P c 3 3 , , 3 6 6 3 6 c b c c h 6 $ $ 6 9 6 6 : : 3 $ @ $ 6 S F P P G G D G G F n 9 c B D B 6 $ 3 h c 9 6 3 6 6 6 h h 6 3 : : : : $ 3 9 b n b c 9 6 9 S E / / W R S c 6 : $ : 6 b G E W R G b 9 3 $ # $ : $ 6 9 v n B n c 9 9 9 c v c 6 3 $ @ @ @ $ : : $ $ : 3 3 3 : : # + # @ $ 3 : : : # @ + + # : 3 b R 9XrXyX9X! S 9 6 h c b n b 9 6 9 c B R / / R S b 6 3 3 6 6 6 6 9 c n n n c 9 6 3 9 9 6 6 6 6 6 6 6 3 3 3 3 3 6 6 6 6 6 6 3 : $ $ $ # + + 3 c S F D S c 3 3 c G E ! W R S v 9 9 h n n v 9 6 c n v n n b c c h 9 9 3 6 6 3 3 6 9 9 9 6 6 9 h b B S b S W 7XqX3XE D 9 6 6 9 v v c v b v 6 $ # $ 3 6 6 6 9 h n G W / ( W R S v 9 c D 7X7X/ n 3 $ # # : : : $ $ 3 3 : $ # $ 3 3 3 : # $ $ @ @ 3 6 h l 9 6 6 c 6 # @ 3 G E W P S m c 6 3 3 6 9 9 6 : : 6 6 6 3 3 3 3 3 $ $ : 3 6 c v c h 9 6 6 6 3 : $ : 3 6 3 6 6 6 6 : 3 9 v B G G G S n c 9 h B F F B n b n c 6 $ # 3 : 3 6 3 3 3 : @ # 3 3 3 9 c n S S c $ + + 3 9 S G D b 9 6 3 $ > 9 b S R E R P G F F P G S c 6 # : n W ! R n 9 : + + @ @ # $ $ $ $ 3 6 6 : # + 3 3 $ + + + $ 3 6 6 3 3 3 : $ $ # # $ : : 6 h 9 6 3 $ : 3 3 6 9 9 c c c c 9 3 6 # $ $ 3 9 n S S b 9 3 $ $ 3 3 $ $ 3 9 n B B n n h 6 3 : : 3 6 9 n B n c 6 $ # + : 9 n B D R W W W W F c 3 3 6 9 6 6 6 6 6 6 3 3 $ 3 9 n W 9XrXrX( P h : # : 3 3 : $ : 6 6 3 3 3 3 3 6 6 3 $ # : 6 6 3 3 6 c n v h 6 3 3 : : 3 3 3 3 3 6 6 3 $ # : 3 9 c n D G n 9 3 # + + + # $ 9 h c c h 9 6 3 6 : # $ 6 B E _ 7X_ E n 6 6 6 6 $ 3 3 3 3 3 : 3 c v c 9 9 6 9 c b n h : # # # # + @ 3 c b c 9 9 $ 3 : $ : : # : 3 6 6 : $ : 6 6 c b b b v 9 6 6 9 9 h 9 3 # $ : 3 6 6 9 9 9 9 6 9 6 6 9 h c v c v h 6 3 : : : $ $ $ 3 9 9 9 9 6 : $ # # # # : 9 D F G F S n h 6 6 9 c v v h 6 3 : $ $ # @ + + @ $ $ $ $ $ $ $ @ + + # 3 h S P R S n 9 : 3 9 h c 3 $ @ # 3 9 c n G D n 9 3 3 : $ 3 3 6 6 c n n n c 6 : $ 3 h n D P D b 6 6 h v v 9 3 $ $ $ $ $ : 6 6 9 c 9 3 : 3 3 9 h c c 6 3 9 c C P E E R S n 6 : 3 6 9 6 6 3 $ $ $ 3 3 6 n D E / _ _ W G S S E / / R D b 7 : 6 6 6 6 9 9 9 6 3 : : 3 6 9 9 9 v b b c 9 3 $ # @ : v G E R R E ! / W G B c 6 6 3 3 6 : $ $ $ # @ $ 6 n B n c 9 6 6 : # @ $ $ $ 3 9 G / ( E S h 3 $ + + @ $ 6 9 S B h 6 6 h c c $ $ $ 6 x h 6 3 # $ $ $ 3 9 b n B S n b c v v v n b c 6 3 3 3 6 6 6 6 3 : $ # : 6 9 9 6 6 6 3 6 c S G D S S n 9 6 $ @ + @ $ 3 6 c h v n c h 9 6 9 9 c c 6 3 : 3 3 6 6 6 6 9 9 6 3 3 6 h h 6 3 : : : $ $ : 3 3 3 $ $ $ # $ 3 9 h ",
"6 9 9 9 c n B n 6 6 9 b n b h 6 b B G W E D b h b c c h h n S n c 6 $ @ 3 c S G c h 6 3 c G W / E R S c 9 b D P E R B 3 @ : 6 : @ # $ $ : : 3 6 6 6 3 3 : $ # # + # 3 9 h c v v 9 9 6 : 3 6 9 c B B n c 9 6 6 6 h c c c h 6 3 : 3 3 3 3 3 3 3 3 : $ $ $ 3 6 9 9 v 9 6 6 3 3 3 3 : 3 6 x n S S n 6 6 6 c v c 6 6 6 9 n D R E R R D n h 6 6 3 3 3 6 6 6 3 $ $ $ $ 3 6 6 6 9 c c 9 9 3 $ # 3 c S D R D c : + + 3 v W ) 8X) W G B n S D G P S 9 $ $ S R ( 7X( G 9 @ $ $ # $ $ $ : 3 c c 9 6 : : $ $ # # @ @ $ 3 3 3 6 3 3 3 3 $ # @ $ : 3 6 9 9 9 9 3 3 : 3 3 6 9 h c c 6 $ : 6 6 6 3 6 c n n n n b 6 3 : 3 3 6 6 h c n n n n v h 6 3 3 3 3 6 c b n B b 6 $ $ 6 b D F E W ! ) 9X0X) D c 3 $ 3 3 6 6 6 6 3 3 : : 3 3 6 b W eXrXqX( R v 6 6 9 9 6 : 6 c b h 3 $ 3 3 : : $ $ # $ $ $ $ $ : 9 n n c 9 9 6 3 3 3 6 3 6 6 6 : $ : # + $ 9 G E ! W G n 6 @ $ # @ # $ 3 9 h 9 9 9 6 3 3 3 $ $ : c G / 8X9X7XR S h 6 3 $ $ $ $ : 3 3 3 6 9 h h 9 h v b B S S b h 6 6 3 : : : 3 6 9 c c 6 # @ @ + # : 3 3 6 3 6 : $ $ 6 v S R Q E S 6 3 $ $ 3 6 6 : # $ 6 6 9 h h 3 : 6 h b b v c h c n n n n 6 $ # : 3 $ # $ $ $ : 3 3 : $ $ @ + + + $ 6 b n n b 9 3 $ 3 6 9 c h 9 6 3 3 : $ $ # # # # $ : $ $ $ $ $ $ # $ $ c S W ) / F 9 # $ 3 6 6 6 6 3 : 3 3 6 9 c b v 9 : $ $ 3 3 : : 3 6 9 9 9 6 6 6 3 3 3 3 6 c b n v 3 $ $ 3 9 c h 9 3 $ $ 3 6 6 6 6 9 h 6 : 3 9 9 6 3 $ 3 c S F R R B n 9 : > 6 9 h 9 9 6 6 3 3 3 : $ : 9 D R R E W / / G c 9 S R P S b 9 3 3 3 , : 6 9 h b l 3 > $ 3 6 9 6 h D P D v 6 $ @ + # 3 9 n D F D F P G S b 9 6 6 6 6 6 6 6 3 $ # @ $ 6 h n n v 6 3 : : 3 $ $ @ + $ h D W 3X_ P 9 # @ @ + + # h D R G B n B b h 6 3 @ + 3 c c h 6 $ $ $ $ + @ # : 6 9 c b n b c c 9 3 : $ : 3 6 6 6 9 9 6 $ @ # 3 9 c b b 9 6 3 3 9 c n n n v c c 9 6 3 $ $ : 3 9 v c b S D S n h 9 c c c 9 9 6 6 6 6 6 6 6 6 6 3 $ $ 3 3 3 3 : $ # # $ : 3 : $ # @ $ 6 c D G D v 6 6 : $ $ : : 6 9 h c n h v b n D W / / n c 6 3 9 c b b 6 6 : 3 3 6 6 6 $ : : 3 9 b n v 6 # + $ $ $ $ 3 : 3 3 3 $ + + $ c n S S n 9 $ $ h S W ) 8X) E D 9 $ # 3 6 6 6 6 6 6 9 v v 9 9 h B D S n n S D G E P n 9 6 3 3 6 3 3 3 : $ # @ @ + @ $ $ 3 6 6 6 : : : $ $ $ 3 3 9 b G W E D b c v v 9 6 6 9 n D W E D c 3 # # # $ $ $ : : $ : 3 9 9 9 6 3 3 3 3 3 6 b S D B c 6 $ @ + + # $ 6 9 b n v 9 6 @ $ c / eXyXrX7XD 3 @ $ $ @ @ 9 R 0XuXaXuX/ c @ + 3 9 n n n c 9 6 6 6 3 6 3 3 6 6 6 9 9 9 9 6 6 6 6 9 c h 6 3 # $ $ $ : : : 3 : $ # $ $ $ : 6 6 6 9 6 : # + $ : $ $ : 3 6 6 6 3 $ @ + # 3 c S F P P R E G n 6 : 3 6 6 $ : 3 3 6 9 h c ",
"6 6 6 6 6 h v v 9 6 3 3 h S R W G W ) qXeX7XE D 6 $ : 6 9 9 h 9 6 3 3 $ # # $ 3 c D ! 7X8X) W G F B h 6 6 c S G E R n 3 + # $ $ 3 : : 3 $ @ + @ @ 3 c v c 6 3 : , : 3 3 3 6 6 3 9 6 $ # # 3 b R 8X9X) F c 6 : $ + $ : 3 6 9 9 h 9 6 3 : $ $ : 3 3 6 S W / / W G c 6 3 3 : : 3 : $ : : $ 3 6 6 3 6 6 n G R G D D n b c h 9 6 6 8 c b v 9 3 # + + $ $ 3 6 3 3 3 : $ : 3 6 b F E E S v 6 $ # : 6 6 6 9 6 6 6 6 6 3 3 6 9 h n B B B c v n S S h 3 6 9 h 9 6 : $ # # $ $ # @ @ $ : 3 $ # # # : 3 3 1 : $ # @ $ 6 9 9 6 6 3 3 3 3 $ $ $ $ $ : 3 3 3 $ : : $ $ $ 3 h n W / E S h : @ # 3 6 9 c v h 6 6 6 3 6 9 6 $ # $ 6 9 c v v h 8 6 6 3 3 3 6 9 h h 3 6 6 6 6 3 $ : 3 6 b F G B c h c 9 6 6 6 6 6 6 6 3 6 9 6 3 : $ 6 c G / / R n 6 : @ : 6 6 6 6 6 3 6 6 3 3 : 3 9 v B n 9 c G W R b 9 9 n S B n v 6 6 3 : $ $ 3 9 c n c 6 3 6 6 3 3 9 b D F S c 6 # @ + + $ 6 c v B n n n n h 6 3 3 3 6 c n S n c 6 $ # : 6 6 9 h h 6 6 3 3 6 6 6 $ $ 6 h n F R D 9 @ + @ +   + : S G G S n v h 9 6 6 : # $ 6 9 9 6 $ $ $ : : # $ @ 3 3 3 9 c h h 6 : $ : : $ $ 6 6 9 h c h 6 : : 6 9 v n b c 6 3 : 3 6 9 h 9 6 9 c c 9 6 3 : $ $ : 3 6 9 c S F G n n c h c c c c v c h 6 6 6 3 : # + + # $ $ $ $ $ $ $ # @ @ $ $ @ @ 3 h v n n b 9 6 6 9 6 : # $ $ 6 v S S B n n n n S G S b 9 6 h v n B n b h 6 3 3 h n S b 9 3 6 9 v n c 3 @ + $ $ $ : 3 3 3 6 6 6 $ + $ c S S D v 6 6 6 9 B E 9XqX) P b 6 , 3 9 6 3 : : 6 9 c h n v h n W _ / G D F W / / W E n c 7 6 6 9 9 7 6 , > # + + + $ 6 6 9 9 9 h 9 3 3 $ $ : 6 v D R / / E D S D D S h 6 9 b n n v 9 3 # # $ $ $ 3 3 9 c 9 6 3 3 3 3 3 3 3 3 3 9 b S F G n 3 @ # # # + $ 3 6 h c 9 3 # @ : 6 c G W R D c 6 : # @ $ $ 9 S / 9XeX7XR n 6 $ 3 c B S B n 9 9 6 3 6 6 6 6 6 3 6 6 9 9 9 6 : 6 6 h b B n n 9 6 3 6 6 3 : $ + @ $ 3 h 9 6 9 c c h 6 3 6 6 3 3 3 3 3 3 3 3 3 3 3 3 $ 3 6 h c n n n n b 9 6 9 c 9 3 $ $ : 6 c b v 9 : + + $ 6 n S S b 9 3 @ + $ : 3 6 h n B n c 6 3 : $ $ $ $ : : 3 3 : : : 3 : $ : 3 6 6 9 9 6 3 : $ $ $ $ 3 9 9 6 : : : 3 6 6 6 6 3 : $ $ : 3 9 v n n h : @ $ $ : 6 h D R R c 6 +   + $ 3 6 $ : 6 9 v c 9 6 $ # @ $ 3 $ $ $ 6 6 3 $ @ @ $ 3 G P F n 9 6 3 : $ : 3 6 9 h h c 6 6 6 6 6 6 6 3 3 3 : : 3 6 9 v S n n h 6 $ @ # $ 3 : # @ $ 3 6 9 9 9 6 3 : 3 6 3 6 6 6 6 : # $ $ 6 b D G n h 6 6 9 c v c 3 : 9 S E W W R n 3 $ 3 6 9 9 9 h c n S F n 6 $ $ : 6 3 1 $ # $ 6 9 9 9 9 6 6 3 3 3 6 3 6 6 9 9 9 6 9 3 : 6 c c 9 6 3 $ $ 3 6 6 6 3 $ # @ @ $ : : $ # + + # $ : : 3 6 9 9 9 6 6 3 3 6 v b v 9 8 9 b B v v h 3 # @ +   @ @ $ 3 6 9 c c ",
"$ $ 3 6 c v b b 9 6 $ $ # # 3 h n S F R E R G B c 3 3 6 6 6 9 6 6 6 6 6 3 # # 3 S E 8XrX9XW v 3 + # 3 3 3 3 3 $ $ $ : 3 3 3 6 9 6 6 6 3 6 c c 9 6 6 h n n h 6 6 3 : : : : 3 6 6 6 6 3 $ $ : 6 9 v B S B n 9 $ + @ @ # $ 3 9 c b n v c 9 6 3 : : 6 h D W / W P S c 6 3 6 6 3 3 $ 3 3 3 6 6 9 h c : : 9 B B c 6 3 $ + X + @ : 9 v n n c 6 3 6 6 3 3 $ $ 3 6 6 3 $ $ $ 3 6 h c c h 6 6 6 9 h 6 3 3 : $ @ $ 3 3 6 h c h 9 6 6 6 6 h n n b v c 6 3 3 : 3 : $ : 6 9 c h 9 6 3 $ $ $ # @ $ 9 B G G D D B n c 9 9 h v b c 9 6 3 : $ # # + + + # $ # @ # # @ # # + + $ 6 9 n n n b 6 3 6 h 9 6 3 # @ $ 6 6 b D F D n h 6 6 6 6 6 3 6 9 v n n n c 6 3 3 3 n S G G D b 6 3 h c h , # $ $ # $ $ 3 6 6 9 h 9 $ @ $ 9 h c v c 6 3 6 b S E / ! F n c 6 : 6 9 6 3 3 3 6 6 6 6 9 c S E / ) / E F G G W ) ) W D v 9 6 6 9 9 9 6 6 9 6 : # $ 6 9 h 9 9 h c x 8 3 : 3 3 : 6 v G W / P R W / ! G v h 9 h 9 6 6 3 $ $ + @ $ 6 h c v n 6 6 3 : 3 3 3 3 : 3 9 b D W / R b 3 # : $ + + 3 9 n n h 6 6 6 6 6 6 6 6 6 h h 6 3 # $ : 3 : 6 b G E R B c h h v n B n v c 9 9 6 6 6 6 6 3 $ $ 3 3 6 6 6 6 3 3 3 9 n S D D B v h 6 6 3 $ $ $ 3 6 9 c v v c v c 6 6 3 6 c v 9 3 : $ : 3 3 6 6 6 6 3 3 3 6 h 9 9 9 3 3 : : 3 6 6 3 $ # 6 b S G D n 6 $ + # 3 9 c v h 6 6 6 6 6 6 6 b S P R F n 6 : $ 3 3 : : 3 : $ : $ $ $ $ @ # 3 6 6 9 c h 6 $ + + # # + # 6 6 6 3 # # $ : 6 9 c $ 3 3 3 6 b D G F F n 9 3 $ $ 3 9 c n S B c 3 $ $ # $ 6 6 : : 3 6 3 9 n b 9 3 : 3 3 3 3 6 6 3 $ + + + $ 6 v n v 6 : : 3 3 : : : $ : 6 9 c c b n h h 9 3 : 3 3 3 6 6 v S G P P S 3 @ # 3 3 : $ # + # 3 6 h h 6 6 : 3 3 6 8 9 9 9 b h 6 $ # : 6 9 9 h h h c n S n v 6 : 3 n 7XuXuX3XP c 3 @ # 3 6 3 v R 3X0X) E S : @ # 3 6 6 6 3 6 6 6 6 9 6 6 6 : 3 6 6 6 6 9 6 9 9 6 6 6 3 3 3 3 3 : : $ $ : 3 $ 3 $ @ # $ $ $ 6 6 3 # + @ # # $ $ $ $ 3 6 9 h 6 : # @ : 9 n B b n G W W D 9 : + + + @ $ : $ @ + + $ 6 9 c b S G D b 3 @ # $ 3 : 3 9 v c 6 : $ 3 3 6 6 9 6 6 6 6 6 6 6 9 c b n G G D S v 6 3 $ 3 3 3 3 : $ $ $ $ : $ # 9 D W ( / W D h 3 # $ : 6 6 6 3 $ @ @ # @ $ $ # $ 6 9 6 3 $ + + # h B F P R E E G 9 + + + 3 6 6 3 : # + + # $ 3 6 6 7 h 9 c c h 6 : $ # $ $ $ $ : 3 6 6 6 6 3 $ 3 6 6 6 6 3 $ + + @ $ 3 6 6 9 9 6 3 $ @ + $ 3 6 9 9 9 6 3 # + + + # 6 n R W ! W F 9 @ + 6 6 h c c h h c 6 9 n G G D v 6 : @ + $ 3 6 6 6 6 6 6 6 6 6 6 9 v S n c 9 9 6 3 3 3 3 : : : $ # $ $ $ : 3 : 6 c D G P F S v 6 # : $ 6 b S F G D h 6 6 h n n n n b n D G D n 6 3 : $ $ 3 9 n n v 3 : $ # # $ 6 9 n n c 3 @ $ 3 3 9 9 6 3 6 v n B 9 6 3 6 9 9 c v ",
"c h 6 6 3 $ 3 6 v n S S n 9 3 : : 6 c h 9 6 $ + : 3 6 9 h c 9 3 $ $ 3 c c 6 : 3 9 b B D G G B v 6 3 3 6 9 9 9 9 6 3 $ $ $ $ 6 c D R W / / W R G n n D R R G n 9 6 6 6 6 6 9 h c h 9 3 $ : 3 6 9 b n S D B c 3 $ + # 3 c B D F G P G P G D b 9 6 3 6 6 6 6 3 $ + $ $ 6 v n n n b 9 3 $ $ $ $ # $ $ 9 G ) 8X/ F v 6 $ + + # 3 9 n G G n c c b c c + + $ 6 h 9 6 9 3 : $ $ $ : 3 6 9 c v n n n c c 6 6 6 3 3 3 3 6 9 6 6 6 $ + # : h c c 9 6 6 6 h c n B S B n c 6 6 3 : $ $ 3 6 6 c v S G G n h 9 n n v 9 6 6 6 6 6 6 6 6 6 6 6 6 $ 3 6 9 8 3 $ $ @ # : 6 6 : @ + $ 6 c D P S h 6 # # $ 3 3 3 3 6 c 9 9 9 9 c n G ) ) W S h 6 6 3 c c c 9 6 3 3 6 6 6 3 $ @ @ : 6 c c 9 3 @ + @ $ : : : : 3 3 3 : @ @ 3 c B S n c : $ 6 n P / 3X) R n 9 3 3 6 6 9 6 6 6 6 9 c h 9 6 3 9 S D c 9 c B G P D n c 9 6 6 6 3 6 3 = $ $ # + + $ $ $ $ 6 6 6 6 3 $ = 3 $ 3 6 h n S G D S v 9 9 c h 6 6 9 B P W E P b $ + $ $ $ $ $ $ $ : 6 6 6 9 6 6 - - 6 9 9 9 c S G S 9 3 # # # # : 3 h v n n c 6 : $ 3 n ) uXiX9XR c 3 + @ $ : 6 n W uXuXyX3XG 6 +   6 b n b c 9 6 3 3 9 6 6 8 6 6 6 9 9 9 9 9 9 9 h c 9 6 6 3 $ $ $ 6 6 3 3 $ $ $ @ # # $ $ 3 9 h 9 3 $ $ $ $ # $ 3 6 6 8 6 6 3 : $ + # 6 b D F G R W E S 9 3 3 3 3 : # $ : $ $ $ @ $ : 6 9 n F R D h : @ $ $ : 3 6 6 6 6 6 3 3 6 6 6 6 6 3 3 6 6 6 3 6 6 6 6 9 9 9 6 9 9 6 6 6 6 6 $ $ $ : 3 6 6 6 6 6 n P R G n c h 6 $ # $ 6 6 6 3 $ $ $ $ $ $ 3 6 h n D B 9 $ + + $ 3 6 c S D D D S b 3 + @ $ # # % % % # # $ $ % % % $ 5 n S S c 6 3 : : $ : 3 6 6 h c 9 3 $ @ 3 6 6 6 6 : # @ # $ 6 9 9 c h 6 6 $ # $ $ $ $ $ $ - 3 6 6 3 # # # # # $ 6 v S n 6 $ $ $ 3 9 v n S B b 9 6 6 9 h b b 9 : 3 3 6 6 6 6 6 6 6 9 9 9 6 3 3 6 9 9 9 6 9 3 3 3 : $ $ $ $ $ : 6 6 6 3 3 6 6 6 9 c B D S c 6 6 6 6 3 6 h B S n c 6 : 3 6 n B n 6 3 6 9 9 6 6 3 3 3 $ $ $ c c c c 9 6 : $ $ 3 h n S B v 9 : $ $ 6 6 : # $ $ $ $ # @ $ 3 3 3 : + X + $ 9 b G G G n 9 3 3 6 n S S n v b v h 6 3 3 3 3 3 6 6 3 $ # $ 6 b D R F G S v h h 6 3 6 : : 6 6 : $ 3 $ 6 6 3 6 n P E W R S c 3 : : : 3 3 3 3 3 $ # $ $ $ # + + + # # + @ $ 6 c c b n C n 9 $ @ # 3 9 v n S n b 6 @ + X : c D E R G C c 6 $ @ # $ $ $ # + + + # $ 3 6 6 6 6 6 3 : : 3 6 6 9 9 6 3 : 3 v n n n n B n c 6 3 6 c n n c 9 9 6 9 c n S R / 8XqXeX9X/ n $ + + $ 6 6 6 : @ + # 6 B R E P S c $ @ $ 6 3 $ $ $ 3 6 3 : 6 v D G W E S c 6 3 $ : 6 6 3 # # $ 3 6 h c b n v 9 6 c B G E W E P B v : 3 c F E R D B v 6 $ $ $ $ 9 S W ( ) ( E n 8 3 6 9 6 $ $ 6 n S R G n h 3 : : 3 3 6 6 3 6 9 9 6 6 6 6 9 b S D S 6 3 3 9 9 6 6 6 ",
"S n v 9 3 3 9 c n n c 3 3 6 h c v c 6 $ + + $ 3 $ : 3 3 3 3 3 $ + $ h S D n 9 6 3 9 n D ! 9XqX8XS 9 : 3 6 6 6 6 $ 3 6 9 c c 9 9 c n R W E D n n W / / G n c 9 6 6 9 6 6 6 $ # $ + + + $ : $ 6 c 6 6 6 3 $ $ 3 : 3 9 S R W W P G B n n n n c c b D S n 9 3 $ # # + @ $ 3 6 6 3 3 6 6 3 3 3 6 6 6 6 6 c B D S n c $ @ + @ $ $ : 6 9 b v 6 $ + $ 9 R / ) _ W n 3 $ $ # @ $ h R 8XrXrX9XE h $ $ 6 c D F D c 6 6 3 : 6 6 6 6 6 6 6 9 3 6 6 6 6 9 h c S n v 9 6 6 9 9 6 3 $ $ $ : 3 6 3 6 9 c h 6 3 3 : : : : : 3 6 6 6 6 9 6 3 $ @ + 6 c n B D G G D n c 6 6 6 3 3 3 3 6 9 9 6 $ # # # $ 9 n D n c 6 3 # # $ 3 - 6 c c b v 9 6 6 3 3 $ $ $ $ : 3 3 6 : 3 3 6 3 3 6 6 9 l 9 3 : 3 3 # @ $ 6 9 c 6 3 3 6 6 6 6 9 9 6 6 $ $ $ 6 9 c h 6 6 : $ $ $ 3 9 n R R S 9 @ X + @ $ 6 6 6 6 c n v c 9 3 # @ $ : # # $ 3 3 $ % + + + 6 n R R S 9 $ 3 3 $ $ 3 6 t 9 c h 9 6 6 6 9 6 3 : : 3 3 $ $ 3 6 c n B n 9 3 $ : 3 3 3 $ $ @ + 6 6 6 6 6 $ $ 3 # 3 9 c h 6 $ + + # 6 c n S S n 9 6 9 h c h 9 9 h 9 n R E D b c 7 3 7 h 9 3 3 9 c n n c 6 3 $ 3 $ $ $ $ $ $ 3 9 h c 9 6 6 6 6 6 9 6 9 h h 9 9 9 3 3 6 9 9 c v h 3 : 3 3 6 c v c $ # $ 3 3 3 $ @ # # $ $ $ 3 3 3 6 6 6 6 6 6 6 6 v n n n v 9 6 9 h c c 3 $ @ @ + + + # $ $ # $ $ # 3 h v n D D b 6 $ # $ 3 6 9 9 n c 9 6 3 , 3 3 7 9 9 9 9 6 3 3 3 6 b D E W W R G n 6 $ $ 3 3 : 3 : : : +     + 6 c F / ) 3X/ R c : @ $ 3 6 6 6 : $ $ $ # # $ $ + + @ @ + + + + $ 6 b G E E G S c 3 + # 6 c n B v 9 $ + + + 3 5 n D S n c 6 6 3 : $ $ # # @ @ @ @ $ 3 6 6 6 6 6 3 3 : : : $ $ $ $ $ $ 3 6 c n B B n 9 3 : : 6 h n n c 6 6 6 6 6 6 l S R ) eXyXeXW S 6 + + # 6 9 9 6 3 : 3 9 B P E ! G 9 : : $ 3 6 9 6 3 3 3 6 6 6 6 n G R R G S 9 3 3 3 3 3 : $ : : 3 6 6 6 6 6 3 3 6 c S W ( _ W G c 3 $ 3 h n E W R S c 6 : : c c n B G ! ) / G n 9 6 6 $ : 6 9 c v v c h 6 6 $ $ : 6 9 6 3 : # $ 3 6 6 3 3 6 S D F S v 9 6 6 3 3 $ + @ 6 n G W W W P S n S F W W F 9 6 c n n 6 6 3 : $ : 3 3 8 6 6 6 3 3 : $ 6 h b n S F G S 6 $ # $ : $ 3 c / ) _ E S 9 $ + + + @ # $ $ $ $ $ # # # # @ @ $ 6 9 6 6 6 6 6 9 B D P E R D n c 6 9 9 6 9 6 6 6 6 6 3 $ $ + + $ b D E / / E D n $ # $ 6 c c 9 6 + @ $ 3 6 6 3 3 : $ $ : 3 9 v n S D D A b 6 $ $ $ 3 6 6 h B D B 6 3 3 9 v c 9 6 : 3 6 c v b n B S D D S v 6 + X # $ 3 6 v D P R D n 9 3 3 6 h b S D F R G n 9 6 3 6 6 6 6 9 9 6 # # $ 3 6 6 3 3 # # # # # % # # 6 h c v c 6 : 3 9 c c 9 6 3 # + 3 6 v D D c : $ 6 6 c n c 6 6 c R W W P B 9 3 3 c v v c n G E W W E D c 6 $ # @ $ $ $ 3 9 c n S D D D S n 9 : + # $ 3 9 c h 6 6 ",
": : : $ : 3 : $ # $ # $ 3 3 3 6 c 9 6 3 $ # # $ $ 3 3 6 6 : $ $ @ $ 6 9 9 6 : $ : 6 b G R F B b h 6 $ # $ c S D S n 6 # + + $ $ 3 3 $ $ 3 6 c v c 6 6 3 $ $ $ 3 $ 6 3 3 3 # + # 9 v n b c 9 3 $ 3 $ $ 3 3 6 c h 9 9 h v c 9 3 3 3 : : 3 6 6 9 v D F D b 9 3 $ # 3 3 $ @ + @ $ 6 v b c 6 $ : 3 3 6 9 h c 9 9 6 $ $ $ 6 b n c 9 6 9 c c v c 3 $ 9 G ) qX9X7XG 6 # : 3 3 : 6 n R W _ ( F 6 @ # : 3 3 3 3 3 3 6 9 c 6 6 6 6 3 6 6 6 6 6 6 9 h 9 6 6 : 3 3 6 6 3 : $ $ $ : 3 3 $ @ + + + # $ 3 3 $ # # # $ $ $ 3 6 6 6 6 9 6 3 $ : 3 9 v v c n G E R S v 6 : @ + + @ : $ $ # @ $ 6 8 9 v n S n 9 3 # # # $ $ 6 c v v 7 3 3 3 6 6 6 9 9 h 9 9 6 6 6 9 b n D R R P S c 6 $ $ : 3 3 3 3 : $ @ @ # @ 3 b R / ( W G n 6 : $ 3 3 3 3 $ $ $ @ $ $ $ 3 : # $ : 3 : $ @ + $ 6 B G W ! W F n 9 $ + # 6 9 6 6 6 $ # + + $ 3 6 6 6 6 9 9 6 6 3 $ $ # # # $ # $ 3 6 6 6 6 6 6 6 6 9 6 3 $ + + + # 3 3 6 c 9 9 6 3 # @ @ $ 6 6 h c 6 3 $ $ # # $ 3 v D ! 8X8XW n 9 $ # $ 6 h v v c 6 6 9 n S P R D 9 : @ $ $ > , 3 6 3 7 9 9 7 6 9 b S D D S v 6 6 6 3 3 3 3 $ @ # $ : 3 3 6 3 3 6 h n R ! W G c 6 3 3 3 3 9 D E P S c 6 3 6 n G G S n S F F S b h 6 3 $ # 3 c n n c 9 6 3 $ # $ 6 v n b 9 3 $ # 3 6 6 3 $ 3 v S S n c 9 9 9 6 $ + X   $ v D E W E F S n n D R W R b c v B B h 3 > : : : : : : > > : 3 9 v c 6 6 6 9 b S B c 6 # + # : 3 6 v F R F v 6 6 9 9 9 6 3 3 : : 3 : $ # + $ @ # $ $ $ : # $ $ $ 3 6 c B D F D n 9 3 6 6 6 $ : 6 6 9 c c h 6 : @ @ : c D E ( / W D c 3 $ @ 3 3 3 3 : # @ $ 3 3 6 6 6 3 : $ $ : 6 9 b B S S v h 6 3 3 3 6 9 n D D n v 9 6 9 n S n 9 6 6 c v B S F Y W 3X3X! G c $ # + $ 3 = 3 3 3 3 6 9 9 h v c c b c h 9 6 6 9 6 6 6 6 6 9 6 6 v B n v 9 : : $ $ $ $ $ : $ + # $ 6 c n B n h 6 6 9 h b B S S n 6 + # 9 S F D G n 9 9 9 9 6 # + 3 c D / ) W n 9 6 v b 9 6 9 b D E ! W R S v 6 : $ : 3 : 3 6 c v b n v n n n v 9 3 @ + + @ # : 3 3 3 3 3 3 3 9 c c 9 9 9 9 6 9 6 3 3 : $ $ $ 6 6 3 $ # : 6 c S D S v 6 3 3 3 9 9 h h 9 6 6 6 9 9 c n n c b S R W E P B 9 $ + X + 3 9 c c h 6 3 3 $ $ $ @ # 3 c B A b c 3 # $ 9 c h 6 3 9 v b B n v c 6 3 # # 6 6 6 $ $ 9 S R 3X7X3XE B 9 $ # 6 h v n b c h 9 6 6 3 6 6 3 3 3 : 3 3 3 9 b n v 9 9 8 9 h 9 6 9 h 9 9 6 6 6 6 3 3 3 : $ $ $ $ $ 6 6 6 6 6 9 9 9 6 6 3 : 3 9 c h 3 6 6 c D W / W D B 6 $ $ + # 9 D / 7X8X) G 9 : @ @ 3 h c 6 : $ $ 9 G ( ) E n 9 # + + # = = $ $ $ $ $ $ 3 6 6 9 6 6 3 : : 3 6 c b n v 6 3 $ $ 3 6 h v v v b c 9 3 6 6 3 3 $ $ 3 6 6 6 3 3 6 h c n n c 6 3 6 6 6 3 $ 3 6 6 3 6 c S G E R S c 3 $ 3 3 3 3 3 3 6 3 ",
"3 6 9 9 9 6 6 9 c v b n b c 9 9 6 6 3 3 6 3 3 : : $ $ : : 6 h n G R P S n h 3 $ $ - 3 3 $ $ # # @ $ $ $ 3 6 9 c n v 6 # + # 3 9 c n G E E D v 6 $ + + # # $ $ $ # + # # # # 3 3 h c n D n 9 3 : 3 3 3 3 3 9 c c 6 3 $ $ : 6 9 9 9 6 $ + + $ 3 6 6 6 6 6 6 : # @ @ @ $ 6 6 6 6 6 3 $ # # @ + $ 6 c n S D n 6 + $ 6 h b n S n c c 3 6 h B D n h 9 3 : 3 6 6 6 6 6 9 9 9 9 6 3 6 6 9 c v c 9 6 6 3 3 3 = $ # $ $ $ 3 3 3 6 6 6 h n S F D n c 9 3 3 : $ h S S B n 6 3 3 9 n B n c h c n b c c 9 6 : @ + $ 6 c c c 9 6 : $ 3 3 6 h n B n 6 @ + $ 6 6 3 : $ : 3 3 6 6 6 3 : : $ + + + # 6 n E ! W F B 6 6 h S D n h c b n c 6 3 3 3 : 6 6 3 3 $ $ 3 6 n D G S v c 9 9 c h 6 : $ $ : 6 6 6 9 v v 9 9 9 n n S S n c 6 3 : : 3 6 3 : $ $ $ : $ $ # @ + # # $ $ : 6 h c c c h 9 9 9 3 $ $ 3 6 h n S n c 6 # + $ 6 v R / ! P S c 6 $ # # + + + + + + @ $ $ : 3 3 3 6 3 3 3 3 3 9 n n c 6 6 3 6 9 v n B n n n c 6 6 6 v n n 9 6 6 h c v n S R / 8XeX9X( G v > + + : 6 , $ $ + $ 6 c n D F F n h 6 : $ : 3 6 6 6 6 3 3 6 c n G R R D b 6 $ @ 3 6 6 3 $ $ 3 3 9 c b n v h 9 6 h n D F R R D b 3 $ 6 S R W E F B c 6 6 : $ 3 9 B P / 7X) F h 6 9 h h 9 9 h b B P R F n c 9 6 $ $ : 3 3 6 6 9 9 h 9 7 6 h n C B 6 3 $ # 3 6 6 6 $ $ 3 h n n n n n b n B B n v h 9 6 3 3 : 6 6 3 : $ : 3 h n S S h 3 # # 3 h n G D S B v 9 9 9 6 : 3 6 c D ! ) ( R S 6 +   + # $ 3 6 6 3 : $ # @ @ @ $ $ 3 b D S v 6 6 6 c n D D n c c b v v v v h c 9 3 3 3 3 : : $ 3 9 n R / ! D c 6 3 $ 3 9 c n S b 9 6 3 $ 6 9 6 6 6 3 $ 3 6 9 c v v b b n b c h 6 6 3 3 6 6 6 6 9 9 6 : $ $ $ $ 6 9 6 3 $ 3 h h h 9 9 h h 9 6 6 : $ $ # 3 v E _ 8X7X( R v 6 # + # 6 S / 9X9X7XW B 6 $ $ 3 6 h 9 3 # $ 6 n S P F n 6 @ + @ + + # $ $ : 3 3 : 3 6 6 6 6 6 6 3 # $ 3 6 9 9 9 6 6 3 $ + # 9 n n 9 9 9 h c n n c 3 : 6 h c c c h v n B B S S n v 3 $ # # $ 3 3 3 3 6 9 v S P W E S c 3 # @ $ $ $ $ $ : 3 3 $ + + @ + # : : # @ # $ : $ @ 3 9 c n n n c 6 6 h v n n n c 3 3 3 3 : : 3 3 $ : 6 6 6 : 3 9 b n v v c c 9 c c 9 3 : $ 3 6 6 6 v D G D c 3 $ 3 6 8 x v S S v 3 + + @ $ 6 6 6 $ # 6 c n D D S n c 9 6 3 6 6 6 6 c G W / ! E F B v 6 : # 6 9 c b b n n n n v 6 : : 6 6 9 6 3 $ $ : 6 c n n n b 9 3 3 3 3 3 3 3 3 3 3 3 3 3 3 : $ $ 3 3 3 6 6 9 9 9 h c c v c 9 6 9 b B n v 6 6 6 3 3 6 6 6 6 : $ 3 9 n P W / W G n 6 + + $ 3 9 b b h 6 : $ $ 6 c c h 6 3 3 $ $ : 6 6 3 : # 3 $ # $ $ # # @ $ $ $ 6 n D D n c c v n B D F P P D b c v c 9 3 $ # $ : # # 3 6 9 6 @ $ c S B n b b n D P G S 6 $ # 3 6 3 3 3 6 9 9 h 9 6 : : $ $ 3 6 6 6 6 6 ",
"9 6 3 : : 6 c n D R W R P D c 6 $ # $ 3 3 : $ $ $ @ + + @ 6 n P W / ! P n 6 $ $ = 3 6 6 6 3 $ $ # # @ # $ @ + + + + @ + $ 3 h n G G G B c 3 $ $ 3 6 n D S v 6 % + + $ 6 v S D D n c 6 : # # $ @ + + + + # : 3 6 9 9 9 6 3 3 : : $ 3 6 6 3 # # $ c n n b v n v 9 3 3 6 h v n v h 6 6 6 6 c n G E 7X9XeXqX) S : + + $ 3 6 6 3 $ $ # 6 n E / W D v $ # # 3 6 6 3 3 3 3 3 : 6 n D P ! E D c 6 : : : 6 6 3 $ # $ 3 6 9 9 9 9 6 3 6 c G W / / E S h 6 : 6 n R E P D n 6 3 : 6 9 9 v G ( ) ( R S c 6 3 $ $ 6 9 h c b b b c 6 $ @ : 6 6 6 6 3 : : 3 6 6 $ 6 b G R G S v 3 3 6 9 9 3 # @ 3 9 B R E P S B D D G F D n h 6 h h 9 3 3 : : 3 # $ 6 c b c 6 6 $ $ 3 9 b S D D F D n 6 : $ # @ $ 9 G 3X8X/ G n 3 # + + + # $ : 3 $ @ + + @ @ @ + $ 3 6 c h 6 6 3 9 n G R R F G n v c 9 6 6 9 h 6 6 6 6 6 : $ $ + # x F E W E R n 9 $ @ $ 6 v n c 6 3 $ : 3 9 c 9 6 : $ 3 6 9 v v B F G G B c 6 3 3 : : 6 h n B v c 9 6 3 6 9 6 9 6 3 $ 3 9 b n n n n S S b 6 $ @ @ @ : 9 B P ! / W G n 9 3 $ $ 9 v D E W W G n c 6 : 3 6 9 h h 6 3 : : 6 h c c 6 $ + + + @ # # @ $ 6 9 9 6 6 6 6 9 9 9 6 3 : $ $ : 9 b v v c 6 # # 6 b n c 6 9 c B Y W P v 3 3 B B b h l B P W W E R D v 6 # + $ $ : 3 6 6 h b b B P E R C 9 : # + + + $ 3 6 6 3 $ # # # $ $ : : : 3 6 6 6 6 6 3 $ 3 9 v b v h @ # 6 n D S n c 9 6 6 3 3 3 : $ : $ : 3 6 6 h c G G G S B S S n b h 6 $ # # 3 6 v n B B n h : $ $ $ $ : 6 n B b 6 $ @ # # $ $ # + # 6 b S S n v 6 : $ $ 3 3 6 h 6 v G / 7X8X) W D c 6 6 6 9 v v c v c c c h 6 6 : : 3 6 6 3 : $ 3 6 c b n b c 9 v c 9 6 6 6 6 6 3 : 3 6 6 3 : $ # # $ $ - 3 6 6 h h h h 9 9 9 7 6 h n D S h 3 3 6 h h h c h 6 3 $ # 9 S R E W R S c : + + : 9 c 9 9 6 : 3 c S G P D b 3 + + # $ 6 6 6 3 $ $ $ $ 3 3 6 6 3 $ # # 6 3 9 n n 9 9 b D D S n b B D S c 6 3 6 3 $ + + $ $ 3 6 3 : 3 3 9 9 b S B c 9 h G F S h 3 3 3 3 3 6 6 6 9 n B n h 6 6 6 3 : $ # @ $ $ # $ $ $ : $ $ 3 6 6 6 3 : # @ + + 3 n E / W F v 3 $ : 3 9 6 6 6 3 : $ : 3 c x 9 6 6 9 h h b c 9 6 : : : $ $ # # # $ : , > $ $ $ $ 3 6 9 6 3 3 9 n D E E R n x : # $ $ $ 3 9 9 3 $ $ 6 h v v n D R F v 3 @ + $ 3 6 3 3 $ $ 3 3 6 6 3 : $ $ @ $ 3 6 9 h v b B S n 6 6 9 h 6 6 6 3 3 : $ $ $ $ $ # # $ 3 6 6 6 6 6 6 9 9 9 9 , : : 3 6 6 6 9 6 c n S S n b c 9 v n D S n 9 3 6 8 6 9 n G R F 9 3 : 6 6 6 c n R W W F n 9 : $ 3 6 c B D S n c 6 : $ : $ 3 6 6 3 6 3 $ @ + + + # + + $ $ + + # 8 h n D R W E P b c c v n B B B n v 9 : # $ $ : 3 6 3 3 $ @ @ : c b b h 3 $ $ : : $ : 3 3 3 $ $ $ $ $ 3 : $ # $ $ : 3 6 6 6 : : # $ 3 6 6 6 3 3 ",
"3 : 3 6 6 3 3 3 9 h 6 3 6 v B S S b 9 3 # @ $ 3 v S E / W D 9 3 $ $ $ $ : $ # $ $ # # $ # + + + : $ $ : 3 3 3 6 6 c n D P G D B 9 6 3 3 3 3 3 3 6 9 c h 6 : # + # 6 n R / / W E v 9 3 $ : 9 h 6 : $ # $ : 3 3 6 3 : $ $ : 3 6 9 n n S D n 9 : $ $ 6 6 6 h S G D 9 6 6 h v b v h 3 6 9 c b B D G E W W E G c $ X @ $ : 3 6 9 c c v c 9 6 6 c b v h v v v b h 6 6 9 6 6 3 6 9 c v 6 6 3 3 3 $ $ $ $ $ # + + + $ 3 c b n n v 9 9 h n n n n h 3 $ $ 3 h B P P n 3 3 c h 9 9 6 3 9 n E W E S c 9 9 6 9 h b B D R W ! R F n 6 $ 3 3 # # $ 6 c n n n S S B n b c 6 $ + + + + $ : : : 3 # $ 6 h h 9 7 9 6 9 9 6 6 6 3 : $ 6 9 h h 3 @ @ 6 9 b S S n c 6 3 $ 3 6 6 6 6 6 3 6 6 6 h n S S n n S G R G n c 6 # + $ 3 6 h v c c 9 6 3 3 : $ + $ 6 b B b 6 3 $ $ 3 6 6 $ $ 3 c n B n v h 6 : 3 : : 3 3 3 6 h D E 3X9X7XW n 6 3 : 6 h b n b c h 9 6 6 3 : : 3 3 6 6 3 3 3 9 c B B n 9 6 9 c c 9 9 9 6 6 3 3 3 6 6 3 $ # # # # : 3 6 3 6 9 h 9 9 7 6 6 6 6 9 h b b h 3 3 b G R R G n c 3 @ @ $ 6 n E ) 7X) E S $ + @ 6 9 9 6 : @ $ h G W / W P 6 $ + @ $ : 3 3 3 3 $ $ $ 3 6 6 9 6 6 3 $ $ : 6 v b n v 9 h c 9 3 6 9 n n c 9 6 6 3 : : $ # # 3 : 6 3 : 6 9 c b v b c 6 6 c b c 6 $ $ 6 6 6 6 6 b n F E P n 9 3 6 6 6 3 : $ $ # @ @ # $ $ $ : 3 9 9 6 $ # + + + # 3 v G P D n 9 9 3 3 9 h 9 9 h 6 3 $ $ 3 6 9 9 6 3 6 h 9 6 6 3 3 3 3 $ @ $ 3 6 3 3 3 3 3 : 6 6 v n n n v 3 $ 3 S P E E R F n c @ + @ 3 6 9 h 9 3 3 6 h n D G G R D c : # : 6 9 9 9 h c v c h 9 6 6 3 $ # $ 6 6 c b n n n n c 6 3 3 6 9 9 6 : $ $ : 6 9 9 6 3 3 3 : $ $ : 3 6 6 9 6 6 6 6 3 : $ 3 6 6 6 9 v n n b b b c c v b b n n c 9 6 3 3 6 v n B n c 6 3 3 3 6 v B F ! ( W n h : @ $ 6 c n S B v 6 $ $ $ # : 3 6 6 6 6 3 3 # # # # + + + # $ # + + + # 6 9 G W / W G n c 9 c b S D G G B c 6 $ # $ : 3 3 3 $ $ 3 6 9 h 9 6 3 3 6 c c h h b b v 9 : @ # $ : $ $ $ $ : 6 9 9 6 3 $ $ # @ @ $ 6 9 6 $ $ : 6 6 9 9 6 3 3 : $ @ @ # 3 9 h c c h 6 9 9 9 9 9 6 6 6 3 $ $ $ : 6 9 9 9 9 9 6 6 9 c c v c 6 3 : 3 3 : 3 6 3 : > $ : 9 n E / / R B c 9 6 $ + + $ 3 $ $ $ # $ : # + + + @ $ 3 6 9 h h h 9 3 # # $ $ $ $ # # $ $ % + # # $ : 3 3 $ $ : 9 c c c c 9 6 9 h c n n n b h 9 3 3 6 6 6 6 3 3 $ 3 c S G S n c 9 9 6 6 6 6 6 6 6 3 3 3 3 : 3 6 9 h v n S G P R D S n v 9 6 6 9 c n D G D n 9 : 6 3 6 9 c b n v c c 6 3 3 $ $ - 6 9 c c c c 6 3 $ # % $ $ $ 3 6 6 6 6 3 3 3 6 3 $ $ # $ $ # # 3 6 6 9 9 6 : # @ 9 n G R R G n v n c h h 6 3 6 9 B S n 9 3 $ $ 3 6 9 9 6 6 9 9 9 6 3 @ + $ c S D S A S D S n c h 6 6 6 3 : $ # $ 9 c 9 6 $ $ $ $ ",
"6 9 n S S v 6 : @ : 9 b B n v v h c c 9 9 6 6 6 v S E ( ( E n 9 # + X + 3 6 9 9 3 3 : $ $ $ $ $ # 6 n D D v 6 3 9 c c v n b h 9 c b n B b 9 6 3 6 6 3 $ $ $ 3 h D W ( ( ! D h : 3 3 6 h b B n c 3 3 3 3 6 6 6 3 3 3 3 6 9 c n n h h c v c 9 6 6 c h 9 6 6 6 9 9 6 3 : : $ $ 3 3 6 6 6 6 6 9 h c 6 3 6 6 6 6 3 : # $ 6 n F / 8X8X! D h 6 @   @ h P _ 9X9X7XR v 6 $ $ 3 9 h 6 $ $ : 9 D W ! P b 6 + + + + $ : 3 3 $ : : 3 6 6 6 9 3 3 : $ : 6 h c c h 9 h 6 + X @ 6 c n n c 9 6 6 9 c 9 3 : 3 6 6 9 6 6 6 h b n n S v 9 3 $ $ $ $ 3 : : 6 9 h n S R R R D b 6 $ @ # $ 3 : 3 6 6 3 $ $ @ @ # $ > : $ $ $ $ $ $ 3 9 9 c c c c 9 6 h 6 h b n v h 6 6 3 3 6 6 : $ : 3 6 9 6 6 6 h c c c 9 6 6 9 9 h 9 : # $ 6 6 h n n G D b 3 # : 6 h b n D G S 9 @ + # $ 6 9 9 : $ : h n S S D D n c : $ : 6 h 9 h b R E R D B n c 9 $ $ 3 9 c v n n D S S n h 6 3 : 9 h 6 $ + $ 3 6 v b b c h 6 3 3 $ $ : 3 6 3 3 3 3 3 $ $ $ $ 3 6 6 6 6 h h c c c b b b c h h c b n b 9 3 3 6 6 6 9 6 6 6 3 3 6 9 D R W ! R S 9 : $ + : h v n n c 6 $ $ 3 3 6 6 3 6 3 $ : 3 3 3 3 $ $ # # # # $ $ $ # + + : b G R G S n v c n S S G F F F S b 9 3 6 3 : $ $ $ $ : 9 h 9 6 6 6 9 c n B n c n G R G 9 3 $ $ : $ $ : : 6 9 c h 6 3 3 $ $ # + + # $ $ : : 3 3 3 3 3 3 6 6 3 $ $ # # : $ 9 B F F S c 6 : $ 3 6 6 6 6 3 $ $ 3 3 6 9 h 9 6 6 9 b n b v h 6 3 : 3 3 $ $ # : : $ # $ 6 9 h v b c 9 6 : $ 6 6 h v c h 6 : $ $ # $ : $ # $ $ : 3 9 c 9 9 9 6 6 6 3 @ @ $ 3 : 3 3 $ # @ $ : 3 3 3 3 : 3 6 6 3 $ 3 6 9 h c b v b v c 9 6 3 3 3 3 : $ # + @ $ 6 b n S n v 9 6 6 6 9 h 9 6 3 : : 3 6 6 6 6 c v v S S B n b b b b n n 9 3 6 b D D D S n v c 6 $ $ 6 6 c n B S A n 3 : : 6 9 h c v n n b h 6 3 : $ 3 3 6 6 6 3 : $ $ $ $ $ $ # # # + # $ $ 0 v S D n c 6 6 6 9 c c B S S n c 9 6 : # # 3 9 v n b c : $ $ 3 9 c v c $ $ $ $ $ @ + @ $ 3 9 v b c 9 6 3 3 3 3 3 6 6 3 : $ : 6 6 6 6 h c c 9 $ @ @ @ # : 3 3 3 3 3 3 : # $ : 6 6 3 3 9 n G F S n n c 6 : 3 9 c B P E G n c 6 6 6 v G W 7X7X! S c h 9 9 9 6 6 3 $ + @ 6 R ( eXuXyX9X^ R n 9 $ + + $ 6 c S F D n c h c v n n v 9 9 9 h h 9 9 6 3 : : $ @ + @ 6 c n c 6 3 $ # # $ $ # # $ 6 c S P R D c 9 6 : $ 3 3 6 9 v n b n n B B B B n n n n h 3 # # $ $ $ : 6 9 c b 9 9 6 6 3 : : 3 3 6 9 x c v v v b h 6 3 $ @ $ 3 c b b b v 9 9 c c v c 9 9 h 9 6 3 3 $ 3 6 $ # $ $ 6 6 3 3 6 6 3 # + + $ $ 3 6 5 6 6 6 3 3 : : $ $ 6 h c c c 9 6 3 # + @ X X # 6 n D R E R F D S F F P R D 9 $ $ 6 6 6 $ $ $ $ $ 3 6 6 9 n R ! W E P S v b S D S n v b B B c 9 9 n n b 9 3 $ $ : 6 6 6 # # $ 6 6 ",
"D B n b c 6 6 6 3 3 : 3 3 $ $ 3 6 6 6 6 9 n D F n n n S B v 6 3 $ $ : 3 6 c n B S n 9 $ @ $ 3 3 9 h c v h $ + + $ 3 3 $ @ # 3 9 n B B B b 9 3 : : : 3 9 b n D W ) 7X3X! P n 7 3 6 6 c v b b b v n v 9 3 $ 3 6 6 6 6 6 3 : 3 9 c n n n c 6 6 9 h 3 : : 3 6 3 3 3 3 : $ $ @ # 3 6 3 6 6 9 h c v v n c 9 6 7 c V B n h 6 $ $ 6 9 6 6 6 6 $ $ 9 n S E W E D n 6 @ + $ 3 9 n b 9 : $ 3 6 n G G n 6 $ 3 3 : 3 6 6 3 : $ $ $ : 6 6 3 3 # $ $ : 6 v n b b h c n B n n B F F S c 9 9 6 6 @ # @ # $ : 3 6 6 6 6 3 6 b S B 9 9 n P P S c 9 : : 3 6 6 3 6 6 n n n c 6 3 : : $ $ $ @ + @ @ # $ : $ : 3 9 c h 6 3 $ $ # + @ 3 D R W R D c : @ $ : 6 6 6 6 $ # , 3 9 h h h h 9 h c v b b 9 3 3 3 : $ # @ $ 3 : 6 3 3 : $ 3 9 6 9 6 3 : 3 c S G F D n 9 3 @ @ $ 3 6 6 9 6 $ # $ 6 9 h 9 c n n b 6 : @ @ # $ : 6 $ $ $ : 3 6 6 6 3 $ $ $ $ 3 6 9 c b n b v c c 9 h h 6 6 6 6 : $ # # @ @ $ 6 9 h c 9 6 6 9 9 h c 9 6 6 3 $ $ $ 3 6 6 c b B B B B c c v b n S S n 6 3 6 h n S D G D B c 3 $ : 6 h v B G E P n 9 6 3 3 9 v n B S n c 6 3 : $ : 6 6 6 6 6 3 : $ @ + % + + # # # + + @ 3 h n G P G D S b 9 6 9 b D F S n c 6 : @ @ $ $ 6 9 9 6 3 $ : 3 6 h c h 3 # # 3 : $ @ @ $ $ $ : : 3 3 : $ $ : $ 3 6 6 6 3 : $ $ 3 6 6 9 c c 9 $ $ $ : 3 6 9 9 3 3 : : : $ $ 3 c h 6 $ $ 6 n B n n n b 9 6 3 : 6 9 v n n c 9 9 3 6 c n G R P D h 3 3 6 9 6 6 3 # # @ # h E 8XrXeXqX) E D v 3 : + @ # : 6 9 9 9 6 3 3 3 : : 6 6 h h c c h 9 9 6 3 : : 3 : # # $ 3 6 3 # @ # $ $ $ : $ $ 6 c n B G S n c 9 9 9 9 9 9 9 6 6 9 h c n n S D S n b n S B v 6 # @ $ : 3 6 h h 9 6 3 : 3 : $ $ 3 6 c b v n B D S n c 9 3 6 6 3 9 B D S c h h c c 9 9 9 h h c c h 6 3 $ 3 $ $ $ : 3 6 6 9 6 3 $ # + @ $ : : 3 6 6 6 6 6 6 6 3 = $ $ 3 3 6 6 6 3 3 3 $ + + + + # v / 8X7XR B 9 9 n G R G h 6 6 c v 9 6 6 3 3 3 $ $ 3 9 h n S E / E n 3 $ 9 n D G G G D S B n n n b v c 6 # @ $ 3 6 6 6 9 9 c v c h 6 : : $ $ $ : 3 6 9 b c n c 6 3 $ : v R W W G b 6 : @ : : 6 6 c D P G n 6 # # 6 S W 7X8X8X_ R G G G D E E W W R c $ # : h P ( _ E b 6 # +     + 6 n G R W W R R E ! / _ _ ! G n c 6 : $ + @ 3 : + + @ 6 n / 9XeX) G n 3 $ $ 3 6 9 h c b n n n n c 3 $ $ # # $ 3 b D D G D B n h 6 : $ 3 3 6 6 3 $ $ : c v b v c h 9 9 l v b v c c h 9 9 9 6 : $ $ # @ $ : : : : 3 6 6 3 6 3 : : $ # $ # $ @ + + + + 3 6 6 6 6 4 3 4 6 n v 9 3 $ 4 9 9 c 6 - # # # $ - : : : $ $ # 3 6 n D G G S n h 3 3 $ : 6 6 : # # @ @ @ @ 3 h n B b c h 9 6 : $ : 6 6 6 6 6 6 6 9 9 h c h 9 h c v b D / qXqX_ E F S D G G B c 6 6 9 c c 9 6 3 : 3 $ $ $ $ 3 9 v m ",
"6 6 9 9 9 6 $ $ : 6 9 9 9 6 6 6 c c 9 3 : 3 3 3 : $ # $ : 3 3 3 : : 3 : : 6 h h h 9 6 3 9 S E W P G n c 6 # + + 9 c c 6 3 $ 3 6 h v S G R G n 9 : $ $ 3 6 3 3 6 9 9 9 6 6 6 3 3 $ $ 3 6 9 h b B D D n h 6 9 h 9 6 6 3 $ # $ : 3 6 6 3 $ # $ : $ 3 3 3 6 9 9 9 6 6 3 : 3 3 6 9 9 9 c n n n n v h c b V B B n v h 6 3 6 9 b S G D c 6 $ 6 6 6 c S R W W P B 9 $ # : 9 b n B n v h 6 : $ $ 3 6 6 9 3 3 3 : $ @ + + # $ $ $ $ @ + # 3 9 v B G W ! W n c h b n S S B B n 9 6 3 $ $ $ 3 3 : : : $ 3 9 c c 9 : # : 6 3 6 3 6 9 9 6 : $ : : $ # # # $ 3 6 6 6 6 3 3 $ # + @ 3 c c 6 $ : $ 3 6 6 3 6 3 3 3 : $ # $ 3 9 c 3 6 6 3 6 9 v b n b c 9 3 $ $ $ 3 6 9 9 9 6 6 6 6 c n n n h 6 3 3 3 6 6 3 6 6 3 # $ h S E ( 3X/ R D b 9 3 $ + X + $ 3 6 6 3 $ # + + + + # 3 9 c n B n h 6 3 $ + $ $ $ $ $ : 3 $ $ $ # $ : 3 3 $ : 3 9 v n n n c 9 9 h c n n n n 6 3 3 6 h 6 6 9 9 h 9 6 9 n D S c 9 6 3 3 3 6 6 6 6 3 : : 3 3 6 3 6 6 6 h n S D R P G B v v 9 6 : 6 n G P S c 9 9 9 9 9 9 c b b n c 9 9 6 $ # $ : 3 6 9 9 c c 9 3 # + + + # 6 0 3 3 6 6 6 6 6 6 3 $ $ $ $ $ 3 6 3 3 6 9 6 : @ @ + 6 S W / E B c 9 9 v S n 9 3 6 n B n b 9 3 $ $ 3 3 6 9 h 9 c n v c 6 # # 6 n D F G G D B v h 9 9 6 6 6 3 $ # $ 6 6 6 6 6 6 6 3 $ # + + + $ $ $ 3 : 3 3 3 6 3 3 $ # : 9 n F R G n h 6 6 6 : 3 9 n D W / W S 9 3 3 h G / 0XeX9X) R D n n n n n n n b 6 @ : n / 7XeXeX) G c 3 + . + # 9 S R E E E P G F P R R G S c 9 6 3 : 3 3 $ 6 : @ + @ 6 n G ( ( E n 6 3 : : 3 6 6 3 6 c S P P D n 9 3 $ # @ 3 6 c n D G P F n b c c c c 9 9 3 3 $ $ : 6 9 9 c 9 9 h c h h h 9 9 6 6 6 6 6 6 6 3 $ $ $ # # # : $ : 3 6 6 9 6 6 6 6 3 # @ # # $ : $ @ $ 6 6 6 $ 3 6 6 6 6 6 6 : 3 9 c c 3 # + $ : 6 9 9 6 3 $ # $ $ 3 9 n S S n c 6 6 3 $ # # # % $ 6 6 3 3 9 n S F P F G S n c 6 3 3 3 3 6 6 3 3 6 6 6 9 h c v b B G P E W / ) ( E n c n B n n v c b b b v c 6 3 : : 3 3 6 9 G R W W R n 6 : 3 : $ $ 3 c D E 8X8XW c 3 $ 3 v P W ! E D h 3 : $ $ 3 3 : $ # @ $ # + + $ 6 b S D D n 9 6 u n B S D D D S c 3 $ $ @ + + + $ 6 c G G n 6 $ $ 3 6 9 6 6 6 9 b D E _ ) / E D v 6 : $ # $ 3 : # $ 3 c n G W W P n h 3 : : 6 b D G R S n b v v b v 9 3 # # 3 9 n S D n n n b c 9 6 3 6 3 6 6 9 9 c v c b b c h 9 9 7 9 v B D G R P G c 9 : # 3 c D R R G n 6 $ # # @ 6 3 3 3 6 9 c B P R S 9 6 $ + $ $ 6 6 9 9 c c 9 6 6 3 3 3 3 - $ # # # $ 3 $ # $ $ 3 9 c v 9 3 : 1 : 8 c n n n n c 6 6 6 6 3 : 3 6 6 3 : : 3 6 6 6 6 6 6 6 6 3 : 3 6 6 3 6 6 c n R R G B c c c v n n D R R R R R / W S 6 $ : 6 6 9 9 6 6 6 3 : $ $ $ $ $ 3 6 6 6 ",
"9 9 3 $ # # $ $ 6 6 9 6 6 6 6 6 c c b v h 6 3 : 3 3 3 3 3 : $ $ $ : 9 n S D S n c 6 3 $ $ : 3 6 6 6 6 3 : $ $ $ + + + @ : 6 9 c c c c 9 3 $ $ $ # # $ : 3 3 3 $ $ # $ 3 3 6 6 3 3 3 8 x h 6 6 6 h c b n n n c h 6 6 6 6 9 6 3 $ # $ 3 9 n S D S 9 6 6 3 6 6 9 6 6 : : 3 3 3 6 6 6 6 h b B D G F V B n b v 9 6 9 h n D G G D b h 6 6 3 6 h c v n S S n c 6 $ $ 3 6 c b b b v h 6 3 $ # # $ $ : 3 6 6 6 6 3 3 3 3 # @ + @ # # $ 6 b n n b c 6 : : 6 c n B S S n n c 9 3 $ : 6 h n n n c 6 3 $ : 6 b b c 6 3 6 6 3 $ @ @ $ 6 c n B c h h c 9 6 6 6 6 6 3 $ $ 6 9 9 h 9 9 h 9 : + X + + # : 3 3 3 3 3 3 : $ $ : $ $ , 3 l B S D D B v h 6 6 3 6 v D W W P n c 6 6 c S E ) 0X7XW S b c c h 9 6 9 6 : @ # c E 3XrXrXeX3XE n 6 $ + + $ 6 c S F P G S n B S G G D n 9 3 6 6 6 3 3 3 3 3 $ + + # 3 n G S c 6 : $ $ 3 6 : $ : 6 v S P R F c 6 $ # # $ : 6 h b S F G B b n D D S b c h 6 3 # @ # : 6 6 9 c v v c 9 6 8 6 3 $ 3 6 6 9 9 9 6 6 6 6 6 3 $ $ 3 6 9 c n b h 6 9 c 9 6 6 3 6 6 9 3 : : 3 6 3 : 3 6 6 6 3 6 3 3 6 3 3 $ # # $ 6 6 9 9 6 6 3 $ $ # $ 3 9 v b v c h 6 : $ $ # + + $ 9 c B G P G F G P P E W R n 6 3 $ 3 3 3 6 3 $ $ : 3 6 6 c n D R ( / E D B G P F B b c b n b v v n n n b h 3 $ $ 6 6 3 3 c D W / W R B 9 : : 3 3 : 3 c S P W ! R h $ # 6 b E ) ) E S 9 : + + $ 3 $ : 3 6 3 $ @ + @ 6 n E / / E G n b n G R E W W R G v : + + $ 3 9 9 9 6 : 3 6 3 $ $ 6 b n n n n n B F W _ 0X9X8XR S h 3 $ # # # $ $ $ $ 6 S W _ 8X) P 9 $ # 3 9 9 n D P P S h 6 6 9 6 : $ $ : 6 6 h n B S D S n c 9 6 3 3 3 3 3 9 6 6 6 c n S D c 9 9 c v b n S D G D n c 9 3 $ + # 6 b B n c h # + $ 6 6 3 $ $ : , 6 h b B n h $ + @ 3 6 $ $ 6 9 c 9 6 3 3 6 6 : 3 3 3 3 3 3 : $ $ $ # $ $ 3 3 3 6 6 3 6 v B D B n v h 9 6 6 6 : $ # + # $ 3 3 : 3 6 6 6 6 6 6 : 3 3 3 3 6 9 6 6 6 c B D D S B n n v c n P W / ( / E G S S B b : : 3 6 6 6 6 6 6 3 : : : 3 3 6 6 c n D D b 6 3 : 3 6 h n F E W E G n 6 $ $ 3 6 3 3 3 3 : $ : 6 S G R R D c $ + : 3 $ + X + $ 3 6 6 6 6 $ $ # # # $ 3 3 3 6 6 6 : $ # + + # 6 v B S n 6 $ # + + @ $ 6 9 c h 9 9 6 6 c n n c 9 6 9 9 9 3 # # # @ @ + @ : 6 c n S c c h h c c 9 6 # # 6 n F W W G 3 + + 6 9 9 9 9 6 3 3 6 3 3 $ $ $ $ $ 3 6 6 6 6 : 3 6 6 h m B B n b c c h 9 6 6 9 6 3 : 3 6 c v c c h 6 6 9 h 9 $ 3 b G P S b c v b c 6 6 9 6 $ # + + # 3 3 6 6 $ : 6 h c c c c b S G R R D n n B G / 7X8X) R n 6 $ 3 9 c 9 6 6 h 9 9 6 3 : 3 6 6 6 9 6 : $ $ : : 3 3 3 6 6 6 6 3 3 3 $ : 3 6 9 6 9 6 $ 3 c n B c 9 3 $ : c B B v c h 9 v S F F n n c 6 6 3 $ $ # # $ 3 3 6 6 8 ",
"h 9 6 3 3 9 n S S n v c 9 3 6 v D G E W P n 6 3 6 6 9 6 3 : $ $ $ 9 R 0XrXrX0X) W D c 3 @ + + $ 6 h b b c 6 3 3 9 h h 9 9 9 c v b v 9 3 : : $ # @ @ # # $ 6 9 6 $ + # $ # $ 3 3 3 6 b G R F S n 9 6 6 6 6 9 9 h 9 h c b n n n n n n B S n c 6 6 $ $ # : 6 9 h h 9 6 6 6 : $ $ $ 3 6 9 v n n n B S B c 3 : $ $ 6 b B S S n c 9 h b n v 6 6 h c c 6 3 : : $ $ $ $ 3 6 6 9 9 6 3 3 @ @ @ # : 3 6 6 9 6 6 3 3 3 : $ $ : 6 h c 9 3 3 $ : # + + + $ c R _ ( E F n v n G R G B c 6 3 : 9 9 6 3 : $ $ : 6 9 c n D W / W S v 9 9 c n B S S B S S S n b b n n c 3 # $ 3 3 6 6 9 c n D D B 9 : $ : 3 : : 3 6 c n D F S b 9 $ $ v R W E P n 6 $ @ $ : 3 6 c v n v 9 6 + + 6 G ! 3X7X) ! R G R E W / / / W G 6 @ # 6 c D R G v 6 $ $ @ + @ 6 n D P P G F G P E W _ 7X) E S c 6 : $ $ : 3 : $ @ @ 6 n E 9XrX0XR c 3 3 : : 6 c B S S S n n c 6 6 $ $ 3 3 : 6 v G R R D n b 9 6 3 3 3 3 : : : 3 3 6 c n n b c 9 h c b b b n n b v h 9 9 6 $ + + # # $ 6 6 $ # $ 3 3 3 : $ $ : : $ $ : 3 : @ + + $ 3 6 6 6 3 3 3 9 v b v c 6 $ : 6 9 6 $ # # # # $ $ 3 3 : # $ 3 6 c S G G S b h 6 6 6 6 6 3 : $ $ $ @ + # 3 9 c c c c 9 6 6 6 3 6 6 9 6 6 6 6 h n B B n n n v c 6 h D / 8X7X/ E B n S G D c 6 3 6 c c 9 6 6 3 $ $ 3 6 6 9 v n n S n c 3 $ $ $ : 6 h D W / 8X7XW b $ $ 6 9 b S n v 9 6 3 6 b B B n c 6 # @ # $ $ + X + : 3 6 6 3 $ @ @ 3 6 6 6 6 9 6 6 6 6 : $ # X + 3 b D R R S 6 @ + # # $ 3 3 $ $ 3 6 h D E R R D n c 6 : $ $ # + @ $ $ # $ 3 h n B B n c 6 9 v n S B n 9 9 b E W E B 6 @ X @ h v n c h h h h 9 9 6 : $ 3 6 9 6 9 9 6 6 9 9 6 6 6 9 c c 9 9 c S D D n c c h 6 6 9 n G R G n h 9 3 : : $ 3 9 c B B B B n S F S 6 3 # # # + + $ 6 9 9 6 $ $ # # 3 6 6 3 6 9 c c v c 6 6 9 S E / ) / G h : : 6 6 c v c 6 6 6 9 6 6 6 6 6 6 6 6 6 3 3 3 6 6 6 9 6 6 3 3 6 6 3 3 3 $ $ 6 v b v c c 6 6 c n n h 6 9 c n F E R n 6 3 c c v n c 9 6 6 3 3 3 $ $ $ $ $ $ 6 h n B n n n c c c v n S n c :     + + # 3 : 6 6 3 : 3 6 9 c c v 9 3 9 n F E F G B n D W / W D n c v n n c 6 # + + 6 9 c c 9 3 $ # $ 6 c n n n v 6 $ # + + $ c B P W _ 3X/ W n 9 3 3 3 : 3 9 b b v 9 6 3 $ $ : 6 n D S v 9 9 n S G F D n 9 3 $ + $ 9 G 8XuXyX7XR n 6 3 3 6 3 : $ $ 3 3 6 6 6 6 6 6 6 3 3 : $ 3 6 9 b D E ! ! P C h 3 $ @ # $ # # # # $ 3 6 6 6 6 3 3 3 6 6 6 : $ $ 3 h S D B 9 3 h S F R R D 3 $ 6 B D b c n G W 8XrX0XE n 9 n S D D D S D P / ) ) / W E D b $ X X # : 3 6 6 3 3 3 3 3 3 $ $ : : : $ $ $ $ : : 3 3 3 3 3 6 6 3 6 9 c n S n b 3 # @ $ : $ 3 6 n v c 6 3 6 9 9 6 6 6 h h 9 9 h n n b h 6 3 $ $ 3 6 c n A S S D ",
"3 3 3 : 6 h n F E E S 9 3 3 c D W 7X8X3X_ W F D D G G G F F S h $ @ 9 P / 3X) W B 9 # + + X $ c F W / W E E W ! ( ( / W F n 6 3 : : $ $ : : $ # @ @ v E _ 7X3XE v : @ 3 6 6 6 6 6 c n D G S c h : 3 # @ : 9 b S F G P F B h 3 3 6 h 9 6 6 $ # $ 6 9 h 9 9 h h c c c b n v h 6 6 6 6 9 9 6 $ + + @ $ 3 $ $ $ 3 - 6 3 3 3 6 3 $ > $ $ @ @ $ + + # 6 6 6 6 - - $ 6 9 v 9 - $ 6 9 9 6 3 $ # + $ 3 3 6 3 3 $ @ $ 6 9 B D D B n h 6 $ $ > > : , : $ $ $ $ : 6 c S F F B n v h 6 3 : : 6 9 9 6 6 6 9 9 h c c c c c n D G W ) 9X7XE B b S S B n c c c c b c 9 6 3 : : 3 $ 6 9 v D E W Y n 9 : $ $ # : 9 v F ) eXqXW n 6 $ 6 c S P P D n 9 6 3 3 3 9 9 6 $ + # : $ + + + $ 3 6 c c 9 6 9 h c b n n S B n 9 6 : $ # X X # 6 c D E P v : @ 3 : 6 h 9 3 3 3 9 b P / ) W D n 9 3 # # # $ $ $ # $ 6 9 n D G G B b 9 3 3 h B F E E G n v S F S n c $ + + 3 6 c n B S n b v c h 6 6 6 6 6 6 9 9 h v n b v h 9 9 6 h 9 9 b D R E D B c 6 3 : 6 v R ! W S b 9 $ # @ # $ 3 6 9 c v B D F F S h 3 $ $ $ $ $ 6 c n n c 6 : $ $ : : $ : : : 3 3 6 3 3 # $ 6 c n S S n 6 $ 3 6 9 b B n v c 9 9 9 6 3 3 6 6 6 6 6 3 3 3 3 6 6 9 6 6 6 3 6 : $ 3 3 : 6 b D R P S b c h 9 l b B B C D Y W / ! F h 3 3 6 3 6 6 6 6 6 6 6 : $ $ : 3 6 6 c n S D B c 9 9 c c n S S B v 6 $ + # + + @ $ : : 3 : : 3 : 6 n D S n c b n v c 9 3 6 9 c B D B n n v 9 6 3 $ # @ # 6 6 9 9 6 : @ @ @ $ 6 v b c 9 6 : $ # @ # 6 b S E ! / W G v 6 : 3 6 6 6 h n B n h 6 $ @ @ $ : 6 9 9 h h h v n n b n h : # X X 3 B W 5X9X3XG 6 $ 3 6 6 6 6 : $ : 3 6 3 $ $ : : $ : $ $ : : 3 9 c B D E ! W D c 6 : # @ $ $ @ + # 3 : : : : 3 3 6 6 6 9 9 9 6 6 9 D F S b c 9 6 h v n b 6 3 $ $ 6 h c c 9 c D W / ! W P S F E W W R P E / _ 3X7X3X( W G b 6 : $ : 6 6 6 6 6 6 6 6 3 3 : $ : 3 3 3 : : $ $ : 6 6 6 3 : 3 6 6 $ $ 6 h c c 9 6 , $ @ 3 6 h h 9 6 3 3 6 9 9 9 9 6 6 c n S S n n S B c 6 : $ : : $ $ $ # $ $ $ 3 9 9 9 6 3 : 3 6 h h 9 $ # % $ 3 3 6 6 - $ + + # 6 n S G D c $ $ b R _ 0X0X( P G W ! W B b h h v n S n 3 $ $ 6 9 h h h c 9 3 # $ 6 c c 6 3 3 6 : # : 6 S G R G n 6 $ @ : : $ @ $ 3 3 3 $ # + + + + + $ 6 c b n n 9 3 6 v n n c 9 6 6 h S P G n n B B n n n B D D n v v v b b c 9 6 3 3 3 3 6 9 c S D B h 6 9 n n n B c 6 6 3 6 6 $ # 6 c S R W W S 9 c G E G n c 6 $ @ $ $ $ $ 3 6 9 9 3 6 9 b G W W G 9 $ + # $ # : 9 D P E P n 9 $ + $ 3 9 c b b v v v b S G F F D n 9 6 3 3 3 # # 6 9 v n v h 9 6 6 3 6 3 $ 6 9 h 9 3 3 3 3 3 h n n n n D P R D v 9 3 3 6 c v 9 3 3 6 6 6 h b S D G B v 6 $ @ @ $ $ $ $ 3 6 9 6 9 b S S b h b F W ^ ",
"+ @ $ 3 6 3 3 3 3 : @ + + + # 6 S G G D S n b B F R E W E R G n $ X + 3 3 $ : 3 9 c c c h 6 3 3 c c c v v c n D E / 3X7X/ G c 6 $ $ $ : : $ $ @ > 7 D ! ( / E C 6 : $ 3 6 c S G R G S h 6 9 c 9 9 3 $ # : h B S D S S S n c 6 6 3 3 1 3 6 9 9 c v b n B n h 6 6 c n S D G P G D n 9 1 @ # 6 b S R G n 6 $ # $ # # 3 3 $ $ 3 h b S D B 6 : # # # $ 3 6 6 9 v v v 6 6 6 3 6 6 3 3 3 $ $ $ # # $ $ 3 3 6 9 9 6 3 3 6 c n S S n v c h 9 6 3 3 , : , : 3 3 3 3 : : 3 6 6 6 6 6 3 : : 3 6 3 3 6 c n S G F D n v n n n G G P W W E R R G S c 3 $ 3 6 6 9 9 9 6 6 : $ # $ 3 6 9 v C D S b h 6 3 3 6 c n G P G S v 9 3 $ # @ # : 3 $ $ $ : 3 9 n G R G B 6 : # $ : $ @ @ 3 6 c v v 9 3 $ $ $ # @ # : 6 6 6 6 3 : $ + + # : 6 c n n 9 : # + @ $ 3 6 v B S n b 9 3 3 6 h h 6 6 6 c c h 6 : + + + + + $ 6 9 n v l h l c l h 6 $ @ + $ c G W W E n $ X # 6 9 9 6 6 6 6 6 6 : $ # # $ : : 3 6 6 3 : 3 6 9 v n D G S v h 9 9 9 6 6 6 3 3 $ $ 3 6 h 6 3 3 6 6 h h h 9 6 h B F G c 9 9 v b c 9 6 $ # @ # $ : 3 : 3 3 9 v b n B S b n S G E E R R S D E / 7X7X) ! D c 6 6 6 6 9 6 6 6 6 6 6 6 3 3 6 6 9 6 6 6 3 : 3 3 6 9 9 6 3 3 3 6 3 $ : 3 6 6 6 6 6 : 3 6 h b n c 3 $ : 9 v B S B c 6 9 B F R S n b n c 6 3 6 3 $ # # $ : $ $ 6 6 c n n c 6 6 6 9 n S n 6 + +   $ 3 3 6 6 6 3 + @ 6 B D S c 3 @ : D 7XeX0X) ! W W _ 7X_ G h 6 v n B n h 3 # $ 3 6 c c c 9 6 3 3 6 c B n c 9 3 $ # # 3 c F W ! R F S n v c 6 : $ $ 3 6 9 6 3 3 $ : # + : b G G G n c h c n G P D n c 9 9 9 h l S P ^ 7X3XW G B v c 9 6 6 6 9 9 c 9 6 9 6 6 6 c 9 9 9 6 6 6 9 c n S D n v h 6 : $ : $ + $ 9 n n n n n v c b b c 6 $ # $ $ # @ # 3 c n b c h c S / ) / E B 6 + @ 6 h c c D ( 8X7XP n 6 , , 3 h n n n B S D R W W E R D c 6 $ +   + # : 3 3 6 9 6 6 6 6 3 : : : 3 6 6 6 6 6 3 3 6 6 9 c n B S D G W E D h 3 : : 3 3 : : 6 h h 9 9 6 9 c c c 9 3 3 $ $ $ : 3 6 6 6 $ # 3 c b c 6 3 3 : $ : 3 6 6 6 3 6 9 h 6 : : 3 n n n n c 9 6 # # + + + + @ 3 9 c v c 9 6 : $ 6 h v h 3 @ @ @ @ $ # # $ $ $ $ 3 6 9 v n n n n c 6 6 : $ # $ $ $ 6 6 6 6 6 3 3 3 $ : : : 3 3 3 6 3 6 6 3 $ # 3 6 S F F S c : + X X + $ 3 6 # + $ 6 h 9 6 c D / 8XuXrX) D 9 6 6 6 9 v D E W R P G P D n c 6 # + + + + + # 6 n G F b 9 3 6 9 9 v n S D n c c b v c n S S n c : + : h n v 6 3 : $ 3 6 6 6 : $ $ $ $ $ : 6 h 9 6 6 3 3 3 9 n v 6 # $ + $ $ : $ $ @ + # # # @ + # $ 3 3 $ $ $ $ $ 3 6 h b F / / D c c R E P B c 6 $ $ 3 6 6 6 6 6 6 6 9 6 : $ : 6 c c v c 9 6 3 : $ $ 6 h v b c 9 6 : # $ : 3 6 h D E 8X9X) G c h 6 $ $ : 9 n D D S S v B S S P ! ) 3X",
": 6 n F R S c 9 $ : $ # # + X + $ 3 6 6 6 : # $ # $ : 3 3 6 3 : 9 6 3 $ +   + 3 n F P D n 6 @   X + $ 3 3 6 6 3 3 6 h b n v c c 9 9 6 : # @ # # : # + + $ c S S n c 6 6 9 v n n 9 6 6 9 n W ( E h $ @ @ $ h n n 9 9 9 9 9 9 6 3 3 $ : 6 6 6 9 9 6 : : 6 9 c c c n v c v b b b b c 9 6 3 6 c n S S S b 9 6 6 6 6 $ 3 c D G B n n S B B v 9 6 $ # # + # $ 3 4 3 3 $ $ $ 6 9 9 9 c 9 v S G G n c 9 n D W ) ) W D v 6 6 6 9 c c 9 9 c h 9 6 6 6 6 6 6 6 6 6 3 3 6 9 6 6 9 6 6 6 6 3 6 3 : 3 6 9 h c h h 9 6 h b n n 6 6 3 6 c n D D b c c c v n n n h 9 6 3 : $ $ $ $ # $ : 3 6 h c n n n b c 9 h c S B h #   + + + $ : 6 9 6 : $ : 9 b n b h 3 : 6 D R W W R G G W 3X3X! D v v n n n c 6 $ @ $ 6 9 c c 9 3 : : 3 6 v n B n c 6 : @ + $ c F W / / / W E D c 6 6 3 3 6 6 h c c h 9 6 $ % $ 9 n D D n 7 9 c B F F D C c 6 : $ 3 h D / rXuXqXW B b h 6 3 3 3 3 6 6 6 9 6 6 9 c c 6 3 $ $ 3 6 6 c n D G R P S c 9 3 # + $ # # $ : 6 h c 9 9 9 9 9 6 : : 6 6 : @ # 6 c v n v 9 6 c R / ! G n 9 3 : 9 n D b S / eXrX8XE S h 9 c n D D S S R W / 3X3X/ R B c : @ @ + # 3 3 3 3 3 6 6 3 : : 3 3 $ $ $ 3 6 6 3 : $ : 3 6 6 9 9 9 9 6 c D G G c 6 $ # $ $ $ : 6 c c 9 9 6 6 3 9 6 6 6 9 6 6 9 9 9 h h 9 3 $ $ 6 9 6 3 $ $ $ 6 3 : 3 6 6 3 3 3 6 6 3 : : 3 3 3 h 9 6 3 : # + + + + 3 v B S n b 9 6 9 n D P R G 6 : $ 6 9 6 3 6 3 6 9 h 9 6 6 6 h v n b c 6 $ @ $ $ : 6 6 6 6 3 6 6 3 3 3 6 9 6 6 3 $ $ : 3 3 3 $ $ # $ 6 9 9 6 3 $ + X + : 6 6 3 $ $ $ : 6 9 6 6 9 S ! 3X8X8X( B 7 : , 6 v G R W W E P P F D B 6 : @ + + X + : n D F G S c 6 6 v n n b h c n v h 6 3 6 c F W W F n 9 6 9 D R F 6 $ $ 6 6 3 3 3 : : # $ 3 3 3 6 3 9 7 6 6 6 3 6 3 3 $ # $ 6 9 6 $ @ + $ $ $ $ : 9 c 9 6 3 6 3 3 3 6 6 3 9 S G P S n c c n G R G c 6 3 3 6 6 3 3 3 6 9 h h 6 6 6 9 9 9 9 9 c b b h 9 6 3 9 c n B n v 9 3 $ # 3 9 n B F R E R D n 6 $ $ : 3 6 6 9 v n S S n 6 : $ $ $ 3 9 h 9 6 6 h 9 6 6 6 3 6 h D R ! / / ! G b $ + + $ 6 9 v n n n 6 + . X + # 3 6 3 3 $ # # # $ # $ $ + + + + 6 h n B S S B b n b v c c c n B S S v 3 $ : 3 6 $ $ # $ 3 6 6 6 6 3 3 3 : $ 6 c D W ( _ W S 6 @ X + # 3 6 # + : 9 n G E ! / / / P G B v h 9 9 6 : 3 c B n h 3 # @ $ 9 B D B v c n v 9 3 : 6 v S W W G 9 : : h D ( 3X/ D v 9 h b n D D D n 3 @ $ 9 c c 6 6 : 3 9 c v c 6 $ # # @ @ $ 9 n B v 9 6 9 h B G F b 6 3 8 9 c b n b c 9 # 3 h n D G n h : # : 9 c 6 6 6 6 9 c B B c 9 h h c 9 6 3 3 3 6 6 9 S R E G B c 6 : $ : 6 c n n n n h 3 $ $ $ $ $ # @ @ + @ $ @ $ @ @ $ : 6 c B E / ) _ / / W E S n b c 9 9 c h n v h 6 6 9 c c ",
"9 h v n n c h b S D S c h v n S D G D n v b c 6 3 $ $ $ $ 6 9 h 9 9 3 @ @ $ 6 h c v c 6 3 $ $ $ $ 3 c S R / 3X) E D c 3 $ $ : 3 9 c b n v 9 3 $ + # 3 9 v b v c 9 h b S D S c 6 $ @ + + 6 P 8XeXeX_ P b 6 3 6 3 6 3 : : 3 3 3 3 : : 3 6 3 3 3 $ 3 3 6 c n P ! / W P V 6 > $ # # @ # @ # # $ $ 3 3 6 6 3 6 9 9 9 6 3 3 6 c S F S c 7 9 n S D S v $ + $ u m c c n D E ) 9X8XW S n F P R R E E W / 7X8X7X_ W R S c # + + $ 6 6 6 6 3 6 6 6 6 3 : : 3 3 3 3 3 : $ $ 3 3 3 3 3 6 6 6 3 3 6 c b c 9 6 $ # @ $ 6 6 h c c 9 6 : 6 9 c 9 : 3 9 B D n c 9 n n c 6 3 3 3 3 $ # # $ $ $ : 3 h h 9 6 3 6 6 6 6 6 : $ $ $ $ : 3 3 3 3 $ + + + 3 h n B B 9 3 6 b F ! ) _ R S S D P D v 6 6 9 9 n b 9 3 $ : 3 6 h v c 9 6 3 $ $ 6 9 9 6 3 6 6 6 $ : c D F n h 6 # @ # $ $ @ @ # 3 3 3 $ # # # + + + 3 u c c 9 6 3 6 9 n n c 9 9 h n G W W G n n c b n n B F P F B n n n c 9 6 6 3 3 $ $ 3 h n S B B c 6 9 n S S v c 9 6 9 6 6 6 @ 3 S W / W R S h c S E R n 6 # $ : 3 3 : : 3 3 6 6 6 6 9 n F F S n 6 $ + # $ $ 3 6 b D S c 3 # $ # $ 3 9 c v b c h h c c n n n b h h c 9 3 3 3 9 c B G G n h 6 3 : 3 6 9 6 6 6 6 9 9 3 3 6 h h h v n D F G B v 6 3 6 b n v 9 6 6 6 3 3 c n D P D D n 9 3 # # $ # : 3 3 6 h c v n n c 6 3 $ $ $ 3 6 9 6 6 9 9 9 6 6 3 : 9 G W / R G B n h : + @ + $ 3 6 6 h h 6 $ + + + $ 6 6 , 6 $ @ @ $ $ $ # $ +   X $ 9 n S S S n b c c 9 9 3 6 6 9 9 h 9 3 6 3 3 : $ $ : 3 6 6 9 9 6 6 6 6 $ : 6 9 D / 7X7XW G 9 # X + $ 6 6 6 : + $ b G P D D E _ ( ! Y B c 7 3 3 6 9 v n S S n h 9 c v b c h 6 3 $ 3 3 : : 6 n F R G n h $ # 9 G ! / W G n h c n B D S v 6 $ $ $ # 3 6 3 $ + 3 c c 9 6 3 : $ @ @ $ 6 9 b n n h : 3 v B S S b 6 $ @ $ 6 h 6 3 $ $ $ $ $ : 3 6 3 # # $ : 6 6 6 3 # 3 b G G F D B n n S S n 9 3 $ 3 9 h c b n B v 3 @ $ 3 3 6 h n S S n 9 3 $ $ @ @ $ : : : + # # # $ # + + X $ n E _ 8X7X_ ! R S v c b n n S S D D D n c 6 3 6 9 v v h 6 6 3 : 3 6 6 6 6 6 : 3 h B S C b h $ # , c D W ( ( / W G n 9 4 3 6 6 6 9 c c 9 6 3 6 6 3 3 6 b n n c 6 $ : 3 6 9 9 6 6 6 h v n F W ) 8X) R n 9 $ # : 3 3 3 3 : $ $ 3 3 6 c c 6 : $ $ $ 3 6 6 : # @ # $ $ 3 : # # 3 B D F D D D B n 9 h B P P D c 3 : : h D R E E G b 9 6 9 c n D P G D n 9 3 3 9 n E / E n h 6 $ 3 6 h 9 3 $ # + $ h c c c 9 6 6 9 S D S n c 6 6 9 n F E E G n 6 @ # # $ 3 6 c c 6 $ : 6 c b c 9 h n b v c c b S G R P D S F E W E n 9 6 c c c v n B S n c 6 3 : $ $ : $ # # $ : 3 6 6 B W ( 7X7X/ S c 6 6 6 6 9 9 3 3 3 3 6 c c 9 # $ n W / E D c : @ + $ 3 6 6 6 6 6 c B B c 6 6 9 6 9 c v n n v 3 @ + $ 3 3 3 6 ",
"F D B n 9 3 3 c / 7X7X( / / / ( 3X( F 6 3 c S S n 9 3 # @ 3 9 c h c 9 6 6 6 3 6 b n c 6 3 $ $ $ 6 9 D W W F n 9 h 6 3 3 : : : 3 6 3 : # + + @ # + 6 v S D v 6 6 n B D D n c 9 9 c b v b D P R E E R F S n b v v h c v v c h 9 6 9 6 6 6 6 h v c 6 6 6 9 v B S n h 9 3 6 6 : $ , : 9 S R E D v v B D S b 9 3 # + $ $ $ + $ 9 n v 6 6 c D E _ ( R 9 $ % = 3 $ 3 v E ! / W D 9 $ @ $ 6 c n B n c v n D R E R P S n 6 : # $ $ # $ 6 6 h c h 9 6 3 6 3 3 6 6 6 9 6 6 : 3 3 3 9 b B S B S F R P S c 9 9 6 6 6 6 3 3 6 9 c c c v n n c 9 6 : $ $ $ $ 3 3 3 3 3 6 h b n n c 6 $ $ $ 3 6 6 9 6 6 6 9 9 9 : 3 9 B D D B n h 9 3 @ + @ $ 3 $ 3 6 h v 6 $ $ + $ 3 6 h 6 # + + # @ + # $ $ $ + @ : 6 c n n B n n h 6 3 : $ 3 # $ 3 6 6 6 6 6 6 3 $ # @ : 6 6 9 6 6 9 6 3 3 6 3 h D E W R S h $ + X + # 3 6 6 $ @ : h b v n G 3XqXrXeX7XR c 3 3 3 h B F E W W F S n n b 9 3 $ + + + + @ 3 9 b S D S c 6 3 6 9 n D R W R S c 9 B n n S n 9 6 $ $ # 6 v c 3 $ $ 6 6 6 6 3 $ $ $ @ + : 6 6 h c 9 3 3 6 9 c c h 6 + + $ 6 6 $ @ @ $ $ # + @ $ $ # # # $ : 3 3 3 : $ 3 n E ! E G D B S D G S c 3 # 3 3 6 9 h c h 6 9 6 3 $ : 6 h c b c 9 6 3 : $ $ 3 6 9 c 9 6 3 3 # $ $ $ $ $ 6 n _ 9X9X_ E G n 6 6 6 9 v n n S G G D v 6 3 3 6 9 v v c 6 3 3 6 3 6 6 3 6 6 6 b S / ( W D 9 $ + X 9 n F R E E D v $ @ # 3 6 3 3 3 6 6 3 $ $ $ : 3 : , 3 6 6 6 6 6 h c c c c v v v c n S F E / / E n 6 3 3 3 $ $ $ $ $ : 3 6 6 9 h 9 6 3 # $ 6 v S D S c $ X + $ $ 6 6 $ + 3 S W / ! W W / W F B n F F b 6 3 6 9 n C S n 6 3 3 6 9 B D F G G F S v $ # 9 F ! ) / P 9 $ 3 n D D S n c 6 3 : 6 B R R v 3 3 h n G P D v 6 6 9 c S F D n v 6 @ X   + 3 n n v 6 3 9 b n n n n c b S G D n n n B S B S F / / W G n 9 6 9 n n v 9 9 v n b 9 6 3 3 3 3 3 3 3 : 3 6 9 c B P 7X8X) E S c 6 : c v b b c 9 6 3 3 6 6 6 3 3 6 h n n h # + $ 3 $ 6 6 6 c n P ! / E P G S n c 9 9 6 9 6 : 3 6 9 9 c c h 6 3 : : : 3 6 6 3 3 6 h h l 7 3 $ @ # 3 9 B F E ^ _ 7X8X7XQ R G G G D S S P E / _ / W R D b c h c n G E R v 6 $ $ $ : : $ $ $ 3 h b n S G W ! E B c 6 $ : 3 6 6 6 3 $ # $ $ : 6 6 9 c b n n n c 9 9 v n S S n 9 : $ $ 6 9 9 9 6 3 : $ # @ : : 9 n b c h 9 6 9 S ! ) 7X) W R S v j 7 7 9 h 6 3 : > , : # $ 3 , 3 9 h 9 h b B D n 9 6 9 6 6 : : : 3 6 9 c n B B b 6 3 3 6 6 6 3 $ @ : c G R / W G v 6 9 h 9 6 3 : : : $ $ : + $ 6 b S G W / / / E S c 9 6 : : $ 3 6 3 3 6 c n B n c 9 6 3 : 3 3 3 : 3 3 3 3 3 3 6 c b D R G n 9 3 $ $ $ : 3 9 9 6 6 6 9 6 3 $ # 6 B D D S n 3 $ @ # $ # # $ $ $ : 3 6 3 $ + X # n W 7X8X( P 6 $ X X + # $ 3 ",
"h c v n b 6 3 6 6 c n n n 6 $ @ : : $ $ $ 3 6 3 6 3 6 6 9 c n n n c 6 : $ + + $ # 3 3 $ : 6 6 6 6 6 6 6 6 3 6 6 3 3 6 6 3 $ $ : 6 h b n b 9 $ + X X @ 3 6 $ # 3 6 6 9 h 9 h n P 8XrXeX) R v 6 6 3 c D E ! W P G E R G n h : @ + + + + + 3 b D F n c 6 6 9 h c n n n b b v 9 6 9 n D G R D 9 @ $ h n n b h 6 $ $ $ 3 6 6 : $ # + $ # : 6 3 6 6 : 3 $ 6 c h 3 @ # : 6 6 3 : $ # # $ $ : 3 3 3 3 6 3 : : 3 3 $ : 6 n D R W R n c c P R G b 9 3 $ $ 3 6 6 6 6 9 9 9 6 6 3 3 6 c v b c h 9 9 6 3 3 3 9 v n n v 9 3 $ $ 3 6 9 b G W / ( W D 9 $ $ : $ 6 9 n S D D n b 9 9 6 3 3 9 c c 9 9 6 6 9 9 6 3 $ 3 h B R ! / ( W P v $ + @ 3 6 c B G F S 9 @ + @ $ 3 6 9 6 3 3 # # # $ : $ @ $ + $ 3 6 c n n n n n b n n b v n F F G P D v 6 $ 3 : : 3 3 3 3 : 3 6 6 6 6 6 3 : 3 3 h S R W W R 9 #   + $ 6 6 : + @ 9 G W / ( 7X) ) W D n n n b 9 6 6 6 9 v n c : @ @ : 9 b S G F S n n c 3 3 6 D R / _ R 9 + + n F E W E S c 9 : 6 B E E S 9 3 3 6 v S B 9 3 : 6 9 c c c h 6 $ @ + + # 6 n S n 6 3 h D G D B n v c b S D S n v 6 h h h b D P P n h 6 6 6 h c c 6 3 6 h c h 6 6 9 9 6 6 6 3 3 6 6 c n n D E W E S h : : 6 9 v B B n b 9 3 3 : $ : $ $ # # $ : + : # $ : $ # 3 c D E / ) 3X_ ! E F D B n c 9 7 3 c c c c 9 6 6 6 9 6 6 6 9 6 6 6 6 6 9 h 9 3 $ $ $ : 3 3 6 c B P W ( 7X7X) ! G D S n c c v B P E E R R G S c 9 9 n S P R G b 6 $ # $ : 3 3 3 $ : v n D G W 7X0X7XF c : $ $ : 6 9 3 : $ # # : 6 6 b n n v 9 6 6 3 + # $ 6 9 9 6 3 @ # 3 9 c n n v 6 3 @ @ : : 6 b D I n 3 $ $ 3 v R / 3X_ W D v 6 6 9 c b n b h 6 6 # @ $ 3 h n v h 6 6 6 6 3 : $ $ # $ $ : 3 3 # $ $ 9 b v n n c 9 6 6 h c n n n c c b S D S b c 3 : 3 3 3 $ $ 3 9 9 6 : $ 3 6 h n F W ( ( ! R G c h 9 c c 6 6 6 h c v b n n n n 6 # + @ $ : : $ 3 3 3 6 6 6 v S F G G B c 6 3 6 : : 3 6 6 6 6 9 c h 6 3 3 6 n G 3X3XW c # + # # $ $ $ $ $ $ 3 3 $ @ + @ @ : c G 0X9X/ n 3 @ # 3 h c c 6 : $ $ $ : 3 : $ 6 b D P R D n 9 : : 3 3 $ > 6 l n D G P E G D n n G R R P G G G R E E G D b h 9 6 : $ # : 3 6 6 3 6 3 $ # # $ 6 9 9 h c c c h 9 9 6 3 6 6 6 6 6 6 : # # 3 3 $ + + 3 c n B n c 9 n W 3X7XF n 6 + + @ $ $ + + + + @ $ 3 6 9 h b n b 9 6 3 9 c D E E P D n h h 7 6 6 7 6 3 , 3 h B F P D C 6 $ # # @ , l n P W / ( W G b 9 6 6 6 9 v n S S G S c $ @ : 6 9 9 9 6 6 v D R W S n v 9 6 6 9 9 9 6 3 $ : 3 6 6 $ $ $ 3 6 h v n F P R F S B n c 6 3 3 $ @ # $ 3 9 n R / / P n c 9 9 9 9 6 6 : $ @ # 3 6 v G W E S c 3 $ @ # $ 3 6 6 6 3 $ 3 3 3 6 6 3 : # $ # + $ : 3 6 6 9 6 6 3 6 6 6 9 9 9 6 3 3 3 6 6 6 6 3 3 3 $ @ + + + X ",
"v v v v 9 $     @ : 3 6 6 3 $ : $ # $ 3 : @ + + + # 9 n A D D B c c c b c 6 6 9 n n v 9 6 3 : : # : : # $ 3 3 3 6 6 6 6 3 $ 3 6 v D W ) 3XW S 9 @ + + $ 6 3 $ : + 3 v F W E E W / ! R n c h 9 6 3 6 h n B n c 9 : 3 6 b n v h h 9 9 6 : 3 6 c n R E G v 6 # 3 n / 5X/ B b B S n b n B B n 3 + # 6 h h 6 3 # # 6 v b 9 # + $ $ # @ # h D S b 9 6 9 c S G G n 6 3 6 9 c 9 9 9 6 3 @ $ 8 h c c 9 3 $ # : 9 c 6 : 6 6 v S G D n v n n n c 6 3 3 6 6 9 c B D D n 9 : $ $ $ 3 9 b n n n c 6 3 $ $ $ 3 3 3 $ @ + + + + $ # + + $ c G ! _ 3X3X/ W P S n v v b n n n n n S n c 6 6 9 c b h 9 6 6 6 6 6 6 9 6 6 : 3 6 h c v 9 3 $ 3 c F W / ) ) / E F n h 9 6 6 9 c n n b c h 9 9 9 6 9 v D D n 9 3 3 3 : 6 3 : : 6 9 v B B P ( 9X9X/ F n : @ $ 6 6 3 : 3 @ $ : 3 6 c b b h 6 3 3 : : $ # $ $ 3 3 : $ $ # : 6 n G R G n v h 9 9 6 c S G F v 6 : $ 6 D W / / E D n h 9 h v D S S S v 6 3 3 9 c B R E n 6 3 @ $ $ $ 3 3 $ : $ : 3 6 6 3 : 3 9 v n S S v 6 6 6 h B G F D n c 6 3 : 3 6 6 6 9 6 3 $ $ 3 6 c v 6 6 c v c v n S W W E G D G D S D n c 9 h b B B n n n B n c 3 $ $ $ $ : : $ $ : 3 h n B P / _ / P B h 6 6 3 3 6 3 6 6 6 6 h c h 3 3 h S R ( _ W 9 @   @ $ 3 6 3 : 3 6 c v 9 : : $ $ 3 6 v P W P 9 $ + $ 6 b S B 9 3 # @ @ # : 3 3 9 n D F S c 6 6 : $ 3 6 6 6 b F E ! / W G S D G E R F G E W ! ! W E R P B b c 9 9 h h 9 6 3 : 6 3 : : $ # $ 3 6 9 c c v n B b 9 3 3 6 6 6 3 3 3 3 : $ $ # $ : 3 9 c v n n n c v n F / / D 9 $ # + # : : # @ + # $ $ 3 6 9 h b b v 6 $ : c F ! 8X8X( R S b c c 6 6 6 6 8 3 6 9 c n n v 9 3 $ $ $ 3 v G / ) / W G n 9 6 6 6 9 h c c n D F S c 3 3 3 6 6 3 : : : 6 b R _ _ E S v c 9 9 c c 6 3 3 3 : 3 6 3 @ # 3 v D R R E E P D n c 6 6 6 3 : $ # $ : 3 9 n S D S n n c 9 6 6 9 6 3 : $ $ $ 3 6 n G E W E n 3 @ $ $ : 3 3 3 3 3 : : 3 6 6 3 $ : $ : $ # $ 3 : : 3 6 6 6 6 6 6 6 c 9 6 : $ 3 c S n B c 6 3 $ # $ 6 9 h c 9 6 3 : > 3 9 h v c 9 3 : : 6 b B B v 6 $ + + $ 6 c B S b c v S S B n b 9 6 v D G P D b 3 $ : 6 6 : $ $ : 3 6 6 6 h b v 6 6 6 6 9 n S S n b c h h 9 6 6 6 6 6 6 6 6 3 3 # $ $ $ : 3 3 $ # # $ 6 h B S v 9 3 # + + @ @ + : 3 6 9 9 6 3 3 3 3 : : 3 3 : 3 6 6 6 6 3 : $ : : 3 3 3 6 6 6 3 # $ 3 h c b n b V b v c b B n h $ # 9 D E P D n v 9 3 : 3 c B S D n 9 : @ $ 3 3 6 6 6 3 3 6 6 6 9 6 3 6 6 9 9 9 9 6 3 $ $ : : : 3 $ $ $ $ $ $ : # # # $ 3 6 6 3 : # # : 6 6 9 6 6 h B P G v 3 : 9 c c c c 9 6 9 6 6 6 6 h v v h 6 : # + + @ $ $ : 3 6 6 3 3 3 3 $ 3 : : 9 G ( 7X3XW n : @ 3 9 h 9 6 9 c h 6 3 3 $ : 3 3 $ $ 3 6 : : : : $ + + + ",
"_ / ! R S 9 : : $ 6 6 3 6 6 6 6 3 $ : 6 3 6 6 9 b v h 6 3 6 9 h h 9 6 6 6 c B G R W ( ) / S 6 : 3 3 3 3 3 $ # $ : 3 9 c c h 6 3 # $ : 6 9 9 6 3 # + + $ : $ $ : 9 b S R W W R R G B B S S D S v 6 $ 3 v S G R G v 6 3 6 v n D G R P S c 6 $ 6 b R / W F n 9 $ 3 9 b v c 6 # + : 6 c n n n 9 3 6 n D D B b 6 6 9 n D R E R b : @ + + # 6 h c c 9 , : x S D n h c n B n b n B S D G D G R E W W G h 6 6 9 v c c b B B n h 6 3 $ $ 3 3 3 # $ 3 6 6 6 c G / 8X7X/ E v 9 6 6 9 h 9 9 6 6 6 6 6 6 6 6 6 9 n G P B 9 3 $ # $ 3 6 6 6 9 n n S G D n v c 9 9 h c h 6 3 3 $ 6 c n n v 6 3 , : 3 6 6 3 3 6 h v n n c 6 $ @ @ $ 6 c n D R W ) _ / P S S D S D S F E W / ( / G D n n n c h v n B v 6 $ 3 6 6 : 3 $ # $ 6 h b n S G P G B c 6 3 3 3 6 6 6 6 : $ # + # : 3 9 c n n S B v 9 9 c D G D n 9 3 $ $ 3 6 6 3 : : $ # $ # : 6 c B S n c 6 9 n G / 8X8X/ W P D n c 9 6 6 9 9 3 : 3 6 6 : 3 : $ $ : 6 c D R E E F n 9 3 : 3 3 3 6 6 6 c n D B b v 9 6 6 6 3 $ $ @ + 6 n W ) ) E S v 9 6 9 h 6 $ $ 6 9 3 3 $ $ 3 9 B R W / / ! E D n 9 3 : 3 3 3 $ : 3 3 9 c n n n 9 6 3 3 3 6 6 6 6 3 6 3 3 3 6 c n D R R F n 3 # $ 3 : 3 3 : 3 6 6 6 6 3 : 3 6 9 n S v 6 $ $ 3 $ # $ # $ 6 6 : 3 6 3 : # @ 6 S R / ( R c $ + $ $ 3 9 6 6 9 6 3 $ : : $ 3 3 c S S n h c h c 9 3 $ @ # : : 9 b S D B b b n n n n n n n S F Y Y F B c 7 3 7 3 : $ $ : 6 9 6 6 6 9 6 : $ : 9 c b v v b b v c 9 6 6 3 6 9 6 6 3 3 : : $ @ @ @ # 6 c h 3 $ : c n G R S 9 $ @ $ $ $ $ @ + @ # $ : 3 3 6 6 9 9 9 6 3 3 : 6 h h h h 9 6 6 6 6 6 6 6 6 3 $ $ 3 9 n F D n b 6 $ 3 9 9 9 6 6 9 n F / / R n 9 9 9 6 6 6 c D G b 6 6 $ $ : 6 h 9 6 9 9 6 h c h 6 6 3 6 9 9 9 6 6 6 3 $ $ $ : 3 : $ $ # $ 3 6 9 6 9 9 h 9 9 6 : : 3 : 6 6 3 : 9 D E W W F n 6 6 9 h h 9 9 6 6 3 3 6 6 b B S n c 6 $ + + @ # : 6 6 6 6 3 3 3 6 6 3 3 6 6 x S R R n 6 6 3 3 3 6 6 6 6 9 c c 6 : $ 3 : # $ 3 : : 3 : $ 3 $ $ : 6 6 : $ $ $ 3 h n B b h 7 3 6 n R E D h 6 # # # $ 3 9 h h 9 c n S S D n 9 $ + + $ $ : 3 : $ $ 6 h c h 9 6 3 : 3 6 6 9 c c b c 6 3 3 c n n v 9 6 6 6 9 v n n n n n n n S D G S v 6 6 6 6 6 : $ 6 c 9 3 : $ 3 : 3 3 $ @ @ # 3 h B F D c $ + # 3 6 9 h 9 6 9 6 9 6 6 6 3 # @ @ $ : 3 9 h c c h 6 3 , 3 h b b b b c h c c v v 6 3 6 c c b n c c 9 6 6 6 9 9 6 6 3 3 6 6 6 9 9 9 9 6 3 6 h b n h h 9 9 9 9 9 6 6 6 6 3 3 3 3 : $ : 6 9 9 6 $ $ @ 3 9 v n b 9 6 # + @ : 3 1 3 3 : $ $ : : $ $ 6 c v v h 6 3 : 3 h n S S n c 9 6 # # $ $ $ $ $ @ # $ : 3 6 6 6 3 6 6 $ $ 6 b D P D S c 3 6 n F P S n b n b h 6 3 3 : $ 3 6 6 6 6 3 3 9 B n 6 + + ",
"7X3X( E P D S n c b D W / W R F G S b 9 9 n G G G G n 6 $ # $ $ $ $ $ $ 3 h n D D P W ( / S 6 $ $ : 3 6 6 3 $ $ + @ $ 3 6 h b n b n b c h 6 3 9 n B n 6 $ # : 3 c b b c 6 : @ + + $ 6 9 v S S b 6 $ 9 D R ( 8X) ( W S c h h c c c 9 9 6 $ + @ @ $ 3 6 9 9 9 9 9 b n c 3 $ 6 6 3 3 : $ $ $ 6 9 c n n v 9 6 6 6 6 9 9 9 9 9 h n S R P B 6 : 6 6 6 6 3 : 3 6 6 3 3 # $ 6 b D P W / _ / P b 9 9 6 6 3 3 6 9 h c c v n n v 6 6 : $ $ : 6 3 3 3 3 : 3 6 9 b S D G D n 9 3 $ $ $ : 3 6 6 6 9 c c 9 6 3 : 6 S ! / F c 6 # + @ : $ # @ # : 3 3 3 $ + + + $ h E 9XeX( S 9 @ + $ 9 h 6 6 6 3 $ # $ $ # : 6 n D F F D c 3 3 6 6 $ + + 3 h v B F E W E D n B D R P D G G P P E R G b 9 9 6 3 $ $ : 3 6 6 6 3 3 3 : $ $ 3 6 9 h c c 9 9 h 9 6 6 3 3 6 6 3 3 3 3 : $ $ : # + $ 9 c c 9 9 9 v G / / G 9 # + + # $ @ @ +   + @ @ : 3 h b v n n h 6 3 6 c n S D D B b 9 6 9 6 6 9 6 6 3 : 9 S R P B b 9 3 : $ : 3 9 b D R W ! W F c 6 6 9 c 9 9 n D G S h 6 $ # : 6 9 h 6 6 h v n G G n 9 6 6 6 9 6 6 6 6 3 : $ : 3 6 3 # @ : 6 9 n n n n n n n v 6 3 3 6 6 6 3 $ $ 6 n E / ! R D c 9 9 9 h 9 6 3 3 : : 3 6 v S D D S c 3 @ @ # # 6 6 6 6 6 3 3 3 6 6 6 6 3 $ : 6 6 h 9 6 6 6 6 6 6 3 6 6 6 c v 9 6 3 3 3 3 : : 3 3 3 : # $ 3 6 9 c h 6 : $ 6 h c B S b 6 $ $ 6 v R W R v 3 $ $ @ $ 3 9 v v 6 3 6 n S S v 6 @ X + 6 c h 3 $ $ $ : 6 6 3 $ # $ : 3 6 6 c n n v 9 3 3 6 c B S n c h 9 9 6 6 6 9 h c h 9 h c h 6 6 6 6 6 6 6 $ $ 3 3 6 6 3 $ $ : : : $ # + + $ 9 n S B n 9 # + @ $ 3 3 : 3 3 6 8 9 6 6 $ $ : $ $ $ : 3 6 9 9 6 6 6 6 $ : 9 n B c 9 h C S B c 9 , : 6 n S D S n c 9 6 9 9 c v h 6 3 $ : 3 6 9 6 3 3 3 3 9 h 9 c c 9 6 9 9 9 h 9 6 3 : 3 3 3 : : : 3 3 6 3 : @ + @ $ 3 9 9 6 3 # @ + + 3 6 3 $ $ 3 6 6 3 $ 3 3 6 c n c 9 6 6 9 h c b n n B b 6 : $ $ @ $ $ $ # # $ : 3 6 3 3 3 3 1 3 6 9 n W 0X7XG 6 4 c n G R R S c 9 6 6 6 $ 3 3 3 6 6 6 3 $ : 3 3 3 3 3 3 6 9 6 : : : : > > 3 9 9 9 6 6 3 3 3 3 6 9 h 9 9 6 : $ 3 c G W / / / ) 3X_ E S 6 +     + # + $ 6 v n B n b h 3 : 3 $ # $ : 6 9 6 : $ 3 6 3 6 6 3 : 3 9 n S R ! ( ( ! P F R ( ) W v 6 : : 3 $ : 6 h h 6 3 3 6 3 3 6 7 7 7 7 , > > $ # @ @ + @ 6 R qXrX) P D S B v 9 3 : 3 6 9 c h 6 c F W W F S n n n B D D S n h 6 : $ $ 6 h n F E P n 9 6 6 6 9 9 9 c S R 3X0X3XW G n 9 9 9 9 9 9 6 6 6 6 6 6 6 6 9 h c b v h 9 6 6 6 6 6 6 6 6 6 6 6 6 6 6 6 6 6 6 6 6 3 3 3 3 3 3 3 6 6 3 $ $ : $ $ $ : 3 3 9 b n n S D F P E ! R b : + $ : : : $ $ $ $ # $ : 3 3 6 6 6 9 6 3 : $ # $ $ $ $ $ $ : $ + # $ 6 6 3 6 6 3 6 6 6 9 c c c c h h v D W / W P G ",
"! E P F D D D F F P R E E E R P D S n v c 9 6 : 3 3 3 3 3 6 6 3 3 3 $ # $ 6 h c c c c c h 6 : 3 6 6 6 3 : 3 : $ $ # @ # $ : 6 9 n S n 9 c D R W / / D 3 + $ : @ # + +     + $ 3 3 6 c v b b c 9 6 6 n R ! / W R n c 9 6 6 6 6 6 6 6 6 9 v D D n 9 : # $ : : 6 b R / ) _ W G n c 6 6 9 v n b n S G G n 3 @ $ 3 6 6 6 6 6 h S E ! G F S c 9 9 9 9 9 6 3 $ $ 3 3 3 : $ : 6 c n G R E E R G S n h 6 3 : $ $ # # : 6 v S F R P S v c h c 9 6 6 : # # @ $ 6 v D W W W n h 3 $ $ : 3 6 6 6 6 3 3 6 6 6 6 3 : $ @ # $ $ 3 3 3 3 3 6 6 6 3 6 9 h h 6 3 3 6 6 6 6 6 6 6 3 # + $ 6 c v v c 9 6 3 : 6 c n B 9 3 $ $ $ c D D S b 9 : @ + $ 6 n B b 9 9 c n D F D c $ $ 6 n G D n 6 @ + : 6 6 3 $ $ $ 3 6 6 9 B n c 9 6 6 6 h n B B n b v c h 6 6 6 9 9 9 6 6 : 3 3 $ $ : 3 6 6 6 $ @ $ 6 6 c 6 9 9 6 3 $ @ @ + + $ 6 6 h c 9 6 $ $ 3 $ 3 3 : 3 3 6 9 6 6 3 $ $ $ $ $ 3 3 6 6 3 : : : $ : 6 h S S n 9 9 b B S B c 6 $ 3 b G G B b 9 6 6 6 6 9 n S n c 6 3 $ 3 6 6 6 3 3 3 3 6 6 9 9 6 6 9 6 9 c 9 9 6 6 : $ $ 3 3 3 $ $ $ $ # $ # @ @ $ 3 6 6 6 3 $ # $ 3 6 6 3 3 9 n n v h 6 6 6 9 h c h 9 9 c 9 9 9 9 c v v 9 6 3 $ @ @ @ # : : 3 3 3 3 6 6 6 3 $ $ 6 v F ! eXqX! c : 3 9 v S B n c 9 6 6 6 $ $ $ : 3 6 6 3 : 3 : 3 : $ @ $ : : 3 3 $ # # $ 9 9 c v h 6 6 6 c v h 3 : : : 3 6 : : 6 9 n R ! W W W W P n 6 $ # + X + $ $ 3 h S S B n v 9 6 3 6 3 3 6 6 9 h h 6 3 3 6 6 6 6 3 3 6 c n D R E E Y P R E W ! R C c 3 $ 3 3 3 6 6 c c 6 : $ 6 9 9 6 6 : $ : 3 6 9 v c 3 + + 6 n F E W R n c b n c 3 : 3 6 3 3 6 6 n S P E G B 9 3 l b B D D B b b 3 3 , , 9 b S Y D S n h 6 6 3 : 6 6 9 c n D D S G n v c 9 9 6 6 6 6 9 c c 9 6 h 6 6 9 9 9 9 6 6 3 3 3 3 6 6 6 6 9 6 3 $ $ 3 9 9 9 9 9 6 3 : $ $ : 6 6 6 6 3 : $ # $ : 6 9 c c b v v h 9 c S G F S b 6 $ @ @ # # $ $ $ # # $ $ $ 3 3 6 9 9 6 : $ # # $ 6 6 $ # $ 6 u 9 6 6 6 6 9 9 c 6 : : 6 6 6 6 6 h b c 3 @ $ 3 9 b n B B D G E E S 9 > $ > : $ : 6 9 h 9 9 h n c 6 $ + + # 6 B D n h h b S B c 9 6 : $ $ $ $ $ $ : : 3 6 6 6 : 3 9 c c c 9 : $ $ 3 6 6 3 : : 6 6 6 6 6 c b n B S D F D v 6 : 6 9 9 6 9 6 3 : 6 3 6 6 6 6 3 $ : 3 6 3 6 9 6 3 : $ @ # # # @ + + : n E ! G b 9 6 6 6 h n D D F D n 9 3 : : 3 6 6 6 6 9 6 6 6 : : , : : 3 : $ : 3 : $ 3 6 6 9 h c v n D P R E W 3X7X! n 6 3 @ + $ 3 9 c c 6 3 : 3 6 9 9 c B S B c c c b v 9 3 : 6 6 3 3 3 3 3 3 3 3 3 : $ $ $ $ 3 3 3 3 : 3 6 3 : : 3 6 9 c c 6 $ $ 3 9 S W ( / Y F F P F B c h 9 9 6 3 3 6 7 7 9 6 6 3 $ # # # # $ : $ # @ @ # $ 3 3 3 6 6 c S F G n 6 6 3 : $ 3 6 v S D S D G R E E G n c 6 3 ",
"E E F n n S D S B b h 9 n R ! ! G n 9 6 3 3 6 6 : : : 6 6 9 9 9 9 9 6 $ : 9 n n n B n b c h 9 9 6 9 6 6 6 6 6 6 $ $ $ @ @ # $ : 6 6 3 $ 3 c S D S v 6 $ @ + @ # @ # $ 3 3 3 : : 6 6 6 6 9 3 $ 3 3 6 6 9 9 6 3 3 6 3 3 6 6 6 6 6 3 $ 3 6 c n B n n v h 9 9 c c c 3 3 9 S R R G S c 6 : 3 6 9 v n F D c $ @ $ 3 3 6 9 6 6 6 9 9 6 6 6 6 3 6 6 6 9 9 9 6 $ # $ : : 3 $ $ # # + + @ : : 3 3 6 6 6 6 $ $ 3 6 6 3 3 6 v S P E R n 6 3 9 c c c c 9 9 9 6 6 9 h v n n c 6 $ + + + @ $ : 3 3 3 3 3 : : : : 3 6 6 v R / / D n 6 : 3 6 9 6 9 9 c b v 9 3 $ # $ : : $ 3 3 $ 6 3 3 : $ $ 3 : : 3 : $ : 9 v b S b 9 6 3 n G G b 6 $ # # # : 6 3 9 v n S G F G G D v 3 % + # $ : : $ $ 3 9 b n c h 9 6 6 6 6 9 6 9 c b v 9 6 3 c c c 9 6 3 3 6 c b B S D D B n P G G P S c 3 : : 3 6 3 6 h h 9 3 : 3 9 9 6 , $ + @ 3 9 b B n c $ + @ 3 9 n S n v 9 9 c 9 6 : $ : 3 3 3 6 6 h v S S n h 3 3 6 9 b n n c h c h 9 6 6 6 9 c n n n n v h 6 6 6 6 6 6 6 6 6 9 h 9 h h h 9 6 6 6 9 c v v c h 9 9 9 9 6 6 6 6 6 3 3 3 3 3 3 6 6 9 6 6 @ # 3 6 c n n b 6 : $ @ # : 6 6 $ # $ 3 3 $ : : 9 c c 9 6 6 3 : 3 6 c B D S n h 3 $ # $ $ # @ # @ # $ : 3 3 6 6 6 0 3 $ $ $ 6 c b n 9 $ : c S G D S b h h h h h 6 3 3 3 6 6 6 7 6 6 : # $ 3 6 c h v b v b n v 9 6 # # : > : 3 , $ 3 6 c b n b v : @ $ 3 6 n R P G F W 7X_ E n 6 # @ + @ $ $ $ $ 3 9 c b b 6 $ $ 3 6 3 $ $ : 3 3 6 6 6 6 6 6 6 3 6 6 9 c S R W / ! R B 9 9 S P G c 6 $ 3 $ - 6 6 6 6 6 : $ 3 3 3 6 6 6 6 6 3 # $ # # + . X 3 n R 9XeX/ n 6 9 h c 9 9 n S B v 9 6 9 h b B B n v v b b v c 9 6 3 : : 3 3 3 6 h h h c h 9 9 c b n n B F ! 7XeXrXeX8XB 9 : $ : 6 9 h 9 6 6 6 5 3 6 u n S D S n n v c 9 9 6 6 6 6 6 6 3 6 6 3 3 6 3 : # # $ 3 3 1 : : 3 3 3 $ $ $ : 6 $ 6 1 : 6 3 3 b R / _ / ! ( ( ! D b 9 6 3 3 : 3 3 3 3 3 3 6 6 6 # # : 6 6 3 $ $ + + + + # $ 6 6 $ $ 6 c c 6 6 6 3 3 : : 6 n S D n n n B n 6 $ : c n S G G R E E ! W G c 3 $ : 6 b D W _ / E S c 3 $ : $ 3 3 $ 3 3 6 $ + X + # $ 3 6 c b n c 6 3 : : : : 3 9 9 9 6 9 n D P P D n 6 : : 9 c c 9 9 6 3 $ $ $ : 3 3 : $ $ : : : : 3 3 : 3 3 6 9 c v n n c 6 $ : 6 6 9 c b n n S S n 3 : 3 9 c b v c 6 $ X   @ c G W S B c 9 9 9 9 6 3 3 : $ : 9 v v v c 6 $ + + # $ 3 9 h c c 6 : $ + + # 6 9 9 6 6 9 9 c c c 9 3 : + + + + # 3 6 c v c 6 $ $ 3 6 v b v c h c c c c 6 3 3 6 9 9 9 6 6 3 3 $ $ 3 6 6 6 6 6 6 6 3 6 3 $ 3 9 h c c 9 3 3 6 c B P W W G 9 3 $ 3 9 n B B c 9 6 9 c v n n n v 9 6 6 9 9 9 6 3 3 : $ $ $ $ $ $ @ + @ 3 c n G G B h 3 3 c S / / R b 6 3 6 9 6 6 6 9 n E ) 7X_ W S h 3 # @ @ ",
"b n c 6 h B G G b 9 $ + + 3 9 6 = # # 3 6 5 6 6 6 3 3 3 3 3 6 c b n v 6 3 6 h v S S n h 6 6 6 6 c c c b v h h v n n b c 9 6 6 6 3 : 3 3 6 6 6 6 3 3 3 6 3 $ + + @ 3 c D D n 9 3 # + $ 6 6 6 6 6 6 6 6 9 6 $ # $ # $ $ $ 3 6 6 9 9 6 6 3 3 3 6 c S S n 9 h S D n 6 : : 6 c v b n b c 9 9 9 h h 9 6 6 3 : 3 3 6 9 6 6 6 3 6 9 c c v c h 9 9 9 9 9 6 6 3 : $ : 3 : $ : 6 6 6 3 $ $ + @ 3 9 c h 6 3 + + # 3 6 3 : : 3 : : : : $ 3 9 h c c h 6 3 3 6 b n S D B b 9 6 $ $ $ : : $ $ # # $ 3 6 6 6 6 6 3 6 3 3 v R / W D v 6 6 b D E W B n v c h 6 3 3 3 3 6 6 6 3 3 $ : 3 3 3 : 3 9 9 6 6 6 6 6 3 3 6 $ 3 3 3 3 3 : 3 6 9 c n n c 3 @ # 3 v G W W W / @X) / E B 6 + . + + @ + # 6 c n S B b 9 3 $ $ # # $ : 3 6 3 3 3 6 6 6 6 6 6 6 9 9 n D R W / / / S S R ) ( G v 6 : : : $ : 6 h 9 6 : 3 6 7 9 9 9 9 6 3 $ $ : $ + + + # 9 G 9XuXyXW D n n n 9 3 3 9 c c 9 9 c b B R R G b c n S S S B n c 9 3 $ $ $ 3 c D F G S n c 9 9 9 9 h n D W 7XrXuXeX! B c 9 9 6 9 c c 6 6 6 6 6 6 6 h v b S B n v c h 6 6 3 3 3 6 6 6 6 6 6 6 6 6 6 3 : # : : 3 3 3 6 6 3 3 : : : $ $ $ $ # : 3 6 c D E W R R W / W G v 6 : $ $ $ : : : : $ $ 3 3 3 1 : 3 6 6 6 $ # + + # # : 3 3 3 : # $ : 6 8 6 6 6 3 $ 3 6 c n V c l b S B 9 # @ 9 n D D G E W / _ / E c 3 : , 6 h B S F G S c 9 6 3 $ # + # 3 6 c v 9 @ X + @ # $ 3 3 6 6 6 : $ $ $ $ $ 3 6 6 6 6 9 n P W R n h 6 3 3 6 6 6 3 : 3 6 6 3 6 9 h h 9 6 : 6 6 6 3 $ # $ $ 3 6 9 9 6 6 6 3 6 3 3 6 9 6 9 b n n b c 9 : @ $ 3 6 6 6 3 $ $ 3 : 6 h c h 6 3 3 9 h n D S v 6 : $ $ $ 6 6 6 3 3 $ @ @ # $ 3 6 6 6 6 3 # # $ : 3 6 9 9 h h c b n n n c 3 $ 3 3 # $ @ $ 3 6 6 6 3 4 6 6 6 6 6 6 9 n S n n c 9 9 6 c h 6 3 : : 3 3 3 3 3 3 6 6 8 6 3 : $ : 3 3 6 9 9 9 6 3 3 6 9 b R W R S b : + 3 S P R S n n n c b c c b v c 9 6 9 9 6 6 6 6 3 3 $ $ $ $ $ $ $ $ : 6 9 c b v 9 6 : 6 D ) 8X/ D b 6 3 3 6 6 6 h n F W ) 8X7X/ F n 6 : : 6 h B D D c 9 6 6 6 : $ 3 h n P ! ! P n 6 6 3 : 3 6 3 3 6 : : $ $ : $ 6 9 v B R / ) / E P S n 9 3 6 b S D b c v n B b h 9 9 6 6 6 h b n n 9 6 : # # # # # $ $ , 6 , : > # : : 6 h n G ! / W P n h 9 c b b 9 6 6 6 h c c c v c v B F E / / P S 6 + + 9 D R 7X) E n 9 3 : : $ @ + + 3 c S P S S v 6 3 6 h c b v h 3 : $ $ 3 6 c n D D n c 9 6 6 6 6 6 6 9 h c n E _ ( G 9 6 3 6 6 3 6 6 3 6 6 6 3 $ 3 6 9 h h 6 3 : : : 3 3 3 3 3 : 3 6 9 h 9 6 6 3 3 3 6 6 9 9 9 h v B D S 6 $ @ @ @ @ $ 3 3 3 6 9 9 6 6 6 3 : 3 9 c c h h 9 6 6 6 6 6 6 3 6 6 6 3 3 $ # @ + @ # $ 6 h c c 6 3 $ @ @ # # # # 3 6 6 6 6 3 : $ : : 3 h D P G n h 6 3 3 : $ # ",
"6 9 D ! _ / ! / _ / P v : @ + + + + + $ 6 v S D n v 9 6 3 $ $ 3 3 3 6 9 6 3 : : 6 6 3 : 3 6 h n S G W / / E R R ( ( / W D c : + $ : 6 6 6 h 9 3 3 3 6 9 h 6 6 6 3 $ $ : 3 : $ $ X + v W ( ) ( R F n b b 9 3 3 3 6 9 9 6 c S G R F D b 6 9 n G G S n v 9 6 3 : $ 3 c G W E S h 6 h h 9 6 3 6 b S E / / ! R B c c 9 9 9 6 6 6 6 6 9 9 9 6 6 h c h c h 9 9 6 6 3 3 6 6 6 9 6 6 3 $ 3 3 6 9 9 6 3 $ 3 : $ 3 6 6 6 6 : $ $ $ $ : 3 3 9 9 c n n n B S F F P P S 9 $ + # # $ : $ # @ + 3 3 3 3 6 6 6 9 h 6 $ + + $ : $ $ $ $ : : : 3 : 9 6 6 6 6 6 3 6 6 6 9 9 h c b b 3 $ : 6 c B G F G G W ( / G h 3 : 6 3 6 6 h c b c c x 9 6 : # @ @ $ h D D c 6 6 3 3 6 6 3 $ $ # : 3 3 3 : $ $ $ 6 9 8 3 6 v S S v c 9 3 3 3 6 6 : : 6 6 6 6 3 6 c b n n b b c 6 3 $ : 6 6 6 6 6 6 3 3 3 6 9 9 6 3 , 3 6 7 9 h h 9 9 6 $ # # # @ $ $ : : 6 B F D 9 3 $ 3 6 9 v B F F S c 6 3 : 3 $ 3 3 3 6 3 : : 3 3 $ : 3 3 : : $ $ $ : 3 3 6 6 c c v n B S G P R G D S n 6 $ @ + $ : 3 6 6 9 9 6 3 3 6 9 b S G n n b c c c 9 6 3 3 3 6 6 3 : $ 6 6 6 6 3 3 : : : 3 6 6 3 6 3 $ 3 3 6 6 h n S S n c 3 # 3 B E / R P G F D B n b b v h 6 6 6 9 9 6 6 8 6 3 $ # # + # # # $ $ $ 3 3 3 3 3 3 3 9 S W / E n 6 3 3 3 : 6 h n B S P E / / E B c c h 9 9 h n F G B c 9 9 3 $ @ 6 n P / 7X3XW B 9 6 6 6 3 3 $ $ $ # + + + @ # 3 h n D R / ! E F n h 6 6 6 c n S S v h v S D B 9 6 6 6 9 S S S B c 6 $ # @ # # @ + # $ 3 3 3 3 3 3 3 6 h 9 b S P R P D n h 6 6 9 9 7 9 c b n S S S c 6 9 n S F G D h # X + $ S ) 8X_ E S h 3 # # + + + + 3 h D W W G h 3 # # 6 v b c 9 6 9 6 3 $ $ 3 9 c v c 9 6 3 3 6 6 6 6 6 $ 3 v S S n b n n b h 6 3 $ $ 6 c c c c c 6 6 6 6 6 3 6 6 3 6 6 6 6 6 3 : $ 3 6 9 h h 6 3 : $ 3 6 6 3 6 9 n S n c 9 6 3 3 6 9 h 9 6 3 : 3 6 6 6 9 9 9 9 9 v n n n b c 9 6 9 9 6 6 6 6 6 6 : $ $ $ # # $ $ 3 8 c b b c 6 3 $ $ : : $ 6 9 6 6 6 6 3 $ @ $ 9 B G G S v 9 6 $ 9 l S R E R F V h 9 6 h c 6 3 3 $ $ $ 3 6 9 9 9 : @ @ $ $ $ : 9 n R / 8X8X/ P S 9 3 3 6 6 6 6 c P R F n c 6 3 : 3 3 3 6 6 6 6 9 b n b 9 6 6 9 9 6 6 6 6 9 h c c h h c n S F S b : + X + : b D D 9 9 h n G / 7X8X7X/ G b 6 : $ : 3 6 c B G E / _ _ W n $ + 6 S R E E G n 6 $ # $ : 3 3 6 6 9 h c n n c 6 6 c n S S B c 3 $ : 6 h B S S S n v c c v v c 6 6 6 6 9 9 c B D S 9 $ # 6 9 6 $ : 3 6 9 h c 6 + # c D D c 6 3 $ $ # # $ $ : 6 9 c b b v 6 6 3 6 3 6 6 6 6 6 9 c v b v 9 3 # # $ # @ # $ 9 c b h 6 3 3 # $ 6 c B D D S B c c h 6 6 6 6 3 3 3 3 3 : $ # + $ $ # $ 9 S R W P D v 6 $ $ : : 9 c n D D n h 3 # $ 9 S E ! _ 3X_ W S 6 $ 3 9 9 ",
"6 h n F F B n n P F S c 3 $ $ $ # # # # # 3 6 6 c h 6 6 6 9 9 9 3 # # 3 6 6 6 6 6 6 9 9 9 6 6 9 b S G R P G S n 3 9 v n n c 6 3 $ 3 3 6 6 6 6 6 3 $ : 6 6 6 6 6 6 3 : $ $ @ + + . X 9 F W / / G 6 $ 3 c n B S B S S v 6 $ 6 6 6 9 h 9 9 c h 9 6 6 3 3 6 3 $ $ - 6 6 6 9 x x h h 6 9 n D G P E / 9X9X3XR n 9 : @ 3 6 h c h 6 : $ 3 6 6 6 h n A n b c c n b 9 6 3 3 3 3 3 3 3 6 6 9 6 : $ # $ : 3 3 3 3 6 6 3 3 3 6 6 6 9 9 9 6 : $ $ 6 B R ! ( ( / W R P D b 9 6 6 6 6 6 3 6 6 9 9 6 3 : $ $ : 3 $ $ # # + + # # # $ : : 3 c A B b c 9 6 3 : 3 3 c n S S D G F S B h 6 6 9 v S F F G P G D v 6 3 # $ 9 B R _ 7X/ R D v c 6 3 # # $ $ 3 6 : # + + # # 6 c n S G G n v 9 3 $ $ 6 9 c c c 9 h n D G P S c : $ 6 v n v c h 9 6 : $ $ # $ # @ @ $ : $ 3 : 1 6 6 6 9 c n S G D n h 3 $ : 3 9 h v B D F G D n 6 6 9 b D S S c 3 +   + 6 W / / R S n h 6 3 3 $ @ @ # 3 9 D F B 9 3 $ @ @ $ 3 6 6 9 c h 6 $ $ $ : : 3 6 6 6 9 9 9 h v c 9 : $ $ : : 3 6 9 S B n 9 3 $ : 6 v b n b v c 6 6 6 6 6 3 6 9 9 9 6 6 3 3 3 3 6 6 6 6 9 h 9 6 3 : $ $ : 3 6 c n n 6 6 3 3 9 B F G B v 6 $ $ 9 c v c h 9 9 9 c n n B n v 9 6 9 9 9 6 6 6 3 3 $ # # 3 3 # + # 3 6 c D F S b 9 3 : 6 D P F n 9 9 9 9 9 9 6 3 l F ! ( ! E D c 6 6 6 c D F P P D b h 9 9 c 6 3 3 3 3 9 n b c 6 : # # : $ 3 3 3 6 9 b S G G n 6 6 6 9 n c b n v n D F S c 9 9 c c c h h h c 9 6 9 c c c 6 6 9 b b 9 3 3 c h 9 6 3 $ 3 6 n n c 3 $ @ @ # 6 c G W W D c 9 n D R E E R S b h 6 6 9 9 9 c n S R _ 9X9X/ D c @ + c E / / W D 9 3 $ 3 3 $ $ @ $ $ 6 c n n n n 6 6 9 n n c 9 3 # @ 3 c B G R R P D n c h 9 6 6 h 6 : $ 9 F / ) W D h $ + $ 6 6 3 $ 6 9 9 $ + + 6 c n S n 9 $ + $ # @ + + # : 3 c c 9 6 3 : $ $ $ 3 6 c c 9 9 h S G S b 6 $ + X + + @ $ 6 v n n c 6 3 : : 3 6 c n n n h 6 6 6 6 6 3 : : 3 6 6 6 $ $ # @ @ @ # $ h v B D B 9 $ + # # $ : 6 h b v c h 6 : : 3 h b P W ! W E R P G S S F P R E W ! ( / W D b 6 $ + # @ @ $ 6 c v n 6 # + + # 6 b R ) qXeX9X7X( E D 9 6 6 c h 6 6 c S P G S v 9 6 8 9 h 9 3 3 6 6 9 9 9 6 6 6 6 6 6 9 6 6 6 9 c b n n n D P W / W G 6 # + # @ # # + $ : 6 c n S R / 8X3XE c # @ $ : 9 9 9 6 3 $ $ $ @ # # @ # $ 6 h n B n h 3 # + + 3 9 c 9 h b n v 9 6 # + # 9 B E / / W S b 6 3 3 3 3 3 3 3 3 3 3 6 6 6 3 : 3 : $ : @ + + $ 6 n P ! / R n 6 3 3 6 c c 6 $ @ 3 9 9 B n b v 9 6 3 3 9 h b B S S B n n v 9 6 3 3 3 $ 3 $ $ $ $ $ $ @ # # # $ : 3 3 : $ # @ @ $ 6 9 6 3 6 6 9 h h c c S S n c 9 9 h h c c h 9 6 6 3 3 $ $ $ @ $ 3 h v B n v 6 : 6 h c c h c b h 3 $ # @ + $ 9 b B S D D n 6 @ @ 3 h b ",
"3 6 6 6 3 # +   + @ : 6 9 c h 6 3 1 $ $ $ 3 6 6 6 6 6 9 n G E E n h 3 3 6 6 9 h 6 6 6 3 3 : : 3 6 6 6 $ # $ $ $ : $ $ 3 3 3 6 h b b c h 9 , $ , 6 h c h b S D n 9 6 3 : 3 9 c b c 6 $ + + : h n D S n h 9 h c c c h 6 $ @ $ 6 9 v c 6 3 # + + $ # 3 9 9 9 9 6 3 + + $ 3 6 6 6 6 c 9 c n n h 6 6 $ # + X + $ 3 6 9 6 6 : $ 3 9 c b n v c c n n n 6 6 6 9 h 9 6 6 3 3 3 : 3 3 6 6 6 6 6 6 6 3 : $ : 6 9 h h 9 6 : 3 3 c D R E R F 3 $ 3 9 b n S n c 9 9 c b n S B b c h 9 9 9 c c 6 6 3 : $ $ $ $ : $ # @ # 6 c n S b 6 $ 6 S W ! W P n 9 3 3 6 6 : 6 c S E 3X0X8XW F n 9 3 3 9 c F G G n c 9 9 6 3 # $ 6 v G ! W S c 6 3 3 3 $ $ : 3 6 6 6 h c 9 6 6 9 c B P W E W E G S b 9 6 9 S S B n b n n b h h h 9 9 9 9 9 n b c 9 6 3 : $ 3 : $ $ : 3 6 6 3 $ # $ : 3 c S W / ! P B v c v b n B n v h 9 9 c b n n B S G E 3X7X/ P b $ + 3 S W 3X_ W G c 3 3 : # @ # # 3 9 n F F n v 9 3 3 c n b 9 3 3 $ # 6 9 n S D G G S v c 9 6 6 6 6 3 $ 6 S ! ) ( R B 6 : $ 6 h 6 3 3 3 6 : @ # 3 9 v c c 9 : # # $ # 3 3 $ # $ 3 6 9 9 6 6 6 3 3 : 3 h h 9 6 9 b S B n 9 3 # + + @ @ # : 6 c b c 6 3 : $ 3 6 6 c v c h 9 6 6 6 6 6 6 4 3 3 3 3 $ $ $ @ # # $ 3 6 h v h 9 3 + + + + $ $ : 3 6 6 h 9 6 : $ $ $ 9 B F P S B B B n b b S D P R D S G F D v 9 6 $ + + + # $ 6 b B n 6 + . @ $ 3 l D ( qXrXrXrX9X( G c 3 $ c v c 9 c P ! E D c 6 6 3 3 3 $ $ $ 3 9 c v c 9 6 3 $ $ 3 6 9 c 6 6 c n n n B G W / W G v 3 + + + @ $ 3 3 $ : 9 S E _ 7X9X9X_ R 6 + + : 3 3 6 6 h c c c c 9 6 3 3 : 9 n S G D n 6 $ + # : 3 6 9 9 c B D S v 3 @ $ 3 b P W W R S h 3 3 9 9 9 6 3 6 6 6 6 6 6 6 6 : : 3 3 3 : $ + @ $ 6 v S G S b $ # 3 v n c 9 6 @ : c S G n c 6 3 3 6 6 6 6 9 c v n n n b v c c 6 6 6 6 3 3 3 6 6 6 6 : $ # # $ # $ $ $ : 3 3 $ # $ 3 6 6 6 9 c S D S B B S D D h 9 6 9 9 9 9 6 6 6 3 $ $ # $ $ 6 v G W W G n c 3 : $ 6 c n D P S n 7 $ $ 3 9 c n G R E E G B v 9 9 h b n b c v n S S v h h 9 6 6 6 6 6 6 6 3 $ 6 3 : $ : 3 6 v B S v 3 $ $ : $ 6 3 3 6 3 # # : v n n 9 6 : $ 6 c b c 6 3 3 3 6 3 3 6 c n n n n c 9 6 : 3 6 6 9 # # # $ 3 3 3 6 b S W 7X7X_ W D h 3 @ # $ @ + @ : 3 : + + 3 h v S D F F n h : O + + + + @ $ 3 6 c c h 6 6 : $ $ + + $ 6 6 $ $ 3 c B G P F n 9 9 B S B c h 9 6 6 : $ $ $ : 6 6 6 6 6 6 9 h c c h $ @ $ 6 c n B D R F S c 6 6 6 6 h h n S S v 7 6 6 6 c n n v 9 6 6 b E 7XqX8X/ E n v 6 3 6 v S S c 9 h v b b b b n S G E E R D n 9 3 $ : : 3 3 3 6 3 $ @ + + # $ $ $ $ # # $ : 3 3 3 3 3 3 6 6 6 6 6 6 6 3 3 3 6 6 9 b D R W W F c 6 : : : : $ +   + 3 n F E R G c 3 # # $ $ $ 3 ",
"3 $ $ 3 3 # # $ : 9 n F W ( ) _ ! P n c 6 6 c b S D S v c n S n c 9 6 6 6 c b n n n 9 : # @ @ # + + @ $ 3 6 3 3 $ $ $ 6 h v S G ! ) ! D B b l h h h h 9 h c n C S S n n B G R R R G c $ + $ 9 G / 8X) R S c 3 : # + X + # 6 n G R R S 9 3 3 6 9 n n v 6 3 3 3 3 3 6 9 n B n c h 6 6 6 6 6 6 9 9 9 c S W W S h h c c 6 : $ 3 9 h c h 6 3 3 6 9 9 9 6 3 $ $ 3 6 6 6 3 3 : 3 6 9 9 9 9 6 3 : 3 6 6 6 9 9 c n S S n 6 $ # : : 3 6 3 9 6 3 6 3 3 6 6 6 9 9 9 9 v b c 9 6 6 6 6 9 9 6 6 6 3 : $ $ $ # @ # $ : 6 c b c 6 3 $ # + # : : 3 6 6 6 6 6 6 : $ $ 6 v S G G S h 6 6 9 v S F R G F S v h h 9 6 3 3 $ @ @ + $ 6 n n c 3 + + + + $ 6 n R ( eXuXrX8X! A 6 $ 6 9 6 : 6 n R W R B c 3 : $ : 3 : : 3 6 9 v n n h 6 3 3 6 6 9 9 9 9 9 c c v n D G R E R G c # + + @ 3 c n c 3 6 v D E _ 7X8X3X! S 6 : $ $ $ 3 6 h n G R W E G B 6 @ 3 n G R G D c 3 $ # $ : 6 9 6 9 b B S n n c 3 $ 9 B G G D n 6 : 3 9 h b n n b c 9 9 9 c n v 6 3 3 3 6 9 c h h 9 9 6 6 9 n v 3 @ : b S n 6 3 3 3 9 S S n 6 $ $ : 3 $ $ : : 6 c n n n c 9 6 6 6 6 6 6 6 6 3 6 c n v 6 : $ $ $ @ @ # 3 3 6 9 9 3 $ # $ : 6 h n D P G B n b n b c 6 6 4 6 6 6 6 3 $ # : $ @ + : h B F W E G b 6 $ @ $ 3 6 n P R F B c 3 : 6 b S P W / ( / W P S n b n D F P R W / / E S 9 6 6 3 $ $ $ 6 6 3 $ $ 3 3 3 $ > 9 b D ! / R n 9 3 6 3 6 6 6 3 3 3 3 6 v S S h 3 3 9 9 c n c 6 3 6 9 6 3 3 3 h v n n n c 9 6 6 6 c n v 6 $ 3 c n v 9 h c n S D D n h 6 3 : 3 3 6 6 6 h b b h $   + 9 v n S S n c 3 +     X + @ # : 6 c n n b 6 $ + # $ $ 3 6 6 6 3 3 3 6 9 h 9 6 c B D R E F n 9 6 6 6 3 6 6 3 3 6 6 6 3 3 3 9 9 9 6 : # # # 3 h S G E W R D c 8 3 3 6 9 c h 6 3 3 9 c c c v b c 6 3 6 v D E 7X7X) W D v 9 3 6 6 9 9 9 6 3 3 3 6 6 6 9 6 9 v B S n c 6 $ + @ : 3 3 3 3 3 3 : # $ 3 3 6 6 6 3 : $ 3 6 h h 9 6 6 3 3 3 3 3 : : $ $ $ : 3 6 9 v D P R G S c 3 $ $ # @ @ + + , b R W E S c 6 : # $ # + + $ : 9 B R W W P D b 9 6 6 6 3 : : 6 9 h 6 6 3 $ $ $ @ $ $ : $ $ $ $ 6 6 6 6 3 3 3 3 6 9 9 h 6 6 6 6 3 6 9 c c c h 3 $ : 9 v n n v 6 $ @ # @ + @ : 6 9 9 v n n n c 3 + + # 6 n R ! / E S 3 + + $ 3 $ # $ + + # 3 h n S D n c 6 3 : 6 h h 3 $ # $ : 3 6 6 6 6 6 3 : $ # $ 3 3 : $ + + # : 9 n D G S 6 @ # > 3 , > , 3 3 3 3 : $ @ + # : 3 9 9 6 3 3 3 3 : : 3 3 6 n W ) / D b 6 6 6 6 9 9 9 h b S S n l 9 3 3 6 c c h 9 6 6 6 9 b n c 9 9 6 6 3 3 9 n D S b v n G G S n b c c n D B c 9 9 n n c 6 6 n G P E P D b 6 : @ + $ : 3 3 3 6 6 3 3 3 3 : $ # # # : 3 6 c v c c h c 9 6 3 3 c n n b 9 3 $ $ 6 v b n n n B b 6 : # $ : $ $ $ 3 6 6 ",
"3 9 n F / 7X3X( G c 6 6 3 6 9 9 c n D G D v 6 6 6 6 6 6 6 3 6 6 c b n b c 9 6 6 9 h 9 6 6 9 9 h 9 9 9 h n S D B 9 3 + + @ 3 c S G G n 5 6 n E / _ / W G B c 6 3 3 6 9 v B G W _ 0X8XE c : : 6 n E W R S c 3 $ $ $ 3 6 6 6 3 6 h b n b h c c c n n B v 6 3 $ : 9 n G F D S B n n n n c 6 3 6 6 6 6 h D W R v : # : 6 6 6 3 3 3 6 9 9 : + 3 b D F b 6 : # + + @ @ # $ 6 c v b b c 6 : : 3 : 6 9 6 h 9 c b v b b 9 $ + + @ # + + 3 h n n c 6 3 $ $ $ : c D D S n c h 6 6 6 6 6 3 6 6 3 3 : $ $ $ $ # # 3 h n F R G b 9 3 # @ # : 3 v n S S n 9 3 $ : 9 B R / ) ) _ ! E P S B B S G G E / _ ( ! P n 3 $ # # # # $ $ 6 9 9 6 $ + + $ 9 n E 5X9X3X~ E F n c 6 6 6 u 5 6 6 h n D S b h 6 6 9 v b h 6 3 6 6 6 6 6 9 9 9 c c 9 9 6 6 6 6 v n v h v D R R G S v 6 $ 6 9 6 3 # @ $ 3 6 h b b S E / W c + + > 6 l b b c 7 3 @     + @ + @ $ 6 c n B n h 3 @ + + $ 3 6 6 9 9 h c h 6 : # $ 6 S R / ( ! G n 6 6 6 6 6 6 6 3 : 3 6 6 3 3 6 6 6 6 6 $ + + + : h R ! / W P n 6 3 6 6 h c 9 : # $ 9 b n v c c 9 6 6 6 c n D P E R G S b 9 6 6 3 3 3 3 : $ $ $ $ $ 3 : : : $ 3 6 6 6 : # + @ $ 3 6 6 6 3 3 3 : : 6 9 c v c c 9 6 6 h c c 9 6 6 6 3 3 : $ $ $ # $ 6 9 h h 9 9 c n n n n v c 6 6 $ # + + @ : h C F F A v 9 6 $ # $ $ 3 6 6 6 6 b S B S B n c c c 9 6 3 6 6 6 6 6 6 6 $ $ $ $ 3 : $ : : # $ 6 6 : 3 3 6 3 : $ : 9 b v 9 6 6 6 6 9 c h 9 6 6 3 3 9 v v v c 9 3 : 3 3 : 3 3 6 6 6 6 6 3 6 3 @ X # h F / 9XrXqX( R 9   . + # # + +   + # 3 h n B S b c c 9 6 6 3 $ $ $ $ # $ 6 9 c b v 9 6 : $ $ $ $ $ $ $ # $ : 6 B E / E G c $ + $ 3 6 3 3 3 3 3 : $ # + # : 6 h 9 6 6 6 6 3 3 $ # 3 h D G E W F c 3 6 9 h 9 6 6 v S S D S n c 9 6 9 9 v v c 9 9 h n D E E P S c 3 $ 6 b n S S S D D D G D S n n F E W E G S b h 6 6 6 9 h c c h h 6 3 : # # # @ # : : $ $ $ $ 3 3 3 $ $ # $ : 3 6 6 9 b v n n b c v n D S n c 6 : # # : 3 6 9 6 h v c b v c 6 $ : 6 3 : $ + + + : c S R E G n v S F F S v 6 3 : $ : 3 3 $ $ $ $ # # # # @ : 6 6 v S B v 9 6 6 6 9 v v n b x 9 9 h h h h 6 6 6 6 6 9 9 9 6 6 3 : $ $ $ $ $ + + + : 6 c 9 9 6 3 6 6 6 6 3 : $ $ # + + $ 3 v G E R n 3 # @ @ + @ 3 n R W / ! D 6 $ $ $ : : $ $ $ $ # # # $ $ : 3 3 : $ $ $ # @ + @ # : 6 9 b n v c c 9 9 9 9 6 3 : 3 3 3 3 3 6 c n n S D S S b 6 h S D B 6 $ + + 3 c n n 6 : $ : 3 6 6 9 6 3 $ # @ @ 3 c G R P B 9 6 $ + @ $ : 3 6 6 6 9 6 9 h c h 9 6 9 6 3 3 6 6 9 v n S B v 9 3 $ : 9 F R P C n B D E _ 7X7X) W n $ + $ 3 n R R D n c 6 : # $ : 3 9 b S D B c 3 @ + + + + + # 3 9 n D R R F S S F P P F D B c 6 3 $ + + @ # $ $ # # # ",
"B G / 9XrXeX0X) W F b 6 : 9 b v h h n P E S h 6 6 6 6 6 6 3 3 3 9 c c 9 6 6 3 : 3 6 6 9 9 9 9 9 n S S B F / ) _ S c 3 $ # @ @ $ $ $ $ 3 9 n G W 3X7X3X! D 6 + + 3 9 h 9 6 $ # $ $ 3 $ @ # $ 3 h c n n n h 3 + + 6 6 6 h c v n n B n 6 + + $ c G / _ W D n c 6 3 6 6 6 6 6 3 3 6 6 6 6 3 : 3 3 3 3 @ + @ # : h B E E F n 9 3 3 6 c v 9 $ @ : 9 v S B n c 6 3 3 3 9 9 v n n n n n B v 9 6 3 3 6 : 3 $ $ 3 : $ $ # : $ # @ # $ $ : 3 $ @ $ : 3 6 6 3 3 9 c v n n B S S n v h h 9 9 9 9 9 6 6 3 : $ # @ $ : 6 n G G G B h 3 $ 3 9 c n n b c 6 3 $ # # : 9 n D D D D B b h 3 6 6 9 9 6 6 6 h v b v c c 9 6 9 9 6 3 6 6 6 6 6 4 3 $ $ : 3 6 c c 6 > $ $ # : 3 3 3 3 $ + @ 6 c b c 9 6 3 3 9 c v c 6 6 3 3 6 6 9 9 h c v c 9 6 6 3 3 6 h h 6 : $ : : $ + @ 6 D / 0XeXeX7X/ D 6 + @ $ $ + + + @ $ @ @ : b C D D S C b h 3 $ # # # @ # $ 6 9 b n n c 6 3 3 $ # $ $ : 3 : # 3 c G W W R G 6 6 6 c v h 6 6 6 6 3 $ $ $ : 3 9 h 9 6 9 h c c 6 6 : 3 6 c B F n D S b c c 9 6 6 6 h n D S n c 9 9 6 6 h b n b h c b D W 3X8X8XE D c 3 6 h n S S S B B S S S S n n D R ! / / W b 9 3 3 6 6 6 9 6 6 3 3 : # @ # $ $ # + + + @ $ $ 3 6 6 6 3 $ $ 6 6 6 6 6 9 h c c v b n D R W W S v 6 # # $ 3 3 @ # 3 h n G P F c 6 3 : $ $ $ @   + 6 n R W / W D n b c 9 6 3 3 3 : : 3 6 6 : $ 3 $ + + $ $ $ $ : 6 9 c c c 9 6 6 3 9 n n b h 9 9 6 6 6 6 h c h 6 3 $ $ 3 6 h 9 6 6 3 # + + + +   + 6 b B n v c h h 6 3 $ + + + $ 6 3 @ $ 6 c B G S v 3 + + # $ 6 v G E W G c 6 6 $ $ 3 3 $ $ $ $ @ # : $ # # # # @ $ $ # @ @ + + + $ 3 6 c c 9 c h 6 3 3 6 6 6 3 3 3 3 3 3 3 3 6 6 6 6 6 3 3 6 c c b b c 3 @ # 9 n G R G b 3 $ 6 6 6 6 3 3 3 3 6 3 3 6 c n S S c 9 3 $ : 3 3 3 3 6 6 6 9 c c c v c 9 6 3 6 h c b b c 9 9 c c 9 @ # 3 c S D S B n v D W ) 9X9X_ G c # + $ 6 v A b n b h 6 3 : # @ $ 6 c n n v c 6 3 $ @ + + + + + 3 b F F B n n B D G R R R G B c 6 @ + # 6 h h 3 3 $ @ $ : : # @ @ + $ c E 7X0X/ W G S v 6 $ @ 3 6 6 h n G G S 6 6 9 S R W E F n c 6 : $ : 6 6 $ 3 c D E E P G b h 9 c B E / W S v 6 3 3 9 9 6 6 3 $ @ + # $ @ # # # $ $ : 3 3 6 9 b S S v 9 6 3 3 3 6 6 3 # $ $ $ $ : 3 6 h S G P S 6 $ $ $ $ # @ + + + $ 6 v P E W R S 9 $ + : 6 h v c 6 3 3 9 9 6 6 6 3 $ : 6 6 3 3 : $ $ $ $ 9 S R / ( ) ) 8X_ G 9 $ 3 6 6 6 6 3 : $ $ $ @ # + + # # $ 3 6 n S G P D c : # 9 c c 9 9 6 6 3 $ # @ $ 3 6 h b G P S 6 : 6 6 6 h c c h c n D G G G D B b 6 3 6 9 b b 9 9 7 6 9 n D / 9XeX0X/ R 6 @ @ 6 9 9 6 3 3 6 9 c v v n B G G S c 9 6 9 v G R F b 6 : @ + + $ 6 c S R W E B h 6 9 c 9 6 6 $ $ # # @ + + O ",
"n n S D B h 3 $ 3 : 3 8 6 3 : $ # $ 9 n n 6 : : 6 9 c v c 9 6 3 6 6 3 3 9 c b n n b 9 6 3 3 6 h c c 6 # # 6 h 9 6 6 n E / / W R S c 6 6 $ + + # 6 6 6 6 $ + # 6 v S F G F S 9 : X X   + # + + : 9 c c 9 6 6 3 : + + $ 3 6 : $ # 3 c B G G B c c B G D n n v 9 6 6 6 3 3 6 6 3 6 9 6 3 3 9 v v c : $ $ 3 6 c B S R R D n c 6 3 3 6 h b n b h 6 3 6 9 v n n n c 9 : h R 7XeX0X/ R n h 6 : 3 h n n c 6 6 h c c c v c n D P R G n c 3 # # $ 3 3 6 3 3 3 $ $ $ $ # $ $ $ # + + : 6 6 6 6 6 6 6 6 6 6 6 6 6 3 $ : 6 3 6 c S E W E D n 6 3 : : : $ # @ + : b R W R S v 6 $ + @ # + + # $ 9 F _ 7X! D S 6 6 6 6 3 $ # = 6 9 6 6 4 3 - $ # # # : , $ $ : 6 6 9 9 6 3 6 6 6 9 c c 9 6 6 6 6 6 9 c v c h 9 $ $ 3 9 v b v c $ # + + + + # $ 9 c n S S n c 9 : @ + $ 3 9 b n n c 9 : $ 6 c 9 6 $ + + # 3 c B B S n h 6 6 6 6 6 6 6 $ # # $ $ 6 6 6 3 $ # @ @ @ @ $ 3 $ + +   + # 6 b B n c 9 3 $ $ 6 6 6 3 3 3 6 3 3 $ @ + @ 6 9 6 3 6 6 6 6 9 6 : $ 3 c S P _ / D 9 : 6 9 9 6 6 6 9 c c c c 9 6 9 h h h 9 6 6 3 3 3 6 h h 6 9 6 6 3 6 c v v 9 9 c n S n n n c c c c c 9 6 6 b v v b v c n B E W / / P n 6 # + @ 3 9 c h 9 6 6 3 3 6 6 $ # : $ 6 h h c b c h 6 3 $ @ # : 6 9 n n c 6 6 c S D R G F D n h 3 @ $ # $ 6 4 $ # # $ @ $ 6 6 6 6 6 6 b E 8X9X_ G n v h 6 3 $ # $ 3 3 9 b b 9 $ $ 3 B P R F D n h 6 $ : 3 6 6 3 3 6 n S D n b c c c h v D R G n h 3 3 3 6 6 3 3 : $ @ + + # # + + # # $ $ 3 9 9 h v v b 9 $ $ 6 c n c 6 3 # + + + + + 3 n E / / P B 3 # # $ : $ @ # @ # : 3 9 B G G D b 6 $ # : 6 6 3 3 3 3 9 n B n c 9 9 9 9 6 3 $ : $ + + $ 6 c n P W ) 0X8XW D n b c c c c 6 : : $ $ : : $ # + + # : 6 h v n n b h 9 9 c n B S n h 6 : : : $ : 6 3 6 h c n b h 9 3 3 3 3 3 6 9 9 9 v D P E E G B h 6 3 9 b S D F S v c n S W ) 7X) / F 9 $ $ 6 n G G n 3 $ 6 h c 6 9 n F R D n h 3 3 3 3 6 c b h 3 $ $ 6 9 6 h n R W E G n b v c 3 3 $ + + + 3 h S D S b v n B n h 6 $ + @ : 6 c S S b 6 @ @ 3 9 h b n c 9 n B n c x v n b 9 6 6 h D _ rXuXeX( R c c n G E R F D b h 3 $ 3 c S S D D S v c c h 9 6 3 3 3 : 3 3 $ + + + $ $ 3 6 9 6 6 3 : $ : : : 6 6 6 6 3 3 6 b G E D 9 $ + X X : $ 3 9 6 : 3 6 6 9 c c 9 3 : : 6 6 6 3 $ +   + : c R 3X7XR c 3 @ $ : 3 3 : $ $ $ : 3 6 9 c c b n n S R R S b b b c 6 : @ + + @ + # 3 6 9 9 6 : + + # 6 h b B D G F D n c 6 : $ + $ $ $ : $ @ $ 3 3 3 3 3 6 9 b n n B S n 9 3 6 6 c S P G n 6 3 6 6 6 6 6 : $ : $ 6 6 6 h c c v 6 6 n R / ( / R n h 3 # + @ 3 6 9 9 6 3 $ $ 3 6 h c c h h h v n G P E ! E n 6 3 3 3 $ $ 6 c b c 3 $ : 9 c 9 9 c c h 6 : $ : , : ",
"3 : : : : $ $ 3 : 6 6 3 3 6 3 : 3 3 9 c h 6 3 3 6 9 c b b c 9 6 # : 9 n S b 9 6 $ # @ @ $ $ 3 6 9 c b v h 9 3 $ + + 6 B R / ) ( G v 3 +   + $ 3 +     + 3 6 c B S S b 6 3 9 9 9 6 : # # $ @ $ 6 c v c 6 3 3 : $ 6 3 3 : # + + $ 6 v D E R B 6 $ $ : : 3 6 3 $ : $ $ # + @ $ : : 6 9 9 3 : 6 6 6 : $ $ 6 n R ! ! D n 9 6 6 9 h c 9 c n G G B h 6 $ 3 6 6 c v c c 9 9 c B D B v 9 6 6 6 6 h n D D n n S G P D n b n n S G D n c h c n c 6 6 v S G S S v 6 $ @ # : 3 6 6 6 3 3 3 3 3 3 $ # @ $ $ : 3 6 9 v b b v c c h 9 h c n b c 6 3 $ : 6 9 c b n b b b c 6 $ $ 3 6 6 3 $ # # + $ 6 v S S c 9 b R W W G S c 6 $ $ 3 3 $ $ $ $ 3 6 6 : @ $ 3 l B G P D n c 6 6 3 h h c c 9 9 h h b b v v 9 6 3 6 v n b h 6 6 3 # 3 3 3 : $ @ + + 6 6 6 3 $ $ $ : 6 6 6 3 3 6 6 3 $ $ 3 c B G G S 6 # + + + X $ 6 P W / W F v 3 # $ : $ @ + + # # # $ 3 9 h h 9 9 3 $ $ $ # $ $ : 3 6 b D S n v c 9 9 9 6 3 3 3 3 3 3 : 3 9 n G ! / / E D S n n B n n 9 : @ # 3 6 6 6 3 + + $ 6 9 9 c h 6 3 $ $ $ c b G R F n 9 : $ $ : 3 3 6 9 9 6 h v v c 9 6 6 6 6 6 6 9 9 c n D P E R D 9 $ $ c B G R F B n n S P / 7X) / G h : # 3 v S G G D 9 3 : 6 6 # # 6 S G F n 9 3 # + + + # : : 3 6 9 b B B n B D P Y D S S S n 9 3 + X + $ 6 9 v n v 9 6 9 h 6 : # + # 3 9 n G R P D c 6 3 3 9 9 h c B n S D S c 9 c S G S b c c b D E W R B v h c n W / / W F n 9 6 v n F R P S c 6 c h c c 9 6 : $ $ $ $ 3 3 @ + @ : 6 6 6 6 6 6 9 c 9 6 $ $ 3 3 3 3 3 6 c n n n c 3 + + # $ 6 9 6 6 3 $ # $ 3 6 3 6 6 6 6 c G R G c 3 +   @ c F E W R B 6 @ # $ $ + @ $ 3 3 3 3 6 6 6 6 9 c n D R F P R G D n 9 6 + + + $ : $ $ : 3 3 $ + + + @ $ 3 6 h c n F R R D n 6 $ + # : : 3 : $ $ # + + + @ 3 v G E R G D n c 6 : 3 c n S b b v c v b v h 6 3 3 3 3 3 6 6 3 9 6 6 c S E 7XuXuXeXW B 6 @ X + # 3 6 9 c c 6 6 6 9 v n c 6 6 6 h n G E / _ / n 6 # # @ + $ 6 G P G n v 9 3 : 9 c b b v 9 3 6 n B n c 9 h c c c h 9 6 : $ $ : 3 3 6 h n S S B n c 9 6 9 b n n 9 6 3 6 9 6 6 c B R / 7X9X3XE G G n 9 3 : : 3 6 9 6 3 $ + + @ 3 b B n 6 : $ : 6 9 9 6 6 3 $ $ 3 3 3 6 9 8 : @ @ # # @ + 6 S E / E F v 3 # @ # $ 3 6 9 9 9 6 3 $ $ # $ # $ 6 h h 9 9 h v c 6 : $ + @ @ @ @ + + + $ $ 3 9 9 6 : 3 6 c c 9 6 6 3 $ : $ $ : : : 3 6 3 9 v S R W E P c 6 3 3 3 $ # $ $ : 6 b B S B v : @ @ : 6 9 c c 9 6 $ + + 3 c S R E D c 3 + X $ v G ! ( W n 3 + + $ 3 6 6 6 6 9 c n E ) / D 9 : # $ 6 h c 9 6 6 6 6 3 3 h b n S c 9 6 3 : 6 h h b c 6 3 $ $ $ $ $ $ # + + # : 3 6 9 c v c 6 $ # + $ 9 n G P F G S n 6 @ + @ # # + # 3 6 6 6 6 6 b v h 3 : : : $ ",
"+ @ @ @ $ 3 9 9 v n v 9 9 9 9 h b n n c 9 h c 6 9 9 h h 9 6 3 : 6 6 6 6 6 3 : : 3 : # + + + $ 6 b b b c 9 6 6 6 6 : $ + + $ 3 # + # 9 D R G n c 3 $ + + $ 6 c S W W R n 6 6 6 6 # # $ $ $ @ + $ # : $ # # $ : 3 $ # @ @ + + @ : 6 9 b n n 9 6 9 6 6 3 3 3 3 3 6 3 6 6 9 h c n n n n x 6 6 n S n 9 : + + $ 9 n B v 6 : $ : 6 6 9 6 3 $ $ $ $ 6 c G G G n c 6 # @ # $ : 6 6 6 6 9 6 9 h c c h 6 6 3 3 6 6 h c v n B b 9 6 3 $ 3 c F W P n n S G / 9XqX8X! D 6 @ + 3 9 S R R n 9 6 6 3 : $ : 6 c n B n c 6 : +     X @ $ $ 6 B G P G D D D G D S D G D n 9 $ + @ # 6 6 9 6 3 3 $ $ : 3 $ @ @ + $ c D R W E P D b h 6 3 3 6 9 c n D R R D v c B P E E E D c 9 c c h c 6 3 : 6 S W / / E D n h h n D ! ! R n 6 6 9 h 9 6 6 3 : $ $ $ $ : $ # @ @ # # $ 6 6 6 c S S B c 3 $ $ $ $ : : 6 3 6 9 6 3 3 6 3 h b B n 9 $ # : : $ @ @ $ : 3 6 v F ! / R n 6 + + 3 v S G S b 8 : : 3 3 $ $ @ $ 3 6 6 6 6 3 : $ 6 c S F P R E ! / W G n 6 @ + # : 3 : $ : : $ $ # # @ + @ $ : 6 v D R W R B v 6 : : 3 6 6 9 6 3 # # # + + $ 6 G G G D n c 6 6 9 8 9 c v b n n D S B n n h 6 9 6 6 6 3 3 6 6 6 6 9 S / eXuXiXuXW B 3 @ + @ : 3 : 3 9 B S v c n D G B h 6 6 c n D P W ! P c #   @ @ @ $ c P ! ^ G n 9 6 3 6 9 h 9 6 3 $ 6 S R G S n n n n v 9 6 @ @ # $ 3 6 6 6 $ : 6 v n n v c 3 6 6 v n c 6 6 6 6 3 3 c F _ rXaXaXrX_ P B v c 3 6 6 6 h 9 3 3 + + $ 9 n G F D h 6 3 6 6 6 6 6 3 3 : $ $ $ @ @ $ $ $ # @ # $ # $ : h S D S n c 6 $ : 3 6 c b v 6 $ + + X + $ 3 3 6 4 6 6 c n B v 9 3 $ + + @ + @ + +   + 3 c n B n c 3 $ 3 6 6 9 6 : $ # # $ 6 6 6 9 h 9 6 9 c F R P S n c 6 3 3 : # # $ : 6 c S S n 9 : # # $ 9 v B S n c 6 $ $ : 6 9 c b b c # + + # 9 D E R D b 6 $ $ 3 6 6 h 9 6 3 c G W ! W F c : # $ 3 6 6 6 6 3 : : 6 6 b S S n n 6 $ : 6 x c v n b h 6 $ $ $ $ $ # @ + + + # 3 6 9 x c c 6 : $ : h B D P F F S b 6 > $ + @ @ @ $ $ : 6 3 8 6 3 6 9 6 9 : $ : 3 9 c v c 9 6 3 $ $ $ $ @ @ $ 6 B P R F S 9 9 v D R P S c 6 3 : 6 9 6 3 6 h v c 9 6 3 3 6 6 3 3 $ $ $ : 3 3 3 6 6 6 6 6 9 c c 6 $ $ # $ 3 h v c 9 6 3 6 n / 7X) W F v : $ 6 6 3 $ 6 n R W R G c 3 $ 9 v c 9 : # $ 6 D W W D b 6 3 $ : 3 : 3 3 6 9 9 6 3 : # @ + # $ : 3 3 3 6 6 6 3 $ : 6 b n b 9 9 9 h h 9 6 3 3 $ $ 1 6 c S ( rXuX) S 6 : $ 3 c n c 6 3 9 6 9 h c v c 9 3 # + $ $ : : : $ + X + $ h G / 9XrX9X! D 6 + + $ 6 9 c c 6 : : c n b 9 6 6 6 3 c v c 6 6 6 6 3 $ # $ 3 6 6 6 6 9 6 3 : , 3 9 c F R F n c 6 3 3 $ $ $ $ : 6 c v c 9 6 3 c G W ( ! R S c 6 : $ $ $ $ # $ 6 c n S B B b 6 : $ + + + + + $ 9 D ! ) W R A 6 # # 3 6 ",
"F D c 6 9 S W / W F n c 6 # # : 6 6 6 3 6 B R E G S n c c b S F E R D x 6 6 6 6 6 6 3 : $ # # $ @ $ # + + $ : : 3 6 h b n S B c 3 $ 3 h c 6 $ @ # $ # @ @ # 6 n E W E S c 6 $ @ : $ $ @ + + $ 3 b S P R G n 6 : $ $ 6 c v 9 3 $ 6 6 9 v x 6 : $ 9 9 6 3 : 3 3 $ + $ c F W ! ( 3XeX9X/ n 6 3 6 6 6 3 3 3 3 : $ # + + @ $ : 3 6 9 c n D G S c 3 3 c b c 9 6 6 3 6 3 3 : $ : 6 c n G G n h 6 3 3 6 9 9 9 9 c n G R E R F n c 6 3 6 b S n c c 9 6 v S E 7XeXeX) G n : $ 3 v n 9 3 3 9 9 9 9 c n D G G D n h 6 3 9 b G P S 6 + @ $ $ $ 6 n G E R D S v c 6 3 3 3 3 $ + + 9 G E D n B F F S v 9 3 # # + $ 9 n n 9 3 : 6 6 9 c c 9 6 6 n S n h 6 9 h h 9 h v S W eXiXpXqX( G v 9 v S D S S n b 9 3 $ $ c n D G F B v c v c 9 6 3 3 3 3 6 3 $ + + @ $ $ : : : 3 3 $ $ : : 6 c v c 9 6 6 6 c S F G n 3 + X O @ $ 6 6 6 9 3 6 c n n c 6 3 # @ # $ : $ +   .   $ b G W W W c 3 @ # : 3 3 3 : $ $ : 6 9 c v n v c c v A G G S n c 9 3 $ # @ + + @ $ 6 c c h 6 # + + $ 6 b B D D S n c 9 6 3 $ # $ 3 3 : $ + : 3 h B B c 6 6 6 9 c b n n v h $ 3 v F E R S v 3 : $ 3 6 6 3 3 6 6 3 3 6 c b v c h 9 9 v S G D D n c 9 6 : $ $ 9 9 3 # + + + # $ 3 9 c v v c c 6 h B R E F n v 9 6 : @ > 6 6 3 : # @ $ 3 9 h h 9 6 6 6 6 6 6 6 6 6 6 6 6 9 h 6 3 $ # $ $ # 3 h R W / W S h 6 6 B G R D n 9 3 $ 6 9 9 6 9 h h h 6 9 h h c c 9 6 3 $ # $ 6 6 6 6 9 3 $ # : 6 9 6 $ + @ : 6 h c c 9 6 3 3 h D W W F n 9 $ @ : 3 3 # 9 P ) 3XE v 3 $ $ 3 6 6 3 $ @ 6 c S G S c 3 # + @ 3 9 h 6 3 3 c h 9 3 @ + # @ $ $ : 3 3 3 3 3 @ @ $ 3 c B D S c 6 6 6 6 3 3 3 3 : $ $ 6 S / 8XeX0X! n 3 : 3 6 3 6 6 3 3 6 6 h n S S b 9 : @ + # $ 3 6 3 + X X + 3 n E ) 7X_ W b : + + 3 b D G F S c 6 3 c n n 3 3 6 9 c n B n n c 6 3 $ : 3 6 6 6 9 9 9 6 3 : 3 6 v D P E E G n c u c 9 3 # $ 6 6 c n c 6 $ $ h n S D D B v 9 6 : $ $ $ > 3 9 b B S D S b 7 : $ : : $ @ + + 3 b G R R G D n v 6 3 6 9 b n v c : $ + X @ 3 6 6 : $ # @ + + @ $ 6 6 h c 9 9 9 6 3 6 9 v h 6 3 6 D P E E G c : @ 6 9 9 6 3 $ $ # $ : # + @ : 6 6 6 6 : $ # @ @ @ + $ @ + + # 6 S E _ W c 3 $ # $ $ 3 6 6 3 6 3 : $ : : $ 3 n F F D n h 6 9 G W G c 3 $ 6 6 $ # $ # $ : : : : 3 3 6 6 6 6 6 6 3 3 9 9 6 $ $ $ # # # @ + + $ 6 9 c c 9 6 3 3 3 6 9 c n D D D D B b 6 6 c B D n n n 6 6 3 $ # $ $ # $ $ 6 9 9 9 6 9 3 6 9 n B S G E / _ E n 9 $ + + + + + + + @ 3 h c n c 3 3 9 c c h 9 6 3 : 3 3 : $ $ 3 6 9 9 6 3 3 : : : $ # > , 6 9 6 $ $ @ @ : 6 9 9 6 6 : # # $ 3 3 3 9 n B n n n n n n c 6 3 3 $ $ : : # 3 h D F G D n v h 9 c 9 6 3 3 : 6 9 P P G S b h 7 3 ",
"S S n h h n n n 6 c B F W 0XeX9XE B c c n R W W E G b 9 6 6 c n S D S b c c c c c c 9 3 : $ : 3 6 3 $ + + $ 3 6 9 6 6 6 6 6 3 3 3 3 6 6 6 3 3 6 n D G G n 3 + X @ $ 3 6 6 9 6 3 $ : 6 c c 9 8 6 3 6 9 h 9 : + . . $ S / 7X/ D v 3 # @ $ : 3 : $ $ : 6 6 9 c v c b b S R R P G S B v 6 $ # # @ + @ $ 3 6 6 6 6 $ + X + : 3 9 b B G G F D n 9 $ # + $ $ : 3 $ # $ 3 3 $ @ : 6 c n S D G D S c 3 3 6 v D P G n 6 $ 3 9 9 6 6 3 $ $ 3 6 6 6 9 c c v h b G ( 8X) W D c 3 +   + : 6 h 9 9 6 3 3 3 6 9 c b v c c c n D W ! W F n 9 3 @ + # 6 h b n b c $ $ 3 6 v n c 9 6 0 6 9 9 9 6 6 6 9 h h h 9 6 : : $ # $ 3 9 v S G F S c 9 6 h b S S b 6 3 6 6 6 6 6 h n S Y E P G S n v h 6 $ + # $ 6 9 9 6 3 : + + : h v 9 3 $ @ $ 6 9 h 9 6 6 $ : 6 c n n c h $ # @ $ : + $ h ! ) / R n 6 + + $ 3 : $ 3 6 9 c b b 9 : $ $ $ : 6 9 9 9 9 9 9 9 3 $ # # # @ + @ @ # : 6 3 : $ $ : 3 9 b n c 6 6 $ $ $ : : 3 : $ # $ 9 B P / ) / F n 9 6 3 3 3 : 3 $ $ 3 h B G D B h 3 $ @ # : : 3 3 $ + + + $ 9 D R W W G v : + + : n W / E D v : : 3 9 h 9 6 : 6 9 n G R R D n 3 : 3 6 6 9 9 h 6 6 6 3 3 6 h b n S S n c h h c v v 9 6 3 : 3 6 6 6 6 # # 3 6 6 c c h 9 9 9 6 3 3 $ 3 9 n S G G S n h : @ @ $ : $ $ $ : 6 h b n n c v n 9 $ $ 3 n B D S v 6 $ + + + $ 6 6 $ # : $ 3 3 6 6 9 c b D D n 9 6 6 6 9 9 9 6 3 h D E W G n 9 : $ 3 9 9 $ # $ $ $ $ $ $ : 3 6 h c c 9 6 $ # # : 3 3 3 $ # $ 6 n P _ 7X( S 9 : # $ 3 6 6 6 6 6 h 9 6 6 6 6 9 c n n 9 3 6 h n G E R B 9 6 9 3 $ @ + + # : # : 3 $ $ 6 6 6 3 : 3 6 9 h 9 6 3 $ $ 3 6 6 9 6 $ 3 9 n B v 6 3 $ 3 3 6 9 n S G ! W G c 6 6 6 c R P S c 6 6 6 6 : : $ @ @ # $ 6 9 9 6 6 6 3 3 6 c B W 7XeXrX0X( n 3 @ # +   X + + + # $ 3 6 9 6 6 3 3 9 9 6 3 6 3 3 3 3 : $ : 3 : 3 3 6 6 6 3 : $ # 6 9 9 c b 9 3 # + $ 6 6 6 6 : : 3 6 6 : 3 6 b D R E R P S b l 7 3 3 > @ @ @ # : 7 b S F F S 9 3 $ $ $ $ $ $ 3 9 n F ! 7X8X3XW F v 6 $ $ : 3 3 3 $ $ $ 3 6 6 3 3 $ $ 3 6 9 6 6 3 3 : 3 6 c h 7 6 h b n n n c 6 3 6 9 9 6 3 3 $ $ : 3 9 b D R ! W F v 9 6 3 : 3 : $ + @ 6 c v n b 9 3 6 c D G ! W S 3 + + + @ : : : 3 3 6 6 6 : $ $ 6 n R W W D b 9 9 9 9 c n n S S n n G P P G S c : @ $ 6 9 9 6 3 : $ : 3 6 : 3 3 3 6 6 3 3 6 9 6 3 : $ # $ $ $ : 3 6 9 c b n n n n v 3 @ + 3 3 9 h h 9 9 9 9 9 6 3 $ $ $ $ $ : 6 c 9 6 : $ v S G E F c $ + + @ + + @ $ 3 6 n S D G D S D P 8X8XE 6 : b D D c 6 3 6 6 6 6 9 6 : 3 3 3 6 6 6 6 6 6 3 $ $ $ $ 3 3 6 6 6 : # # + # + @ 3 6 6 6 : 6 9 c n D P R D F R R G v 3 # : 6 9 6 6 3 3 3 6 9 9 9 v B F Y R G G B h : $ $ $ , 9 l c c l h ",
"D S b 6 3 6 6 6 9 h B E ) eXrX9X! D b c 6 $ : $ 3 3 9 c 9 $ + + 3 9 n S S h 3 3 3 6 6 6 6 6 3 : $ $ $ : 3 : $ $ + + + $ : 3 9 B W W R b 6 $ # $ 3 6 6 9 9 6 3 3 $ $ $ # : 3 6 9 9 6 c n b h 6 $ # + + + + + + + + @ 3 9 h 6 3 3 3 3 6 c h 6 3 $ $ @ $ 3 6 6 6 6 3 6 c n G ! / W n c 6 6 6 : # # $ : 6 c n D S b : + @ 3 6 9 c c h 6 $ X + $ 9 n G P D c 3 + + : n R / / E B 6 $ # $ 3 6 9 6 6 9 n F ! ) / D 6 3 : 3 3 6 6 6 6 9 6 6 6 9 h S G n c 6 3 6 3 6 9 h c c h 3 $ $ $ # @ @ + + + # 3 6 9 h h h 9 3 $ 3 6 9 n G E R F S c 6 $ + + @ # $ $ $ 3 6 0 6 6 9 v c 6 3 : 3 9 b D S b 6 $ # $ # # $ # # 3 6 c v b n c 6 c S G R G D c 6 3 3 6 9 6 6 h n n B B v 6 3 3 6 6 6 3 : $ $ : 6 6 6 3 : 6 h v v h 3 # @ $ 3 6 9 h 9 6 6 3 c R 7XqX) R S 6 3 $ 6 6 $ $ 9 b D D n v 6 $ 3 c c 9 6 3 $ 6 n E ! E S 9 3 : $ $ : : $ $ 3 3 3 : $ # $ $ $ $ 3 3 3 9 h 9 6 3 $ $ 6 c n n 9 6 9 S D B 9 3 6 6 3 3 3 c G W 7X0X( D 9 3 3 6 b S B 9 6 6 6 6 9 9 6 : $ $ $ $ 3 6 6 9 6 : @ + $ h S ( qXuXrX8XP 9 # # @ @ # # $ : $ $ : 6 c v h 6 6 6 9 6 6 3 3 3 3 3 $ $ 3 : 3 3 3 6 3 6 8 3 $ $ 6 b S G G S c 3 $ $ 3 3 3 3 3 3 6 h 9 6 3 6 n G W / ! R B c 9 6 : # @ + @ $ : 6 9 n n B n v 9 $ + + O O + $ c D R W / ) ) / R B 9 3 : : 3 : $ $ # # $ 6 h c 6 : @ $ $ $ $ $ 3 6 6 3 6 6 h c 9 6 9 c c 9 6 3 9 b b n c 9 3 $ 3 6 3 3 3 h n B S n c 3 $ # $ 3 3 : $ @ + @ # $ $ $ # + + 6 B F W W S 3 + X @ $ $ : 3 6 6 6 3 : @ + # 9 n E ) _ G v c b n n b c 9 6 9 c m n n b c 6 3 3 $ : 6 9 9 9 9 3 1 3 6 6 6 6 3 : $ $ : $ # @ + @ @ $ 3 3 3 3 3 6 9 h c n D G G c 9 3 $ 3 6 9 v v n c 6 6 6 3 : $ $ $ $ 3 6 6 9 c c 6 $ 3 n P R D B c 6 $ $ $ + $ # $ $ : h b c 6 6 B W / W G n 9 9 n G F c 3 3 6 6 8 6 3 3 3 6 c c h 6 3 : : : $ : $ $ $ 3 3 : $ $ $ # + $ 6 $ 3 $ $ : : $ 3 6 n B n h c n S S b h 3 3 , 3 3 3 3 3 3 6 6 9 c b B D E / W E G n 6 : @ # 6 n F F n v h 9 9 6 3 : 3 3 6 6 6 : $ $ 3 6 6 3 3 9 c v 9 3 $ @ @ # $ # : > 6 b B F P D b 9 6 9 6 3 3 : $ $ 3 h b b b n h v n B S b 6 3 # + + + $ n E W W G S b n E ) / B 9 6 h 9 9 6 3 $ $ $ 3 6 9 9 9 6 6 h v v n n v h c 6 3 6 6 h G / ) W b 6 h b n B n c 6 3 6 6 3 $ : 3 6 9 9 6 6 6 3 $ + @ 6 S / 9XeX8XW B 9 : @ $ 3 3 : : : 3 3 6 6 3 3 3 3 6 6 6 6 3 3 3 6 9 h c c c h 9 9 8 3 3 $ 3 6 6 3 3 3 : 3 6 6 6 6 3 3 6 3 : $ # $ 3 9 v v c c 9 6 9 c c v c h c v v v 6 6 : : 3 3 $ $ 6 3 6 6 6 c n n n b c 9 9 c v h 9 3 3 3 $ $ 3 3 6 9 6 3 $ + @ 3 b B D D D D D G R R R G S 9 $ # $ 3 b R / ! W W G S c 3 # # $ $ $ : 3 6 6 6 3 : $ $ : 3 9 l c m ",
"c 9 6 6 : 3 9 9 6 6 9 c c 9 6 6 9 6 6 6 3 $ $ : $ $ 3 9 9 6 3 6 9 h h 9 6 $ @ # 3 6 c b v 6 : 3 9 S W 7X8XW b 6 6 3 3 3 3 6 v S / / P h 3 , 3 h h 9 3 $ $ 9 B P R G n 6 @ $ 3 : 6 3 6 9 6 6 6 3 $ # @ # $ $ : 3 6 6 6 9 6 : $ 3 c b n b v c h c c c 6 : $ : 3 3 6 n ! eXrX8XE B 3 $ $ 6 c c h 9 6 6 6 9 c n n c 3 @ @ $ $ 3 7 3 : : @ O : l F _ 9XeX8XW S 9 @ + $ 9 v n v 8 $ 3 v n b h 9 6 6 9 b n b 9 6 6 3 3 $ $ $ : 6 3 3 6 6 6 3 $ 3 9 n S G R D v c 6 3 3 $ # # $ 6 c n v h 9 9 9 b R / ! E D v 9 : $ # @ # $ : 6 c n S D b h 6 : : > # @ X + , c D E ! ! R G n v 9 3 : 6 9 9 6 3 $ + + @ 3 6 9 6 3 @ + + + + @ : 3 3 6 6 6 9 6 6 9 c c c 3 3 h n D R P D 6 $ $ 6 6 6 6 3 : 3 9 h 9 6 $ # : 3 3 3 3 $ # @ X + + + @ + + # 3 v R ( ( S : @ + @ $ : 3 3 6 6 6 : $ # + @ 6 n R ! E B n n n D G G n : $ 6 h 9 6 6 3 3 3 : $ : 9 9 9 9 9 6 3 3 6 9 9 6 3 6 3 $ $ $ @ + @ @ @ $ 6 6 9 9 6 6 6 6 9 c n S D S n c c 9 6 6 h n D G b 9 3 3 3 $ $ $ $ $ : 6 6 c c h 3 : 6 n S D S S B n n n v 6 # + + # $ $ # @ $ 6 n D D n c 6 3 6 n n c 6 : 6 6 6 6 3 3 3 6 9 h h 6 6 6 3 3 $ $ $ $ $ : 3 : : $ # $ $ 6 9 9 3 # @ # $ $ $ 3 h b b c h c n n c 6 6 6 6 3 3 3 : : 6 h n n n S B S D P P F B 9 3 $ $ 5 c G / / E S v 9 6 6 3 3 3 6 6 3 3 3 # + 3 6 6 6 9 c b n c 9 6 3 : $ : : : 6 9 B R E R F v : $ : 3 : : 6 3 3 6 6 c n D G G G F S n c 6 : @ + + @ 6 S W ) ! F S B D W ) ) F 9 6 3 6 3 $ @ # $ $ 3 6 6 9 9 6 6 9 n B B n v c 9 3 $ $ c F E ( ) W S n S P G B c 6 : $ $ 3 3 3 3 3 6 9 6 6 6 3 $ # : $ v R W W W G n 6 : 3 3 $ $ : 3 3 3 6 6 6 3 6 3 6 6 3 3 3 3 3 3 6 h c v c h 9 9 9 3 $ 3 3 : 3 3 3 : $ 6 c n n h 6 : $ $ $ $ $ $ $ 3 9 n G G F c h n F R G S n n n n b c 6 : $ : 3 3 6 9 6 $ : : 3 3 6 6 6 6 6 6 6 6 6 6 3 $ $ # $ $ 3 6 6 3 - $ # $ 6 h c n S S D F R / 7X7X_ F n 6 @ $ 6 n S S S S B n c 6 6 6 6 6 6 9 h h h 6 3 $ $ : 6 6 6 3 $ @ $ : 3 6 9 h 9 6 3 $ $ # # @ + @ $ $ 6 9 6 $ # + @ $ : 3 6 6 3 : : $ $ # $ $ 3 c D F S n n b c 9 3 3 9 c v h h h c c v c c 6 6 6 c n n n c 6 $ + + + # : 3 : 3 6 6 6 c b c 6 3 h n b c 9 6 3 3 9 n D S S S n n c 6 : : : $ : 3 : $ 6 v S S G S v 6 3 c b c 3 $ : 6 9 9 6 6 6 3 3 3 $ 6 h c S n n h : $ $ $ 3 9 n S B v 9 6 6 6 6 6 6 6 6 9 6 6 6 6 6 3 3 3 6 6 6 9 9 9 6 3 : 3 c G ! 9XeX_ S : $ h c h c c v v c c h 9 6 3 $ $ # @ : 9 c c 6 6 9 n B S B n b h h c 9 h 9 3 $ # 3 v D W ) 3X_ W P S n D P G c 6 3 : $ $ $ $ 3 6 6 3 3 : 3 6 6 9 v B B n c h 6 6 6 : # + + + + @ 6 n D F F S v c c n n b 9 9 $ # @ $ 3 9 9 9 3 6 m G Y S c c ",
"3 3 6 9 h c h 6 : 6 B E W R S c 3 : : 6 6 6 $ # $ # # $ : : : : 3 9 9 6 6 3 $ + $ $ $ $ # + + 6 S R / / R v $ @ $ $ 3 6 3 3 3 6 6 h 3 $ : 6 l n F F b : 3 B P P D n c 6 6 3 3 : # @ # # # : 3 3 6 6 6 6 6 6 6 6 9 9 6 6 3 $ $ $ 3 3 # + + 3 9 c b v h 6 3 3 6 6 h c b S D D S S 9 6 9 n D G S n 9 3 : 3 : $ $ $ $ : 6 h l h 9 6 3 3 6 c B B D E 7X7X/ D h $ + + + + X X @ # $ 6 6 c 9 3 3 6 h v 6 9 9 9 6 : $ : 6 6 6 8 6 6 3 3 3 3 : : : # $ 3 6 6 3 # # # $ - 6 6 6 6 6 3 $ # : : 6 9 v n D G n n n n v 9 3 : : : $ # $ 6 c n R P D b l h h h h 6 , : : 6 b S ) 7X) / P n 9 3 3 3 3 : 3 3 : 3 : 3 3 6 6 6 3 6 9 9 h h 9 6 3 6 c c 6 3 6 c B D D S b h 6 7 9 6 9 6 6 6 6 6 6 h S G E / ! R n h 6 : : 6 3 @ @ $ n D R E F c 6 c P W / W G v $ + @ @ # $ : 3 3 3 9 6 6 3 3 6 b S F P D n c 6 6 6 c n G W W G D G E W R D v 3 # $ $ 6 9 9 6 3 3 3 6 6 6 3 : # : 6 c n B n b 9 3 3 @ @ @ # : 6 9 c 9 9 c c c h 6 6 # $ : 3 6 6 6 6 h c c 9 6 6 3 $ : $ : 3 6 9 6 3 @ 3 b F P S c 6 $ + + @ # # $ 3 6 c S R R D n S W / / R D n v v S B c 3 $ 3 6 9 6 6 3 : : 3 6 6 6 3 3 3 3 3 3 $ 6 6 3 3 : : $ $ $ $ $ $ $ @ # $ 8 9 9 h v S G R E ! _ ) ( E n 3 $ : 3 9 c c 9 6 6 9 9 9 c b n n D S S n v 9 6 6 # $ 6 c v 9 $ # $ # $ 3 3 6 6 6 6 3 $ = $ $ # # $ $ 3 6 6 : # + + + # $ : $ $ : 6 6 3 3 6 6 6 c v n n 9 6 : 3 6 c h 6 6 3 3 6 6 v b n b 9 3 $ $ 6 h n n v 6 3 3 3 6 h v 9 6 3 3 h h c v c 9 6 6 h h h 9 9 6 6 h b n S S B n n v 6 $ : 9 9 c c 9 : $ 3 c n n n n h 9 h v c 6 : : 9 v c 6 6 6 6 3 + $ h D W / W R v 6 : $ 3 6 h h c 9 6 3 : 3 6 6 6 6 6 6 6 6 6 6 3 3 3 6 6 6 6 6 6 9 6 : $ $ 3 c G E R S v 6 $ : 6 c c h 9 9 9 6 6 6 3 3 : $ @ @ 3 3 6 3 $ # $ 3 c v b n v 9 9 h 9 9 6 3 : $ 6 v P / ) 3X) W F S S S S D S c : @ $ $ 3 6 6 6 $ $ $ $ : 3 h S G D c 9 8 6 9 c c 9 9 : + + @ : c D ! / / W F n 9 6 6 6 6 $ # # $ $ 6 6 6 3 $ $ $ $ # # $ $ 3 3 6 6 c 9 3 $ $ 6 h c 6 $ @ # @ $ 3 6 3 6 6 9 6 6 6 9 c c 9 3 # $ : # # $ 6 v S D D S n c 6 $ $ 9 n S S n 9 3 : 3 9 9 v v c c c n n c 3 $ @ + @ 3 9 c n c 9 3 # $ $ $ 6 : $ 3 6 9 9 9 6 6 6 6 6 c v c 6 6 9 n n c 6 6 6 9 9 9 9 b S S c 9 6 6 6 6 9 9 3 3 $ $ 3 6 h c 9 9 h v n S D B 6 3 3 3 3 3 3 3 9 9 c c 9 6 3 : 3 6 6 6 6 6 6 6 6 6 6 6 6 6 h c S D S n n D S n 3 3 n W 7X8X7X/ n 6 6 9 9 v n n n n n v c h 9 6 c 9 3 # $ 6 c n S G W _ / R n c 6 3 $ @ $ c n n 6 : : 6 6 6 6 6 9 9 c n B S n h 3 # + $ : : 3 6 h v v h h 9 6 6 h c B P W / _ 7X9X8XW h $ 3 6 : 3 $ 3 6 6 6 3 $ # # $ 6 9 6 3 3 6 6 6 6 6 6 3 3 6 6 9 l c c l h ",
"n c 9 6 6 c n B v 9 6 9 6 9 9 6 : 3 3 6 6 6 9 c D P E R D c 6 : 3 3 3 : $ + + $ 9 v v 9 6 : 3 c G W W P B 6 @ + + @ $ : 3 6 6 6 3 3 $ @ 3 b F E W E G n 9 h v b c b n n n n S F P F n 6 $ $ : 3 9 9 6 6 : : : : 3 6 6 6 3 : : 6 3 6 6 : $ $ $ $ $ $ 3 3 6 6 9 c c n B S n 9 $ + $ : 6 9 h c c 9 c 9 6 3 $ $ $ : $ : 3 9 h 3 $ 6 9 n R W E n 6 # + $ @ + @ $ : 6 v S D S n n S R 3X7XE 6 : n G S n 6 3 6 6 6 6 6 $ $ 3 6 6 9 9 6 3 3 3 6 3 : $ 3 3 3 3 - $ # # % # # # $ $ $ 3 6 3 6 c n S B B D G P G F B 9 : : 3 6 9 6 6 6 6 6 6 9 v n B G R E F S n c 6 $ $ 3 c n n c 9 6 3 3 3 3 : $ 3 6 6 6 3 3 6 6 6 6 3 3 9 9 6 : + + + + + # $ $ 3 6 c b n n n c 9 9 9 9 3 : # # $ 3 9 b h 9 6 3 6 h b n v 6 $ + + + $ 9 S G G S n c h n G R S 6 3 6 c n c h 6 3 : 6 6 9 9 9 9 6 9 b n B n n b b c 6 3 6 9 b G E G c 3 3 h v n n n c 9 6 h 9 6 $ $ 6 c h 6 6 3 6 : + @ 6 F / 8XqX8XE c 3 3 3 3 3 6 6 6 3 3 3 : : : 3 6 6 6 6 6 6 3 3 6 6 6 9 h 9 9 9 9 9 3 : : : 3 9 c c c 6 3 : : 6 9 h 6 6 3 6 3 : : 3 6 6 3 6 6 $ 3 6 6 6 $ @ $ 9 n B c c 9 6 3 6 3 3 3 3 3 6 h n D G R P D n c n B n n v 9 3 $ # : 3 6 9 9 6 : $ $ # : 9 B G D n v v B D G F B h 3 $ + @ 6 n R / _ ) ! P n 9 3 : : : @ @ $ 6 9 6 3 : # # + # $ # + % $ $ 6 6 9 v v 9 $ + # 3 3 $ # + : $ : 3 6 3 : 3 6 6 9 c c c h 9 $ @ @ $ $ $ 3 c F E E R P S v 6 # : h S D B v h : 3 9 c v v b n F G F S b 6 $ @ + + $ 3 3 9 h 6 $ # # : 3 6 6 c b b c h 9 6 3 6 b n n n c 9 6 6 h h 6 : $ 3 3 $ h v S R P S c 6 : : 3 6 3 $ @ @ 3 6 6 6 6 6 6 9 n B n 9 9 4 $ 3 6 3 $ $ 3 v S S n v 9 6 3 6 6 6 6 6 9 9 9 9 6 3 3 3 6 c b n S D B b h 9 6 : h G qXuXrX7XW n 3 6 9 v n v b S D S c c c c h 3 : 3 6 9 c b S R / _ / W G n 9 3 : : 9 9 c c 6 # # 3 9 n n n n n n n B n n c 9 6 3 3 : $ 3 6 6 6 6 9 c c 9 : 3 c B S R R E W E D v h $ @ @ $ : $ 3 6 6 6 3 $ $ 3 h b B n v 6 $ : 3 3 6 9 h h 9 6 6 3 6 6 9 9 6 $ + + @ $ $ # # 1 6 9 6 3 : : 3 9 v n S n c 9 6 3 3 7 b v h 3 : 9 n v 6 3 : $ $ 9 c 9 3 3 : 3 9 v B S S S n h 6 3 3 $ $ : 3 $ $ $ $ + # @ + + # 6 h c 9 6 6 9 9 6 6 6 # $ 3 6 6 : $ $ 6 6 9 9 c n S n b c b S S c 6 9 B S S n c 9 3 $ 3 6 B W / W P G E R G n v c c h 6 3 $ $ 3 9 c v 9 6 $ # $ $ $ : $ $ $ $ $ $ : 3 9 h b n v 9 3 $ 6 6 9 c v c c c 9 h 9 9 v D P G n 9 : # @ # $ $ 6 3 6 6 9 c v c 6 6 6 3 3 6 9 9 h 9 6 : # + @ # # : : $ $ $ 6 c R ! ! P S n n v h h n R R D n v n S P E W R S n 6 6 3 3 : $ 6 n E / / W E D v 6 + # 6 v n S D G F G n 3 : h n b 9 3 : 3 3 3 3 3 $ # + + X + # : 3 6 6 6 3 3 $ $ $ 3 3 3 3 6 7 6 ",
"$ $ : 3 6 c S D R D n c 6 3 6 3 6 3 $ $ 3 9 c n v b n n S S B b 6 : +   X @ h G _ 3XW B b n D E ! W S 9 3 6 6 6 3 3 $ $ : 6 6 6 9 6 9 9 h b n n c 9 h c 6 $ $ 9 R / / E D n h c B D B c 9 6 6 6 $ 3 3 3 6 6 9 9 9 6 : $ # $ 9 S ) 8X8X/ P v 3 @ $ $ : 1 3 3 3 3 3 3 3 : : : 3 6 6 6 6 6 3 6 9 c v b b h 6 9 9 6 3 3 : 3 6 6 3 : 3 3 9 9 6 6 6 : 3 3 : $ $ $ 3 6 b n b c c c c b c c c h h v n c 6 $ 3 6 3 3 3 3 6 6 6 6 6 h b c b c 9 6 6 h c 9 3 $ # $ $ 3 6 6 9 6 3 : $ $ 3 6 S D S n n S D G R E R F n 6 + + 6 n G E E R G S n h 3 # # # $ $ 6 6 6 9 6 : # # 3 3 3 : $ @ @ # : 6 h c c 6 $ $ $ $ # + + + @ : 6 6 3 $ # : 6 6 9 9 6 9 6 : # # $ $ # # 6 b D R R G D n c 6 $ : b n S n b c 9 9 9 h h h c n D F G D b 3 @ + X + + $ 3 6 6 3 : 3 6 9 9 9 h b n n c h 6 3 6 b D F S n n b h 9 6 : : : $ $ $ 3 9 c D G G D n 6 : $ 9 9 6 # + : 6 9 6 6 6 3 6 6 6 9 6 9 9 6 9 6 3 : @ : 6 v B S B n 9 9 6 6 6 6 6 6 h 9 9 9 6 3 6 6 6 6 9 c v c 9 9 9 6 6 6 n / eXrX8XW B 6 3 6 c v v v n n n v 9 9 9 9 3 @ # 6 u v v n B D P E R F D n c h c c c c : $ $ : 6 n P W ^ ! E F B S D B B n h 6 : $ $ : 6 6 6 3 3 6 9 9 9 3 6 c B S S S S n h 9 6 3 $ @ @ + # 3 6 h b b 6 6 9 v n n n v 6 3 $ $ 3 6 9 c 9 6 6 3 3 3 3 6 3 : $ @ @ $ : $   + 6 c c 9 3 # $ $ 3 9 v v v b 6 6 3 6 9 b n n 6 : $ : # + + $ 3 6 c c h 6 3 3 6 6 c n B n h 6 3 $ $ 3 6 6 3 3 # $ # $ 3 : # @ @ # 6 v n n c 6 6 6 3 3 : $ # $ $ $ $ $ 3 3 6 9 h c v b c 9 9 c B D n 6 6 n D D c 9 3 $ $ 6 v B F R P G D D D B h h b D S 9 $ : 9 n n c 6 $ + # $ $ 3 3 3 3 3 : # $ $ $ 3 9 c c c 9 6 : 3 6 9 c 9 c b n n n b v n D D B b 9 3 3 6 c c 9 6 3 3 6 c c b b v c 9 6 3 3 6 9 9 6 3 : : $ @ @ 3 h v v h 9 9 c b n b c v c c b b h 9 9 B S v 9 c n G P R G n 6 # @ # @ # # 9 B G P R G S b 9 3 : 9 n D S G / 8X7XW B v c c 9 6 6 3 : $ 3 3 3 : # @ + + + + $ 3 6 9 6 6 3 : $ $ : : $ $ $ @ @ # $ $ 6 c D R E P S b 9 6 9 h 9 6 6 6 6 9 6 c n S S n c 7 , # $ 6 n ( rXuXuX9XR 6   + : : 3 3 3 6 6 9 v n R R G S b h 6 $ # @ $ 3 6 6 6 6 @ $ 9 B F P D n : + @ 3 6 6 6 3 9 v n n b 9 6 6 b n B D F E W W D n n n b 6 3 3 : 3 3 3 : $ $ # + $ 6 v b v c h 9 6 3 $ $ 3 6 8 h h 6 3 9 S W ) 0X8XW n 6 $ # # $ 3 9 b n n v c 3 6 6 9 9 6 6 3 : 3 9 c c 9 6 : @ @ $ 6 b D R E R F b 3 $ 6 h c c h 9 9 6 3 : 3 3 6 6 6 6 6 6 3 $ $ $ : : : 3 6 c c 9 3 : $ : h P W W G D S n n n n D G S c 6 6 c n b c h h n R eXrX9X! S 6 $ : n F E R G n 9 6 v n B B n c 9 6 6 6 3 3 6 9 h c 9 6 3 $ $ # @ + @ $ $ $ # # $ 1 6 9 6 6 6 6 9 9 x 9 3 $ $ $ : 3 ",
"$ : 3 3 3 3 : : $ $ $ 3 9 n D G n c 9 6 6 6 6 6 h h h 9 h c c c 9 c 9 6 9 b n n c c 6 @ @ $ # $ 3 6 6 3 6 c c c 9 9 h h c b v c 6 3 6 h c n D D D S n c 6 3 $ $ $ 6 : # : 6 9 b G G S c 9 9 9 9 9 6 3 3 3 6 h c 6 6 3 3 3 : 3 9 S D S n c 6 $ : 3 6 c n n b 9 6 6 6 6 9 6 9 9 h h 6 3 3 3 3 6 9 6 3 6 6 6 6 6 6 3 6 h n P 7X9X) D 9 3 9 9 9 h c h h h h 9 6 6 6 $ $ $ $ 6 c h 9 6 3 6 b n n n n v c c c 9 9 6 - # # 6 n R / 7X8X) ! P S C F F S 9 3 $ $ $ 3 6 6 6 6 6 3 3 $ : 6 h n n v v c 9 6 3 3 3 3 : +     + 3 c S H G S n h 9 c n n c 3 $ @ $ 3 6 9 9 9 6 $ $ $ : 3 3 : 3 # # $ 3 3 # + # 6 6 9 9 6 : # # $ 6 9 c c c 9 3 $ 3 h B S c 3 3 @ $ # @ $ : 6 h b n n h 6 $ $ 6 c b n v 9 6 3 $ $ 3 9 h c v h 9 h 6 3 3 $ + # 6 9 c n B n h 6 3 $ : : $ : 3 3 : 6 6 6 6 6 6 6 6 v c h 6 6 v S S 9 6 h n B v 9 6 9 9 9 9 h b A S n n v h 9 6 6 6 b n c 3 6 b B D S n h 3 : $ $ $ 6 6 6 6 6 3 $ # $ : 3 9 c c 9 6 3 3 6 9 h 9 9 9 n n n B S G G F n n h 6 c G W W F n 9 3 3 9 n n B n n b c h 9 h h c h 6 3 6 4 - 3 6 n G R P G S n 9 : # $ 3 h n S n c 6 6 9 c c 6 6 h n S G D n 3 $ + @ $ $ $ 6 v n n n n b h 6 $ 3 c D F G W ( eXeX7XR v 9 6 6 6 6 6 6 3 3 3 : : @ + @ @ $ 3 : : 3 6 9 9 6 $ $ 3 3 3 3 $ $ 3 3 6 3 : : 3 h b v b 9 6 3 $ : 3 6 6 6 9 v b v c c c c 9 6 6 3 3 $ 3 c W qXeX7XR c : # $ 3 3 $ $ $ 3 6 c B G R R G S v 6 3 $ # # # 3 3 3 3 $ @ $ 6 c n n h 6 : $ 6 6 6 6 3 3 6 h c c c 6 6 6 9 c n S S F R P D S B n n 9 3 3 3 6 9 9 6 3 @ # : 9 v R R F n v n b c 9 : $ 6 3 # @ $ 9 v D R E R G n 6 $ + # $ $ 3 9 n n c 6 6 9 b n c 9 6 : $ 3 9 c c c h 6 : : 3 3 9 n G W W S 9 3 $ : 3 6 6 9 h 9 6 6 3 3 3 3 6 6 9 6 6 6 6 3 : $ : $ : 3 6 6 3 : + + 3 n E ) 7X) D n v n S P E E G D v 9 9 n D n 9 9 n E ( _ W P h 3 : h S ^ 7X3XE S c 9 9 h c c n v h 9 3 $ # $ 3 6 6 3 : : 3 3 3 3 $ @ + @ # @ $ @ @ $ 3 6 6 6 6 6 6 9 9 9 6 3 + + + $ 6 n R ! _ / P B n S F G S b 6 3 3 : 6 c b D E W W E P D B b b n S R W E E F n 6 3 6 9 6 6 6 6 6 3 $ # $ # $ $ : 3 6 6 6 $ @ $ 3 6 3 : $ $ 6 n W / W S c $ + # 6 9 9 9 h c c 9 6 6 6 3 6 9 9 9 9 9 h c c 9 9 6 6 6 6 3 3 3 3 : $ : 3 3 3 $ $ $ : : 6 9 9 c 9 6 6 h n D R P F v > $ 9 G ! 8X8X/ n 6 $ # # # $ $ : 3 6 6 6 3 : $ 3 6 9 c c 6 6 3 6 6 6 9 9 6 6 h n n 9 6 6 6 h b S S n c c 6 6 6 9 9 6 3 6 3 6 9 h v n n v n h 3 $ # 3 9 b n S n c 9 3 # 3 $ 6 9 h c 9 3 3 6 9 h 9 6 3 6 9 S R E R F n n G W ! F 9 3 3 3 3 # $ 3 6 3 $ $ : 9 h h 6 6 6 6 6 : 3 $ @ 3 n P R D n 6 + + $ 6 9 c c h 6 3 : 3 6 h c c h 9 9 9 9 9 8 6 : # + + X ",
"9 9 9 h h 3 # + # $ # $ 6 c n B D S n 9 3 : 3 6 n S D n 9 3 $ : h b b v n n n n n v 9 3 $ + + # h v b h 3 $ $ @ $ $ : 3 6 h c 9 9 6 3 3 3 9 v b c l h 9 c n n v 6 6 : 6 h c b S n n c 6 3 6 6 9 9 6 3 : : 3 6 6 h c 9 6 c B S S c 9 6 3 : $ : 3 6 9 v n b h 3 $ 6 6 6 6 6 6 6 6 6 6 6 9 9 6 9 9 n S D D S D B c 3 3 n E ) eXeX) D h 6 9 c v n B S B n n b c 9 6 h 9 6 : $ 6 v B S P W / / E S c 6 3 # # 6 n B n 6 : 1 6 6 9 h h h h l b n b h 6 3 $ # $ 3 6 6 9 6 h c h 9 6 3 6 c n D R / ) 7X8X7X! S 6 # # : 6 4 3 3 3 3 $ # + $ $ 3 9 9 6 3 3 3 6 9 6 6 6 3 : 6 6 6 3 6 9 6 6 $ # @ $ 3 3 : 3 6 3 : : 3 3 3 6 c n n n b c 6 : 3 3 9 v c 6 3 9 F R P S v 6 $ : 6 9 6 3 : $ 3 6 n B D G D B b h 6 3 : $ $ # # $ # # # @ @ # $ : h 9 6 $ $ 3 6 6 6 6 3 3 3 6 9 9 $ $ 6 c b n n S S D D n v n B c 6 3 9 n S n c 9 $ # $ 6 n E ( _ R F D S S v h 9 6 9 : + + $ 6 v n S n h 6 3 $ 3 $ $ $ $ : 6 9 9 3 6 6 c n n v h $ $ 3 6 h c b b c h 6 3 3 6 v B R R S 9 $ : $ + $ : 6 6 6 6 6 6 6 6 6 6 3 3 6 6 9 9 6 3 $ # + # + + # $ # + + $ n G ( 8X7XW S c c n B D F P F S v v n D F D B B F G D n 9 3 $ 3 n G / 7X7X! D n 9 3 : 6 c b n S n n 9 3 3 9 c c 6 3 : $ : 3 3 3 $ $ # @ + + @ # $ 3 6 6 6 6 3 6 6 6 6 3 $ # @ + + : v G ! ) ) ( G S S D D n c h 3 3 3 6 h b A G / ! R S v 9 9 c n D / 8XqX0X) E 6 # + : 6 6 6 6 : 3 : $ 3 6 9 6 9 6 0 3 $ # # - 6 6 6 6 3 $ 6 n / 8X( D c : + # 3 9 c h h c c c 6 6 6 6 9 v n D n n B S n c 6 6 9 9 6 3 3 6 3 3 # $ : : : $ # $ @ : 6 9 h h 9 6 $ 6 n G R D v 3 @ 3 S _ 9XtX7XW 6 + + $ 3 $ $ : 6 9 9 9 6 3 $ $ 6 6 9 9 6 6 3 3 9 9 6 $ $ 6 c b v c c b v h 9 c n v b b h h h 6 9 9 9 6 3 6 9 9 c c 9 6 : $ $ $ 3 6 c n S B n v 6 3 $ $ 3 h n b n c 6 6 9 b n n 9 3 $ 3 9 D E G 6 3 b W ) / E F n 9 3 $ : 9 c h 6 3 : 3 h n S S h 9 6 6 6 3 3 3 9 b F W R n 3 + + + $ 3 6 6 6 3 : 3 9 c c 9 6 6 9 h c c 9 6 6 6 6 9 9 6 9 n n n h 6 $ + + : 6 9 h 9 6 6 6 c v v S n 9 3 3 6 c b c c c h c n n v v c 9 6 6 v n n 9 3 $ $ : : : : + + + @ $ : : $ @ + @ $ : 6 6 3 3 3 6 b b 9 6 : 6 3 3 3 3 : : 3 $ 6 9 h c 9 6 3 3 3 $ # $ 9 n n b c 6 $ $ 6 9 6 6 6 3 3 3 6 6 3 6 6 6 6 6 3 3 3 3 6 c n n c c b I P S c 6 : $ @ : : $ $ $ @ @ $ 6 9 h c b b v c 9 6 : : 3 6 9 h c 9 6 3 6 h n n S B B n v 9 3 3 3 3 6 h h 3 @ @ @ # + + @ # $ : 3 3 3 6 c S G P B b 6 $ # # $ 3 # $ : 6 6 6 : 3 h n G P G c : $ $ : : : 6 9 c n F E E E R S n S R ! W D S D B b 3 $ # $ 3 : $ 3 : 3 $ @ $ 9 v b n v 6 + X # 3 : $ $ # + @ $ : 6 9 h 9 6 6 3 3 6 9 9 c c h 9 c b 9 c c 6 6 6 7 3 ",
"6 9 c n b 6 3 6 h v 9 $ $ : 6 9 v 9 6 $ : 6 9 c S S n v h 6 3 3 : 3 3 6 6 $ # $ # + + + + @ 3 6 v v v c 9 6 6 6 3 3 3 3 3 3 3 3 $ : 6 v b b v c b b b n n n b v h c B F G b 6 $ + : c S R W ! W P F F G D n c c c c 6 + # 6 c v 6 6 3 : : : $ : $ $ $ # # $ 3 3 : 3 c B B c 3 $ $ 3 9 c v v b b c c h 6 c G E E B 9 : $ # # $ $ 3 3 6 6 6 h c c 9 6 6 3 3 6 9 h 9 6 6 : @ + @ @ : $ $ 3 6 3 6 n E W E D n n n b h v S P P B h h n S Y E R D b h : 3 $ @ $ 6 b G ( 7X) ! R n 9 9 $ 3 c B D G R P S n c 9 9 c c c 3 $ $ $ $ $ $ $ + + + + + @ : 6 6 6 6 3 $ $ : 3 $ : $ @ @ @ # $ 6 v G W / ! R G n n b c c 9 6 6 6 6 6 9 c S P E R D v 3 $ : c D ) eXuXuXqXG :   + @ $ 3 6 6 6 3 3 6 v S D S b h 9 6 $ # $ 3 6 h v h 3 + 3 F ( ) W G h # + $ 6 9 6 9 9 c c c c 9 9 h n D F G D G W E G b 9 h c 9 6 3 3 3 $ : : # $ $ : # + : 6 6 6 9 h h 6 $ $ 3 c n n v c 6 6 n W 8XeXeX) G 6 + # $ : 3 6 h v b c c 9 6 6 6 6 6 3 3 3 6 6 6 6 6 $ # $ 6 9 9 c n R G D b 6 6 9 9 c c c c 9 9 6 6 3 6 6 9 9 9 9 9 3 3 $ # $ $ 6 9 v n n n c 3 $ $ 3 9 n D G S n n v n S G D n h 6 7 h b S B 6 : h E 7XeX8X/ S 6 $ $ 6 b D D v 6 : 6 h n D D n h 6 6 6 6 3 3 6 c B G D v 3 # @ + + # $ : : : : 3 6 9 h h 9 6 9 h c 9 9 6 6 3 3 $ $ : 6 n G G S c 3 : $ 6 n S b 9 6 9 6 6 h c b n B v b B S B b c c B B S n v c 9 6 9 9 c n c 6 : $ : : 3 : $ # @ + % $ 6 6 3 + + + : 3 : : : 3 6 b n S v 3 $ $ : 6 6 6 6 3 3 3 6 6 c c 9 6 3 : $ # : 3 6 h c 9 6 3 3 6 6 : : 3 6 3 3 3 3 3 6 3 3 6 h 9 6 3 6 9 c c B S D D G G G n 3 $ 6 b n n v 6 4 # # $ 3 3 6 6 h h h 9 6 3 3 3 6 6 9 h h 9 6 6 6 9 v n n n v c n n 9 @ @ c S S n h 6 3 $ $ 3 3 $ : : $ : 3 6 9 c n P W R n 6 $ $ $ $ 3 6 9 9 9 6 6 6 6 6 n F F n h 6 3 $ $ 3 3 6 9 c S P / 7X( G S G ! W D b 9 b b c 6 3 3 3 6 3 3 3 : $ 3 6 3 3 3 9 c c 6 # + $ $ 3 9 9 6 # + + $ 6 v n c 6 3 3 3 6 6 6 9 9 9 c c 9 9 c n G W ) ) / R G R R F G S n 9 3 # # $ 3 6 6 9 B ! 7X) n 9 3 6 9 6 6 9 h b b b b c v n G G B 9 6 6 3 6 # $ 3 h v c 6 6 3 $ # @ + + + @ @ # $ 6 c B D S 6 $ # # # $ 3 6 3 3 : $ : 9 b n S n h 6 : : 3 : : @ X   + $ 6 6 9 6 : $ 3 c B D B n v 9 9 c b b h 6 6 h c c v v n c 6 : @ + + $ > 3 7 h b S S n 3 # + $ $ @ # $ 6 6 6 6 9 h c c c 9 6 6 6 9 c v n b v c c n n n n b 9 3 $ $ $ $ : 3 : $ : 3 3 3 : $ @ + $ h S G W E G b 6 3 : $ @ $ : 3 6 6 6 3 3 : $ $ $ $ : 3 3 3 3 6 9 6 : 3 9 h 9 6 9 9 h c 6 6 : $ $ + + @ v S D S n c 6 $ 3 : : 3 6 3 $ $ # # @ + @ $ 3 3 3 : $ $ $ $ $ $ $ $ $ : 3 # @ : h b S G R G F G S G E ! E S 9 6 n n c 6 3 9 b n ",
"9 6 3 $ : 3 n W rXuXyX) G 9 + + @ $ 3 3 : 3 6 h b B G E R D v 6 3 : @ + $ 6 9 9 6 3 3 3 9 D E R v 6 : : : 3 6 3 6 6 c b b c h 9 9 9 v B D G R W W E F n c c h 9 : $ : 3 3 3 : # $ $ : 6 h b n n c h 9 9 8 3 : 3 c c 6 $ : c F W 7X7X/ R n 6 # + $ 3 6 9 c n n n 9 6 6 h h 6 3 3 3 6 6 9 h c h 6 : # $ 6 c n G G R P n 3 $ 6 9 v v c h 9 6 3 3 3 6 6 6 9 6 6 6 3 $ $ $ : : 3 6 6 h c 6 $ # @ : c R / W G S n n n S D D D S h 3 j B S B h h n P W 9X9X/ S 6 $ $ 9 D E W R G n 9 9 n n n n c c 9 6 6 6 3 3 6 c v 9 3 $ + # # + + + # $ $ # # 3 6 6 6 6 6 9 9 9 9 9 h 6 $ @ + + $ 9 S R W R D n c 9 n B B n v 6 3 3 3 9 c n S D F G R P D n c b B D D G D n b 9 6 c v c c 9 3 3 6 3 $ # + + + @ : 6 6 6 3 @ + $ 3 3 : 3 : $ 6 D R R n 9 3 $ $ 6 9 9 9 9 9 9 h 9 9 9 6 6 3 3 3 3 6 6 6 6 3 3 3 3 6 6 3 : 6 6 : $ $ $ 6 3 3 : $ 6 9 6 9 6 6 6 9 9 v B G P P G n 6 # 6 S R W E D c : # : 3 3 3 3 6 6 6 6 6 3 $ $ 3 6 h c h 6 3 3 6 9 9 9 c v c b n v 9 $ $ 6 n D D S n 9 6 3 6 6 6 6 3 : 3 6 9 h v n n G G n 6 $ $ $ - 6 u c c b 9 3 3 : 3 9 v n b h 6 $ $ 3 9 9 6 6 6 h B R 3X3XF b S / ( R h 6 6 6 9 3 $ : 6 9 6 3 3 $ 3 6 9 9 6 6 6 h 9 3 + @ 3 h c n n h $ + + $ 6 v n c 9 6 3 : 3 9 h c h h c c 9 h c b B F E W W G D D D S b h 6 : $ $ $ $ 3 6 6 6 v D E E S h 3 3 $ $ 6 9 h c c c c n B B n c h 6 3 6 h 9 6 3 : 6 6 6 6 3 $ # $ # # # # + + + $ 9 b B B b 6 $ @ : 3 6 6 6 6 3 : $ : 3 6 6 6 6 6 6 6 3 $ $ # + + + # 6 v b h 6 3 3 6 c S B v 9 9 6 h c v b 9 3 6 3 6 6 3 6 c v h 3 $ $ : 6 c n b c 3 # @ + + + + X + # $ $ 3 6 6 c c v b v h 9 6 6 6 h b n v 9 6 9 9 n G P S c 9 6 $ $ $ $ # $ $ # # # $ $ # + + @ # 6 n D n c h 9 6 6 9 6 3 $ : 3 6 3 $ # # $ $ 6 : : : 3 c B n c 6 3 3 $ $ 3 3 6 c c h h h 9 3 $ + # 6 v D E E F S c 3 : $ # $ $ $ : : $ $ $ @ @ # 6 v c 3 @ + # $ : $ $ $ $ # + + # 3 6 9 9 c v b c c n G R P B n c c n D R W W E P G G D D F G S n v h 6 : $ $ 3 n P / 7X8X( G S S P G n 7 6 9 j 7 8 6 $ 6 G qXyXeX/ G 9 @ X @ : 9 c h 6 $ # : : 3 6 6 6 6 6 6 6 n G G n 9 : @ + + # $ : $ # $ : 6 9 n E ! W D n n B G R G S 3 $ 6 n B b 9 6 + + + + $ : 3 6 9 h 9 6 6 9 h 9 6 9 B R W ! E F c 9 6 9 9 6 3 $ # > 3 h B W ) ( R n 9 3 @ # : 3 : 3 3 : : : 3 : $ 3 6 6 6 6 6 3 3 6 9 9 9 6 $ @ @ : 9 b n v 9 6 # # $ : 3 6 6 6 6 6 6 9 c S R W / W G h $ + + + # $ $ $ : 6 6 6 3 3 6 9 6 : # @ $ 3 3 3 $ @ $ 6 n F E R G n 6 3 3 3 : 3 6 6 6 9 3 : 3 6 6 3 3 : $ 3 6 6 6 3 # @ @ + @ $ 3 3 3 6 6 6 6 6 9 9 6 9 3 3 3 6 6 # + 3 b R 0XuXuX7XG b h 9 v S D n 9 6 6 9 m S S m 9 7 ",
"P G n c c b S P W W W G S v 6 6 6 9 9 6 6 3 $ $ # # # + $ 6 6 6 6 3 + + # 6 6 6 $ : 6 c S ! ( W n 3 # 3 3 3 6 6 9 v c h c 9 6 6 9 h c c c h 9 c c c 9 6 3 3 6 6 6 6 3 3 : 3 3 : $ : $ $ $ 3 6 6 c c 9 6 6 h n S E W S 6 3 3 9 G ) 9X) R n 6 + @ + $ # $ 3 3 6 6 6 : $ $ 3 6 h h 9 6 3 : 3 6 6 6 3 6 c n n h 6 3 6 6 v S D n b c 9 9 9 9 9 6 3 6 6 9 c v v v v v h 6 3 # $ 6 c n S n n v 6 3 $ 3 6 9 v n v 6 : 3 h c c c 9 3 3 c P W R n n S F P E R S 9 3 : : 3 6 3 6 6 3 $ $ 3 9 h h 6 $ 3 6 3 3 $ : 3 9 D E R v 6 # @ @ 3 h c h 6 6 3 : 6 9 h 9 h h h c c 9 9 h h b B B n n n B B n v 9 : @ + + $ 3 6 6 6 6 c n D G D n 6 @ # 6 9 c c 9 9 c c b v n n c 9 6 6 n n c 3 $ $ 3 3 : : $ # @ # # @ $ @ + + + $ 6 h n b 9 3 $ 3 6 6 6 6 6 6 6 3 3 3 : : : 3 6 6 8 9 6 : $ $ # + @ 3 v n n c 6 3 3 6 c v v 9 6 6 9 9 9 c h 9 6 6 3 3 @ : 3 9 n c 6 h 6 h n D D b 6 @ + + + + # + + @ $ 6 6 9 h v b v v c h 9 6 3 3 6 c c c 6 3 : 6 9 B D D D n b 9 6 : $ 3 6 6 $ + @ # # @ # # + + 3 3 9 6 6 6 9 c b S S v 3 $ : 3 3 $ # # $ $ 3 6 6 $ 3 b P E D c 9 : $ $ $ 3 6 9 c v b C F S c 6 6 c n F E W R S b 6 : $ $ $ $ $ 3 3 3 3 $ # $ 3 6 n S c # + # $ : : $ $ $ # + + # 3 6 9 6 6 6 6 6 h h n S S n c h c b S R W ! ! ! R F D D S S S n c 6 3 3 $ @ 3 c E _ 0XqX_ F c h B S b 6 6 9 v v 9 6 6 h D 3XeX8XR c $ @ + # 6 9 v v h 3 $ : 3 : # # @ $ 3 3 6 b n S v 9 6 # + + + # # = 3 $ $ 3 9 v G / / G v c n S n c 9 3 # 3 9 9 6 3 + + X +   # 6 9 c b v c 9 9 9 9 6 3 6 b F E E G n 9 3 $ $ $ # @ @ + $ 9 D W ) ) W n 3 @ @ $ $ # $ 3 3 3 $ : $ $ 3 3 3 6 6 3 3 3 6 c n n c 9 6 3 3 3 3 6 9 9 6 3 : $ $ 3 6 9 6 3 : $ $ : 9 n R / 3X( R S 3 + + @ $ # $ 3 3 9 c h 9 9 6 : $ $ $ $ $ $ $ $ $ $ 3 6 b G E E A n c 9 6 : $ $ $ $ 3 6 6 6 6 6 3 6 3 # $ 6 c c 6 : # @ + + + # $ : $ $ $ : 3 3 6 6 3 $ $ : 3 6 3 : > $ h W 9XeXeX8X! S n F E E G D v 6 c G ! / S n v B R ( 8X8X/ E F S b 9 3 $ : $ $ : $ + + 3 S G R G S b h 6 9 9 6 3 3 : 6 b R ! W D n v c c n n v 6 6 3 3 $ # 6 B ! ) / G n 3 # 3 v n c 8 3 + + $ 9 c 6 3 : 3 3 6 9 9 h 9 6 6 9 c v n B n h 3 # # 6 c v n D G R R F S n c 6 $ $ $ 3 9 b S D G F R W R B b n n B S B n c 9 9 9 l h 9 7 3 3 7 h c h 6 3 3 3 3 6 3 3 3 9 n D R ! ! R B n v 9 9 $ $ 3 9 c 9 6 6 : 3 6 c v c h 9 3 # @ $ $ : 3 3 3 3 3 6 6 9 6 3 $ $ # $ $ # @ @ $ 3 3 6 6 6 3 : : : 6 9 9 6 3 3 3 3 3 $ $ $ $ $ 6 6 9 9 6 $ $ $ $ 6 c n n c 6 : 3 3 3 3 3 3 3 3 6 6 6 6 3 : $ $ # # $ $ $ # # : 9 c c c c n n c 6 3 : 3 6 6 9 v S D D n c 6 # + $ $ 3 6 6 6 3 3 @ $ v E / E F F ",
"n n v h 9 9 c n n n c 6 6 9 b n n n c 6 3 : $ $ 3 $ # + + $ $ # # # # + # 6 6 6 6 3 6 6 6 h c 9 6 3 3 3 3 3 : 3 $ 3 6 6 9 h c v 6 3 @ + + $ 6 9 n n h 6 3 6 6 3 6 6 6 6 3 6 6 6 6 6 6 3 3 6 6 6 : 3 6 v n v c n S G F S b 6 # @ : 6 6 : $ # # $ 4 6 6 9 c v n n 9 6 3 : 3 6 9 9 c h 6 3 : 6 c n S S S B n h 6 3 3 6 9 c h 6 $ # # $ # + @ # $ $ : 3 6 9 b D G F S n 9 3 $ # $ $ $ $ 3 6 6 3 3 3 v B D G S h : # $ 3 3 : 6 v S G E / ! R F D S G P E R D B b c 9 3 3 $ $ : 3 3 : : $ $ $ 3 c n b 9 6 $ + + : 3 : : # + + # 6 x c h 9 6 6 6 6 6 6 h c c v c h h b S R / 7X8X_ E G S S S S n v 9 6 3 3 $ $ 3 9 S E 9X9X! v 6 9 b v 9 9 9 c v b v c 9 h D / / E B c 6 : @ + : h n n h 6 3 3 : # + + + @ $ $ : 6 c v n n 9 $ + + @ $ 6 3 3 3 : $ 3 h S P R D n b c 9 9 9 6 $ $ $ # @ # $ # + + + $ 3 v n S S B n c h c h 6 6 6 b D D D S b 6 : # + + $ # + @ : c G W E R B 6 # + + @ + # : 6 6 6 6 6 6 9 6 6 6 6 6 6 3 6 c n n n b v c c 9 6 3 3 3 3 : $ $ $ : 3 6 6 6 6 3 $ # $ 6 n W ( ) ! F c $ + @ $ # @ $ 3 6 9 9 6 6 3 3 3 : # $ $ $ 3 3 $ $ 3 6 h b B S n v c h 9 3 $ @ # $ $ 3 6 c n n 6 $ $ 3 3 6 h c 9 6 : # + + + + @ $ : 3 3 : $ $ $ $ 3 $ : 3 6 6 $ # # 3 h D W ) ) / W S S P / / R n c c n R _ ( R S B F R ! / / E F S D n 9 : $ $ 6 9 c v c h n P ! / E P B 9 6 6 6 6 6 3 6 c D ) eX9XE n 6 3 3 6 9 9 6 $ $ 3 3 $ 3 9 R W E S c 9 h v D D b 6 # + + 3 6 9 6 # # 3 9 c 9 9 n G G n 9 9 G G H n c 3 # 3 v n n c 9 c n b S B b 9 3 $ $ : c b n n D G R E R G D n n B S D B n c 9 6 3 3 9 c c v v v c 9 6 : : 3 6 6 3 3 6 c b S F R F S B S n v 9 3 $ $ $ 3 6 6 3 3 3 6 h n n b 9 3 $ + + $ : 3 6 6 3 3 6 9 h c h h 9 3 $ + X X + # $ $ : 6 3 : $ $ 3 6 6 9 6 6 3 : 3 3 3 # # # # 3 c n v 9 3 # @ : 9 c c c h 6 3 : : 3 3 6 6 3 $ 3 3 6 6 3 $ # # # # $ $ $ 3 3 3 6 9 c b c v c 9 6 3 $ $ 3 3 6 9 n R / / S c 3 + + $ 6 h h h 6 : $ 3 : # $ # $ 6 9 c c h 9 9 c n S B n n c c b B n 9 3 3 6 h n n b c 6 3 : : 3 6 6 3 : 3 6 9 9 h v v c n n n v 9 9 6 6 3 3 6 c n S n b v n n c 6 6 b n c 3 $ # $ 3 6 6 : $ @ + @ @ $ $ $ + X + # $ + + # # $ # @ : c G E / W G b 9 9 c c 9 6 : # $ 3 6 6 6 6 6 6 6 6 6 3 6 3 # + + $ 6 9 9 9 9 3 3 3 3 3 3 6 3 3 3 , $ $ # $ 6 9 9 6 h b n S n 9 6 3 : : 3 3 6 6 6 6 6 6 3 3 3 3 3 $ # @ $ $ $ : : 6 9 6 # $ : 6 c D P F h 3 # $ 3 6 b G W W R B h 6 : $ 3 6 6 6 6 6 6 3 $ # # : $ # $ 6 c n D G n 9 $ + 6 6 6 6 6 v S F D D S B n c h 9 c c 6 # # 6 v b v c 6 3 $ $ : 3 3 6 9 9 6 9 9 6 6 6 3 6 6 6 c n D D n c 6 $ @ @ # $ : 3 3 : $ $ $ # @ + $ 9 b n ",
"6 9 c n n c 9 9 v n D G G n 6 3 6 6 3 3 6 9 c v 6 $ $ $ + + + + + + + + $ t S D S c 6 $ + @ 3 3 3 9 6 $ : : 3 9 B S n h 6 6 6 : $ $ $ @ + + $ : 9 9 6 $ # 3 c n D D B b c c c c b c 9 6 9 h c c b c 6 3 : # + @ 3 : 6 9 h n S n 9 3 $ # + + @ @ 3 6 4 6 6 9 c c c 9 9 9 9 h h h 9 h v b v v v n S n c 6 : $ $ $ 3 $ $ $ $ $ : : $ @ + + # 9 S R E R S 9 3 3 3 $ $ # $ 3 6 6 6 6 $ : : 3 3 $ $ : 3 6 6 6 6 3 : 3 3 9 9 6 9 c c h 6 $ @ # # X + 6 D F G B v 9 3 3 3 6 6 6 6 3 $ @ : # + + + $ 6 3 $ # # $ $ $ $ $ 3 3 3 $ # @ $ 6 n D G G D n n D E E E E D c 9 v R / / E R G D R E E R G D n c 9 3 3 : : 6 c S F E W W R R W ! R n 9 6 6 6 6 6 3 $ 9 W eXuXqX! G 3 $ @ $ 3 6 6 3 $ # + @ 3 c n n n n c 9 b F E E c 6 $ + + $ 3 6 $ $ $ 3 6 9 c S G E G v c S P E W R n : : c S D n c 6 $ : 3 6 x 6 6 3 3 6 6 c v b v n n S R ! W R D B n v n n b 3 3 3 3 5 t n n R R D v 6 3 $ $ 3 3 6 6 6 6 6 h c v c h c c c c 6 6 : $ : 3 3 3 # $ 3 6 c n n n 9 6 $ @ @ : 3 6 3 3 3 : 6 h n S G F D n h 3 + X + @ # $ $ : : $ 3 3 3 3 3 6 6 6 $ $ $ : $ # @ # : 9 B G G S c 6 $ $ : 6 9 6 6 6 6 6 : $ 3 9 9 6 # $ 3 3 6 6 3 $ # + + $ 3 3 6 6 3 6 6 6 h h h c 6 6 3 6 3 : $ : 3 v W 9XeX) F v 3 $ 3 v n n c c 6 3 6 v c 3 $ 6 n D G G G S n B B C n c 9 h 9 6 4 3 # + : 9 l c h h 9 6 6 6 6 6 3 $ 3 : $ 6 c h n n B D D D S n c 6 : $ $ 6 b D R W G b 9 8 6 3 9 h 9 9 6 $ + # 9 c 9 $ # - 3 $ # # % # # + + $ $ 3 $ % + + # # $ 6 S W ) _ W R n c h c c 6 : : $ 3 9 c n n n b h 6 6 6 6 3 $ # $ 3 6 9 c v h 9 6 3 $ : 6 9 h c 6 3 : 3 6 3 : 3 3 6 v S G F G S v 9 3 $ # $ 6 9 h c h 6 6 3 6 6 : 3 : # # $ : 3 6 6 6 6 3 # # : v n B n c 6 $ + 3 6 h n S D D B 9 3 $ : 3 3 3 6 6 6 6 3 $ : $ $ $ : 3 3 9 B G D 9 6 3 : 6 9 c v 9 h b B S B v 9 6 9 h c c 9 6 3 $ $ 3 6 6 6 3 : # $ : : 6 6 9 h c c 9 6 3 6 6 6 : 6 c S S B c 6 : @ + $ $ $ $ : 3 3 : # + @ @ + + + @ $ # # # @ + $ c G G n 9 6 v v v v h 6 6 c F W _ 3X_ W S c 9 3 : 3 3 3 3 3 3 6 6 6 9 c v v 9 6 6 9 6 6 3 : 3 : $ # $ 9 B G P G D n c n n x 9 6 $ + X @ $ $ $ $ 6 c S R W E D b 6 # + @ 3 h S D n 9 6 9 9 6 $ $ # # $ 3 - $ : 3 3 3 6 h c c : $ + # c W 8X9XE D 9 # + # 3 6 9 9 7 3 3 $ $ $ 3 7 b D G C c 7 : $ : 6 9 9 v B W W G v 6 3 3 6 v v c 6 3 : 3 3 $ : 3 6 6 3 : $ $ $ $ $ 6 n S S n h 6 : 3 6 6 3 3 $ $ 6 6 6 6 v S R / / ! R B v 3 3 3 $ $ $ @ + + + $ 3 3 # + # $ $ @ + @ : 9 c 6 6 6 6 9 v c 9 6 6 9 c c c v n n S b 9 c D E E P S c 9 6 3 3 3 6 6 3 3 3 3 6 3 3 3 3 3 3 3 3 6 c c c c 9 3 $ $ : 3 3 6 3 : $ $ $ 3 6 6 6 6 : $ ",
"3 6 9 h c 6 6 6 9 D 3XuXuX3XS 9 # + $ 3 6 9 9 6 3 $ $ 3 3 6 9 3 6 3 9 n D G G n 6 $ + @ # $ : $ : : : 3 9 c n G W W G c h D W E S c 6 6 6 c n n 3 @ X + @ $ : 6 6 6 9 9 9 9 9 6 6 9 c n G E W ! S n c 6 6 6 6 6 $ @ $ 3 h G / / / P n 6 # @ $ $ $ 3 3 3 3 3 3 3 $ : 3 3 6 6 6 6 3 3 6 9 h 6 3 $ @ : 6 c b v 9 6 $ @ # : 3 6 6 6 6 3 : 6 h B R ! / W G c $ + + + # # $ 3 6 6 9 9 9 6 6 6 3 $ $ $ : : $ $ $ $ : 6 G R E E D c 3 $ $ 6 3 $ 3 6 6 6 $ 3 6 6 6 3 : 3 3 3 9 c 9 : + + X + $ 3 6 6 6 6 : 3 6 9 h 6 3 3 3 3 6 6 : + # h ! 9XyXyX9XE b 9 n B D D n 9 3 6 S G G B n b n G ! ( ( ! E F S b h 9 3 $ $ $ # # + X $ 9 b B S n c 9 6 9 9 6 3 : $ 3 9 n n n b c B n B D S n c 9 : 3 3 6 b E _ ) E D 9 # # 3 9 9 c 6 @ + # 6 c b 6 6 3 3 3 3 3 3 # $ $ $ 6 6 6 6 6 6 3 # @ $ 6 h B F W / / W D n c 9 6 : $ $ 3 6 n D G P F S n b c h c v v c 9 6 9 9 c c c c 9 6 # $ 6 c c 9 6 3 6 6 6 : $ 3 9 c G R W W E F n c 6 3 $ : 6 c b n 6 6 3 : 3 6 6 6 6 3 $ $ $ $ $ 3 $ : $ $ 3 9 h h h 6 : # @ $ : 3 : 3 9 c h 9 6 3 3 3 6 6 6 9 h 9 6 3 3 : : : $ $ : 6 9 b v 9 3 : $ : 6 b n h 6 6 c h h 9 6 $ $ 3 c c 9 9 6 3 $ $ $ $ : 3 : $ # # 3 6 9 9 h c c h 6 3 : : : 6 9 c n n n b h 3 $ # @ # $ : : 6 6 3 $ @ + + + + + @ $ 3 $ + + + $ 9 S D S v c n G G n n 9 6 c B P W / ! F b 6 : : 3 6 6 9 9 6 6 6 9 6 6 6 3 : : 6 6 6 9 9 3 : 3 3 # + $ h S R R G S h c b n n 6 # + + + # $ $ # # $ c n S S b h 3 @ + + $ 6 9 c v 9 6 $ 3 9 c h 6 6 3 : 6 c v 9 6 3 3 6 9 9 6 $ + + 6 b R ( / F h : + # : 6 9 9 6 3 3 3 : # # $ 3 6 6 6 3 + @ 3 6 9 9 h n S D G S b 6 : 3 9 c c 9 6 3 3 : $ $ : : $ 3 3 : # # # $ 3 6 9 v n v 6 : 3 9 v n c 9 6 : $ $ 6 n D E / _ / E G n h 6 3 3 3 6 3 $ + X + @ @ : $ $ @ # 6 6 6 3 : 6 c c 6 : 3 v n S D n h h v S D S b c v b b 9 b F W W D h 3 6 3 : $ 3 3 6 6 6 6 6 6 5 5 6 3 $ 3 9 b n n b c 6 3 : $ $ 3 3 3 3 3 : : : 3 3 3 3 3 6 6 6 6 6 3 6 6 c n n 9 : # + @ # # + + + $ n G ! 3X7X) W G b 6 $ $ + + $ $ : 6 6 6 n / 0X8XW D c 6 $ : 6 6 6 6 6 3 3 3 : $ 9 6 6 6 6 3 6 6 $ # $ 3 6 h h 9 $ # # $ c E 7X8X( E n : + @ $ 3 3 0 6 9 c v c 9 6 6 6 6 6 3 # + X + 3 9 c b b b n c 6 : 3 6 c v h 6 $ + + @ $ 3 6 c B G F n 9 6 6 n ( yXuXeX! D 9 3 # $ 3 9 v S F G n 9 : $ : 3 3 6 6 6 6 6 6 6 9 6 6 6 6 3 3 3 : 3 6 9 S E ! W n n S E E D b 9 $ : 3 6 3 : $ $ 3 6 c n n c 3 # $ # # $ : : : 3 9 9 9 6 6 3 3 3 3 3 : # # 3 6 6 9 h 9 6 3 3 3 6 6 6 6 6 3 $ $ : 6 9 9 6 6 9 9 9 9 h v B D D S n 6 $ + + # 3 6 6 6 9 c n n c h 9 $ $ $ 3 6 6 3 6 $ : 3 3 6 3 3 3 $ 3 h B G F P R ",
"9 9 9 9 9 3 : 3 9 v S E W G n v c 9 c n b 9 3 $ $ $ 3 9 S _ 9X7XF h $ : 6 c n v 3 $ @ # 3 9 h 9 # @ 6 v v 9 6 6 6 h h 9 h S G S b 6 $ $ 3 h n B n S F R E G S b 6 3 $ # : 9 n S S G R W E P S b B B S D D b 9 9 c c h 6 6 9 h 9 9 h 9 9 9 6 3 6 6 6 6 3 6 9 n G W / W G D n h 9 $ $ : 6 9 9 6 6 $ $ 3 9 h 9 9 9 6 3 $ @ # 3 6 6 3 : 3 3 6 6 6 6 $ # % # # + + # $ 3 6 6 3 3 3 : $ 3 6 9 c 9 6 3 3 : : 3 3 # @ : 6 6 9 9 6 $ # : 3 6 c n n 9 3 3 3 6 3 3 6 3 3 3 6 6 6 6 3 $ @ $ : $ $ $ # $ 3 6 h c v v v c 9 9 6 3 : 3 6 9 c S G G n 9 3 $ + @ + : 6 9 9 6 3 3 # + + + + $ 3 3 3 3 $ @ $ h B D P F D S S G G D v 9 c n B G F B v 9 6 6 6 6 6 6 6 6 6 6 6 9 h h 6 6 6 6 9 9 6 6 6 3 3 : 3 3 6 6 c n D P F S b c n n c 6 $ $ $ $ : : # @ $ : 3 6 c 6 3 # + + + % $ 3 6 9 6 $ $ 3 B D F D B c h 9 n v c 9 6 : $ 1 3 6 3 $ : $ 3 c S F S 9 : + + $ 6 6 6 6 $ $ $ $ 3 $ $ $ # # $ # + + $ 6 9 9 c b c n S S n 9 : $ 6 6 9 6 6 6 3 $ 3 3 3 3 6 3 3 $ $ # # $ : 3 6 9 b c 6 $ $ 9 S G D B h 3 @ $ 6 v G R / _ ! F b 6 6 : : 3 6 9 9 6 $ @ + + @ $ $ $ $ : 6 b b 9 3 3 6 9 9 6 6 h n n G R F b c n S B n c 9 6 6 6 c n R P D c 3 : 3 3 6 6 3 : : 6 9 9 9 6 6 6 3 3 3 6 v n S S b 6 $ @ # : 6 6 3 3 : # $ : : $ : 3 3 : # $ + + # $ 3 x D S v 3 @ # $ $ + # # $ 6 S W 3X9X8X_ E S h : @ # # + @ $ $ : 3 9 n E ) ) R b 6 3 : : 3 6 6 3 3 $ $ : 9 c v b n c h 9 6 3 $ # $ 3 3 6 6 $ + # 6 v F / 7X7XW D c $ X + 6 9 9 c v c v c h 6 6 6 6 $ $ $ # + + $ 6 9 c n n v 6 $ $ 3 v F E R n 3 + $ @ # : 3 6 c b v c 6 # 3 n ! 8XuXuX9XP h 3 : $ # 3 v D G P D n 3 # @ : 6 6 9 6 9 9 6 6 6 6 6 6 3 6 3 3 : # $ 3 G E W W P S n n n n c 6 $ $ : 3 6 6 3 $ 6 n G R D S n h 6 3 : $ @ $ : : 3 9 h h h 6 6 3 $ $ $ # $ $ 6 n n c 6 3 $ : 3 : : 3 3 3 : 3 6 6 6 9 c h c 9 c b v 9 9 c n n b c 9 3 $ $ # $ $ 3 3 6 6 6 c 9 6 : $ $ 3 3 6 6 : @ @ $ 3 3 3 3 3 3 3 3 3 3 : 6 9 n F / 8X8X3XW S 6 # @ $ 3 3 3 3 3 6 3 : 3 + # : 6 9 9 6 6 3 3 h n v 9 : + $ : 9 n E 0XrX8XD h 3 3 3 6 9 6 c 9 6 3 3 3 3 3 # $ : $ $ $ : 3 3 3 3 3 3 9 b b c 6 $ @ $ h n B b 9 3 $ $ $ 3 6 u 9 9 6 6 6 6 9 6 6 3 3 $ # # $ # # : 6 6 3 6 6 c n G W R B 9 3 9 6 3 3 6 6 n G W _ 9XeX9X( G B 9 3 : 6 6 3 3 3 6 9 c b b h 9 9 c 9 6 3 3 6 h c c 9 3 $ $ 3 6 6 3 3 3 6 6 6 3 3 6 6 6 9 c h 6 3 6 3 9 n S b h 9 9 6 6 6 6 6 6 6 3 9 n G P n 3 #   + 3 c n c 9 6 6 6 $ + + @ # # $ $ $ @ @ # # @ # 6 n P R D n n G D n v 6 3 $ $ $ : 6 9 9 6 6 6 6 c B S G G D n 6 $ # $ 3 9 h h 6 6 9 h c h 6 3 6 6 6 6 6 3 3 6 6 6 9 9 9 6 3 $ : 6 h n F W / _ ",
"3 3 6 6 6 3 $ $ 1 6 6 6 x v v c c h c n b c 9 9 3 3 6 9 c n B n S n n n n c h 9 h 6 $ + + 3 h c 3 @ @ # + $ 3 $ # @ + + + @ $ $ @ # $ # @ 3 c B W / W G b c h 9 v c 6 3 $ $ $ $ 9 9 9 6 6 6 9 9 9 9 3 # + + @ : 9 c 9 3 : : : 3 3 6 6 3 3 : # # $ $ 6 9 9 9 9 c B D B c 9 6 3 3 $ : 3 6 6 6 6 6 6 3 3 6 6 : # # $ $ : $ : 6 9 6 3 3 3 6 c G E P v 6 $ $ 3 6 n G / / E S c 6 3 $ $ 3 6 x c 6 3 $ @ @ # : 3 $ $ 6 n n n b c 9 3 $ 6 6 6 3 6 n D F S S n b b c c c c 9 3 # $ 9 v b c 6 3 : $ $ : : 6 9 h h h h h 9 6 6 3 : 6 c n B S S v 6 3 : $ $ : 3 3 $ : : $ # + + @ $ $ $ $ + + + + + 3 b S D v 9 6 3 3 6 6 3 + # c G W 7XqX8X_ E n 6 $ $ $ $ $ $ $ 3 3 $ 3 c S D D n h 6 3 3 3 3 6 3 : $ # # 3 6 v n n b c v v v c 6 $ $ # @ $ # # $ : 6 b F W _ _ E n 6 + X $ 6 c n n n c c 6 6 3 $ $ : 3 3 # # # $ $ 3 6 c v v 6 $ $ : 9 D ( 7XW n 6 $ + @ # 4 6 9 9 9 6 $ + + 6 n W 8X9X7XR b 3 : : : 6 c D P W W P v : # 3 6 9 9 6 9 9 9 3 3 3 3 3 3 3 3 $ : $ + $ c S G R F S c 9 9 6 3 : $ : 3 3 3 6 6 : 9 S W / W E F b h 6 : @ + @ @ @ $ 3 6 6 6 6 6 : # # $ $ $ : 6 n n v 6 3 3 6 9 3 $ # : 3 6 6 9 v v n n n c c n D S n 6 6 9 h 9 6 3 6 6 6 3 3 : $ 3 6 6 6 6 6 6 6 6 6 6 6 6 1 $ $ # $ 3 3 3 6 6 $ $ $ $ 3 3 6 c S G E W / R S n 6 3 $ # # $ $ # 3 $ @ + + $ 6 c D D S b h 6 6 6 3 6 3 $ $ $ 6 v D W 7XqX8XE c 3 9 6 9 c c 9 6 6 3 3 : $ # # $ # $ # # $ : - 3 3 6 h v n n 6 # + $ 6 S W W S 6 $ $ # $ : : 6 6 6 9 6 3 : : : 6 6 6 3 $ @ + # 3 6 c b b c v n n n v 9 : + X @ 3 6 $ $ 6 b D R / ) eX8XE c : 3 c n S D n 9 6 6 6 9 h 9 9 9 9 h h 9 6 6 6 9 6 6 3 3 $ : 3 3 3 6 6 6 3 3 3 6 6 3 6 c c b b h 9 c n S P F B c 6 6 6 9 6 6 3 $ $ 6 c v n v 6 + X + $ $ 6 9 9 h h 9 9 6 $ # $ : : $ : : $ $ : 3 6 6 h c n n b h b D D n 9 3 # $ : 3 6 9 6 6 6 9 c b S F W W G n 6 # + # 3 6 c c 9 9 9 c n n c 6 6 6 6 6 6 6 6 6 9 9 9 9 6 3 $ $ $ : : 3 : $ $ # 3 b S S S n h 3 $ $ $ $ 6 c v n n c 6 3 $ $ # # # $ $ $ $ 6 S W _ ) W P 3 + + : 6 9 c h 6 : 3 6 9 9 9 9 3 3 3 : $ $ : 3 9 v b b n n B S P F n 3 $ 9 n b c 3 $ $ # + @ $ 6 c n n n n b c c c 6 6 c G / / / W G n 9 $ + + $ # $ $ @ + + @ 6 n P / / E D b 3 $ + + X + : c W ) 7X_ ! E D n c 6 6 6 6 6 6 9 v n B D F P G G c 6 : $ : 6 h c 6 3 3 3 3 6 6 6 3 : 3 3 6 3 3 : 3 6 6 3 3 $ $ 3 6 9 n S S n b h : $ $ 6 6 6 3 6 3 6 9 v c 3 # $ v S R W W E F B 6 : # $ $ # $ 3 : 3 3 3 3 3 3 $ @ # 9 S F B h 6 + @ $ $ $ 3 3 6 6 9 9 9 9 6 6 3 6 6 9 v v 9 6 6 6 6 9 h 9 9 6 3 $ # @ # $ 3 3 3 $ 3 6 6 6 6 3 3 6 6 9 h c h 9 6 3 3 6 c b v c c ",
"b v 9 3 : 3 6 6 3 6 3 : 3 6 9 c c v h 6 3 6 6 6 6 : $ : $ + $ 9 b S F G S b c c n n h 3 @ + +   @ # $ $ 6 n G R E R B 9 : + + $ c n n n b c 6 : $ : 3 : 3 6 6 : 3 3 3 3 6 9 c v h 6 @ + # v E ) 8X) G 6 + # 3 6 9 9 9 9 6 6 3 $ $ 3 c D P G n h 3 @ 1 6 h 9 h n E W R n c 6 3 3 h h 9 6 3 : 3 3 $ $ : 3 6 3 3 3 # $ $ : 6 n G F S c 6 : : 6 9 6 : # $ 3 3 3 9 v P W / / W R S v 6 3 3 3 $ # + + + # $ 3 3 $ # $ $ $ @ + $ 9 v n h 6 3 6 9 6 6 9 3 6 6 c v c c v n n b 9 b G W W S v 9 6 6 6 6 3 3 : 3 3 : 3 3 $ 3 6 6 6 3 6 9 9 c c c 9 6 $ # # 6 6 6 : 3 6 6 6 3 3 6 6 6 6 9 b S D S B n v 9 6 6 $ # + + % $ # + + + 6 v F ! _ W G n 6 : : $ # # $ $ 3 6 6 b R 8XeX8XE B h 6 6 9 c c 9 6 6 6 : 3 3 : : : : $ $ 6 3 $ $ $ 3 9 c c c 9 6 $ # 3 v / ) ( R b 6 # + $ 3 3 6 6 6 3 3 6 6 3 3 6 6 3 : + + + # $ 6 9 v n n n v 9 6 $ # + $ $ $ : $ # # 3 9 n D W ( / W c 6 6 c F ( 8X) D b 9 6 6 3 3 6 v n n b h 6 3 3 6 9 9 6 3 3 3 3 3 3 6 9 9 6 3 : 6 6 3 $ 6 n F R G S n B D R E P v 6 6 6 6 6 6 : 3 $ 3 6 9 9 9 3 : @ @ # @ @ $ 3 c c c h 9 6 3 3 3 3 : : $ # $ $ 6 6 9 c c 9 6 6 c v n b c 6 3 : # $ : 3 6 6 6 9 6 h b B G R R G n 6 $ + + $ 6 9 c c c c b n b b 6 3 : 3 6 6 6 6 6 3 3 6 6 3 : $ 6 3 3 3 - $ 3 6 3 c G / _ W D n 6 $ + + $ 6 v n B n c h 6 $ + @ + # $ $ $ 3 h n W / W S 9 # + $ c S P R G c 3 $ 3 6 6 6 6 6 6 3 3 3 3 3 3 6 9 6 6 9 c n n n c 6 $ $ : 6 c 9 3 : $ + + $ 3 6 9 v v v c 6 3 9 c c 6 h S W / R B c 9 6 $ $ $ $ @ + @ @ X   $ n R ! ( / E S v 6 # +   + 3 n P / 7X8X( / E D n 9 3 3 $ : 3 6 c n S S n S D D n h 3 $ 3 6 9 h 9 6 6 6 6 6 6 6 6 3 3 3 9 9 6 3 : : 3 3 6 6 3 : 3 6 c n n n c 6 3 3 6 6 6 6 3 3 6 c B S D n 6 + # c F W W R D b 6 : @ + $ # $ : : : : $ 3 3 : $ $ 6 b S E E D 6 $ 3 9 9 6 : : 6 9 6 6 9 h 9 6 3 3 6 9 h 9 h h 9 6 3 3 6 n n c 6 $ @ $ : $ 3 3 : 3 3 3 6 3 3 3 6 6 9 h c 9 9 6 6 6 6 3 3 $ # # $ $ : 3 : # $ : 3 6 6 6 6 6 6 6 $ # # $ 3 $ $ $ $ $ : 3 3 6 6 6 6 9 h 9 6 6 $ @ $ # @ @ + $ : 6 c c 6 3 3 3 3 3 3 3 : 3 6 9 n D R R n 6 3 6 6 6 v E 9XrXeXE n 6 $ + + # 3 9 v n b S E ( ) / W D c c D R E R F S v 9 6 3 3 9 9 9 6 6 3 $ $ # : 3 6 9 9 9 6 h h h 9 6 3 3 6 9 v v h 9 9 6 3 3 3 3 3 6 6 h c 9 9 9 6 6 c v 9 6 3 : 3 $ : : $ : : : 3 3 3 3 3 : $ # @ @ $ 3 9 n D R R D h # + # 3 9 h l c l 6 $ @ + $ : $ $ 3 3 $ @ + + + $ 6 h c c 9 9 9 9 6 : # @ # # @ $ 3 3 3 : $ $ 3 6 6 6 6 6 6 : + + $ 6 9 9 6 6 3 $ + $ $ : 3 3 3 : : 6 9 G / / n : + $ : 3 6 6 6 6 3 6 3 $ $ $ 3 6 9 h h 9 3 3 $ $ $ $ $ $ $ # # # $ 3 9 D / 7X/ W W ",
"R F b 3 @ + + @ : $ $ 3 6 9 B R _ ) E n 9 9 6 6 3 6 6 6 6 3 : $ $ 6 6 6 6 h 9 6 3 3 $ @ $ 6 9 9 6 6 $ + $ 9 S W 8X8X/ B 9 $ + @ $ 6 6 3 6 h c c 6 3 3 6 6 3 $ $ + + $ 3 6 c b n n n 9 3 : 3 6 9 c c 6 $ + + # : 6 9 n G F D n 9 # : F 9XyXrX0X/ n 6 $ $ 3 3 6 n D R G c 6 3 $ : 3 6 6 6 6 6 6 3 6 6 6 6 6 6 6 3 : : 3 6 n E / ! D n S R R D n h 6 3 : 3 6 3 : : : 6 c n n c 6 : $ # + # # # - 6 c b v 9 6 6 3 : 3 6 : $ : 6 9 h c c h 6 : 3 3 : 9 6 6 3 3 $ $ 3 9 h h 6 6 9 h 9 h c n D G D n c 3 @ + # # 3 9 9 6 6 9 v c 9 6 3 3 $ : 6 3 : $ : 3 6 6 3 3 3 3 3 $ 3 $ $ 6 6 h S W ) 8X7X! D 9 $ + + $ 6 6 9 c 9 9 6 3 # + @ $ $ : $ : : 6 n F P n h : + $ 6 B E ) 8XW c 6 6 3 6 6 6 6 9 6 3 : 3 : 3 3 : : 3 3 3 6 6 9 c 6 $ @ $ 9 c c 6 : @ @ $ 3 6 6 6 6 6 6 6 3 3 6 h c 9 9 c n B n h 6 6 6 6 $ $ # + + # # # # $ 9 S G ! / E S c 6 6 : + # : x S W ) 0XqX8X_ E B h 6 $ # $ $ : 6 c c b n n n n n h 3 $ 3 6 9 c c h 6 3 6 6 6 6 6 6 6 6 6 6 6 3 3 6 6 6 6 6 3 : $ 3 9 h b n v 9 6 3 6 6 9 9 6 6 3 h S G R G n +   @ h S D S n h 6 3 : $ # + + # $ : $ $ $ : : + $ 6 c S E W R n 9 h B S 9 $ @ $ 3 6 6 6 9 9 6 6 6 6 9 v n n n h 6 3 $ : c n c 3 : $ $ 3 6 9 9 6 3 3 6 6 3 3 6 6 9 c c h 9 9 6 3 3 3 6 3 $ + + + + $ 3 3 3 $ # 3 3 3 3 - 3 3 6 : 6 3 $ $ 3 3 $ : $ $ 3 3 $ 3 9 n G G S n 9 # + @ $ +   + @ : 6 c c h 6 3 3 : : 6 3 3 3 3 h n S D D S n v v m m B G / 8X) G 9 $ + # $ $ 6 c b n n S E ) ) E S n B F W ( ) ) W P n 9 3 : 3 3 6 6 3 3 $ $ : 3 9 v v b n n c 9 6 3 : $ $ 3 9 B F G S n c 9 6 3 3 6 9 c c h h h c c B S B n c 6 $ $ 3 3 3 3 : 3 3 3 3 : : 3 6 3 $ $ + $ 3 6 c B S S n c 3 $ : 3 9 v B S n c 6 3 $ # $ $ 3 6 3 : $ @ + @ : 6 c n B B B n b c 9 : + + # $ : 3 3 3 3 : 3 : $ 3 3 3 6 9 6 3 $ @ @ # $ $ $ : 3 : : 3 6 6 6 6 $ + 3 S W W R B 6 @ @ $ 3 9 9 6 6 3 : $ $ @ + $ 3 6 h 9 3 6 3 6 3 $ # : 3 3 3 3 $ $ $ : : : 3 $ $ : $ # $ 3 6 6 9 c 9 6 : : 9 9 6 3 3 3 : $ : $ $ $ $ 6 c n F E R S n c 6 3 + + @ : v E / / n 9 : $ $ $ # $ : $ $ : 3 : 3 6 9 c 9 6 6 : # $ # $ 3 6 6 v n n c 6 3 $ $ 3 3 : : : 3 9 9 6 $ $ 3 6 6 3 3 6 9 9 6 6 6 9 h h x x 9 h 9 6 3 6 3 $ $ # # # $ $ : 6 3 6 6 9 c S P E E G S v 9 6 3 6 9 h 6 3 9 S E _ qX8XR 6 + 3 c n c 6 6 6 : : 3 : : 3 9 h 9 6 3 3 6 9 9 6 $ + + + $ 6 6 6 6 3 $ : 3 3 3 6 9 c n B n n h 6 3 : : $ # $ # @ # $ $ : : : : : # + + + $ 3 9 h 9 6 $ # $ $ $ $ $ $ # # # @ + @ @ $ 6 h n D G P R E P D c 9 6 h h 6 3 3 $ : 3 3 3 : $ $ $ # # $ 3 v S G D D B v 9 6 3 3 6 6 : @ + # $ 3 6 6 6 9 h n G R W ( 7X8X8X) ! W ",
"3 3 6 6 9 b n c : # + # 9 D / 8XeX7XE h $ $ 6 9 c h c 9 6 6 6 3 $ $ $ $ $ @ @ # 3 3 3 3 3 3 6 9 b v 9 $ # $ 3 9 n n c 3 $ : 3 3 6 6 9 c v h 9 9 c c 6 $ $ 3 3 : @ @ # $ : 3 3 6 6 h S E W G n c 9 3 3 6 6 : 3 9 D W 3X9XeX9X_ E b 6 3 6 6 3 3 6 6 6 9 v c 9 9 c c c 9 3 3 6 9 9 h h 6 3 $ 3 3 3 6 6 3 3 6 6 6 6 6 6 9 9 h 9 6 6 : 3 9 n n n c h 9 6 6 6 6 6 6 6 3 6 n R G v $ + + @ 3 c n v 9 6 6 6 3 : $ @ @ # # $ # @ @ $ $ : 3 9 n G R n h b G G D h 3 : : $ : : 6 9 9 6 6 9 h v B G G G n 9 $ + @ 3 9 9 6 6 3 3 6 c c 6 3 3 6 6 6 6 6 6 6 6 c c h 6 6 3 3 : 6 6 3 $ @ + + + : 3 6 6 6 9 6 3 $ # # = 6 t c 9 6 6 3 $ $ > : > # # # $ 6 B R ! ( ! S 3 + @ $ $ $ $ $ $ 3 6 h c 9 9 6 $ 3 3 : 3 : 3 9 v n B B B n n S D S b c b G R D 9 : $ # # # $ 3 6 h v B D R W P B c 9 c S / 8X8X_ W D c 9 : $ : 6 6 6 3 : + # 6 n D G P P D n h 6 @ + @ + $ 6 S ! / W R D n n c 6 3 6 6 6 9 c c c B G G R G S c 6 : 3 3 3 3 3 3 : 3 6 3 3 3 3 : $ # # $ 3 6 6 6 9 9 9 6 6 3 3 6 c B D D B v h 6 3 3 3 6 6 3 3 3 3 $ $ $ $ : 9 n D P P G S n c 6 @ + @ $ $ $ : 3 6 6 6 6 3 $ $ # - 6 9 c 9 $ +   + + # $ 3 6 6 6 9 6 6 6 - $ : v G R D c 6 : $ $ 6 h c c c 3 $ @ + # $ 3 3 : 6 6 6 6 6 6 6 3 6 3 6 9 6 6 6 : : : : : $ $ : : $ : 3 : 3 6 6 6 6 6 3 6 9 9 9 3 3 : $ $ : $ $ @ # 6 v n S S v c 6 : $ @ + @ $ 3 h S F D b 6 $ 3 3 : : : 3 3 : 3 3 3 3 6 9 h h b h 6 $ + @ 3 6 c n R W W S 9 : $ $ $ $ 3 6 9 c c c c c n n n v 6 3 6 9 c 9 6 6 c c c c 9 c c 9 6 3 $ : $ @ @ # # $ : 3 6 6 9 9 9 h b S S n c 9 6 6 6 6 6 6 6 6 6 9 D W ! E D c : $ 3 h c 9 6 3 3 3 3 3 3 3 3 : 3 3 3 3 3 6 3 $ @ @ @ # 3 h b b h 6 3 $ # # # $ 3 6 6 3 6 6 3 6 3 3 3 3 : # + + @ + $ $ @ # $ $ # + + + @ : 6 6 : $ # # # # $ $ $ : 3 6 6 3 # + + # 3 9 B P E W R D n h 6 6 6 9 9 6 : + @ 6 c b c 9 3 $ @ # : 3 3 6 n G D v 3 $ 3 6 6 6 6 6 6 3 $ # $ 3 6 3 3 3 3 6 b G R D n n B B n v v c b S G R G B c h 6 3 3 3 3 3 6 6 9 9 l h 6 : $ + # 6 v B B v c c c 6 : # + + $ 9 n n 6 # + + + $ $ # @ $ $ : 3 : $ 6 c c h 6 6 6 6 h v b c 6 $ $ : 3 3 6 6 3 6 6 6 9 6 6 3 3 : 3 : # # $ : 9 n G W / / W F b 9 6 $ 3 6 6 9 9 9 9 6 3 3 3 $ $ 9 S R R B v 9 h n R ) qXrXrX0XW S 9 $ @ $ : $ $ $ 6 c n G F n 3 @ : 6 h c v c 9 6 # + 3 n E 0XuXrXW c $ $ $ 3 9 9 9 h c n b 9 : 3 c n n b c c n F / 3X( G n 9 3 # @ @ + + + @ $ : $ $ 3 9 9 9 6 3 @ + @ + # 6 n D S n c $ $ 3 9 h 6 $ + X + $ 6 h c v b 9 6 3 3 3 6 9 9 3 : 3 6 c n S S n b h 6 3 $ $ $ 3 3 $ + # 3 c S E W W R D n h h n S G F D S b 9 6 9 6 3 6 9 c B G R D c 9 3 # # ",
"$ $ : 6 n E ) 7XW D 9 @ X # 6 h 9 6 3 3 3 6 6 9 6 3 3 3 3 3 : $ 9 9 c n n c c b D D S b 9 6 6 9 c b c 3 # # # $ # : 6 c b n n n h v c 9 9 h B P / ( / P n 9 3 : 3 1 3 3 : $ @ + + 3 n W ) / E G n 9 : # +   + 3 S R / 7X3X! F S B c 6 3 3 6 9 9 c n n n S P R G B v 6 $ $ 6 9 9 6 6 6 3 3 3 3 3 $ : 3 6 6 3 : 3 : 3 6 6 6 3 6 6 h c n S S B n c 6 3 3 6 6 6 6 6 6 9 h c 9 3 $ $ x n F E E R D n 6 $ + + # : 3 3 6 6 6 6 3 : $ $ + $ h S F b 6 3 # @ @ $ : 3 6 6 3 6 9 c 9 3 : 3 6 h v n v 9 6 6 $ 3 9 c b c 6 3 + + # $ 3 3 6 3 3 3 6 6 6 6 6 6 6 6 h c h 9 6 6 : 3 3 3 3 3 $ : 3 $ $ 3 3 : : 6 $ 3 6 9 9 6 3 3 3 $ # $ $ $ : 3 6 6 9 c c 9 3 : 3 3 : : $ $ : 6 9 h 6 : 3 9 h 6 3 3 3 6 6 3 3 6 3 3 3 6 v D G B h $ @ : 6 9 B E 7X7X/ D c 3 # + + # 3 9 c v n S P R W ! E n 6 6 n D S n n n h 9 9 9 6 9 9 9 6 6 $ # # $ $ $ : 3 6 6 9 c v v c v h 9 9 9 9 9 6 6 6 3 6 6 3 : 6 c n S B b h 3 $ 3 9 h 9 6 3 3 3 3 : 3 3 3 : : 3 3 3 6 6 3 3 3 $ + + 3 b F R D v 6 # # + + $ 6 9 9 : $ # # # # # # 3 3 : # + + + + $ $ : 3 3 3 3 3 $ $ 3 : $ # # # $ @ @ @ @ # : 6 6 9 9 5 $ # + + 3 9 n D S n c 6 $ $ 3 6 6 6 9 6 $ $ c G R S c 9 $ $ $ $ 3 3 6 9 c v h 3 $ $ : 6 b b c 6 3 $ $ : $ 3 3 3 $ $ 3 6 h v v c h c h 6 8 6 6 9 c n S n b 9 6 3 3 $ $ $ 3 3 3 3 6 6 6 6 $ @ $ 6 v S G G S n c 9 3 # + + 3 h D E P v $   + @ $ $ $ # # # # $ : 3 6 9 h h $ # $ 3 6 6 6 3 3 $ $ 3 6 3 3 3 3 6 6 6 6 3 $ $ $ $ : $ # + @ : c S P R P F D n c 9 6 6 6 6 9 6 6 6 6 6 3 $ $ $ 9 h b S S c 6 6 c B W 3X9XqX7X/ D c 6 3 : 3 6 3 $ 6 S W / / R S 3 @ $ 9 c 9 6 9 3 3 # @ 6 S W / / R n 3 @ : 6 9 6 6 6 6 6 6 3 3 6 9 b B n v c b G W / / W D h 6 3 $ @ + # $ $ # 3 : 3 6 6 9 h 6 3 # + X + 3 c n n n c 9 6 3 6 6 6 3 $ + X X + : 9 v n n b c c c B S B v h 9 9 h S B n n v 9 3 : $ $ $ $ $ : : $ $ 6 B E ! W G D c h 9 9 c n n b 9 6 6 6 9 6 6 6 h c F / W D v h S G G S n b n B R R P D B n b c 6 6 6 9 h 9 6 6 3 6 3 3 : $ + + : : $ $ $ 3 6 6 $ $ $ $ $ # +   @ + $ 3 3 : : : 3 6 n R E D c c 6 : : 3 3 3 9 B ! / E S h 6 $ $ : 6 9 9 9 6 3 3 6 6 9 c h 9 9 9 3 : $ $ 3 h S P ! W S 6 $ $ $ 3 3 3 : $ $ $ 3 6 6 9 9 6 6 6 6 3 3 3 h S S n B G ( 7X) W D 6 @ @ $ : : $ $ $ $ $ @ @ @ $ 3 6 9 b R E E F n 9 : 3 6 c D W W D c 9 6 9 9 9 c c v b c 9 : + $ c S S 9 3 3 6 9 c c 9 6 3 : 3 9 v S D D S c 3 : 6 9 9 c h 6 $ $ : $ # + + + @ $ 3 6 3 : $ # $ $ # # $ 6 9 9 6 9 9 6 3 $ + + + @ $ $ $ $ $ $ $ # $ 3 6 c c c h 6 3 $ $ $ : 3 6 6 9 v S G R R D S S S S 6 6 9 n S S S B 6 : $ 3 : $ 6 n ) 7XW h # # $ $ ",
"6 3 6 6 6 9 c 9 6 6 : $ $ $ $ $ # : 3 3 6 c v c 6 3 3 3 3 3 3 6 @ 3 h n G G D S 6 6 3 6 b G ( 0XrX9XE 9 + + # $ 3 3 6 c n S G E 8X7X! D n n S F E E R G n c 6 6 6 6 9 9 9 6 3 $ $ $ : 6 9 9 9 9 9 6 9 h 9 6 6 6 6 9 h c c 9 9 9 : 3 3 3 6 9 c c 9 9 6 6 9 c c b 9 6 3 3 3 3 : $ : $ : 3 3 3 6 6 3 3 $ # @ + $ 6 n S R E G h $ + @ $ 6 9 h c c 9 $ + + $ $ $ $ $ 3 3 # + + + + $ 6 9 9 6 6 6 6 6 : $ $ $ $ # # # $ $ : : : 3 6 6 9 6 6 6 3 # @ $ 9 9 9 6 3 6 3 $ : $ 3 3 3 $ $ 3 b S E W G h @   $ 6 6 6 6 6 3 $ 3 $ # $ 3 6 c v h h 9 3 : $ $ # $ $ $ $ $ $ $ $ 9 9 9 3 $ # $ 3 3 6 9 h c b v h - # + $ 3 3 $ $ $ $ 3 3 3 > @ @ 1 6 n R W R D S c 6 @ X   + 3 n / _ W n : # # @ # $ 3 3 3 $ # + $ 3 h b 9 : @ X @ # $ 3 3 : : 6 6 6 6 3 : 3 : 3 6 6 6 6 3 : $ $ # # @ @ $ $ 6 n c n n c h h 9 9 6 6 9 9 9 6 6 6 6 3 3 $ $ $ : 6 9 v c 9 9 9 h n W ( 3X3X/ P b h 6 3 6 9 6 3 6 v W ( 7X7XW v $ @ 9 c b h 6 3 $ # $ $ 9 n S D B c 6 $ $ 6 9 6 : : $ $ # # $ 3 6 9 c c h 6 9 b S D R P G B c 6 : $ + $ # @ : 3 3 3 $ $ 6 9 6 3 # X X + 3 c n n c 9 6 3 3 3 3 3 $ $ + + + + + 3 6 c n n n S G R R G n n c 9 9 c v c 9 6 3 : $ $ $ $ $ $ $ $ 3 6 c S W / W S c 9 6 9 9 6 9 9 6 3 3 3 6 6 9 6 6 9 n G _ _ R c h F W W D B n S G W / / D B c 9 9 9 9 h 6 9 9 9 9 9 6 6 : $ @ @ # $ 3 3 # $ 3 6 6 6 $ # @ + + $ # + + $ # $ $ $ # : 6 9 S D b 3 $ 6 9 6 6 6 h n F W W E c 6 : : 3 6 6 6 6 6 6 6 6 6 6 6 9 9 9 6 6 3 3 6 3 h F ( 8X7XW F 9 $ @ : 3 : 3 6 6 6 6 6 6 6 6 3 3 6 c B n 6 : 3 c S P E / 8X9X) D 9 $ $ $ $ : $ $ @ # : $ : $ + 3 : 6 v S F G F B v 3 # 6 G ) 9X0X) P c 3 6 9 9 6 9 n D D v 6 3 : 6 c n b 6 6 9 v n S n v 6 : $ $ 3 6 6 9 9 6 : + + $ 9 9 6 3 $ $ $ $ @ + + # : h c h 6 : $ $ $ 3 3 $ $ @ @ $ 3 6 6 6 3 $ +   X X + # # # # $ : $ 3 9 c b n b h 6 6 3 6 6 6 3 : : 3 9 n D F G G R G S b c c b n R P D n 9 6 3 $ @ $ v P ! 7X9X3XE D h $ @ @ $ $ $ 6 v D F G D B B S D F S 9 $ @ # $ 3 6 v n B n 3 # + + @ # # $ : : $ $ : : 3 3 $ $ 3 6 6 3 6 h G W ( / / W P S c h c n n c 6 3 6 9 9 9 6 3 $ $ 3 6 6 9 6 6 6 9 c v n S n b h 6 c 9 6 6 3 : 3 6 9 h 6 $ $ 3 3 6 3 3 6 6 6 : $ $ 6 6 6 $ $ $ # + + # v E W G n B D W ) 0X8XW S n n n n b c c 9 9 9 6 $ $ $ # $ 3 $ : : $ : 3 : $ : $ @ @ + X + $ 9 c 9 3 $ # @ # : 6 h v S P R P B h 3 # + + $ : $ : 6 9 n G ! _ / W D 9 6 S W / / E n $   X @ # : 6 9 c c c h 6 3 $ @ # : 6 c G E W E G S n n n S B n 9 3 $ $ + $ # $ $ # # 3 6 6 6 3 : $ $ : 3 9 h b n n v c c n b 9 3 $ 9 b b B B v 6 6 9 6 $ @ + @ 6 9 9 6 6 6 3 : $ $ : , 3 ",
"B S D F D S n c 6 : + X + 6 n F W W D 6 @ $ 3 $ @ # $ : $ $ $ $ 9 c c h 9 6 3 # # # $ : 6 6 6 9 v n c 3 $ 3 3 3 $ $ 3 6 6 3 $ $ $ 3 3 3 6 6 6 6 6 6 6 6 9 c h h 9 9 9 h 9 6 3 $ 3 : $ @ @ $ 3 3 6 6 6 6 9 c n D E W R S v 9 6 6 h 9 6 3 6 9 S W 9X9X/ n 6 6 6 6 c h 9 6 : $ $ 3 6 3 6 9 9 6 3 3 3 6 6 6 6 # + # # : 6 6 6 6 6 6 6 6 3 3 6 c n n S b h 6 6 3 : $ # # # $ $ + # $ # $ $ $ # +   X $ 6 c v h 6 $ # 3 3 3 3 : $ $ # @ + + + @ 6 v n S P W W W E G n h 9 9 9 9 6 6 3 3 3 3 6 3 $ @ # $ : $ $ 6 B R E S b h 9 6 3 3 3 6 3 $ @ # : 6 6 6 6 6 6 n R / / P G G F R E F D n B G W W R D n b c 9 6 6 9 h c 6 9 c h 9 6 $ + @ + $ 6 6 6 6 3 9 9 6 3 $ + + $ 3 3 3 $ + + @ @ $ $ # + @ 6 c h 6 $ : 9 9 9 h h 6 v S F D n 9 6 3 3 3 3 6 6 6 6 6 6 3 3 3 : : : 6 6 3 $ $ 3 h n / 7X9X0X_ F h 3 $ $ 6 8 6 9 9 9 9 6 3 3 3 3 9 c D G n 6 3 9 n D W _ qXrXeX/ S h $ # + + @ @ # $ 3 6 9 h 9 $ # : 9 v n n n n c 6 # 3 S ) rXuXrX3Xn 6 $ 6 9 9 c S G G D n h 6 6 6 v v c 9 h n G P F S b 6 $ @ @ # $ : # + # @ + $ 6 6 6 6 6 6 3 $ + + + $ 9 n D D c 9 3 $ 3 6 6 3 $ @ + + $ 6 h c 6 6 #   + # $ : $ $ @ @ : 6 h v n S B v h 9 3 $ 3 6 3 $ $ @ $ 6 n G G G G D B n n b n D G G F S n 9 6 3 3 3 3 c F W ! E F D b 6 6 $ $ 3 6 6 h n R E P S b v c h c h 9 3 : $ $ $ 6 9 9 9 6 : + + + + + # $ $ $ $ # # # $ $ # # $ 9 9 6 3 6 B E / ) / E G n 9 6 6 6 9 6 3 6 c n n c 6 : $ : 6 9 h 9 9 6 6 9 c b n n n c 9 9 9 6 3 3 : 3 6 9 6 6 3 $ $ $ $ 3 3 3 # # # # $ 3 9 h 9 : # + @ @ $ 9 S ! / R v b W 8X8X( P B n c v n n c 6 6 6 3 3 3 : @ # : 3 6 c b h 6 6 3 : : $ # # $ $ $ # $ 6 9 6 3 $ $ 3 : $ $ : n S G E G v : @ # $ $ $ $ : 3 9 S R _ 8X7X/ P S v v D W W S 6 : @ @ @ @ @ @ # $ $ 3 3 3 : : $ $ $ 6 v G E W E F B b h c c c 9 6 6 : $ $ 3 $ @ @ $ $ : 3 3 6 6 3 3 $ # # $ 3 6 9 v v n S S n n n v b n n v h 9 9 9 6 3 # + $ 3 6 c c c b D ( 8X) R n 3 # # 6 h 6 3 # + # 6 n R / _ 3X8X8X/ S 6 + + + # 3 9 n n n h 6 $ $ $ $ $ $ + + @ $ 3 : 3 6 9 v n n n 6 3 6 n D S n c c v v S S B n B F R E S c 6 3 3 $ $ 6 6 9 c v c 9 6 6 9 c n D R / / W n h 6 6 6 3 3 3 c c 9 3 3 3 3 : 3 3 3 6 6 3 3 3 3 6 c n S G F G S n h 6 : $ $ : c n S G G B x 9 c v b v c h 9 h 6 9 h 9 6 3 $ # 6 6 6 3 3 6 6 : $ 3 3 6 3 $ : 6 n D S c 9 3 3 9 n D F D n v 6 : : $ : 6 6 3 3 3 : 3 3 3 3 3 3 : 6 6 3 $ # 6 n B n b c 6 $ + + + $ 6 n D D n 6 $ # $ $ $ $ + + 6 R ( 8X7X/ D 9 6 3 6 c n n n h 6 3 $ $ 6 6 6 6 6 3 6 c n n c 9 6 n n S F P R P D c 6 6 9 x c b n c 9 3 # # $ 6 c b n n 6 3 h n c 6 6 : # + $ 3 , ",
"$ 3 c n n v c 9 9 6 : + + @ 3 6 c c 6 $ + + + # : $ $ $ $ 3 6 6 $ : 9 b c 6 3 6 h c v c 9 6 3 6 : 3 3 3 6 6 6 6 6 6 3 3 : $ $ $ : : $ $ 3 c D W ) 7X_ R n 9 3 $ : 3 6 9 9 9 9 9 6 3 $ $ 3 h S F P G n 9 9 n W ) eXrXrX0X! B 6 $ @ # # $ $ # : c F R S 6 : : 3 9 9 h c c 6 : $ : 6 S ) uXuX7XD 9 : $ $ 6 9 9 c n B n h 3 6 c n n n v c b S E / / G n 9 3 # @ @ + + + + # # # # $ 9 6 6 6 3 # + + + $ 9 B G S b h $ : 3 6 6 3 # + + + $ 6 h b v h 6 : $ 3 6 9 6 6 3 3 3 9 c n n n c h 6 3 3 3 3 : 6 3 $ @ $ 9 n D R G S n c c c c B B S G G B b c 6 6 : : 6 b D G B B n v n b c 9 9 6 9 n S S S S S B v 6 6 6 6 6 6 3 : : 3 3 3 3 : 3 3 $ $ $ $ # # : $ # # # @ @ # # @ @ # : 3 3 3 3 6 c S W ( / E G n 6 : 3 6 6 6 9 n P R D c 6 3 3 3 3 6 6 6 8 6 9 9 c b b v v c 9 6 9 6 : $ 3 h c v n v 6 # + 3 3 3 3 $ $ $ $ # $ 6 c c 6 $ # + # : 3 c F W R B m F / ( W D c 6 3 6 9 c c 6 3 $ $ $ $ $ $ : 3 6 h n D G S v 6 : # : 6 9 h h 6 : : 6 h c 6 : $ 6 6 : # # 3 v S F D b 6 $ : 6 6 6 6 : $ 3 c D R / _ / R S 9 6 v B G n 9 3 $ + + $ $ @ +   + $ # : $ # # # # $ 3 c n S D B b h 9 h h 6 3 $ # $ : $ $ $ $ # + + @ 3 6 6 6 9 3 $ : $ : 3 3 6 9 c n D G F D G F G D c 9 6 6 6 c b c 6 $ 3 3 6 6 6 c D W 9XuXrX/ B h $ $ : 6 6 $ # : 6 c B D P / ) 7X) W B 6 + X + $ c n S D B h 3 $ # # # + + + + + : 3 6 6 6 9 9 9 6 9 6 6 c D E E F D n v v n D G F F F S b c h 6 3 : $ $ : 6 9 h c c 9 6 6 9 c n B D D S n c 9 6 $ 6 9 h c v c 9 6 3 3 3 3 3 3 6 6 6 6 $ $ 3 9 9 9 h c b c 9 6 6 v v 9 3 9 G / / ! E P G S B S n v v b b c h 6 3 6 3 $ $ # # $ : 3 : $ : : $ $ $ @ # : 3 9 n S n 3 $ $ 6 h n D G D B n c 6 6 3 $ # # $ : : : : 3 $ 3 6 c v 9 6 3 : 6 n E / F c 3 $ +   X : c S G E F n 6 $ @ @ + $ $ 6 v G W / / P B h 6 9 c c c 6 3 $ @ $ : 3 6 3 3 : 3 3 6 6 9 6 6 6 h v n D P F G F S b 9 6 6 6 h n S D n c 6 3 : : 3 6 3 3 6 : 3 3 : : $ $ 3 6 c S E W E G n 4 # X X + 3 h n b c h h b B B n - + + $ $ $ 3 $ $ $ $ $ # # # # 3 6 6 9 6 : @ # $ 6 6 6 6 $ + @ 6 h h 6 b W ) ) R S 6 + # h n c 6 3 $ $ 3 3 3 6 6 9 9 c h 6 6 6 6 9 v S P W ! E b 9 3 3 3 3 3 6 3 6 c B D F G D b h 6 3 : $ $ $ 9 b D P R E E W W R n :     X + # $ $ # # # $ 3 6 9 c c h 6 3 3 3 3 6 6 6 $ @ $ 3 9 b n v h 9 6 3 6 6 6 6 : $ $ 3 6 6 : : $ $ 9 S D S n c 9 6 6 3 3 3 6 6 6 9 9 9 9 3 # # $ : 3 : # # : 6 6 6 3 # + + : 6 c c 9 : @ + + + X + @ 6 9 6 # + + $ 6 S E 7XeX9X! n 6 3 6 G 7XqX) R S : # $ 6 b S D S b b B F D c 3 $ @ 3 b D R W R n : + 3 v n 9 3 : 9 h 9 x n F ! 7XqX8X/ P W eXuXrXE h + # $ : 6 9 ",
"+ + @ $ $ $ # @ : 3 3 : $ @ @ + + # $ $ : 3 6 3 # $ 6 v D E W W n 9 6 6 6 : 3 6 b D R W R n 6 $ $ : 3 6 9 6 6 6 6 6 9 9 h c h 6 9 9 6 6 3 3 6 b R W E S h 6 3 $ : $ : : : $ $ $ 6 6 6 6 6 6 6 3 6 6 9 9 c B D D G R W ) / S 6 # $ : : 3 3 : $ $ $ $ $ : 3 : 3 9 S G P P D b 6 $ 3 9 S E E D v h 6 6 9 h c h 9 h b c 3 + $ h B S v 9 3 : 3 6 9 6 6 3 : 3 9 n D G E G n 6 3 9 c v 9 9 6 # + # $ # # + + + $ : 3 3 : $ # $ $ $ : 3 6 9 9 6 9 9 9 6 3 $ @ + @ # # $ # # @ # $ : 6 h c c 9 6 3 3 3 3 : 3 3 6 6 c B D F R G S n B n c 6 9 n G F B c 9 9 3 $ $ 3 9 D W rXuXrX7XR h $ + # : : # $ 6 b n S D G G W / ! E v 6 # # $ : 6 v F D n 6 # # # # $ $ @ @ # # # $ 6 9 6 : : 6 9 9 : 3 v P ! ! W E D B n n S G G D c h 9 6 9 6 6 6 3 : 3 6 9 h c c 6 6 6 9 c b n n v c c 9 6 3 3 6 9 9 c n v 9 3 3 $ $ : 3 6 6 6 6 $ $ $ 3 6 3 : 3 6 3 3 $ 3 n F S 9 6 B / 7X7X3X/ R D S D D n v v b v h 6 3 : $ $ $ $ # @ @ # # # $ @ $ : $ $ $ # $ 3 h n n 6 $ $ 3 8 c b B D D D D n c 6 $ # @ + @ @ # $ 3 9 n S G G S v 9 6 c D _ 8X/ B 9 $ + +   # 9 n G G F S h 3 $ : : $ 3 c n F W / W F n c c c b n b 6 # X # # $ 3 3 3 3 6 3 6 6 9 9 3 $ $ 9 c n D G D S n n v 9 3 3 6 c v G G D S v 9 3 $ + # $ $ $ 3 3 6 $ $ 3 6 6 6 6 h S G D B b 9 $ @ + # 6 n G G G G D D S n 9 : @ + @ $ 3 6 6 6 3 : # # # $ $ $ 3 6 6 3 $ + # 6 n B c 9 3 + # 6 c v h c D / / D 9 3 6 6 n F G v 3 @ @ $ 3 6 6 6 6 9 c c 9 6 6 9 n S W / 7X8X/ B 3 + : : : : 1 3 6 6 c c c c h 6 3 6 $ $ @ @ 3 n G E E W / ( / E B 9 @ X + # : 3 6 6 6 3 $ $ 3 9 b b 9 9 6 3 3 6 9 h 9 6 3 $ $ 3 9 c c c 9 6 3 6 6 6 6 6 3 3 6 9 9 6 : 3 9 b S D D B b c 9 3 $ : 6 6 h 9 9 9 6 6 6 3 3 $ # $ $ # $ 6 : 3 3 3 $ # @ $ $ 3 $ + @ # $ : # + + + @ $ : 3 + + # 6 S _ rXyX7XW n 6 3 c F ! 9X8X! n 3 # $ 6 b n n 9 9 n S S n c 6 $ $ 6 b D ( / R c : : 6 6 b c 6 3 : 6 9 9 6 c G ) ) E G G ) 0X7X/ P b 6 6 6 c S P G S n c 3 $ $ 3 6 9 9 h 9 6 3 : 3 6 6 6 $ + + # # # $ 3 6 6 6 3 $ $ 3 3 : $ $ $ $ : 3 6 c c 9 6 9 v n n 9 3 $ 6 c B R / _ / E n : + X + 9 v c 9 6 6 6 6 3 6 v B n c 3 $ @ @ : 6 9 6 6 6 6 3 3 6 3 3 3 3 8 b E 7X9X8X/ P n c 6 6 6 6 6 6 6 6 9 9 9 6 6 6 6 6 9 h 9 3 $ @ + # 3 6 6 9 9 3 $ # @ $ 3 6 6 6 6 6 6 3 3 $ $ $ $ 3 6 6 6 6 3 : 6 3 $ $ 6 9 9 9 6 6 : : 6 6 6 c 9 9 6 6 6 6 6 6 @ $ $ $ $ 3 3 6 9 c h 9 9 6 3 3 : 3 : : 6 h c b 6 6 b G / 9XqX7XB 9 # # $ 3 c D ! W S $   # 6 9 6 6 6 9 9 6 6 3 : $ : 6 6 3 : $ : : : 3 c P W W S c 9 h c 9 h b F G F S S F G D n 9 3 : # @ $ 3 6 c 9 6 9 v n S n n v 9 9 c v c 6 6 6 : $ , 6 , ",
"B v 6 $ + + @ # # # # # # $ $ $ 3 6 3 $ : 9 9 6 6 c D / ) ) / E D S n v n n n c 6 6 6 6 9 9 6 6 : 3 6 9 c 9 6 3 6 9 h c n n n n 9 6 6 6 6 3 : 6 9 c 9 6 3 3 : : : : 3 3 3 3 3 3 $ 3 6 6 6 $ + +   + 3 v G E W R n S Q 0XeX_ F S n n B B n b c 6 9 9 6 $ # $ $ $ $ : : $ $ $ $ $ $ # @ # + + + # 3 6 6 6 3 $ @ $ : 6 h c n G E R B c 6 $ + @ $ $ # # : 9 b F W / W E S 9 9 B R W W R b #   X @ # $ 6 h n n c 9 6 3 : $ $ 3 9 n G W ! W G n b b n n n v 6 $ $ $ # $ $ : 3 : $ $ 3 6 6 6 6 : $ 3 3 h c b n b v c c v c 6 3 6 c B B n b 9 6 3 $ $ $ # $ 6 c h 6 6 9 n S n v h h h c n v h 6 : + + $ b G W / / W E P n h 3 $ @ @ $ 6 3 6 9 9 6 3 : $ $ $ # $ : $ $ : @ # : 6 c n b h : $ 6 v n 9 6 c B D D S n 9 9 n R R G v 6 3 : $ 3 : 3 6 6 h c c h 9 9 c n F W / 9X8X! n : $ 3 $ $ : 6 6 3 3 3 3 9 9 6 3 3 3 3 $ # $ 6 n G R W ( / / Q D v 6 # X + # 6 c c c 9 6 : : 6 b n c 9 9 3 6 9 h h h 9 6 # $ 3 9 c c h h 6 3 3 6 6 6 6 6 : 3 h n n 6 $ 3 x b B S S S b 9 : $ $ 3 6 9 9 h 9 9 9 6 3 : $ $ : : : : : : 3 3 3 6 6 : $ $ $ + + + # 6 9 9 6 3 + + + $ $ + X + 3 n / eXrX0XE B 3 # 3 n G E W R c 6 : 3 3 6 h 9 6 6 h v b n b c 6 6 9 v B R W R n 9 6 9 9 h v c 6 3 3 : $ # 3 h R W R n n G W W D n h 3 3 h B D ! / E B c 6 $ + 3 : : 6 6 3 3 6 9 h h h 6 3 # @ # # # # # 3 6 : 3 # + + # $ 3 6 : 3 3 : 3 3 3 3 6 6 6 c c 6 6 3 6 b G W ( / E S 3 +   + $ 6 9 c 6 6 6 3 6 9 c v c v 9 3 $ @ @ $ 6 6 6 6 6 6 6 6 6 3 3 6 3 6 B W qXrX8XR S n c 6 c 9 3 $ : 9 v b l c b B S B b h 6 $ + + + + $ 3 6 6 6 6 6 3 $ $ 6 6 6 3 3 3 3 3 3 3 3 $ : 9 c c 6 6 6 $ $ : 3 : 3 3 3 6 6 9 9 6 3 : 3 9 h c h 9 h 9 6 3 : $ $ : 3 3 6 6 6 9 9 6 3 3 6 6 6 $ # $ h b n c 6 3 3 c ! 3X) E S 6 + X   + 9 S F S c 6 $ @ : 6 9 b B n S B b 9 6 9 v n n n v 6 # + $ 6 D R P B n S S b 3 6 9 c n S D P E E F n 9 6 6 3 # : 3 3 6 9 c c n S E _ ! D b n G E R B b c 6 6 6 h n D G n 6 $ # % # 3 6 c v v 6 6 6 3 : 3 3 3 3 - $ 3 6 6 6 c S D S B n n n B b h 6 6 3 6 6 9 7 6 3 : : 3 7 6 6 6 6 6 6 c n n n c 9 6 $ + + $ 6 c n n b h 6 : 3 6 6 6 6 3 $ @ + $ c F R G B n n n v c 9 6 6 9 9 8 9 c n D P G n h 6 3 6 9 h h 9 6 6 9 9 6 3 : $ # # $ : $ @ + # $ 3 9 n D D B 6 : @ # 3 h n S S n 9 @ + $ 9 c S B c 6 3 6 3 6 3 6 3 3 6 6 3 3 $ # @ $ 3 6 6 9 6 6 : # @ @ # $ 9 h 6 : # @ # 3 h v c 6 6 : : 6 S R P B c 3 @ # 6 h n S S D S h 3 # # 3 6 6 6 c F P D c 6 6 3 + @ + $ 6 6 6 6 $ : : $ + + $ 6 6 9 9 9 6 9 n D B b 6 $ # # $ 3 6 3 6 : @ $ 6 c n v c c 9 6 : $ 6 n G W / W n 3 : : 3 6 c v 9 3 $ : $ 3 c c 6 , $ ",
"B b h 6 : $ : $ $ # + + + $ 6 6 $ 3 6 v n b c c 3 3 c S S b h h b n n S S B S D F D n 9 6 : $ : $ 3 6 9 v v c c 9 9 h n D R ! / ! R n 6 : # $ 6 9 9 9 6 6 3 3 3 3 3 6 6 6 3 3 3 : 6 h n D F P R E G n 6 $ $ $ : 3 9 B E E B h 9 v c n n c h c h h 9 c c 9 3 $ $ 3 6 6 3 3 6 6 6 3 3 3 6 3 : : 3 b B B n h 6 3 6 B D F D B b 9 3 3 : 3 3 3 6 6 6 6 3 3 3 $ : , : 6 6 $ @ $ 6 v n n v 9 6 # + + + : 9 n D S v 3 # $ # # @ + + $ 9 E _ 7X) ! D 9 3 6 6 b S S b 6 6 6 6 3 6 6 6 6 6 6 6 c v c 9 6 9 b B G P E R G n 9 6 6 c n n b b 9 6 $ # $ 6 h c n n b h h c b v 6 6 3 6 v D E ! E P n 6 # # $ # $ : 3 3 6 9 h c S B c $ + @ $ # : $ $ $ $ $ $ $ @ $ 3 3 6 6 3 3 $ # $ 3 6 : : 3 6 3 3 6 9 6 9 n ! 7X7X! G h +   + $ 6 9 9 6 6 6 6 3 6 6 6 9 c 9 6 3 : $ : 6 h b n b h 6 3 6 6 6 6 6 3 6 n W 7X8X/ E S c 6 6 3 3 $ : 9 n D S D G R R G S n 6 @ @ + + + + # $ $ 3 3 6 6 6 6 9 6 6 : $ : 6 6 6 3 $ # # 3 9 v c 9 6 6 6 3 3 3 3 3 6 6 6 6 6 3 3 3 3 3 9 v n n n v h 6 3 : 3 3 3 3 6 9 9 6 3 3 : 3 3 6 3 $ @ $ 9 n n v 3 # @ : B W E D b 6 $ X . + $ h c v 9 3 $ # @ : 9 D W _ / E D 9 3 h S G E W F h $ + $ 6 n G D n c n F D c 3 $ 3 6 v S G W W F c $ @ : 3 6 6 3 9 9 9 v n n G ! 7X0XW n S ( eXqXW D c 9 6 6 9 v n S b 6 3 $ $ 3 6 9 n B n c 6 : $ $ : 3 3 : $ $ 3 : 6 9 c S F S 9 6 9 c b c 6 6 3 3 6 6 9 9 9 9 3 3 9 n v 6 $ $ 9 h c b S F F S 6 3 # # 3 c n n n c 6 $ $ 3 6 9 c h 6 $ # $ 3 h S G D b c b b c 9 6 3 6 6 h v n S F R R G c : : 6 9 h 9 6 6 6 6 h 6 3 : $ $ : 3 6 6 3 $ + $ 6 9 b A S n c 1 + # 3 c B D G B c 6 $ @ # 3 6 6 6 6 3 : : 3 3 3 3 3 6 6 6 6 3 : : $ $ $ 6 c c 9 6 : $ @ # : 3 3 : : $ $ 3 6 6 v n b 6 6 3 6 9 c v v 6 3 : 6 h 9 c D R W R n c 9 3 : $ 6 n P E G n c 6 @ @ : $ : 3 $ : $ # + + # @ + @ @ 3 c b 6 $ 3 v n G P S 9 $ + $ : 6 c b c 9 6 6 h n G G n 6 3 6 6 3 3 h S F G S b 6 $ $ 3 6 6 6 3 $ # @ # $ : 6 h B R E D h 6 % + + % $ $ $ $ 3 3 : 3 6 6 3 3 $ - 3 3 6 6 6 9 h B R ( ( W D b 9 6 3 : $ 3 6 6 6 3 6 6 3 3 6 , 3 : 3 6 c B S n : + + : 9 9 9 h 6 3 : 6 6 6 3 6 3 3 : : 6 9 c c 6 : $ : 3 6 6 3 $ $ $ : 6 h c v v h 9 6 3 6 9 6 6 3 $ : 6 c b n h 9 9 h 9 6 : : 3 6 6 : $ $ 3 3 6 3 : $ $ 6 9 c v h 6 : # + @ # @ + + + @ : c F ) 8X_ G v 6 3 6 c v c 9 6 3 $ # @ # $ : : 6 6 6 6 3 3 $ $ $ 3 6 v n b h 6 $ $ 6 n S n c 9 3 9 n E _ ) / R h + + : 6 b D S n b 9 $ + + # # @ # : 3 h G ( ) W D c $ X X $ h R ( / S 9 : 6 6 3 : 3 6 9 b S D S n c : $ # # $ $ : : : $ + + @ $ $ 3 6 6 6 3 $ + $ c R / W D c : @ # 9 n B n n b 9 9 3 : 3 6 6 # + + ",
"3 : $ : $ $ $ $ $ : 3 3 6 6 3 $ @ @ # 6 9 6 3 $ $ : 3 9 c h n G 7X9X! c : $ $ 3 6 6 6 6 3 : : : 6 6 9 h 9 9 9 6 6 6 3 6 c D R E G S c 3 $ : 3 : : 3 9 v S E ! E G v 9 6 3 $ : $ # 3 n E W E Y E 3X) E c $ + + + + + # $ # # $ $ 3 6 c n b 9 3 $ $ 3 6 6 6 3 $ $ : 3 6 9 c h 9 9 3 6 6 6 9 6 3 3 6 6 6 3 : : 6 9 B S B b v c h 9 3 3 3 6 9 9 6 6 h 6 3 : $ $ $ $ # $ : 3 6 9 h 6 @ + $ 6 h v n 9 3 + + + + + + $ 6 9 3 @ + + # 9 D ! 8XqX8XW n 6 6 9 R 9XeX( D c : @ 3 c b n B n b n n n b 6 # # 3 b R / / R n 6 : $ 3 c l 6 3 3 c b b l S / 8X8X! E / 9XeXeX0X/ n 6 : 9 c v n n b c 6 3 $ : 9 c b B b 9 9 3 $ : 3 3 3 3 3 $ $ $ $ 3 c S S h 3 : 3 6 6 6 3 3 3 : 3 6 6 9 h 6 6 c S D B 9 6 6 6 h n D R W E G v 6 + + 6 n S B n c 6 : # # 3 h v b 6 3 $ : 6 c n n c h h h 9 6 6 3 3 6 6 c B P W / W E B 6 $ 3 6 6 6 3 3 6 h 9 6 6 3 3 3 3 6 9 h 6 # + + : 9 v n n b c 3 + + $ 6 c b n n c 9 : @ # + # $ 3 6 6 3 6 3 3 3 3 6 6 9 6 6 6 6 3 3 : 3 6 c c c 9 6 3 $ : # $ : 3 6 3 : 3 6 6 c n n c 9 6 6 3 6 6 6 3 3 5 9 9 9 9 n ! 8X7XW D c 9 3 + $ 9 P ! W D b 6 # @ 3 3 6 6 3 3 3 # @ + @ $ # + + $ 9 h 6 # $ v F P F F c : : $ : h n S S n n n B D F P B 6 3 3 $ 3 3 6 9 b n b c 9 6 : : 6 6 : $ 3 $ $ $ $ : 6 n S E / P c 6 $ + + # $ : $ $ 3 6 6 6 3 3 3 3 : : 3 6 6 6 6 9 b S F W W R B c 9 6 3 3 3 3 3 6 6 6 6 3 : 3 6 3 $ $ 3 h v S D n 3 + X # $ 6 6 6 3 6 6 9 9 9 6 3 : 3 3 3 : 6 6 6 $ $ : 9 c c 9 6 6 3 6 c c b b b c 9 3 3 6 c n c 6 3 : 6 c b n B c 6 9 9 9 6 6 3 : $ $ $ $ $ : $ $ $ : 3 6 h h 9 6 3 $ # @ $ 3 6 3 $ @   # c R ( 7X_ E v 6 3 6 h c c 9 6 3 : 3 : $ # $ 3 3 3 3 3 3 : $ # @ > 3 9 h l 9 $ @ # 6 9 9 9 9 : $ 6 b P 7XeX) D h $ + # 6 c b n b 9 $ @ + @ $ $ : : 3 6 h B P W W S 6 + . X : n D R G S h 3 $ 3 : : 3 3 7 c n D G B 9 3 $ @ @ @ : : $ : # + + + + 3 6 6 6 3 # + @ 6 n G _ 7X/ b 3 $ 3 9 b S S B n 9 $ $ # # $ 3 3 6 6 6 6 3 3 $ $ $ 3 6 6 3 3 : : 3 6 3 : : 3 6 6 8 9 6 3 : 6 c n S D S n c c c b b b n S D D S n h 3 3 9 c c 6 6 6 6 3 # # : $ 6 9 h b S S B 9 3 $ : 3 : 3 6 6 6 6 3 3 6 9 v b v h 6 3 $ $ : 6 9 b n n b c 6 3 $ : 3 3 3 3 : 3 : 3 : : 6 6 6 3 6 6 6 6 : : 3 h h l c h h h c n n c 3 $ $ 3 9 B B v 3 $ # @ + + # 3 6 h h 9 6 3 3 3 3 3 3 3 6 6 6 6 6 3 # + @ $ $ 3 6 9 9 h h c c 6 3 9 S F G n n B G D c 9 n ( 3X) E B 9 3 $ $ $ $ $ $ # + # 9 n F E W Q G n 3 + + : $ + + $ n D W ( / E D c 3 : # @ $ : 3 3 $ $ 6 h v n n c 3 : $ : 3 3 6 7 7 6 : $ > : 6 b S P W ! E n 6 3 6 6 c b c 9 6 3 6 $ $ : $ # : 6 v n c 6 9 n S S 6 $ $ 3 3 # + @ ",
"$ 3 6 9 9 3 # + $ $ 3 6 6 3 : 3 6 6 9 6 6 6 c n D S c 3 : 6 b G G W / ! R c + + # 3 v S S n 9 3 $ $ 3 9 c n n c 3 : : 3 6 9 9 6 6 3 3 6 6 6 3 : $ 6 v G ! 7X8X) G B c 6 3 6 9 6 6 6 9 c v 9 9 9 9 h h 9 h 9 6 : + + + $ 6 c b v 6 : $ # $ 3 6 h h c 6 : : 3 : $ $ $ 3 9 c 6 3 : 3 6 3 3 6 6 6 9 6 6 6 6 6 3 6 6 9 h 9 3 3 3 3 : $ # @ $ 3 3 6 h c c v c 9 6 6 6 : : : : 6 9 c c 9 9 v P ( 0XqX) n : + # 6 9 n G W W B #   @ 3 6 9 h c h 9 6 3 3 $ $ 3 3 : 6 6 : : $ 6 c B P E F n 9 3 $ : 6 b n D D D S D P R F h 3 $ 3 , $ $ : 9 c c 9 h b B B c 6 6 9 c c h 6 3 : 3 3 x G ! W D b 3 @ + @ $ $ 6 6 6 6 3 3 6 6 3 3 3 : : 3 3 3 3 6 v D G P F G S n c 9 6 6 3 3 6 6 6 3 3 3 : 3 $ 3 : $ : 3 9 v D S n 6 $ $ $ # # # : 6 9 c c h 6 6 6 6 6 6 6 3 6 3 $ $ : 9 n S S n c 9 h c b b c v c 9 6 6 6 9 G D v 6 : 6 9 c n B n 9 6 9 9 9 6 6 3 : $ # # + @ # $ $ $ 6 9 c n b 9 $ # # $ 3 9 9 9 9 6 @ + : D R / ! R n 6 6 6 6 6 6 6 6 3 3 6 3 $ # # # $ 3 3 6 3 : $ @ + + : 3 6 6 6 : @ + 3 3 9 h 6 $ # $ c S W 7X) R c - # # 3 9 c n b h 3 $ # $ $ $ 3 6 9 h b n S D B v $ + X + $ 9 n n n v 9 3 $ $ : 6 9 9 h 9 9 n D D n c 6 $ + # : 3 3 3 # + + @ $ 3 9 h h 6 3 $ $ 3 c G / 7X) G 6 $ # 6 c n n n c 9 3 $ @ + $ 6 h b c 9 6 6 $ @ # $ 6 6 6 6 3 : : 3 3 6 6 3 3 6 6 9 6 6 3 : 6 n F E R P D n c 6 3 6 9 c n n n n c 6 3 : 3 9 h 6 3 3 6 6 3 3 $ $ $ 3 c b n n v 6 3 $ 3 3 6 6 6 3 : # : 3 9 v n b h 6 3 3 : $ : $ $ 6 $ 6 6 6 6 3 3 6 6 : $ $ $ : 3 3 6 6 6 9 h 6 3 3 6 9 6 $ : 9 h 9 3 3 9 b n c 9 6 $ # 3 c n S n c $ + + + + + # $ 3 3 6 6 9 c n b h 6 3 6 6 9 9 9 6 3 $ # @ # $ 3 3 6 h c h 9 6 6 9 h c B C S D S n n n b G ( ) ! n 6 3 9 h c v c 6 $ # : 6 n F R W E P S v 3 @ + $ $ @ + 6 D W ( / ! R S c $ X + 6 c v c 9 6 3 6 h 9 9 6 3 3 6 9 6 9 6 3 3 : $ $ $ : 6 9 c b n b v 9 3 3 3 h b v 6 3 3 6 9 h 9 $ + X # 9 v c c b n B n c 6 : @ @ @ # 3 6 b D F G v 9 9 9 6 6 6 : : 3 3 3 3 3 : $ $ $ $ # $ $ : 3 $ $ : 3 3 $ 3 6 D G F n c c n B S S B n v 9 3 : 3 3 6 h c 6 $ $ c c c 9 9 c v c 9 3 $ $ : $ $ $ 6 9 6 6 6 9 9 9 6 6 $ $ $ $ 3 6 c n G ! _ ) / R c 3 # # $ 9 n B S b 9 3 $ $ 3 3 9 6 3 $ # $ 6 h S G P D n h 6 3 6 6 : # # $ $ : 6 h c 6 3 3 : : + @ $ 6 h v b b 9 6 3 6 9 h c v n n c 9 6 6 6 6 6 6 6 6 6 6 6 6 3 3 6 6 9 v B G G F S c 6 : $ $ 6 c b x 9 6 $ # + + + + # # $ 6 6 h c c v n n v 6 3 $ @ + @ : 3 9 c n b c v b c n b 9 : # # # $ 3 6 9 c c 9 6 3 $ # @ @ > 3 7 h 3 3 , : : : 9 n _ 9XrXeX) G 6 @ @ : h n S D D n b n G / _ / W R F B h 3 3 6 6 3 6 3 $ @ # $ $ # ",
"h v B G F S b c n b c 9 6 3 3 3 6 6 6 3 3 3 3 3 3 6 3 $ 3 9 c b n n n c 9 3 + + @ : 6 c n n v 9 3 : 3 6 6 6 3 $ $ : 3 6 b D G G v h h c c h h h 9 9 6 6 9 n S S G S h $ $ 6 v n 9 9 9 9 9 9 6 3 : $ $ # $ $ # $ + @ # 1 9 n S D v 9 $ + @ 3 c n G S c 3 @ + $ h D F S h 3 3 3 6 3 6 6 6 6 6 6 6 # @ @ # : 3 6 9 6 6 3 @ + @ # $ 6 9 6 $ @ $ : 3 h b v 9 6 3 6 h G R R D b 6 # # 6 h n S B n n h 3 # $ 3 6 6 9 b n S B v c 6 : $ + + # 3 6 6 6 3 6 $ @ @ $ 6 9 h 6 6 6 6 h S F D c 3 $ # @ 3 6 3 : $ $ $ 3 c n c v c 9 6 : $ 6 n E / ! G n 6 # @ 6 c c c c 6 @ + + @ $ 3 8 b S n n c 3 @ @ @ # : : $ 3 6 3 3 6 3 6 6 3 3 3 3 6 6 3 6 9 c D W / ! F B c 6 6 6 6 6 9 h 9 6 6 6 6 3 6 6 6 3 3 3 3 6 c h 6 $ # 3 9 v b c 9 3 $ 3 6 3 3 : : : : : 3 6 v b c 9 6 : $ $ 3 1 3 $ @ $ 3 6 6 6 9 h 9 6 6 3 # $ : 3 3 : 3 6 h b c 6 3 6 6 6 3 3 3 6 6 3 : : 9 9 9 9 6 6 3 3 6 9 c c 9 3 @ + + # # + + + # : 6 v G R P n 9 6 6 9 h c c 9 6 6 @ @ @ $ : 3 6 6 9 9 6 6 3 3 6 9 h b B S B n c c 9 n G W E n 9 6 9 n G R G n 6 - # # 5 n F P P F b 9 3 + + + @ # @ $ v R / ( / R B 9 @ X @ h D R S n c 6 3 3 6 6 6 3 6 9 v n n n 6 : $ : $ $ 3 : 6 3 3 3 3 : $ 3 6 6 6 h 6 : $ $ c n n n c $   # 6 v v v b B B n 9 6 $ # @ @ @ # 6 9 n G D b 6 : 3 3 : : : $ $ : : : : : $ $ $ $ $ $ $ $ $ $ : : $ 3 6 6 c S F G S B n n B D D S b 9 6 3 6 6 6 6 9 6 6 : 3 9 v n h v n S n h 3 # $ $ 3 6 6 6 9 9 6 6 6 6 6 9 h 6 $ $ # 3 9 b D R 3X7X/ R n 6 $ # : 6 c b n b 9 3 # @ : 9 9 6 6 : $ 3 3 3 h S G F B c 9 6 9 6 6 3 : $ $ 3 3 6 6 6 3 $ $ $ $ # $ : c n n n c 9 3 $ $ 3 9 b n b c h 3 : $ : 3 : 3 6 6 9 9 6 6 6 9 9 v b S F D n c 6 6 3 6 9 b B S S v 6 : : # + + + @ + # $ : 6 c v n n n c 9 3 $ # @ $ $ 3 c S G R S n v b c 9 6 6 @ # # $ 3 6 9 h b n v 9 3 $ @ + : 6 6 9 9 6 3 3 $ # 9 D / rXuXuX) P h # + : c n R G n 6 3 c D F G F F F S h 3 : 6 9 9 6 6 3 : 3 # $ 6 c b n c 3 @ + $ n E 0XuXuXrX7XP 6 @ # $ $ # $ : : 6 9 h 9 9 9 c b v h 9 9 c c 9 9 n E / / E F n v c c h c : $ # $ : $ $ 6 3 6 6 6 6 6 6 6 6 6 6 3 $ $ : 3 3 9 h 6 9 h 9 6 3 : $ $ $ $ $ 3 h c v b c 9 3 $ $ # $ : 3 3 6 6 3 : $ $ : 3 6 $ $ @ @ @ + @ $ $ 9 6 3 @ $ c Y / 3X) ! D 9 + + $ n G W W P n 6 @ $ # @ @ # # # # $ $ $ $ $ : 3 6 c v c 6 6 9 c c 9 h n D E / ) 7X/ W S 9 3 6 v n D G P F S v 6 3 6 6 6 $ # $ $ $ # $ $ 3 6 9 c n S S S v v n n v 6 3 6 n D D S B 7 #   X + : h n S n 9 #   X @ $ $ : 3 3 3 $ $ 3 7 6 6 6 6 3 3 : 3 > > 6 9 6 9 h 9 9 h 9 9 6 6 : @ $ 3 h n F R F h 6 9 n G / 3X3XW G n 9 3 $ @ # $ 3 3 $ # $ $ $ ",
"$ 3 c G E ! ! ! S n 9 $ $ 3 6 6 : 3 3 6 6 6 3 3 6 3 : : 3 9 c n n v 6 @ + 3 h h 9 9 6 : 3 3 6 6 6 3 3 : 3 6 9 c 9 6 3 $ $ 3 6 6 3 $ $ $ $ 3 9 c c v c 9 6 3 3 6 6 6 3 # $ 6 c b c c c h 9 9 9 6 6 6 3 3 3 # # : 3 6 3 $ $ 3 6 9 c c h 6 : # + X + + @ # @ + 3 c W ) ) E S v 6 $ c n v 9 6 6 3 : 1 $ $ $ : 3 6 6 6 9 3 $ # $ : 3 c c c b c 3 3 9 n S B c 9 6 6 c P / ) / R c @ + : 9 b B B S n 9 $ + # $ $ # @ $ 6 n R ) 3XW n c $ + + 3 v G W W v 6 : 6 6 3 : 3 : 6 v S S n c 6 $ @ # $ $ : 6 3 $ # @ @ @ # 3 6 6 6 $ $ $ : 9 B ! W G 9 $ # : 9 c n B n n c 6 6 : @ # 3 3 $ : 3 9 c 9 6 6 $ # 3 3 : : : : 3 3 3 $ $ $ : : : $ $ # $ : 3 9 c h 6 6 6 9 n D D G G D D D D S v 9 6 6 6 6 3 3 6 6 9 # # 3 9 c c c n S B v 6 $ $ $ $ 6 6 6 6 6 : : 3 6 c b b v 9 3 3 : 3 9 n G W W W G n 9 $ # $ : 3 c c h 9 6 : 3 6 c c h 6 6 3 : $ $ 3 c S D n c c h 9 9 h 9 : # # : 3 6 9 9 3 $ # + # @ + : h n n v 9 3 $ $ $ : 6 6 9 h 9 6 3 : $ : : : 3 3 6 6 9 h h 9 6 6 9 b S S D B b c c c b c n F W W S 6 # # # +     + + % % - 9 n D P P D b 9 : @ + @ $ $ # 3 B W W R D B c 9 6 : @ + + + + # 3 6 c n S B c 6 $ # # : 6 6 9 9 3 $ : $ $ 9 n R 7XrXeX( D c : $ 6 v n S S n 3 3 3 9 v c h v B n c 6 3 h b n h 6 6 3 $ $ : 3 b S S n b 6 : 6 v G ! ) ) / G n c 3 # $ : $ $ : : 3 3 6 6 6 6 6 9 c h 6 9 v v c 6 h S E W G S n b b c 6 3 : : $ : 3 : $ 3 6 9 6 6 3 3 6 6 6 6 3 : $ $ $ $ : 3 3 9 9 h 9 6 3 $ + # # $ 3 6 9 c n c n n c 9 3 + + # 3 6 9 c 9 6 3 : $ # # # # $ $ + @ $ 6 h c c h 3 6 c S G R D n 3 @ + $ c G E W G b 6 $ + + $ 3 @ 3 6 6 6 6 3 3 3 3 9 c b b c 9 6 6 6 9 9 9 9 h S G P P G B v 9 3 6 b F R E R G v h 9 3 $ $ : : 3 3 : $ $ $ $ # 9 h b n n B S S B B B n v 6 $ : h c c h 6 $ + + X $ b F F n 9 $ # # + + $ 3 6 9 3 3 : # # $ 3 3 6 6 9 9 6 3 : 3 @ $ 6 c n D D B n h 3 # + @ 6 c n D S c 9 n P ! 7X9X9X3X/ R n h $ $ $ 3 6 3 : $ 6 3 3 6 3 : @ X . . # c R 8XrXyXeX_ D 6 + + @ $ $ : 3 3 c S F F n c h 6 6 6 6 3 6 6 6 6 9 c h 6 3 6 n P E D h 3 3 6 h c c 6 + + # $ $ $ 3 9 b n n b c 6 3 6 b S ( ( W B 6 : # + $ $ 3 6 6 : $ : : 9 n D S c 6 : @ $ 3 6 9 9 6 6 $ $ : 6 v G P D 6 + + # 6 b D G S n h 6 6 l B S R W _ 3X/ D 9 6 3 6 6 3 3 : $ $ # $ $ $ : $ $ $ @ @ # $ $ $ 6 h B D G S n n c 6 6 9 c n D R W W W P n 3 $ : 6 9 b n n b 9 : $ 3 6 u c t 9 6 3 : : $ # @ # $ $ 3 6 6 $ + + # 3 3 6 9 9 c B R W G 9 $ $ 6 6 $ + + + @ # # # : 3 3 1 6 3 3 3 # # 3 B R ) 0X8X( P n : , b W 0XrXeX9XW S 6 $ + @ $ : 3 3 6 9 n G R G v 6 $ $ $ 9 v h 6 : $ $ # @ # 3 9 c c 6 6 4 3 3 ",
"@ : h B D S n c v c 9 h b S G G G D A n c 6 6 3 9 9 6 6 6 3 : $ # + $ 6 h c n n n b 9 : $ $ $ 3 6 6 6 3 3 3 6 6 c b n b c 6 $ @ $ 3 h n n B n v 6 3 : : 3 3 3 6 3 6 6 3 : 3 3 6 9 6 6 : $ # $ 3 # : 6 b n c 9 9 n n c 6 : $ $ : c v c 6 : # + + + $ $ : 6 c c c 3 3 : 3 3 : $ 3 3 6 6 6 3 : $ @ @ $ 3 6 9 h c c c c 9 6 9 b D P n n B D S c 9 n / _ / R D c $ # @ # + + @ + + : h n D R W W G n 6 + # 3 3 + + 3 n R / ( / E S c 3 # + + @ $ : @ $ 3 6 h c v c c 6 3 $ $ $ $ 3 6 3 3 $ $ $ 3 h B R ! / W G c $ $ h v n n n 9 3 6 # 3 $ # $ 6 c v c c c b n n n b 6 $ + + # 6 b S G F S v h 6 9 b B G D n v 9 3 3 $ $ $ $ $ $ $ $ : 3 6 6 6 6 6 3 $ 3 9 b n c 9 9 n B S D B n v c 6 3 $ # $ 6 6 6 $ $ 3 h c 6 6 6 3 6 6 6 3 : $ : $ # $ 3 3 6 9 c c c 6 $ @ + + $ : 6 9 c v B G R E F n 6 $ # : 6 c v n v h 6 # @ + # $ 3 3 $ @ $ 3 6 b D D b 6 6 9 9 c c 9 : # $ $ 3 h B D n c 9 6 $ @ # $ : 3 6 h h 9 6 3 3 3 6 n n n n v h 9 9 6 6 6 9 9 h c v c c h 6 3 3 6 c G W ! W R n 6 $ $ # $ 6 9 6 3 3 $ # # @ # 3 6 6 c v c 9 h n n n S n 9 3 : 3 6 6 6 6 6 6 3 $ $ 9 G G D b 6 $ + + # $ 6 6 9 6 6 3 $ $ : $ $ : 6 6 6 9 6 3 $ + # 6 n F W / W F v 3 # + $ 6 c S G n h h B E ) 0X0X7X/ E D v 6 3 $ $ 3 3 : : $ : 6 9 3 3 $ # + . . $ n W rXpXpXuX8XW 6 # + @ $ # $ : 9 c n S S n v c c 9 6 6 6 3 6 9 n B D F S c c n G G n 6 $ 6 h c 6 6 3 $ $ : : : 3 6 9 n n n c 9 : $ 6 b D R R F v 6 $ # $ 3 6 6 6 3 $ # : h n D S n 6 # @ # : 6 3 6 6 3 : @ + $ 9 b B B b 3 + X # 3 c n n c 6 : 3 9 D / 8XeXeX9XW D c : $ 9 c c 9 3 : : $ $ $ # 3 3 $ # $ $ # $ # $ 3 6 c n B B c h 9 9 9 h b B R / 8XqX9X( G n 6 : , h b n n v n v 9 3 3 9 c 9 3 3 : 3 3 $ @ $ $ 3 6 6 9 c v h 6 $ 3 c v 6 6 v F E R B c 6 $ + + + + # @ + @ # $ $ $ $ : 3 3 6 3 3 6 6 v G E W P D c 3 $ 3 h S / 7X7X/ F c : $ : : : : $ $ 3 h W ! W P n : + $ n D G S n 9 $ + + + @ 3 9 v n n 3 @ + + # 6 B R ! ! P v 6 : $ 3 @ $ 3 9 b n n v v h 6 6 6 9 9 9 9 6 6 h c c v c h 6 : @ + + @ : 6 9 b S n 6 $ $ $ : : : : $ $ 3 9 h c c c c c c h 6 3 3 3 6 9 c n B n v h 9 9 h 9 h c 9 6 $ + @ 6 9 h h 9 3 # # $ $ # # : 6 6 6 : $ : 3 6 c c 9 # + $ 9 b S D B n c 6 3 3 3 6 7 # @ # 3 h c b B D G D S b 9 : $ 6 h b n b h 9 6 6 3 3 6 6 9 c v h h h 9 9 9 9 9 6 6 6 3 3 3 : $ $ @ $ 3 : # 3 h P R D h 3 $ $ $ 6 6 3 $ # $ $ 3 3 6 3 3 3 3 3 3 3 $ # + + + $ 3 h b n c c S F D B n n v v n n n c 9 : @ # 3 9 h c c 6 3 $ @ @ 3 : h S G P S b h 3 6 l n B S n c 9 3 3 3 3 3 6 6 : $ $ 3 6 6 6 6 c 6 6 : # : 6 : # + X + : h B F G S v 6 3 6 6 6 ",
"3 : $ $ : 3 6 6 : 3 c S D b h c c v n S S n h 6 $ $ $ : 3 9 h 9 6 3 6 c c 6 6 9 c c 9 3 3 $ $ 6 $ : 3 6 9 9 6 6 9 6 6 : # # $ : 3 9 b D R / ( / R S 9 : @ $ 6 9 B n n h 6 : $ $ 3 3 3 3 $ # # : b S F P D c 3 3 : 6 6 6 : @ + $ 3 6 h c 9 6 3 : $ : $ $ 3 9 c c h 6 3 6 6 6 h b n n n c 9 6 3 3 3 6 6 6 6 6 6 6 3 6 3 3 6 c n S W W G b 6 3 : $ $ 6 9 9 9 6 $ # $ $ # # : 3 3 6 3 9 9 9 c b B B v 6 $ # + + + 3 c n v 9 9 c v c v c 9 = + # $ $ 3 9 c c v 9 : @ + + + # 3 9 c h 6 3 $ $ 3 6 c D ) 9X9X_ R c +   + 6 B R R S v c G E W ! / / W P n 9 6 6 3 6 6 : 3 3 3 3 3 6 6 6 6 3 + .   3 S ! rXpXgXpXrXW 9 # # # # # $ : 6 9 n n n v c h c c 6 6 3 6 6 9 n G ! ! E D n S D n b h 6 3 : 6 6 3 3 : : : 3 3 3 3 c b n b c 3 $ $ 9 h n S B v 9 6 $ 3 3 3 6 6 3 3 @ # 3 c n S n c $ # @ @ # $ : 6 6 6 $ + @ : 6 9 c c 6 $ + + @ : 6 9 6 3 $ # 3 c E ) eXrXqX( D 6 + @ 6 n D S b h $ # # $ # $ $ $ # $ $ # # @ # 3 3 8 c n b c 6 6 c c c c n P / 7XrXeX8X/ G h 3 : 6 c b n n n b b 6 6 6 6 6 3 $ $ $ $ # # $ 3 6 6 9 c b n n c 9 h 9 c 9 3 9 D W W S b 3 + + + + 1 6 6 6 3 $ # + + + # $ 3 3 - 3 3 6 u n B S n v 6 3 @ : 9 v S G F D n h 3 $ 6 6 6 # @ $ 3 h G / W F v 6 3 6 D / ( W G n c 6 @ + + : 3 6 9 9 6 $ + # + 3 c v b b 9 6 6 9 v b h 6 3 9 9 6 6 6 6 6 9 6 9 c n n c 6 6 3 6 h c v h 6 6 + + + + + : 6 c B n h $ @ 3 6 6 6 3 $ $ $ 3 6 9 9 9 h c v c 9 6 6 3 9 b S G P G c 6 3 3 3 3 6 6 1 $ # + + 3 9 9 v h 6 $ @ @ $ $ 3 6 9 9 6 : # $ 9 n n b c : + $ 6 b D G D S b 9 3 # @ $ $ $ 3 6 S D D n n S S B h 6 : $ : 6 9 9 6 9 6 6 3 : $ $ 6 9 c b b n n n n v c h 9 6 3 6 3 3 3 : : 3 : $ X + 6 n G R G S 3 + + 3 6 6 6 9 3 3 : 3 3 : $ 3 3 : : : $ : $ +   + : c b h 6 9 n D D S S B n n c 9 9 c 9 : @ # : 6 9 h c 9 6 3 : # + @ 6 D ! ) _ W D c 6 6 c S W / ! P S 9 : 3 3 3 6 6 3 $ # : $ 6 h v v 6 $ : : 3 3 3 $ + + $ $ 6 b D G S b 9 h 6 3 6 3 6 c S 3XqX9X_ E b $ + $ : 3 3 c D E E G n 9 3 : : 3 6 3 9 G ) 3XE b 6 # + + @ : : 3 6 3 6 v n b 6 $ # 3 : $ $ @ # $ : 6 3 : : 3 6 c n b b v c 9 6 : $ @ $ : 6 9 h x b B B n c 6 3 3 9 n n n c h h v B R E R S v 6 3 : h 9 c c 9 : # @ 6 6 c n B S S n c 9 9 c c b V S E W W R B 6 + @ 6 h v b h 3 $ $ 6 9 b n n c 9 6 6 6 6 9 6 3 : $ 9 h c v c 9 6 6 3 6 6 3 6 9 9 6 6 6 6 6 6 $ $ 3 $ 6 6 : 6 c v c 6 6 6 6 9 6 : $ 3 6 6 3 3 : $ $ $ $ % + + + $ $ $ $ $ # # $ 3 6 3 9 n G E R D b 6 : # @ $ : : 3 + + + # $ : : 6 6 3 : $ $ : 3 7 c c 9 3 $ $ $ # $ 3 3 3 6 6 3 # @ $ c D G G D S B B n v 9 6 3 $ $ # +   @ 9 D E W E D 6 # $ 3 $ ",
"c c c c c c c c 9 6 6 9 9 c B P ) _ W D b b n n 6 : : 3 3 3 : # 3 3 3 6 6 6 6 6 9 c h 9 6 $ @ $ 6 9 9 9 h 9 6 6 : : 3 3 3 $ $ $ 3 6 c n n b 9 3 3 $ # @ + $ 6 6 6 3 : $ $ : 3 : : > # + + + # $ 3 6 $ + + 3 b F ( 7X7X/ P 9 @ + 6 v G E R S 9 : @ + @ $ $ @ @ $ $ 3 : $ $ $ 3 6 h c 9 6 6 6 9 c 9 c n S P ! ) 8X0X) G c 3 3 9 n n D P R F b 6 6 6 6 6 3 - $ $ # + @ $ : 3 6 c n B S B n n n b c 6 6 6 9 n G G n - + .   + $ 9 n v c 6 +   X + $ : $ $ 3 6 : $ 3 h c c 9 6 9 6 3 : : 3 9 c c c c 6 6 6 6 6 6 $ # @ $ 6 n G F D B 6 6 n R ! ) ) / E n 6 $ + @ 3 6 3 3 3 3 : # $ 3 3 3 1 $ + @ 3 9 G R E P S 9 : $ $ : 3 3 3 3 6 h S S B n c 9 6 3 9 9 h c 9 6 : : $ $ $ # 3 b D S 9 3 : 6 6 6 9 9 $ $ $ $ $ 3 3 6 9 h c c h 6 6 6 9 B E / / P v 3 : $ $ $ : 3 : # # # 3 9 c b n n 6 $ @ @ $ 3 6 9 h 6 : @ $ 6 v S G S 9 +   $ 9 n D G G n c 6 $ 3 3 6 9 h n R W E S v c c 9 6 3 $ $ : 6 6 6 6 6 : : $ # # $ 3 3 6 c n S F G S n v 6 6 9 9 9 9 9 9 9 h h 9 6 $ @ $ c B F G D c $ + : 6 h c c 6 3 $ 3 3 3 : $ $ # # : : $ $ $ +   + 3 9 9 6 9 S G G G D n n b h 6 3 $ = # + # $ 3 6 c 9 6 6 3 $ $ $ $ 9 G ) 9X9X) W v 6 9 n P ) 9X8X7XW B 6 $ : 3 : 6 : $ $ $ 6 c v n v 9 3 $ 3 6 : 3 # + X + @ 3 h n B S S n h 3 # + # 9 S / rXaXuX/ G 9 $ + + # 6 9 n P E E G n 9 3 $ $ $ 3 9 n G / ( R c 3 : # + # @ @ $ 6 c b b b v 9 $ # $ : : # # $ : 3 6 9 h 6 9 h v v h 6 6 6 3 3 3 : 3 6 6 9 9 c v n n S B v 9 6 3 6 c n n 6 3 6 9 c n n b 9 3 $ $ : 6 9 9 6 6 3 $ : : 3 9 S D G S n b c 6 b b n S D D D S c 6 : $ 3 b S B c 9 3 3 6 b D G B b h 6 6 6 6 9 6 6 3 3 3 9 c c 6 6 6 9 9 6 3 3 6 6 6 6 3 3 3 3 3 : $ : : 3 6 3 9 6 6 6 6 6 6 6 3 3 3 3 6 6 6 6 3 3 3 6 6 3 : # @ $ $ $ 3 3 : : 3 3 3 6 9 h b D R R F B v 6 @ + # : 3 3 3 : # + $ $ $ $ $ 3 3 : $ : 3 6 6 6 6 6 3 $ @ # $ 3 3 6 6 6 : $ : 3 9 n D G S c c b b c 6 3 3 6 : + + @ 6 9 S E E G B h 6 : 3 9 6 : $ $ 3 6 3 $ 3 3 3 6 $ 3 6 6 9 c c h 6 6 6 3 3 3 6 6 6 6 6 9 9 3 $ $ : 3 6 9 9 6 3 6 6 9 c b n b h 6 $ $ : 6 6 h h 6 # + + + @ 3 9 c S D S n n S F Y G n 9 $ +   X @ + @ @ + X + @ $ 6 9 6 3 6 h B R / 3X) E S c 6 6 9 9 9 6 6 3 6 9 c c h 9 6 3 : $ $ $ : 3 3 3 3 6 9 c n S B h : # @ # : 3 3 # + $ 3 6 9 x h 9 9 9 c n n B n c 9 9 9 9 9 9 9 6 6 9 6 6 3 $ $ : 3 : 3 6 9 c n S B n S n c 6 6 6 9 9 6 6 6 9 c h c v h c 6 $ # # $ 3 3 3 # + $ c S F R D h @ + 6 b n v c n D G S v 9 $ # # $ 1 $ @ @ 3 6 n D D B c 6 6 3 3 6 6 6 3 6 6 9 c c c 6 6 6 $ 3 3 3 6 h 9 6 : $ 3 6 h v B S D D v 3 @ + + @ $ : : $ $ 6 b B G P D v 3 $ @ + ",
"P F S b 9 6 6 6 6 9 6 6 6 9 h h 3 6 6 3 c D G S 6 # $ 9 c 6 3 3 # $ $ $ 3 3 3 6 c n v h 9 3 : 9 G E / W R b 3 $ $ $ 1 3 3 3 : $ @ $ 9 n D S n c : + + # $ 6 c 9 6 $ # # 3 n P P B c : + + 6 n D G F n 9 6 9 l b n G W ( ) E B n 9 6 3 3 3 $ # $ $ : $ $ 3 3 $ $ $ # @ $ : : 6 9 b B D F D n 9 6 6 9 h c n D G P P G b 6 $ $ 3 9 B S S n h 6 3 3 9 9 9 6 3 3 3 $ 3 $ # @ @ $ 3 3 6 6 $ # # $ 3 6 6 6 c v B G R G c 6 6 9 6 $ +   + # # # 4 6 6 6 6 6 6 3 $ @ $ h G / 0X9X7XE n 9 3 9 F 7XeXrXqX( D 6 $ $ # $ 4 $ $ $ 6 n B S S n 9 $ # : : 6 9 6 $ @ @ $ $ $ 3 9 n B n h 3 @ + + 6 B _ rXuXrX( F 3 X . + $ 6 n S P R R G n 9 6 3 3 6 6 6 h S G R S n 9 6 : # @ @ # # 3 6 c n S b 6 # # 3 3 $ # # : : 6 c c h h v b n v 9 6 3 : 3 6 6 9 9 9 c c c h 9 c n n B n c $ @ $ 6 c 9 6 : $ : 6 9 6 3 $ $ $ 3 3 3 3 : : 3 3 3 $ $ 3 c n S S S v 6 6 9 9 v c v c 9 6 9 9 6 6 6 v G G B c 6 3 $ 6 n n n n b h 9 6 3 3 3 6 6 6 6 6 6 6 6 6 6 h 9 6 3 : 3 3 3 3 3 : : : $ $ 3 3 6 h c h 6 $ : 3 3 3 : 3 3 6 3 $ : 6 6 9 6 3 $ 3 3 # @ # + + : 6 9 9 6 6 9 c c c c n S B S G D G S 9 # + + $ 6 6 6 6 3 $ # # + # # 3 6 6 6 6 6 6 9 9 6 6 6 6 6 : $ 3 6 6 6 6 3 # @ : 9 c c c v h c 9 6 6 6 6 6 3 3 # + + 3 b S E R D c 3 3 6 6 c v 9 $ 3 h n n c 9 6 6 6 3 : : : 3 9 n n v 9 6 3 3 3 3 3 : 6 c S S v $ + $ 6 6 3 3 6 9 6 6 6 h n n c 6 : # # $ 6 6 6 3 $ $ @ + + @ 3 9 v n n S n b b v h 6 3 $ $ $ # @ $ 3 6 $ + X + : 9 v b c h 6 n R ( 9XeX8XE S c 6 9 v n c 6 3 : 3 6 9 c v c h 6 6 3 : 3 6 3 6 6 6 c G W E D b 6 @ + @ 3 3 6 3 $ @ # 6 h h c 6 6 9 c b n v n c 6 6 6 c b c h 6 6 6 6 3 3 3 3 6 3 3 3 6 9 c c b n n b v c 9 9 9 9 9 6 9 h 9 9 6 6 6 6 3 : $ # $ : 6 3 3 $ # + + 6 n S 9 $ $ : 6 h h c v B D E W S $ + # $ 3 : $ # + $ 3 9 c 9 9 6 6 6 3 6 6 6 6 6 6 h c c h 9 3 3 3 : : 6 3 3 6 3 $ $ $ 3 9 n S D D S S n c : + + @ # # # + @ 3 n W ( / E D 6 +   X + $ 3 6 9 c n S n c 6 $ $ $ 6 v n n c c 3 $ + + 3 S ! 8XeXqX_ D v c c c n b v h 6 $ # # : 3 6 9 b S D S h 3 : 6 9 n B b 3 $ @ # 6 n R / ( ( W F F E ! W R G v 3 # + # 3 c b v 9 6 3 $ $ $ 3 $ + @ # # $ $ 6 3 : 6 6 3 : @ @ + + $ h n n 6 3 $ @ # # # # $ $ : 3 6 6 6 6 3 $ @ @ $ $ $ : : 3 6 c n h 6 3 : : 3 6 h b B S n b c h 9 9 6 6 6 9 9 9 9 h c v B n c 6 3 : $ $ # # : 6 6 3 : 3 3 6 6 3 3 3 3 3 6 3 3 3 9 b F ! 8X7X( P n 6 @ + + @ # # 6 D W W R D n c 6 3 3 3 6 9 b B S S S B h 6 : $ $ + + $ 3 9 B P E E R D 6 : # $ 3 3 6 h v n n B n 6 # $ 9 n S S S c 6 6 3 : : $ $ 3 6 9 9 9 : + @ $ 6 v n S G G G G n c 6 : 3 9 h 6 3 $ ",
"9 h 9 9 c v n n v v h 6 3 3 $ @ + + 3 v n n v 9 3 # $ : $ # $ $ 3 6 9 h c h c v v c 9 6 : : 3 6 9 b n B B v 6 6 6 9 c c c h 6 : # : 3 9 c 6 $ $ # # $ $ $ $ $ : 3 6 3 # $ 6 9 6 6 : $ $ 6 c n S b 9 6 6 6 6 9 6 3 3 $ : 6 9 c n b n S F B h 3 , 6 h b n b b h 7 6 3 3 : 6 9 c c 6 9 9 9 9 6 6 6 6 6 6 6 3 3 : $ $ $ $ : : + @ 6 S G S c 6 $ # # 3 3 3 3 3 : : 3 : 3 6 6 6 3 3 : 3 $ # + + + = 6 b b c 9 9 n S D n B B n B D D B c 6 $ @ @ 3 h 9 9 6 3 $ # # $ # 3 9 n D S n c 6 6 9 c n B b 9 6 6 3 6 6 $ 3 3 $ $ $ 3 8 9 9 h c 6 6 3 : 3 9 6 3 @ + + $ 9 S R R S b h 6 6 h c h 9 9 v D P R F S 9 : # : : # # 6 v S D B n c 6 3 3 3 $ $ 9 D E E S 9 : # + @ : 3 6 c c 9 9 b n c 6 6 : $ $ : 3 3 $ 3 $ # # @ + # 6 6 b S S n b 9 3 $ # # $ : : , 3 6 9 h 9 3 $ $ @ $ h S D b h c D R _ 8X8X/ P n 6 3 6 v n v 9 6 $ @ : h n v v b 9 9 9 9 9 9 9 9 9 v F W ! W D c : # # 3 6 6 6 3 # # 3 9 c h 9 6 6 9 h h c v c 9 $ : 6 b n c 9 6 6 6 6 3 3 3 3 3 6 6 9 9 h c b c c h 9 6 9 h c c h 9 6 6 6 6 6 6 6 3 3 3 : $ $ $ 3 6 6 : $ + + $ 6 9 6 # @ $ 3 3 6 6 c n S W ! F 9 # + $ $ : 3 # $ $ $ : 3 3 3 6 6 6 6 6 3 3 6 3 9 h c h 9 3 : $ 3 3 3 6 6 6 6 6 $ $ : 9 b S D F n S S S S 6 + + # : $ + + @ 6 S W ) ) W D 9 @   + @ + + : 6 9 v c h 6 : $ $ 3 6 n S D n h 6 $ @ # : n E / / W G n 9 6 c c v n v c 6 $ @ + $ 6 h c n D P D 9 $ : 9 b n n v 3 + + @ 3 b F E E R R R R / 7X) W D h @ X .   @ 6 9 6 : # $ 3 3 $ # # $ $ : 3 6 6 9 9 6 6 6 3 3 $ + + @ : 9 n n h 3 @ # $ $ # $ 3 3 $ 3 - 3 6 6 3 $ # # $ $ # # 3 6 6 6 9 6 : $ 3 6 9 8 h b S G n c c v c h 9 6 6 6 6 6 9 h c c c h 6 3 $ @ # $ $ # : 7 l h 9 9 h b h 6 : 3 9 6 3 3 3 9 c D R E ! W G c : $ $ + # $ : 6 n P ! / R n c 3 $ 3 c n c h b D G D v 6 3 : $ $ $ $ # 3 v D E E E G c 6 : $ $ 3 3 3 6 9 n S B c 6 $ + $ 9 b v c 9 6 6 3 $ $ $ 6 9 n S S b 6 $ @ # 6 c c 9 9 c D D S h $ + X + @ 3 3 3 6 9 c n S P ! 3X8X( R F c 9 6 6 6 6 6 6 6 6 : # : 6 c B D D B h 6 6 3 : $ $ $ # # 3 c v n n v 9 6 3 6 6 3 3 6 9 h h 9 6 $ $ $ 3 c F W / W E D v 9 $ + $ 6 c n n B G R E W R n 3 + + @ : : 3 6 6 6 3 : $ $ 3 : $ # : : : $ : c S F P P B 9 > @ @ $ $ $ > @ @ + @ : 6 7 9 : : 6 h c 9 3 : $ 3 9 c c 9 3 # + @ 3 9 c v c 9 9 3 6 6 6 9 c 9 h 9 6 6 6 6 6 9 c v c 6 6 6 3 $ + + # 6 9 9 h h 9 9 6 3 3 : $ $ $ : : $ # $ c S W _ ! S 9 $ + X   + # $ 3 6 3 3 # + # : 3 : $ $ $ $ 3 3 3 3 : : : 3 3 : : 3 3 3 : : 3 6 6 h c c b n n n n c 6 9 6 6 3 3 : $ 3 6 n D P R D c 3 $ 3 3 3 : $ @ + + + + + $ $ # : 6 D P P S v c v c S S n 9 6 9 c v ",
"$ 3 6 9 D / ) ! n : + $ $   + 3 9 c c 6 6 b n h $ + # 6 6 : $ # $ $ $ 3 3 3 3 6 h v n n n c 6 $ @ @ # 3 6 6 6 9 h c n S n 9 3 : 6 h b B B v c b D R W ! E B 9 : : 6 h b c 6 $ $ # 6 h h b D D B v h h c c c c c S G W ! R n 3 + : : 7 c h 3 # @ : 6 l b b c h 9 6 6 9 c h 6 : : 6 9 c b v h 6 6 6 6 3 3 3 3 6 6 3 6 6 h 9 6 3 6 3 6 3 $ 3 9 c v 6 6 6 6 6 6 : : 9 6 6 3 : 3 3 3 6 6 $ + + + $ = $ $ # @ @ : 6 6 3 6 n E W G n c 3 $ # # # $ : : # # $ : : 3 6 6 6 : $ $ $ : 6 h c h 6 : $ $ : 6 6 6 6 6 3 3 $ # $ 6 n R E R S n F D n 6 $ $ $ # @ + + $ 6 S E / ! R S h : # # @ X + $ 3 3 3 3 3 3 : $ : 3 9 c n S S v 6 : $ $ 6 h n S S n v 9 6 3 : 3 9 c c c h 6 : $ 6 6 6 h n D D v : # 6 c v B n 9 : @ + # 6 6 c S G F B n G / ) ) W G 9 +   . X + @ $ $ # + 3 : : 3 3 $ 3 6 6 c n D D B c 9 9 6 6 3 # + # : c v v 9 6 6 3 $ $ $ $ $ 3 3 3 3 : $ 3 6 6 6 6 6 : $ $ $ : 3 6 6 : $ : 6 9 9 9 c S S B b c v v c 9 6 3 6 6 6 9 h h h 9 6 6 3 3 : $ # $ 3 6 6 9 c v c c c c 6 3 3 6 6 6 6 6 6 c n F G D B v 9 6 6 $ $ # @ $ 6 c S / / W S c 3 $ : c c n b n D F S b 6 3 3 $ $ 3 3 + $ c F E E G S b 9 3 : $ 3 6 9 6 9 v n n v 9 6 $ $ $ 3 6 6 6 6 6 3 : : : 6 c n F G n 6 $ + + $ 6 9 6 : 6 c v n v v 9 3 $ # + + + : 6 c S F R W 7X7X( R n 9 6 6 6 9 6 6 6 3 $ # + $ c P ! / / W n h 9 9 6 3 3 $ : : 6 h c c 9 9 9 9 9 9 6 3 : : 9 c v h 9 3 $ $ 6 n E 3X8X) W G A c 6 3 3 h b n b b S G E E R F 6 # + $ : 3 3 6 $ $ $ # # $ : $ 3 3 : : : $ 3 9 n n B b 9 : @ # # + + $ # + + # # $ 4 4 $ $ $ 3 9 6 3 % # 3 9 v n v 9 3 $ $ $ 3 c b b b v 9 6 9 6 6 6 6 6 9 h h h h c v b n b c 3 : $ # @ + # 3 9 h 7 6 3 3 6 , : $ : 3 3 3 3 : 3 6 n P / 8X0X_ n $ + + X X + $ 6 6 6 6 3 : : 3 6 6 6 $ : 6 6 9 6 9 6 3 , 3 3 3 : $ $ $ $ # 3 6 D D S c 9 c v v c h 9 9 6 9 c 9 6 3 3 3 c D W W B c 3 $ $ 1 3 3 $ # @ @ @ @ # # @ $ 9 n F R R R S B n n n B n n S D D G S 9 $ $ 6 9 h 6 6 3 6 9 B B n v c c n n n D D S B n h 9 6 6 3 : 6 n P E P S c 6 : 3 3 $ 3 3 : : : : $ $ 3 3 3 3 3 3 3 $ 3 $ $ $ $ $ $ : $ : 3 6 h 9 6 6 3 3 9 n D G G S h 6 3 : : : $ : : 3 6 c c 9 6 3 3 3 3 $ # $ $ @ $ $ 6 b D W ( ( P S b c b B B B 7 6 9 c l 6 3 3 6 6 h b v 6 : $ 3 : : : $ $ $ $ $ $ 6 9 v n B n 6 6 v D R ! / W F n 9 : + + : 6 h v n n n b 9 6 : # $ 3 6 6 9 c b b v c 9 6 3 : 6 6 6 6 3 # # # 6 6 6 3 : $ $ : 3 3 3 : $ @ @ # # # # @ @ $ $ # @ + + # 6 c B G E E P n c 6 : $ 6 6 6 : @ @ 3 9 B P E E R S c 9 6 3 : : : 3 6 h v n n b c c c c 9 6 3 $ # $ : : $ $ : 3 3 3 6 9 9 6 6 3 : $ $ $ $ : 3 3 6 9 h c ",
"9 9 h 9 6 6 3 $ $ : 3 6 9 h 9 6 3 6 9 9 9 b n v n c 6 @ @ 6 c c c 6 : # + + @ 3 h B S B n B D F E E G h : @ X . + + + + @ X X $ 3 6 6 3 3 3 6 v D R / ( W G c 6 9 6 9 9 6 3 : 6 c c c c 9 3 : 3 $ $ $ 3 3 3 3 3 3 9 b B n c 6 3 @ + @ 3 6 6 3 6 # $ 6 h c c c v b n n B n c h h 9 9 6 6 6 6 6 6 6 6 6 3 : 3 6 6 $ $ 6 h c v b v B S n 9 6 6 6 6 6 6 6 9 c 9 x b 9 h 6 : : : : 3 : : # + $ v D G W P b $ + 6 b b h c B R R S c 6 , > : 6 3 $ # @ 9 c B G D n 9 6 6 3 3 6 6 6 6 6 h v b c 9 3 $ $ # 3 6 9 9 6 6 3 $ $ 3 6 v B D F n v 6 # + # : 3 $ @ # 3 9 b S D F B h $ X X # $ 9 c v b S W / / R D h : $ 3 9 h 9 9 6 3 : @ @ 3 S W 8XrXeX_ F v h c c c c h 6 6 9 6 6 6 6 6 9 c n n c 6 3 6 9 v n v 9 : @ + : c W 7X7X_ / W D S v n v c b c 9 h h c S R G v 3 $ # $ : 3 : : $ @ # # $ $ 3 3 3 3 3 3 3 $ $ 6 h b n n h 3 @ @ $ $ + # $ $ $ 3 6 6 9 6 3 $ @ $ : $ # # : 9 v n n n 9 3 3 3 6 6 9 c B S B n c h 9 6 6 6 9 9 h 9 9 h b n n n v 9 : @ $ $ # + @ 3 9 6 3 : 3 6 6 3 $ : : : 3 : : 3 9 v P / 9XeX8XR 9 + + + X + $ 6 h n v n b c c 9 6 9 3 3 6 6 9 c b v 9 6 6 6 3 $ # + 3 $ 3 6 c G W E n 9 6 6 9 6 6 6 9 h b B B c 6 : 3 h G W W G 9 : $ $ $ $ $ $ $ $ : 3 $ # @ + $ 9 S R E R R R G S v 9 6 6 9 n S D S n h 3 : 6 c n n n n c c b n n h h c b n B B n n v c 9 6 3 3 : 3 6 c B B n c 6 $ # $ 6 9 9 6 6 6 3 3 : : 3 6 6 3 6 6 3 3 : : 3 3 3 3 3 6 6 6 6 3 3 6 6 6 9 c b V S D F G n 9 3 : # + @ $ 3 6 6 n b h 3 : 3 3 : $ # # $ $ $ 3 c G E / / E B 9 3 9 c c c 9 6 $ # 3 4 3 - 3 6 9 c c 9 6 3 $ $ $ 3 $ $ # # # $ : 6 h b b c h 9 9 c S G E R G n c 6 3 $ $ : 3 9 h 9 b c 9 6 3 $ : 3 6 9 v n n n n c 6 3 $ $ $ , 6 6 3 $ $ 3 6 b n c 3 + + $ $ 3 3 $ $ $ # @ @ @ @ @ @ $ $ # # $ # $ 3 6 9 v n n n b 9 3 6 9 6 $ # # $ $ 3 3 h G W E D n c 6 3 3 3 $ $ $ 3 9 c n B n n b c c 9 6 $ + @ @ # # # $ $ : 3 6 6 6 9 h 6 3 3 : $ $ 3 6 c c v c c v c 9 h n W ! ! E R F B v 6 6 9 9 9 6 3 3 6 h c c v b v c 6 6 3 3 6 v B D E E R D n h 9 9 c c 6 3 : 3 6 9 9 c v v v b c 9 9 9 h v h 3 @ @ 3 h D R G v 3 # 6 6 b D G P G n 9 3 3 h v c 6 6 6 3 6 9 9 6 $ $ 3 3 3 3 3 6 7 6 $ @ + @ : 6 h c n n n n v c h 6 h 9 c B n h 6 : 9 9 3 # $ 6 c c c 9 6 3 $ $ $ : : 6 6 9 h 6 3 $ # : 9 n D G S n h 6 : $ $ $ 6 h D P E W R B 9 6 : $ $ # @ # 3 9 n S G G S n v c b h 6 3 $ # + + # + # $ 3 : $ : : 3 3 3 3 3 $ $ : 3 6 6 9 c c 6 $ + + @ h E 9XuXuXrX) G v h v B F G D b 9 6 h S ! ) ) W G n 6 3 $ $ 3 6 9 9 c v n n c 3 $ : : $ $ $ 3 3 6 6 3 : 3 3 3 3 : 3 3 : 3 : 3 6 6 : $ : # $ : 6 6 6 3 3 ",
"qX9XqXeX8XE n c c b v c h c c 9 6 : $ : 3 6 c B S S c $ # 9 n n b h 6 $ @ $ 9 S / 3X) W R P F G P G D n 9 : $ 3 $ 9 n n n 6 # + : 3 $ # @ # # $ @ @ # $ $ : 3 6 6 3 @ + @ 6 c v v v 9 $ @ # # @ $ : 3 : : 6 6 6 6 : @ @ # # $ $ $ $ 6 v n b 9 6 6 3 : 3 6 h b n S S n 9 6 6 9 6 3 6 6 9 h c c b n n n h 6 3 # + # + # 3 3 6 6 3 6 9 6 3 : 3 3 6 6 3 3 3 6 9 S E 8XqX7XE S 6 # + + # # # 6 B R E G S B n c 6 $ $ 3 6 h n n n n c 7 3 > $ @ @ # $ $ 6 B E ! E S n 3 : $ : 3 6 6 h n S S n c 3 $ $ b S D S n c 3 $ # $ $ : 6 6 6 6 6 : # @ $ 6 c n n S G R P S h 3 + @ 3 6 c n n c 6 6 6 c S R W W R F D S n v 9 9 h c c c c 9 6 h 6 6 6 6 3 : : 3 3 6 6 3 3 3 $ $ 6 9 v c c 9 3 @ $ $ : 6 9 6 3 3 6 3 3 $ $ : 6 c v S S n v 6 $ $ : 3 6 9 c v n S P R P D b 6 $ + @ $ $ : 6 9 h 9 3 : $ $ $ $ $ $ $ $ $ 3 c D E W E F n 9 : $ 3 6 9 6 3 + + # 3 6 6 6 3 3 9 c v c 6 3 : : 1 3 3 $ $ # @ # 3 6 h b n v 9 3 3 9 b n S B n c 9 6 3 3 6 6 6 6 9 9 9 9 6 3 $ @ # 6 v b B B n v h 6 3 : 3 : 3 3 3 : : 3 6 c S F S c : + + @ @ $ $ : $ $ # @ + + # $ $ $ $ $ $ $ 3 $ # $ : 6 6 6 9 9 6 6 6 6 3 $ @ 3 6 : 6 9 n R E F n c 9 6 : $ $ $ : 6 6 9 b B S n v v 6 6 3 $ $ $ @ + # @ @ $ : $ $ 6 9 v n b c 6 3 3 c c v b v b b c c c v b n S G F S B v 9 9 h h 9 9 9 6 6 9 v n S n n n v h 6 3 3 9 c S R E W W E S n 9 6 6 6 6 6 3 @ # : : 3 6 6 v c c h 9 6 3 3 6 3 $ @ $ 6 v n G G n 3 @ # 6 c F R R D n 9 3 : 3 6 6 3 3 6 6 9 6 6 6 3 3 3 3 3 6 3 3 3 3 # + # : 9 n S G G D S D D n 9 9 n S S n v 9 6 6 6 6 6 # $ 6 h c h 6 3 3 $ # # $ : 6 h n n c 6 3 6 c n G P R G S v 6 $ $ $ 3 9 n P ! / E D v 6 # @ @ + + # : 6 c n D S n b c c h h 9 6 3 $ @ + + # : $ $ $ : $ $ 3 3 3 @ # # # $ 3 3 3 3 $ $ # # + + 3 h F 7XuXuXrX( I v 6 6 b n n n v 9 6 6 v D / 3X/ G n 6 3 3 6 6 3 6 9 v n n n c 9 3 3 3 3 3 : : 3 6 6 6 3 3 3 3 3 3 6 6 3 : 3 3 : $ : : $ + + # $ c B G F B h 3 3 c D W / ! E D b c 9 h n n h 6 6 c n n n n n v h 6 6 6 6 6 3 6 6 6 6 9 9 9 6 3 6 n S S n S E ) 8X9X3XR c : 3 6 9 h c b n b 6 $ $ : : 6 6 6 9 v n S R / ) / / E B 6 9 D / ) / G n 6 $ + + @ # $ 3 3 3 $ # # $ : 3 3 6 3 $ $ # @ # 3 6 h h h c v c $ # 3 c S W ) / D c 6 6 6 3 3 6 6 6 6 6 6 6 6 3 : 3 : : 3 $ $ 3 6 9 h h c c 9 9 : $ $ 3 3 3 3 3 3 3 3 6 3 $ : 9 S F G D n n v c b n D D G D S n h 9 3 @ + $ 3 6 6 6 6 3 # # # $ 3 9 c b n n b 9 + X + 3 h n S S c 6 $ @ @ 3 9 v D F F D S B n S S S v 6 3 : 6 b E W G c 3 $ @ + $ @ @ # # # # $ 6 6 3 # # : $ $ X + @ $ 3 6 6 6 3 : $ $ $ $ $ # + : 9 v v 9 3 $ $ # # $ $ # @ # ",
"c h c n b h 6 : 3 3 3 3 3 $ $ 3 b n n c h 9 6 6 3 3 3 6 6 6 9 9 6 3 : : : 6 c S R E G n c 9 3 $ $ $ 6 b n n B D W ! R S c 3 + + # $ : : 3 6 6 $ # # $ 3 3 3 $ $ + $ 6 c S E W E n 9 : $ $ @ $ 3 : # + + @ : 6 6 3 3 6 9 c h 6 6 $ $ 3 6 9 9 6 3 + @ $ 3 9 c v c h 9 6 3 6 c v c c h 9 6 6 6 6 6 6 9 6 6 6 6 6 6 $ + # 6 9 h v b h h 9 6 6 6 $ $ : : : : $ $ 6 v R W W D c 3 +   + + # # $ : : $ @ X + $ : $ $ 3 : $ 6 9 6 $ # @ : 3 6 3 3 3 3 3 # $ : 6 6 6 6 9 b B S S B b h h 6 6 : $ $ # : 9 S G F S n 9 3 : 6 3 : # + + + + + @ # $ : 3 h n P F B h 6 9 v B D S S B S D D n h 6 h S S v 9 9 6 9 h c c h h c 6 9 c n D G D D n b c 6 3 3 9 n R W W E R G n c 6 3 3 6 6 3 : 3 # $ $ $ 3 6 9 9 6 6 3 $ # $ $ $ $ # $ 3 9 b n B c 3 : $ : 9 B S P F n 3 # 3 6 3 3 3 1 3 6 9 c c 6 6 3 3 3 3 3 3 : $ + + @ 3 c n E W W P F F G S n n b v n n b c 6 : 3 h v 9 3 6 : 6 9 9 6 3 3 1 $ $ : 3 6 c n n 9 9 6 9 n F W / / W G c 3 $ $ $ 6 c S P E R D n 9 $ # : $ # $ 6 6 9 b n n c 6 3 3 6 9 c c 6 $ + + + @ $ $ $ $ : : 3 3 : $ $ # + $ $ $ $ $ $ $ $ + + + + $ 6 B W 7XeXeX7XW n 6 : 9 v c 9 6 3 3 6 h S W _ / R n c 3 3 3 6 6 6 6 9 n n n b c 9 6 3 c h 9 6 : $ 3 3 1 3 : $ 3 6 6 6 6 3 : 3 3 $ # $ $ @ # # : c D G D n 9 3 6 B E / 7X_ E D b 9 6 9 c c h 6 6 9 v n n n n b c 9 3 3 6 3 3 6 6 h v c 6 9 6 6 9 b n n h b R _ ) / P B c 6 6 9 c c c b n v 6 $ + : 9 v c c 9 3 6 n P ! ( _ W G n 9 c S / _ W B 9 3 : $ : $ # # # : 6 6 : $ 3 6 6 : # + $ $ @ + $ 6 c v c 9 6 6 3 $ # 3 v S D D S n c 6 3 3 6 c c h 6 3 : 3 6 6 6 3 : $ $ $ $ @ @ : 3 3 6 6 6 9 6 3 $ $ $ $ 3 6 6 h v v c 9 6 6 9 n D S h 9 9 9 c S P R R G B n c 6 : $ : 3 6 6 3 3 3 3 $ @ : 6 6 3 6 h n n c 3 # # : 6 n D D S v 6 : # 3 h D W / / W E F D D G G G D c + @ 9 F / ) ( E 9 $ + @ $ : : $ + $ 6 9 9 9 6 3 3 $ # # # # # $ 3 3 6 3 : : : : + @ # # $ 3 6 9 c h 6 3 $ $ 1 3 6 9 c v 9 6 1 $ 3 : : : 3 9 b B B b h 6 3 $ : 3 3 6 6 9 c n n n n v 9 6 3 $ $ 3 h v n n n 6 $ $ 3 6 n P E E W / 8X7X/ G b 6 $ + 3 3 6 6 6 3 3 3 3 $ + @ h W 9XrXuXeX/ n 3 3 6 $ : $ 6 c c 9 6 : : $ $ : $ # # $ @ # # @ @ $ 6 h n n l 3 $ : 3 6 6 3 3 3 3 3 : # + + 3 9 n E / E D c 3 : $ @ @ : # 3 6 9 c v c 9 3 : # # $ : 9 B / 8XqX8X/ D 6 $ 3 3 $ # # $ : : $ $ 6 v b 9 6 h n D B c c c h 6 $ $ # # 3 6 9 8 6 3 # @ + + % # # $ 6 6 3 $ $ # 3 9 S P R R D n 9 3 3 6 6 3 3 3 $ $ : 3 3 6 6 6 # 3 9 c b v h 9 v n b c c 3 @ # @ $ 3 : $ $ $ $ 3 $ # # @ @ # $ + # 6 9 v v h 9 : : $ : 3 9 9 9 6 6 3 : $ $ # $ $ # @ @ @ $ $ $ $ $ : : 3 6 6 6 ",
"9 h 9 3 $ 6 c n R R R G n c 6 6 $ 3 6 3 : $ $ $ $ : $ : 6 6 3 3 : $ # @ # $ : $ $ $ 3 6 6 9 h 9 9 3 : 3 9 B G P D n h 3 $ $ $ : $ 3 6 6 9 v b c 6 3 : : 3 : $ $ $ $ $ $ 9 B R W / / P v c D F S c 9 c n n c 9 6 3 6 9 v c 6 3 $ 3 6 6 3 : $ # @ 3 3 3 3 9 n B B 6 6 h B R W / / R S c 3 # @ $ 3 x b S D D n c 6 3 # # : 3 6 9 c n n b c 9 6 3 3 3 3 6 6 3 # + + $ 4 6 3 3 $ # # 3 3 3 : $ # + + @ $ $ @ + $ $ + + + @ $ 6 B E ! 3X) W C l 6 3 3 9 h 9 6 3 : 6 c R W / W P B c 9 6 3 3 6 6 6 6 c n n n c 9 9 9 h 3 6 3 3 : $ : : $ $ 3 3 6 6 9 h 3 6 6 : $ # @ @ # $ 3 6 c n S n 6 3 h D W _ ) 3XW P n 6 3 9 c c 9 6 6 6 9 v b b n n c 9 6 3 3 3 6 c b n n B n b 9 6 h n n h 6 9 S G R E G B c 9 9 9 h c v B B b 3 $ $ 3 c D F S 6 $ : 9 n F E R P S l 6 9 n G R S m 9 6 3 $ $ # $ $ $ - 3 3 3 3 6 3 3 : # + @ $ + $ 6 h v v c 9 6 6 3 3 6 h c c h h h c 9 3 3 6 n n c 9 3 $ : : 3 3 3 : 3 6 6 3 $ # # $ 6 9 c c c 9 6 3 : 3 3 3 6 9 n S D D S n 6 : 6 c c 6 $ $ 6 9 B P E P G D B n 9 3 # $ : 6 6 3 3 3 : : $ $ : 3 3 6 6 h c h 3 3 3 3 6 v n n n c 6 # # 3 v G 8XqX9X) W S b v S G G F S 6 # 6 D W 7X8X/ G 9 $ $ $ $ $ $ $ 3 6 c v c 6 3 $ $ @ @ # $ $ 3 6 6 6 3 6 6 3 : $ $ # $ $ 3 6 9 9 6 3 3 : : $ 3 9 c c h 9 6 $ $ 3 9 h 9 h c b n v c c 9 6 6 3 3 6 9 9 c c c c v c 9 9 3 3 3 3 6 9 c c n v 6 # $ 9 S F P R W / 7X0X8X_ n 6 : 3 3 3 6 9 6 6 6 : $ # # $ $ c R 7XeXeX3XW S b h h 6 : 3 h G P D h 3 : $ $ $ $ $ $ $ $ # @ $ $ 3 9 9 h h 9 3 : : : 3 3 6 6 6 3 3 6 $ + + 3 G W ( / E S 9 : $ # # $ 1 3 3 6 9 9 6 3 : 3 3 3 # $ 6 c D ! 3X7XW D c 6 : $ $ : $ $ $ $ $ $ 3 3 6 6 9 c b G E R G B b h 6 6 6 3 3 6 9 v c 6 @ + + @ $ $ 3 6 6 3 : # # $ 3 h n F / ! R b 6 : $ $ : 6 6 3 3 3 3 3 : $ $ > 3 h n S B n n v v n S n 9 3 : 6 6 6 3 $ # + # 3 : $ @ @ $ $ $ # @ # $ $ 6 3 3 3 $ @ + @ 6 9 9 9 6 3 : $ 3 $ $ $ $ : 3 3 6 3 $ @ @ # $ $ 3 6 S W / E D v : @ @ 3 9 c v c h h 6 $ : 9 h 9 6 : : 3 6 9 c c 6 3 3 3 3 : : 3 6 6 6 6 6 3 3 6 6 6 3 + $ c S S n b c 6 6 6 6 9 6 6 6 6 6 6 6 9 3 6 3 : 9 D E W E G c 3 $ $ 6 9 6 6 6 3 : : 3 3 : 3 9 c b n n n D F F S n c h h B B b 9 3 3 3 : # $ 3 h v v c h 3 $ : 3 6 c n n B S v 3 @ + @ + : 6 h v n B B n c 9 6 6 3 3 6 c n B n c 6 $ $ 6 3 9 9 6 6 6 6 3 6 6 9 9 6 @ @ 6 S E W G n 6 +   + + @ 3 c G R R n c c n v 6 # # 6 6 6 6 6 3 $ $ 3 $ : 3 $ $ 3 3 6 9 c c h 6 : @ $ $ $ $ 3 6 9 9 9 6 $ @ $ 6 c n v v 9 3 3 3 3 6 6 6 6 6 6 9 h c 3 3 3 3 3 : : 3 v n D G P D n v b b v c c c c 9 3 : 3 6 3 # + + + + # : : $ $ $ + 1 h n D G G D ",
"b c 6 6 3 6 9 c c b D E R S b c 9 h c c c 6 3 9 c n S n n n v c c c h h c c 9 6 $ @ 6 n D F D n $ @ : c n D F F B c 9 7 9 b B v 9 3 3 6 6 6 3 : $ $ : 3 6 6 6 9 3 $ # + + @ : 6 6 c n B S n h 6 6 6 h n n b 9 3 6 6 3 6 3 3 6 9 S n c 3 $ : 3 6 $ : 6 9 9 9 3 $ $ # 3 h n n n n v 9 3 $ $ $ 3 6 b S E / W D c 6 $ $ $ $ $ @ # : h n G E R D n b v c 6 3 $ $ $ $ = = $ # $ $ $ $ 3 3 3 3 3 3 3 $ : $ 6 v n v 9 6 # @ + # c ! rXuXyXeX( S b b n D P F n 6 3 6 b G ) 8X3XE D c : @ @ $ $ 3 6 9 9 c b c 9 : @ # # @ > : 3 6 6 3 3 3 6 3 : : : 3 3 : : 3 6 6 6 6 $ $ $ 3 6 9 c n B n 6 6 : 3 9 B D D B n c 9 c b c 9 6 6 6 c c v v v v c h 9 9 9 6 6 6 6 6 6 6 h c 9 3 3 9 n S D F R W ( 9XrX9XE c 3 3 3 3 6 9 c h 6 $ @ @ : : # : c G E / ( / R D D B B h : 6 D W W G B 6 # + + # $ $ # # $ # # + # $ 3 6 h 9 6 : $ $ $ 3 9 9 6 6 6 h 6 $ + # c E ) 8X7XW B 9 3 $ $ $ $ : 3 6 9 h 9 6 6 3 3 : $ $ $ 3 h S R W P B v 6 6 : $ $ $ $ $ : : : $ : 3 3 : 9 v D E W E G D v c c c c 6 6 9 n n h 3 # @ # $ : 3 3 6 6 3 $ # $ : 6 c n F R G b 6 # + @ 3 6 6 9 9 3 3 3 3 : 3 > 3 h b S D S D B S D D B 6 + $ h v c 6 3 $ + + @ # $ $ $ $ $ $ : $ $ @ # : 3 3 $ + X + # 3 6 3 6 : : 3 $ # # $ $ $ 3 6 6 6 6 6 : $ $ $ 3 6 h n P R G b 6 $ + + $ 6 c n S n h 6 : $ $ : 3 : : 3 9 c n B B c 3 : : : : 3 6 6 h v 9 9 6 : $ $ : 3 6 c n S G P S b b 9 6 3 3 6 6 6 6 3 3 3 6 3 3 : 9 b E 7X0X) R n $ X + 6 9 6 3 3 : 3 3 : 3 : : 6 c c h 6 6 c n n 6 3 9 v n v c 9 6 3 $ : : $ : 6 h c 9 3 $ $ : 3 $ 6 v S D B c 6 # + X X @ 3 9 c n v v b c 6 : # $ 3 9 b S P E G n h 6 3 3 3 3 3 6 3 3 3 3 6 9 9 9 6 6 3 6 B G D 9 $ + + X + + # c n B B n c 6 6 9 6 3 # $ 6 6 6 3 3 3 $ 3 6 6 9 9 h 6 3 6 9 c c 6 6 $ $ $ $ : 6 9 9 9 6 3 3 , : 3 9 v n n v 9 0 6 : $ $ $ $ 3 3 9 9 h c 6 3 : : : $ $ # 3 v G P E R G B v 9 h v v v c 9 6 3 3 : @ + + + + # # # @ # $ : $ $ @ + @ @ 3 c n B n c 9 6 h c 9 3 $ # # $ 3 6 n F P G v 9 7 9 9 6 6 3 6 6 c n B n v c : $ 3 c S P P G h 6 6 n n 6 : 3 $ $ # $ $ $ 3 3 h 9 6 6 3 3 3 6 n B v 3 $ 3 h n G E ! W P c $ # 6 6 6 6 6 : : 3 6 6 9 h n F W / _ / E D F W 3X8X/ Y B h 3 3 6 6 6 6 6 6 3 $ : : 6 6 9 h c h h c c 9 6 3 # + $ 6 D P E R R E W E G D n 9 6 6 6 6 6 3 : : $ @ @ $ c b n b c 9 3 $ $ $ $ $ # @ 3 c F W / E S 9 $ $ + # $ $ 6 c b v 6 3 6 h c 6 6 6 6 9 c 9 6 3 + + + # 6 b S G R G S n c h c b n n c h 6 3 3 6 6 6 3 1 $ $ : 3 , 3 6 6 6 3 6 9 b n B n n n v 9 3 $ # @ @ $ 3 6 c n b b v c c 9 6 9 6 6 6 3 : : 3 3 3 6 9 h 9 6 3 6 9 c c 9 6 $ # @ : 3 9 b n c 9 6 ",
"c c 9 3 3 6 6 6 6 6 6 6 6 6 6 6 6 9 n D F D G E 9XeXeX8XW b : $ 6 9 c c c c 9 6 : + $ 3 $ : 6 9 S F E E E W W P S b c h n ! 7X( S 6 # # # @ $ $ 3 : : $ $ @ @ # 6 6 6 3 : $ $ # $ : 6 9 h 9 9 h 6 3 $ # 9 G _ 7XW G B v 9 3 $ : 3 6 6 3 3 6 6 6 6 3 : 3 : $ $ : 6 9 c b b v 9 6 6 3 : : : : : 3 3 3 3 3 : $ : 6 S P E R G B c c v v b n n n n n c 9 6 # + + # 3 6 6 3 $ # # # $ 3 6 v B D D n 9 $ + @ : 9 n S B b 6 : $ $ : 6 c B D P R E P D D F D v 3 3 3 9 n G R S 3 # @ + # @ $ # + @ $ 3 3 3 : $ # # : 3 $ O + @ 3 6 3 3 3 : 3 : # @ # $ : 3 6 9 h 9 3 @ $ : 3 6 6 9 n n b v 6 3 3 # + @ : 9 c n S n 6 3 : : # # $ $ $ 6 c B S n c 6 6 3 $ $ $ 6 c b n n c 6 # + $ : 3 9 n D F R W E G n c 6 : 3 6 6 6 9 6 6 6 3 $ 3 $ 6 n W 0XrXeX8XG : @ > , 3 3 : $ $ $ $ 3 $ $ 3 6 6 3 = - 3 6 6 6 6 6 h c b v h 6 3 $ $ : : $ $ 3 6 3 3 : $ $ $ 3 6 c S D n c 6 3 @ @ + @ : 6 6 h c c h 6 6 6 : # $ 3 c S W ) 3X! G n 9 6 : : 3 3 : $ $ $ 3 6 h v v v 3 3 h S S c 6 $ $ # + + + 3 c b b v 9 3 $ : : $ # $ 3 6 6 3 3 3 : 3 6 h b S D n c 6 9 c 9 6 3 : $ $ $ : 3 6 6 6 7 7 7 9 9 6 6 9 c c v v h 9 6 3 $ $ # @ : 3 6 9 9 9 3 $ # $ $ # + $ 9 B G P G S v c 6 6 6 9 c v 9 6 3 $ # $ $ + + + + # # # # # $ # @ $ $ + $ 9 B G F S b 6 : 3 9 c 9 : # $ : 3 6 h S R F c : $ $ : $ $ 3 3 6 c c v c h 6 : $ 3 c n D G D b 6 6 6 9 6 6 6 $ @ $ # $ : 6 6 h c 6 3 $ : 6 9 h 9 9 6 3 h n S D F D B c 9 6 : 3 6 6 6 6 3 3 3 $ $ 9 n G W W W ( / E D B G W / W F n 9 6 3 6 6 6 6 9 c c 6 $ : 6 9 9 9 h b B S n h 6 $ # @ # 6 b D R D G R W W G n c 9 6 6 3 : 3 3 # @ + + $ 6 c n n h 6 6 3 $ $ $ # # # 3 c D / 3X/ D 9 3 $ @ + + 3 9 n S n n v h h v c 6 + @ 6 h c 6 3 $ $ $ + + 3 9 b n v v n n b v c 9 6 6 3 $ 3 3 6 6 7 6 6 , $ $ $ 3 9 c 9 5 6 3 6 c n D D B n c 9 6 3 $ @ $ $ 6 9 c v b B S n 9 9 c n n c 6 3 3 6 6 3 3 6 9 6 9 9 6 3 3 3 6 3 : $ # @ $ : 3 3 $ $ $ $ 6 n G F n 9 3 $ # : 6 3 6 6 6 6 6 9 9 9 9 v R 3X7X! S h 3 3 3 9 h 9 6 : : : 3 3 : 3 : @ @ $ 6 c v 9 3 $ @ + @ $ : : : 3 : $ # + + $ 8 v B S c $ # 3 h S E ( _ W P v : $ $ 3 6 9 h 6 3 6 h h 9 6 8 9 c c v b n n S R Y D v 3 : 3 3 3 6 3 3 $ # @ + # $ $ $ : 3 6 6 6 : $ $ $ $ : 3 6 c n G P F n c 9 6 6 3 3 6 6 v P W E S c 3 $ $ # $ : $ # @ # 3 9 c c 6 3 $ : 6 6 6 9 c n n n b 3 + + : 3 3 $ 3 9 b n b h 1 + $ n / 9XaXiX8Xn = # # # + : v G 3XuXaXrXE v @ + $ 6 n S b c 6 3 : 3 6 6 3 6 3 6 6 9 9 h 6 6 6 6 6 9 h 6 6 3 $ $ $ : 3 1 : $ $ # @ @ @ # : 6 9 9 6 : @ + @ # $ $ : 3 6 6 6 6 3 : @ + @ $ v S D D P W W R v 9 9 v n n n S ",
"D B n c 6 3 3 3 $ 3 9 b S S n h @ + # 6 v n S F R E / ) / G c 6 3 6 3 3 6 6 6 6 3 3 $ @ : 6 n W eXuXrX) R v $ @ $ 6 6 $ : 6 9 9 $ # # # $ $ $ $ $ $ $ $ : 3 6 9 c c l 9 6 6 3 3 : $ $ 3 : 3 3 $ # + + + 3 v S G G S b 3 # # $ # $ $ 3 9 c h 9 6 6 3 $ $ $ @ : c R / 8X8X( P b 6 : : $ # $ $ : $ $ 3 9 n C v h h c n B n n h 6 3 $ # @ @ $ 6 h 9 6 3 $ # + + + # $ 6 6 3 $ $ $ $ 6 c S R E G n n 9 6 3 6 9 3 $ : $ $ 3 6 6 6 6 6 6 6 9 v v h h c b n v c 9 3 # # # $ $ : : 3 6 3 : $ $ $ # + + + # 6 v S S n 9 3 3 3 6 9 h c c 9 6 3 : : 3 $ + @ # @ # $ $ $ $ $ # # @ # 6 S W ( W R n : # 3 6 9 6 6 6 3 $ $ 6 9 B S n 9 3 $ $ # $ : 3 6 6 6 9 9 9 6 3 : 3 3 6 9 b n n c 6 3 : : 9 h h 6 3 $ $ $ 6 6 6 9 h 6 6 6 6 6 6 6 9 3 $ 9 S F G S n b c 6 6 : 3 9 6 6 6 6 6 : $ $ 6 c S G F R / 3X_ G b v A G R G S c 6 : 3 6 6 : 6 c b b 6 6 3 3 6 6 9 c B S S n c 6 $ + + @ 6 n D S S G G P D v 9 9 6 6 3 3 3 6 6 $ + + $ : 9 n n b h 6 3 3 : : $ # # $ 6 v R ) ) R n 6 $ +   + $ 9 B S G F S b h c v 6 + X # 9 v h 6 $ 3 $ @ @ @ # : 6 7 h b B n b 9 6 3 6 3 : : 3 6 6 6 6 6 3 $ @ $ 6 c n b 9 6 3 3 6 h c b b b v c 9 6 6 $ + $ 6 9 h 9 v S G D n h h n n b h 6 6 6 6 6 6 6 6 6 6 3 : $ # $ : : $ # $ $ $ $ : $ # @ @ $ 6 c S D n c 6 3 $ # : 3 3 3 8 c b v c c c n F / ) W n 6 6 6 9 b n b 9 3 3 3 3 9 9 9 6 : $ 3 6 n n c : + @ # # $ $ $ $ 3 6 3 $ @ + 3 n S S S b 3 $ , l S ! 7X3X/ R v $ + $ 3 6 3 6 6 3 6 c v v 6 6 b P R B b B G W / W R n 9 6 6 3 6 6 3 3 : # # + + + + $ 3 6 6 6 6 3 : $ $ # $ : 6 c B R W R B c h b b 9 6 9 n n D F S c 3 $ $ $ $ $ $ $ : : 3 3 6 6 6 3 : 3 3 6 6 6 9 n D S c 6 : $ @ @ $ # 6 6 h c 9 9 6 # $ 6 P 9XrX0X! S 6 # + # $ $ 9 F 9XuXuXqX/ b @ + 3 c n B n c 9 6 : : 3 3 3 6 6 6 9 9 9 h h 9 7 7 6 9 9 c c 6 3 $ $ - 4 6 3 $ # + $ $ 3 3 6 6 9 6 6 3 : $ # # $ $ : 3 3 3 3 3 3 $ # # 3 9 v n S G G F D B v 9 6 3 3 : : 3 6 3 3 6 $ # @ # 3 c B S S n 6 # + + $ : : 6 9 c h h 9 6 3 : : 3 : $ $ : 6 6 6 3 3 3 : : 3 3 6 h h 6 3 : 3 : $ # $ 3 6 9 6 3 3 6 6 9 9 6 6 6 : : : : 3 6 9 9 6 : $ $ $ $ $ 3 n G R D v 6 +   + 3 6 : : 6 h b B n c 6 $ # @ # @ @ $ : : : 3 $ +   # h S P G S v 3 @ # $ $ 3 3 9 v v 6 3 3 6 6 3 6 6 3 3 3 $ # # $ 6 9 c n c h 6 $ + # : 3 $ $ $ : 6 9 h 9 6 3 $ $ $ : 3 6 6 3 , $ # @ $ 9 n D S n c 6 : 6 9 v c 6 6 9 v B P P D c 6 6 6 6 6 6 6 6 6 v n v 9 3 : 3 : 3 : # # $ $ 3 6 9 9 6 3 3 3 6 6 6 6 6 6 6 9 h 6 6 6 3 9 h h h 6 3 $ 3 3 3 6 9 6 $ @ @ $ : : $ # @ @ # $ $ : 3 3 6 6 6 6 6 3 3 6 h c c h h h h c v v c 3 $ 3 9 c 6 3 : ",
"6 6 6 3 3 3 6 6 6 6 6 6 3 3 3 3 9 9 6 3 $ $ 3 9 v b v 9 3 3 3 3 6 6 9 9 9 6 6 6 6 6 3 : 6 6 h S E W R n h 3 # : 6 6 6 6 6 6 3 6 6 6 3 3 6 c n G B S R ! E n 6 9 n D D n c 6 3 $ 3 : 3 6 6 c b c 3 : 3 9 9 6 9 v G D S c 6 $ + + + $ 9 n S B n n B n v 9 6 3 6 9 c c x h 6 $ # $ 6 9 9 9 9 9 9 6 : 3 3 6 3 # @ , B G E E D 9 +   X + + @ 6 S E E n v c n n 9 $ % 3 6 6 c 9 3 # # $ $ # + @ $ 3 6 v b n c 9 6 3 : # $ $ 3 6 6 9 9 6 6 $ # 3 9 v b c c 6 3 3 3 3 6 6 6 9 9 9 9 9 6 1 : $ $ : 6 9 h B S S S n v c c 9 h c c c c 9 6 3 3 3 3 3 $ + @ $ 3 3 : $ # # $ : $ $ $ @ + # 3 c n n b c 9 6 3 3 $ + + : 6 c n n S n h c S P G S b 6 6 9 b S D n c 6 3 3 6 c n n v 6 $ 3 c n n 9 : @ + @ @ $ : $ 3 6 6 6 3 $ $ 3 h n D G c 3 3 3 c G ! 3X7X/ R h $ $ 6 9 3 : : $ 3 c n n h h n P W ! E G D G R ) 3X/ D b c 6 6 6 6 6 3 3 : # +   + # $ 3 6 6 6 6 6 6 : $ $ 3 3 6 v G / / E D n S S n c 9 9 h c b n c 6 : $ $ # $ : 6 9 9 6 6 3 3 3 3 3 : $ $ : 6 9 n D F S v 9 $ # + + + $ 6 c h 9 6 : $ # 3 v G W E F n 6 $ $ + $ : 3 n / qXeX7X! S 6 : 6 c n D S n h 6 6 6 6 6 6 3 3 3 : 3 6 6 6 3 3 6 6 9 v n n n c 9 6 6 6 $ $ $ $ $ $ : 3 6 9 h v c 6 3 3 6 6 3 : $ $ $ : 3 3 3 3 : $ $ : 6 9 c n n n n c h 9 6 6 6 3 3 3 9 9 c c h 6 $ @ + $ 9 n S n h 6 # @ @ $ 3 6 6 c S S n h 6 3 $ $ $ $ $ # $ : 3 3 : $ $ $ $ : 3 6 9 h 9 6 3 $ + + % # 3 6 6 6 3 3 $ : : 1 3 6 6 6 3 $ 3 9 c n S n 6 : # # $ 3 9 n R P S 9 $ + + + 3 6 3 $ $ 6 9 9 c h 6 3 $ # # @ # $ : 3 3 : $ # + $ c G F n 9 3 6 3 : : : 3 6 9 9 9 h 9 6 9 c 9 3 3 : $ $ $ 3 6 3 h S P F n 6 $ $ $ 3 6 3 @ + @ 6 9 h 9 6 6 3 $ : : 3 6 6 6 3 3 $ # $ 3 6 v B n 6 3 6 c v c c 9 3 6 S / 7X7X/ G 9 : $ 6 6 6 3 9 S P E R D h # + $ $ : : : : 3 3 9 9 9 6 6 6 6 3 3 3 6 7 9 9 9 h 6 6 6 $ $ 4 6 9 6 3 # + + $ 6 6 $ $ % + # $ $ $ $ # @ @ # # $ $ : 3 6 9 9 6 6 3 $ $ 6 c c 9 9 c D D S v 6 3 # + + + # $ $ $ # + $ : 6 9 b S D S c 3 # $ $ # : 9 B n v 9 : $ $ 3 6 3 6 6 6 6 6 3 3 6 6 h n G W W E D v 6 $ # $ 3 3 3 $ @ + # # + X # c R / ) _ ! S b 6 # @ $ : 3 6 3 : # @ @ # # 3 $ $ $ $ $ # +   @ 6 b F W W W E G c 3 # $ 3 6 9 c 9 3 @ + + # $ 6 9 h c c 9 6 h 6 3 : $ $ $ $ + @ $ 3 6 6 6 6 3 6 6 6 6 6 6 : + + + + # 3 5 6 n v h 6 3 $ # # 3 6 9 9 6 3 : $ + + # 3 h D W ) 7X_ G 6 $ , 6 9 6 c v v c 6 3 9 D F F S b 6 $ # 3 6 3 : 3 6 6 6 6 6 6 6 9 n D D n c 6 6 3 3 6 6 3 : $ # $ $ $ $ : : : 3 9 n G R / W F b 6 # @ $ 9 n D G F B 9 3 3 6 c S G D B B F F D n 9 6 3 3 $ 3 h n n v 6 $ $ $ # @ $ x n b 7 3 > # $ 3 6 6 $ $ $ : : : $ @ ",
"3 6 6 9 c n B B v 9 3 $ 3 h B G B b 9 3 6 c b c 6 3 $ @ @ # $ $ : 3 6 6 6 $ $ 3 h n n n c 6 $ 3 9 S ! 7X7XW S c 6 : 3 9 6 3 $ $ 3 6 9 c v v n G _ 3X/ G D E / / 7X) Q n 9 6 6 6 6 6 6 6 3 3 : + $ $ 3 9 h 9 9 c 9 9 6 3 $ $ 3 6 n S E / / W R G R P S 9 6 9 h 9 6 6 3 $ $ + + + 3 6 c n c 6 $ # $ $ $ $ $ $ 3 h b S G R F v 3 : # $ # @ : 6 9 9 3 $ # $ 6 6 6 v v n v 6 : $ # + + $ 6 n P / / W S c 6 6 h n S B b h 6 3 3 3 3 6 6 6 3 $ $ 3 6 6 6 6 : $ 6 b S D D B b c 6 3 $ $ @ $ $ : 6 9 c b v c c 9 6 6 9 9 9 6 3 $ @ $ 3 3 3 3 6 6 6 3 3 6 9 c c 9 6 6 6 3 6 3 3 6 6 3 6 9 D G S c 6 $ @ $ 3 c v b c 6 $ 3 6 9 6 3 9 S P P n v 9 3 $ $ $ $ 3 3 $ $ $ $ # $ # : : $ 3 9 h 9 6 3 $ : $ # # $ $ 3 3 3 : $ $ $ $ 3 6 6 6 $ + @ 9 c S P R D v 6 3 $ # @ 3 n D D v 9 : $ : 3 6 6 : $ $ 3 9 h c v 6 6 3 3 - $ $ $ 3 3 : $ # + + $ c v v 9 3 3 3 3 = - $ $ 3 6 9 9 c v n n v 6 $ + 3 : : 3 6 6 c n W W G h $ # $ $ : : $ # @ : 6 6 c h 6 3 : : 6 9 9 c h 9 9 6 $ $ # : 6 b n c 6 9 v n v c 9 $ $ v 3XrXuXqX/ n $ + : 3 : , l P ( 3X7X/ S 3 + @ : 3 6 6 6 3 3 6 6 6 6 6 3 3 6 3 3 6 3 6 9 c v 9 6 6 : : $ $ $ $ $ $ $ $ $ $ $ @ @ $ $ $ $ $ 3 $ # $ # # # $ : : 3 3 9 6 6 6 : # # $ h b b b S R W W S v 6 $ @ + + # $ $ @ + + # : 6 9 c n S B c 3 @ $ $ $ # 3 c n c 3 : $ : 3 6 6 6 6 6 6 6 6 6 6 9 9 b B S D S n c 6 3 3 3 6 3 3 3 $ # # - $ # 3 c R / / Q P n 6 3 $ # : 6 3 3 $ + # + @ $ $ @ # 3 6 9 6 3 # # $ 3 h n G F P R F S 9 $ # # @ : 6 : : $ # # # $ 3 3 6 6 c n n c 9 6 3 : $ $ $ $ 3 6 9 9 6 3 $ $ 3 3 h h 6 $ + + @ # 3 3 6 9 9 6 6 6 $ @ + @ $ 3 6 9 9 6 3 : # + + # : 6 B R E G B c : $ 3 9 c n n c 9 9 6 6 c S F D c 6 3 : # : 6 6 6 3 6 6 6 6 3 6 6 9 h v b 9 6 6 3 3 3 3 : $ $ : $ $ : 3 3 3 6 6 6 h B P P D b h 6 6 6 3 6 n G G n v 9 6 6 9 v v 9 9 c v n n c c 6 3 $ $ : 6 h v v c 9 $ + # $ : 6 9 v n c : + + 3 6 6 : $ 6 6 6 3 6 6 6 3 3 $ @ # + + + 6 B R E W E S 9 9 S F D b c v n n c 9 6 3 3 3 3 3 3 : # $ 3 9 b S S B b 6 6 h b v 9 3 $ : 3 : : 6 h c c 9 9 h v n S S n b h 6 $ $ : 3 3 $ $ $ # # $ $ $ @ @ # $ # $ : $ 9 h c c h h h h 3 : # + $ 6 c b S S c 3 + + $ 6 n G W W R n 9 : # + @ $ $ @ + @ + # $ $ 3 6 6 3 6 6 : # $ 6 9 c c c 6 # $ 9 n n v b B G D c 6 3 9 v n n b h 6 6 c b S F E / 7X9XeX9XW l # + + @ 6 3 $ @ + + # 3 b B G P G c : # $ : : : 3 6 6 3 $ 3 6 c S F F D n c 3 $ $ : 3 6 $ # @ # $ 6 c n S n c 6 3 h n D P E R D n 9 : 6 B G G D S n c 9 3 $ # $ 9 B R / 8X) R v 3 3 3 : 3 3 9 n D G G F n 9 6 6 3 $ $ : 3 3 6 6 6 9 9 9 6 6 9 b b c 6 9 ",
"9 9 6 3 3 6 6 3 3 : $ $ : : $ # # : 3 1 6 h v v 3 # + + # # $ : 3 6 3 : $ @ @ # 9 c v h 6 : : 6 n D R W R D v 6 $ # : 6 9 v v h 9 9 9 9 6 6 6 9 6 9 9 6 9 n D D v 9 6 3 3 $ # $ 6 6 3 $ + + # $ 3 6 3 3 3 6 3 : 3 : $ $ : 3 9 v S S S B v 6 : $ 3 6 3 3 h D R W R G v $ # $ 3 6 3 $ + + # 3 9 c 6 6 3 3 3 3 6 9 c b b v c 6 @ + $ : : : 6 9 c n S n 6 # : c W 9XaXaX9XS 3 : : # $ : c F ( rXuXrXR h @ + $ 6 b b 9 6 6 6 3 3 3 3 6 6 6 6 6 3 6 9 9 h 9 6 9 6 6 3 # @ @ @ # # $ : 3 : $ @ + + + # 3 6 6 6 3 $ + + $ $ : 3 3 3 6 6 6 3 $ + + : 9 c B D F R E E F B 6 3 : $ : $ $ # @ # # # $ $ 6 h S G D n v 6 + @ + # 3 6 6 6 : # : 3 6 6 6 6 6 3 3 6 6 6 9 6 6 6 6 h c h 6 6 6 6 6 6 3 : $ $ $ $ 6 6 : $ 6 n F E R P D n h 3 $ 3 $ 3 6 6 : @ + + # : 3 3 6 v n n c 6 #   X : 9 c b n D R P n 6 3 # + + # $ + + $ : : : $ # + $ 6 b n B n c 6 $ # $ $ 3 3 6 6 6 6 3 $ $ $ 3 6 9 9 3 $ $ $ $ $ 3 h 9 9 h 6 : # @ @ $ $ $ $ $ 6 9 9 3 $ # # @ @ $ 6 v B n c 6 3 $ 3 9 c v n n c 6 6 : 9 v n n c 6 6 $ 6 6 6 9 6 3 6 9 6 6 6 3 , 3 h 9 h h 6 : 3 3 3 $ : : : 3 3 6 6 6 3 3 3 3 6 6 c B S n 9 6 6 6 6 3 6 c S D n 9 3 3 6 h n n h 3 3 9 c h 6 3 3 : $ @ # $ 6 9 9 9 9 3 : $ : 6 9 v n n c 6 + + 3 6 6 3 $ # $ : $ # # 3 3 3 $ # + + @ $ 9 B P R G A v 6 3 9 B S n v v c h 6 3 : 3 6 6 6 6 3 3 : : 6 h D F P G D B b c 9 6 : $ $ $ : : : # # : $ # 3 h G E W R F n h 6 $ # $ 3 3 3 3 $ @ @ $ $ $ # # $ + @ + + # $ 3 6 n n B S n 9 $ + @ # 6 n S S n h # +   + 3 n F P F S b 9 3 $ # + $ # + + + + @ # 3 3 6 9 9 6 3 $ 3 3 3 6 6 6 3 3 @ : 9 n D S n b c h 6 $ 3 c n b h 9 6 9 9 9 9 v D W 7XeXrX9X/ D : X   $ 3 6 6 3 @ + $ 6 n F E W G n 6 # + : 3 : : $ 6 6 3 3 3 6 S D R E F n 6 : 3 3 6 6 6 $ # # 3 6 9 c c h 6 6 6 9 n G W ~ E P n h 6 3 9 G W W P B 9 6 : : 3 3 v S E ) ) W D b 9 6 : $ : 3 6 h n n B n c 6 : $ : 3 3 6 6 3 6 6 6 6 3 $ 3 v S D S n h 3 : 6 9 9 # # $ : 9 S R R G G S n S G P G b h 9 h c 9 6 $ 6 3 : $ $ 6 c c c 9 3 $ $ 3 9 c n B D G D b 6 3 3 : @ + 6 D / 7X) ! S 6 + X + @ + # : 3 : # + + # # @ # $ 3 6 6 c h 6 3 : 9 B D F F F D n h 9 9 h c h 6 6 6 6 6 $ $ + + # 6 n D ! ! E S c 6 $ $ 6 6 c n c 6 # + $ 3 6 3 3 3 3 - $ $ 3 h b n S D S B c : @ $ 1 : 3 6 v S S c 6 3 3 6 6 9 9 9 6 6 6 6 9 c v b n n n n 9 $ + + @ $ 6 c G W ! W G S 6 6 3 3 6 c B G W W R S c 6 : $ $ 6 6 6 9 3 $ $ 3 6 6 6 6 $ + + # # # # # : 3 6 h h 9 3 : 3 9 9 9 9 3 # # @ $ 9 n S n 9 3 : 3 6 n n c 6 3 c S G G D c $ $ 9 n n c h n D R E E R B c 6 $ + + # $ 3 6 6 9 c n S F G R W ( ! F n c ",
"6 6 6 3 3 3 : $ : 3 6 6 6 3 3 3 3 3 3 3 6 9 9 6 6 6 3 $ # $ : : 3 6 6 3 9 n S S v c 9 6 3 3 : 3 6 6 6 6 3 : $ @ $ $ 3 9 b D G D 6 # X X # 3 9 h c v n S S c 3 : + + + + $ # $ 3 3 $ @ + + $ 9 n P G S 9 : $ : $ $ : 6 c c 9 6 6 3 3 3 3 6 6 6 6 # # @ # 3 6 c b c c 6 + + # # # # # % # - 6 6 6 3 3 # + # # 3 6 9 h 6 @ @ $ 3 6 v n B n c 6 $ 3 9 b v 9 9 6 6 9 b B B l 9 6 6 6 6 6 6 3 3 h v 9 9 3 3 6 : $ $ # # # $ 3 6 6 9 9 6 3 : 3 6 9 c v h h h 9 6 : : 6 b n b c 9 6 3 6 6 6 9 9 6 3 $ : : 3 : # @ # $ $ $ $ 3 6 6 9 9 6 6 6 6 6 h n S n 6 3 3 9 c 9 3 $ : # + + + @ $ $ $ $ $ # $ $ 3 h n D S v 9 : @ $ 6 9 c n n v h 9 6 3 $ $ 3 6 9 9 6 6 3 $ 3 9 n D E E R P D b 6 3 $ $ $ : 3 : $ # + + + + 3 n R / ) / W D c 3 @ + 3 6 6 6 3 $ $ # $ $ # + + # # + + + + # 3 9 n G W E F b 6 @ + @ 6 n S S n 6 +   X # 3 c B S n b 9 6 3 $ $ $ $ # # + + + $ 3 6 6 6 6 6 3 - # # $ : 3 : $ $ @ # : n n S S n v 9 6 $ $ 6 b n n c 6 9 3 : 6 9 n P / 9XrXrX8XW c + . # 6 9 9 6 3 $ $ 6 c D E E G v 3 3 # $ 6 6 6 3 3 : 3 3 3 9 n F P W E S 9 3 3 6 6 6 6 $ # @ $ 3 6 3 6 6 6 6 6 h n G W ! E F n 9 3 : 9 S E W R D n 3 3 6 h v b n G / _ ! D b c h 9 : 3 6 9 c v v c 9 6 3 # $ : 3 3 3 3 : $ $ 3 3 3 3 6 c S D S n b 9 6 6 6 3 # @ + 3 9 B R E R F D S B G W E S c h n b v 9 3 : : $ : $ 3 6 9 6 3 : $ $ 3 9 h c n B P D b 6 $ $ $ # $ 9 G ) 7X/ D b 3 $ @ @ + $ : : $ # # # + + + + @ # : 6 6 6 3 $ 3 6 h n G R R E n c 9 6 3 3 3 6 6 6 6 6 6 : # $ + # 6 b G W / / P B 6 $ @ 1 6 9 6 6 $ # # 3 6 6 6 3 $ $ $ 3 6 9 9 c S G P D v 6 3 $ # : 6 h b B F D n 6 3 9 n n c c 9 3 6 c n B n S P R R F n 9 3 + + $ 3 6 h v S S n b h 6 6 6 9 c n n n n n b c 3 : 3 3 6 6 9 c c 9 6 : 3 3 : : # @ # # @ @ $ @ $ 6 c n n v c 6 6 6 h c c h 9 # @ : 9 b D F B 6 $ 3 h c 6 3 3 6 c G / / G v 6 9 9 9 h c b B G E E W ! G c : # $ $ $ $ 3 9 c v B B S S B n h 6 # + + + @ # # $ 6 6 : @ @ 3 9 h 6 3 3 6 6 3 3 3 3 3 $ $ : 6 h h 3 $ $ 3 6 n D D n v 9 3 $ $ 3 6 3 3 3 6 6 6 6 9 b n n n B G P R R F n 6 @ + + @ 6 6 9 c c 9 6 9 6 $ + + @ 6 c n n b 6 $ + # 3 3 : : : 3 9 b n n n c 6 # @ $ 3 3 3 3 6 c D W ) 0X/ E B 6 $ $ 6 c n n b c 9 6 6 6 3 3 3 3 3 3 3 3 3 3 9 b n c 6 6 c c h 9 9 9 9 9 6 3 6 6 6 3 3 3 3 : $ : 3 6 6 6 6 6 8 6 6 6 6 3 3 3 3 9 c c 6 6 6 9 S E E G n h 6 : @ @ 3 n R / 8X7X/ D 9 $ @ @ 9 v c 6 $ @ $ c E / / E B 6 + + + # : 3 3 $ $ # # 3 6 6 6 6 6 3 $ $ $ 6 6 c b n 6 6 6 3 3 3 6 h b n v 9 3 3 : $ 3 6 : @ # 6 9 6 : : 3 9 c c h 9 6 6 9 c 6 3 $ # 3 6 6 3 6 h n S R R D l 6 6 6 3 ",
"$ : 3 6 6 6 9 9 9 6 3 $ 3 c S G E E E G n 9 : # : : 3 3 $ # + +   + @ $ c E ) 8X8X/ G h : $ $ $ 6 6 6 3 $ $ $ @ $ # # # # # # + + + + @ 6 n P W W W D 9 $ @ + @ 9 v v 9 6 # + X + $ 6 c n v 9 9 6 6 6 6 3 : $ $ # % + $ 3 6 6 9 9 6 6 3 3 3 3 $ $ # @ # $ : 6 h n n n 9 6 3 $ # 6 6 9 c 9 6 $ # + # $ 6 c S W ) eXeX/ b : # $ 6 6 9 c c 9 6 6 9 D R R G B x : # : : : 3 3 3 : 3 6 6 6 9 l S P P S n h 6 : 6 9 6 3 : $ # $ $ : 3 3 6 3 : 6 n F R / W F n 9 $ $ 6 v D E E P n 6 : 9 h v n S S D G P F S c 6 6 3 $ 6 6 c b b x 6 $ : $ $ $ 3 h b c : # # $ 3 3 6 9 9 c n D S c 6 6 9 9 3 @ X X # 6 D W / W G B b B W W E G n n n b c 9 6 : # # $ $ 3 3 3 $ : 3 6 9 9 9 6 3 6 n D D c 6 $ $ @ + $ 9 D G R D n h 6 3 6 6 6 3 : : : : # $ $ $ # @ + + $ 3 3 $ $ $ : 3 9 v B G F D b 9 3 3 : 3 3 3 : 6 6 9 9 6 6 # + # 3 v G E / W P S h 3 $ # $ 3 3 6 + + # $ 3 6 6 6 $ $ $ 3 6 6 6 u B S S n v 9 3 : 6 9 h c n D G S 6 3 6 v n n v h 6 6 9 n S D P W / ( / R S 9 # + @ : 3 3 6 6 6 3 6 3 9 b n n n b 6 3 6 9 6 6 6 6 6 6 3 3 6 b B B v 9 6 $ $ $ $ $ : $ @ + @ $ 6 9 B S B b h 6 6 9 v n B B v 6 $ $ 6 v G E P n 6 3 c h 6 $ $ 3 c D / / E n 9 9 9 9 6 9 c n D R W W P D b 6 $ $ 3 3 $ $ 6 h v b v n c c c c 9 3 # + # @ @ $ : 3 6 6 + # 6 v n c 6 6 h c c 9 6 6 3 $ $ $ : 3 3 $ # $ $ 6 v D D n c 9 3 $ 3 9 c c c v 6 9 9 6 9 c v c 9 v G W / W F n 6 @ + + @ : 6 6 6 6 6 $ $ $ $ $ + @ 9 S G n c 9 # $ 6 h c 9 6 6 v b b b b v h 6 # : : 3 3 $ # 3 9 B W 3X) W S 9 3 $ $ 6 h v n n c h 6 3 : 3 3 3 : 3 6 6 6 6 6 h 9 c c 9 9 h c 9 6 6 6 6 6 6 3 3 6 6 6 3 : $ # # 6 6 6 6 6 6 6 6 6 3 3 6 3 : 3 3 6 6 3 $ 3 b R / ) 7X/ D h 3 $ + @ 6 D ( 0X9X_ R c $ $ 3 6 h h 9 $ $ : 6 B W / ! b 6 $ + + + @ # $ $ $ $ $ : 3 3 3 6 6 6 3 $ # $ h h h 9 6 6 6 : + + $ c b c c c 6 6 9 9 9 6 : 1 $ 3 6 h 9 6 6 6 h b n c 9 6 3 $ $ $ $ # : 6 9 9 9 c S R E G b 9 3 $ # $ : : : 3 : : : $ + @ # @ : 3 : # @ $ $ # # $ 6 h v n n c c 9 6 6 h v v 9 6 3 $ : 3 6 6 6 3 6 6 6 6 3 3 6 9 9 c h 9 9 6 6 v c 6 $ $ $ 3 6 3 6 c B S v 6 3 $ 3 6 v B D D D 9 3 + X + 3 9 9 3 $ $ 3 9 n D P G D n 9 6 6 6 6 3 h n D P R G G B n 9 3 $ 3 6 9 h c b n A S n c 6 3 3 6 9 6 6 3 # $ 3 6 h b n n 9 6 6 3 3 : $ : : 3 3 3 3 : $ # : $ $ : : 3 6 9 6 9 9 h h h c c 3 6 c n n b 9 6 3 $ : 9 h 6 3 6 $ : 3 9 n F W W R D c : @ # 3 6 c n b 9 6 $ $ 3 6 9 9 6 3 3 : 3 3 3 3 3 : $ $ # $ $ $ $ # $ # @ + # 9 B D D B c b b n S G G F G F S v 9 6 3 $ : + # @ @ $ 6 6 6 # $ 3 9 v n n n n b D E G u $ + 3 6 6 3 $ : 6 9 h h 6 : 3 c B D ",
"3 3 3 3 3 : : 3 # # $ : 6 h b n c 9 6 6 c b n b 3 @ @ : 3 : 3 9 n B n 9 6 c b n b v h 6 $ $ : : : $ $ @ + + @ $ # $ # @ @ @ # : 3 c S D n c 9 6 9 6 : $ # $ 3 c v n v 9 3 # # : 9 B E / / R n h 6 $ @ # $ # @ # + + # $ 3 6 3 3 3 : $ $ 3 6 h v S B v 9 6 6 6 9 9 c n S D n c h 3 8 c n n c 9 6 b n B D F R W ) 8X8X! n 3 @ + + 6 3 : $ @ @ $ 3 9 v S D S c 6 3 $ 3 : : 3 6 6 6 : 3 7 c B D D D b 9 3 # $ 6 6 : + + $ 3 6 9 c b S S v 6 3 9 n D F G D n c 6 3 9 P W E D n c 6 6 : : : 3 c F / ) ) W S 6 : 6 c v 9 9 v S F E E P c 3 3 3 3 3 6 : 6 6 9 h h 9 9 h v v v v 9 : # # @ $ 3 3 3 $ : 6 n n n b b b b b v n b 9 6 3 : $ : 3 6 6 : $ 3 6 c n S n b 9 $ # 3 h n B S B b 9 9 6 6 h 6 3 6 c E / ) ( E n 3 # + + + # $ 3 6 3 3 $ $ # + + $ 3 9 c n D n 6 $ 6 v B S n c b n b 9 h b n n 6 : 3 9 6 $ # # # 6 b R ! / E D h $ + $ 3 h n B n v 9 : : 3 6 6 6 3 : 3 3 3 6 9 c v b 9 c c c c 6 : $ 3 6 6 6 6 h 9 6 6 $ # $ 3 6 6 9 6 3 6 6 9 6 6 6 9 9 6 3 3 3 $ # + $ h G / 7X8X3XR S 6 # + + 3 c / 7XqX9X/ D 9 $ $ : 6 h 9 3 $ # 3 9 S E E B 6 $ + + @ # # # $ $ > , 3 3 6 6 6 7 6 3 > $ : 3 9 c 9 9 9 6 3 + + $ 6 c b c h 9 9 c n n c 6 3 6 6 9 c c c c b S D S D n 9 : @ + + # 3 3 6 9 c c n S R R G B c 6 $ @ $ # $ $ : $ $ $ $ # + + + # $ $ $ # @ $ : $ : 6 9 c n n n 9 6 6 c v n n v 6 3 $ 3 : : 3 3 : $ : 9 9 6 : 3 c n S n n v c c v c 9 6 $ # $ 3 6 c n D D n 6 : $ : 3 6 9 b S n 9 # + # $ : 3 3 # @ $ 6 c n S S n c 6 6 3 : 6 9 9 c n W ! / W R G S b 3 : 3 9 c v v v b b b v h 6 : : 6 9 6 : # @ $ 3 b n n v h c c 9 6 3 3 3 3 : : 3 6 3 : : : $ $ $ : $ : 6 9 6 6 h c h h h 9 6 9 h C S B h 3 3 3 3 9 9 6 3 , $ > 7 S G E W R D v 6 + X $ 9 c v c 9 3 3 : 3 9 n n v 6 : $ $ 3 6 6 6 6 3 $ @ @ # $ 3 3 : $ @ @ $ 7 v n n v 9 9 b S D S S D P F n c 9 c 9 3 # + + @ $ 6 3 3 3 3 3 6 c S D n 6 6 S R R n v 6 : $ : 3 3 $ : 6 c v c 9 6 3 : $ $ $ @ + + # # $ $ $ $ 3 3 3 6 6 6 6 $ + + X @ 6 B P W W E 6 $ @ $ : 6 6 6 3 $ $ $ 3 6 6 6 9 9 9 6 9 c n n 6 3 : $ $ @ + @ @ $ : 3 3 $ + # : 3 6 6 6 6 6 3 6 c S R R S 9 : 3 $ + + @ 3 6 6 @ @ $ 6 9 6 9 c D S n h 3 # + @ $ : $ # # # $ $ 3 6 6 3 3 $ # # 3 3 3 6 9 v b c c 9 9 x c 9 6 3 6 3 : # @ @ # # $ : 6 9 h h 9 9 3 6 9 c c 9 6 3 : 3 3 6 6 6 9 c n B n n v v v v B B n c 9 6 6 6 c n G R P n 6 3 3 , 3 9 c S P R W G b 6 $ : 6 9 b B B B n c 3 $ $ $ $ : 3 6 6 3 $ $ @ + + + @ $ $ # @ + @ : 6 9 n D P E E D n c c b n n n n c c 3 : @ @ # : 3 3 9 6 : $ 3 6 c n n c 6 $ + # $ $ # # $ $ $ : : # : $ # + + @ $ : , 6 c C S c 3 $ ",
"3 : : : $ $ : 6 n n n c 3 # @ @ 9 n D G D S n v 9 6 3 : $ 3 c S / ) ( R n 6 +   X + @ $ $ 1 : # # @ @ # # + # 3 v n n 9 6 6 9 c D G G S n n v c 9 9 9 h h 6 3 : 3 $ # $ $ $ 3 b R W E D b 9 3 : 3 6 c n n h 3 : $ 3 6 6 6 6 3 $ $ : 6 c v c v n D D n 9 3 3 : $ # 3 9 b n v 9 6 6 3 3 6 6 6 6 6 $ 3 6 c b c h c n n 9 $ @ @ @ $ $ 9 G ( 7X3X/ G v 6 # # : 9 S E ) ) W G v 6 : $ 6 6 6 6 6 3 : 3 6 h v b c 3 @ + + + + + @ # $ 3 9 6 6 6 6 3 6 6 3 3 : $ : : 3 9 h b 9 $ $ $ : 6 b b h 3 6 n D D S n h 3 3 c n B c v B F E W R D n 3 $ : $ # $ $ 3 6 9 c n D G P G D c $ + + # # @ $ 3 6 6 3 # @ + # $ $ $ : : : 3 : $ : : 3 6 9 n b h 6 3 3 9 c B S n c 6 3 : 3 3 : $ : : : : 3 $ 3 9 n S S S S S S B n b 9 : $ : : 3 6 h n S B b 9 3 3 : # $ 3 c n b 6 3 $ + + : 3 $ # + $ 6 v D D n 9 6 3 $ $ 3 6 6 3 9 S E / 7X7X_ E B 9 : $ 7 h c h 9 c c c c 6 3 $ $ $ : 3 3 3 : $ 3 c n n b v v b v 9 3 3 6 6 3 3 3 : 3 3 3 3 : : $ $ : : 3 6 6 6 9 c c c 9 6 6 3 6 n S B c 6 6 6 6 9 c c 9 6 $ + 3 9 n G E W E D n 3 + + 3 6 h v 9 3 $ : 6 c D E G c : $ $ $ : 3 3 3 : : $ $ $ : 3 6 3 3 > : > $ 6 h c l h 9 v S S n c v S S n h 9 6 6 3 # @ + @ $ $ $ : $ 3 3 6 9 n S B 6 6 v G P S h 6 : : 3 3 3 3 6 h n S n h 6 3 3 : $ # @ @ # # # $ # # # # $ 6 6 6 $ : $ $ # + + 3 D E W P S h : # $ 3 6 9 9 6 3 $ $ 3 6 9 9 6 9 9 6 9 9 h 9 6 : $ $ $ $ $ # $ $ : $ 3 $ $ : : : 6 6 9 6 $ 3 h S G W W P n 9 : # + @ $ 6 c h : @ # 6 v n b n F G D 6 # @ $ $ : 6 3 3 3 6 3 3 3 3 : : $ # @ $ 6 c c h h b B n 9 6 6 c b h 3 : $ $ : 3 3 : : $ $ $ : 3 3 3 6 6 6 6 6 6 9 6 : $ : 3 3 $ 6 9 v n B n b c c b n B S C n 9 7 3 , 6 l n S F F n 6 : : 3 9 h B R / / R n 9 3 # 3 6 c n S B v c 6 $ # # $ 3 6 6 6 6 3 $ @ + + + @ # $ $ # # + @ : 9 n D R E / ! F c 9 n S S B n n b h 6 3 $ $ : : 3 3 3 : $ $ 3 9 n b 9 3 $ : 3 3 3 3 6 6 6 3 $ $ : : $ # $ $ $ 3 6 6 6 3 3 $ $ # @ $ 6 9 9 : $ $ : : 3 3 3 6 3 3 $ @ # $ : 6 6 9 h 6 3 : : v v b n c 6 3 : # $ : 6 6 6 9 9 6 6 6 6 9 b n b c 6 3 3 3 3 3 3 6 3 $ @ $ 6 n R ) 7X) W G n c 6 $ + + @ $ : 3 3 3 : $ # + + + + 3 9 c v n n v 9 $ $ # $ $ : : : $ : $ # $ $ # $ $ 3 3 : 3 3 6 h v v c 9 6 h v n v v c 9 6 3 3 3 6 6 9 h 9 6 6 9 v n S S n c 6 3 6 3 6 6 6 6 3 3 3 : 3 3 6 6 9 h c b S F R R G S c 9 6 6 6 6 h n D P A 6 3 6 6 9 9 7 h b v v c h : 3 $ # $ : 6 9 h v c 9 6 $ @ + # $ 1 3 : 3 6 3 6 6 6 3 : $ $ $ $ $ $ $ $ : 6 9 9 h 3 + + # 6 n E E R B c h c v b n 9 $ 3 b D D v 9 3 $ $ $ 3 6 6 9 h c c c 9 3 + + 3 v S D G G G D n v c c c h 6 6 6 9 9 6 : $ ",
"v h 6 $ $ 6 c n S S b h 9 3 $ : : 3 3 3 3 3 6 6 6 9 v S D S n S G G G S c 6 : @ # $ 6 h c n n c 6 : $ $ # @ # 6 v n n 6 $ $ $ # 3 $ # + $ 6 v n n n c 6 $ # # $ $ 6 6 6 c F ^ 3X0X7XE n 6 : : 6 c b b h 9 c c 9 6 3 : $ : 3 3 $ 3 3 6 8 h b n b c 9 9 9 9 6 6 6 6 6 3 : : 3 3 3 : $ # # $ : 3 3 6 6 6 6 9 9 9 6 > : 3 h b b c 9 3 6 c B D S b h 6 3 $ # 3 b G W / / R n 9 $ + $ 6 c h 6 : # : c P ! W G b 3 + + + $ 6 6 6 3 : : # $ : 3 6 6 3 3 $ $ : 6 9 c n n b c h h c b b v c h 9 9 6 3 $ # $ @ # $ # $ 3 3 3 3 6 v n b c v c c c v h 6 : : 6 6 3 $ 6 n D D S n 9 6 3 3 3 3 $ # # @ @ @ # # # $ $ $ : 3 3 : $ + + @ $ 6 n S R R S h 3 : 3 6 c b v 9 3 $ $ : 3 6 6 6 6 6 6 6 6 9 6 : : 3 3 3 # + # : $ : 3 $ $ $ : 3 6 v n b 6 3 6 h n F E E G S c 6 $ + + 3 h c h 3 $ 6 c v n S G W R n 6 $ : 3 6 6 6 9 9 h h c 9 6 6 3 $ $ $ : 6 h c b n B S B c : : 6 c c 6 3 $ $ $ : 3 6 6 6 3 : $ # $ 3 3 6 6 6 6 6 9 6 3 $ $ : : 3 6 9 c b n n b c c c b n n b v c 9 6 3 : 6 9 c n S b 6 $ : 6 6 h B D W ! E S c 3 # $ 3 c n S S n 9 : $ @ @ $ $ 3 6 6 6 3 : $ # # @ @ @ # $ # @ + + + @ 6 v S R W W R n c c n S S D G D S v 6 : $ : : : $ $ $ $ : 6 9 c h 6 3 3 6 9 h 6 6 h n b 9 3 $ $ $ $ # # $ 3 3 6 6 6 6 3 $ # @ # # : 3 3 $ # % $ $ $ 3 3 6 3 $ 3 : $ + @ 3 6 9 h h h h 9 6 6 9 h c 6 $ $ $ $ : 3 3 6 9 6 6 6 6 9 h c b b 9 3 3 3 3 : $ $ 3 : $ + $ 6 v D R E E S n h 6 3 $ # @ 3 3 3 3 : $ $ # $ @ + + + $ 6 9 c c c 9 3 3 : $ : : 3 : $ $ : $ @ @ @ # $ 3 6 3 3 : 3 6 9 9 9 6 6 6 9 c b n n v 9 6 3 3 6 6 6 6 : 3 $ $ 3 v S D n v h 9 6 3 3 3 6 9 6 : > , 3 3 3 3 6 h c n D G P G D n c n n h 3 3 9 S P G S B h 9 6 3 6 6 c v c c v n c 6 : $ - 3 5 9 c v n v c 6 3 $ # # $ $ : 3 6 6 3 : : 3 3 3 : $ # $ $ # @ # 6 b n v 9 6 $ $ 6 v S D S S n c h c h 6 : : 9 c n B n h 3 $ @ 3 6 c b h 3 3 6 3 $ + + # 6 h n n n v c v c 9 6 3 3 6 3 $ # $ 3 6 6 6 h c 9 9 : $ + + + $ $ 3 : $ 3 6 3 $ $ $ $ 3 3 $ 3 v S D D S n c 9 6 3 6 6 9 S W W P S v 6 3 9 n G _ 9X8X! G B v 9 9 9 9 9 9 3 @ $ 6 S ! eXuXrX) W G v 6 + + + $ 9 S R E G D n n n S D D n c 9 9 9 6 6 3 : $ $ : $ + X $ 9 n S S n 9 $ @ @ $ : : : $ 3 c D F F B c 6 : @ $ @ $ 3 6 v B n B B n n B D D B b 9 6 3 $ : : # : : 7 c v l h 9 6 6 3 , : , 3 6 h v v 9 6 9 6 6 3 : $ : : 6 9 h v b c 9 6 9 h 9 3 : : 6 3 3 3 3 3 3 3 : $ 3 6 3 3 3 6 6 6 3 3 $ # $ $ 6 9 9 6 6 $ : $ $ $ $ 3 6 9 c c 9 6 3 $ $ + + + + $ 9 n D P P G G G G F P E P B 3 # > 3 3 > : : , : : : : 7 c B P ! / ! W S b n D S B n b S S n n b b n n c 9 6 6 6 3 3 3 ",
"S B c 6 3 6 9 c c v h 6 : $ $ 3 6 9 6 3 : 6 6 6 : 3 3 6 6 6 6 6 3 3 3 6 6 3 $ $ 3 3 6 c n S S b 3 3 6 v S F G G P S 6 @ + @ 3 9 h h 6 $ $ 9 n S D D G D n 6 $ @ 6 9 9 9 v n B B v b c 9 6 3 $ $ 6 6 c n B B n b c 9 6 6 6 9 h h # @ @ $ 3 9 c c 6 3 $ $ $ # $ $ 3 3 3 3 6 6 3 : : $ $ 3 6 6 6 9 v n n c h c b n b b n n v h 6 6 : 3 9 c v c 9 6 $ $ 3 6 b G E ! E F b 3 # + # 3 b n n c 9 3 $ $ : 3 : $ 3 6 6 6 3 3 $ $ $ $ @ + $ : $ # + + + @ 3 9 S E E G n v c n S D F R R G S v 9 6 3 $ # $ + # $ $ : 9 h 6 $ : 6 v b c 9 h n S D n c 6 $ + $ : 3 3 : 3 6 9 9 6 6 : # @ @ # $ $ : $ $ $ $ $ : 6 9 6 6 3 3 : $ # @ $ 3 6 c n D S v 6 3 3 3 6 3 3 : @ # : 3 3 6 6 6 6 6 6 6 h n n c 6 3 3 $ : 3 : : 3 $ $ $ $ 3 6 9 b n n c 6 6 3 : : 3 9 v c 6 3 $ $ : $ # # $ # # # $ 6 6 9 6 6 6 6 6 3 : $ # $ : 3 3 $ @ @ # $ : 3 6 3 $ $ 3 , , 3 6 6 3 6 h c c v v c 9 6 3 6 6 3 3 : $ + + $ 6 v B S n n c 6 6 9 h h h h 3 $ : 3 3 : $ 3 6 h b B S S n n b b n S b 6 3 6 c n D G D S B c 3 $ 3 9 9 c n n G D b 6 3 : : 6 9 h c n n b c 9 3 $ $ : : 3 3 : 6 3 : $ $ $ $ $ # + + # # # $ 6 B S S n c 9 9 9 9 9 c n S S n c 6 6 : # # 3 9 c n b 9 3 $ $ 3 6 n n c 3 # $ : $ + # # # : h v c 6 6 3 6 6 3 3 3 : 3 : $ $ 3 6 6 3 6 9 9 6 3 # + + # $ 3 3 3 - - $ $ # + # : 3 3 3 3 6 v n B B S b c 9 3 3 6 c n G R G n c 6 3 9 v G W _ / R n 9 9 6 6 6 6 6 : $ + $ v E 7XrXyXeX3XW D b 6 $ + # $ 6 b S S n b c 9 h c c v v c h h h h 9 6 6 : @ # # @ + # 6 h 9 6 3 : $ $ $ : : # $ 6 c b B G F n c 6 6 3 3 3 6 6 9 v n n n n n G D S n b b c 9 3 $ # $ : 3 6 h c c c 9 3 : : , 3 : 3 6 9 c b b n v v v h 6 : $ : 6 h c c c c 9 n v c 9 h c c 9 h 9 6 3 $ $ : : 3 $ $ 3 3 3 3 3 $ $ # + + # 6 6 6 6 6 8 6 6 3 $ : $ $ : 6 h c h 6 3 : $ @ + + X + 3 B W / W G S c n D P R D n c 6 6 3 6 6 3 $ # + $ : 3 6 h n F / / E A c c b n S D S n n S D S v c b n n 6 $ $ $ 3 6 6 9 9 h n G G n 9 3 : $ # : : 3 3 9 B G S D b 3 + $ v G E ! R n 9 3 $ # # : 6 h c n n c 6 + + 6 S E ( 7X7X/ E R P R W / ( / W G c 3 @ @ 3 S R G n 9 3 # + + + $ 9 n F R E F G G R W _ 3X) ( E B 6 $ @ # $ $ $ # + # : x G 7XqX9X( G c : @ 3 6 9 c n b n B v b c 6 $ # $ 3 $ : 6 v n G R P G B h 3 $ $ : 3 3 $ $ : 3 6 v n b b c h 9 h l c B b b v v c h 9 6 3 $ $ $ $ $ 3 : $ $ : 3 6 6 6 3 $ # $ : : $ : > # @ + # 3 9 7 6 : $ $ 6 h c c 6 3 3 6 6 9 9 6 : $ + @ $ 3 3 3 $ # @ # 3 h n D F G S b h 6 3 3 3 3 : $ # $ $ $ + $ 6 c b b v c 6 6 3 > : 3 9 9 7 7 6 6 9 c b n c v b b v b B D 3XqX9X) W D n n G D n 6 6 h b v h h v n n 6 # + ",
"P S c 3 @ # : 3 6 6 3 $ + # 3 6 h c h 6 6 9 c c n b h 3 : : $ $ # # @ $ $ # + $ $ 3 6 6 9 9 6 6 3 6 9 v n S B n 4 3 $ # $ $ $ : $ : $ @ # 3 9 h c v v b c 3 + + # : 3 : $ # # : 3 3 3 3 3 : $ : $ $ # $ 3 6 h v c 9 h v c 9 6 6 6 3 3 : $ # + + # $ 6 v n m c 9 9 9 9 h h 9 6 3 : $ : 6 6 6 6 h n S S n n b b v B B B b c 6 6 6 v B F P G n h 6 6 6 6 9 c n D D G S c 6 : 3 6 c h v n S n c 6 $ # $ 3 6 6 6 3 3 $ $ $ @ # # # $ # # + + @ 3 h n S D F P D v 6 6 b S D D B n c 6 $ @ + # 3 6 9 c 9 6 $ @ $ 9 b v 9 3 $ $ $ # @ @ + @ $ 3 6 6 3 : : $ $ # # $ : 3 3 3 3 : $ $ : : c c h 6 : $ $ # 3 3 3 3 3 3 : $ + $ : 6 9 6 3 3 : 9 v n S S n c h 9 6 3 6 b S B v c 9 6 6 6 h n R W P n v 9 3 6 6 6 3 : $ + @ $ c G 8XuXuXeX/ R S c 3 @ X + $ $ 6 c c 9 6 : $ 3 6 6 6 9 h c c h c 9 6 $ # $ $ : $ @ # 3 6 6 : $ $ @ # $ $ $ : 3 9 c n D D n v c c h 9 9 6 3 3 3 6 9 c c v B D D n n n S B v 6 : $ $ $ 3 6 9 9 6 6 : $ 3 3 : 3 6 9 9 h v n B S S n c 9 6 3 $ 3 9 n B n b c c c 9 h 9 9 h c c h h 3 3 $ # $ $ : 3 3 6 6 6 6 6 3 # + X + : 6 9 9 6 3 3 6 6 6 3 : : $ $ 3 6 6 3 3 3 3 $ # +   X : h W / ( E n h c v R G D n c 9 9 h c h 9 3 $ # $ $ 3 9 v n D R E G c 6 3 6 b D G F D D S S n v h h b c 6 $ @ $ 6 6 9 9 9 9 9 c c 9 $ # % $ $ # $ - 3 6 9 v n v 9 6 # 3 b P W R B c 9 $ @ $ $ : 9 n G R D c 6 $ $ 9 R / 8X9X7X/ W R F P R R E W R D 6 + @ 6 n E ) ( F b 3 $ +   + $ v S R W W W E R W ! ( ) _ W S c 6 $ @ @ @ $ : : + + $ h P 7XeX9XE S 9 : $ : 6 9 h h c b n S B v 9 6 $ $ $ # : 9 n G R R G S n c 3 3 3 6 6 6 3 : $ : 6 c b c h 9 h h h h c v v v 9 9 6 9 9 6 $ $ @ @ # $ $ # # : 3 3 6 6 3 : 3 6 + + @ # @ + + + # : 6 6 6 6 3 $ 3 6 c n c 3 $ $ 9 9 9 6 $ # # + 3 : 3 3 $ $ $ + # 3 c D F D n c 9 6 3 $ @ @ $ $ $ @ + + # 3 h n F G S n v c h 9 3 $ $ 6 6 6 6 6 c c c h h 9 h n v n S G / 0XqX8XG B n S D n c 9 6 9 c v c 9 3 $ $ $ : 3 6 9 b D R R D c 3 $ $ # # 3 6 h G ) eX9XR b 3 $ 3 c G R G D n 9 $ $ 3 6 h b 6 + + # # # @ + + $ : 9 v h 6 6 9 c b n n b v v c c 6 3 $ @ + + X + 6 D E E n 9 : $ $ $ 3 6 6 6 6 9 c D E / / W F b 6 : $ # + $ $ $ 3 3 6 h S G G F S c 6 6 6 v S G R G S n b b n G D c $ + @ > h n S n b c b c h 6 3 3 6 6 3 6 9 9 h 9 9 9 9 h 9 6 6 h c c c n F R G B h 6 $ 3 6 c S E ! W b 6 $ @ + @ $ 3 6 6 6 9 b S F G n c 6 # + # $ # 3 9 n B n 9 3 $ : $ $ $ $ $ $ $ $ 3 6 3 $ @ $ 6 b n n v 9 3 $ $ 6 v n n n b h 6 9 6 6 : $ 3 3 3 : 3 3 3 3 6 3 3 6 6 6 3 3 3 3 : 6 6 6 6 9 n D F S n b n n n A D S S S D G W W G 9 6 $ : 6 9 6 6 6 6 n H D c $ + ",
"3 9 c b n n b c 6 3 3 3 6 c b c 9 6 3 6 6 6 c n D D n 6 $ : 3 3 6 6 : $ $ + # 9 R _ 9XqX0X/ G n 9 3 # + + + $ 6 6 6 6 : $ $ $ $ $ : 6 9 c v c c 6 6 3 $ $ # $ $ $ : : : $ # + @ @ # $ : : : 3 6 v B S n b v c c c c v b h 6 3 $ 6 6 9 h c v b v c v n S n c 6 : $ $ 3 6 6 6 6 3 $ $ : 6 6 3 6 9 9 c n S D F G D b v h 6 6 6 h v D D n c 6 6 h c 6 6 h v b c 9 6 $ $ $ $ # $ 3 3 h 9 9 6 3 $ @ + @ # : 6 3 3 6 6 6 6 8 6 3 $ # $ 6 6 3 3 3 3 3 3 3 $ +   + 6 D E ( ! G c 6 9 b n S S c 3 6 v n n 9 3 # @ # : 6 6 6 9 v S S n 9 3 @ $ h F E G S S S S n c h v c 9 3 $ # # : 6 h c 6 6 3 : $ # $ $ @ + @ $ 3 3 3 6 3 6 6 3 3 # # 3 D G R F B c 3 $ : $ $ 6 c D W ! R D h $ $ c G / 8XeX9X_ W F n B B D F G S c 6 3 6 c E 8XeX7XE D 9 $ + + + $ h B R W W R G F G E W W P n 9 6 6 3 # @ $ 3 3 $ # $ @ 6 D / 3X/ G n 6 : : 3 3 3 6 3 6 h S P F n 9 3 # $ $ @ $ 6 b B G F G S n b c 9 9 9 9 6 3 $ # $ 6 9 9 6 6 c n v c c c c 9 6 : > 3 6 9 9 6 : # + $ $ $ @ $ 3 3 3 3 6 6 6 6 6 : $ $ $ @ + + @ $ : 6 6 6 3 : 3 6 6 9 6 3 $ $ 9 v c 6 3 $ $ $ 3 6 6 6 3 $ # + @ $ 6 n B S n c h 6 3 @ @ @ # # @ $ 3 3 6 6 h n F R P D D B v 9 3 : $ 3 3 6 3 3 6 6 6 6 6 9 c n S F R E W _ 8X_ F n v n B n b c v v c c c h 6 3 : $ # $ 6 c S E W W R n 9 1 $ $ $ : 6 c S / 0X8XR h : $ 3 b R / ! E F 6 $ @ $ : 3 3 3 # + + # @ + @ : 6 c B D S b h c S G G G G R G n c 3 # + X + $ # : 6 v D S c 3 $ 3 6 9 9 9 9 9 h n D W ) 7X_ R S 9 3 # # # $ $ $ # : 9 n D R W W D v 6 3 3 9 b n P E R B h h c 9 h c 6 @ @ $ 3 c n S S B n n c 9 3 : : 3 6 6 6 6 h h v B B b c c h 9 7 h m D G R G D n 9 6 $ $ 6 S F G D n 9 : # $ $ $ : 3 : : 3 c b S F S 9 $ # @ # $ 3 6 h c b v 6 3 6 6 6 6 3 $ $ : : $ : : # # @ : 8 6 6 9 6 3 $ : 6 9 b S D b h h h 6 3 : : 3 3 3 3 3 : 3 3 : 3 6 6 6 6 6 : $ $ 3 6 6 3 3 6 c n F E R D c 9 c n S F R Q W E E P R R S 6 # # : 6 6 6 6 9 6 3 3 : $ $ : 3 9 b D F D n h 9 6 3 9 v S F P G n 9 9 : $ $ $ $ $ # : : : $ 3 h B G E R n 6 $ : 3 6 # + # : 6 c v h v 6 : # @ @ $ : : $ : 3 3 3 : # @ + $ 3 6 v B n c 6 $ + + + @ $ h b n n c 9 6 6 c c 9 3 3 9 c c 9 6 3 $ $ @ + $ + $ 6 b B n c b c c h 6 : $ # @ 3 c G / ! D 9 : : > 3 c c 6 $ # 3 3 3 3 : $ # # + $ : 3 6 6 : : 6 h n S F F S n h 6 : : 6 6 3 3 $ $ : 6 9 9 6 6 6 3 6 9 h 9 9 6 c n D D S n h 6 9 9 6 6 3 + + @ # $ $ $ 3 3 3 6 9 b B B B S D F R R R G F D G R ) 7X7X( R n 6 3 3 6 6 6 9 9 9 9 9 6 3 : : 6 6 6 6 6 : $ $ : 3 3 6 3 6 6 6 3 3 6 $ $ 3 3 6 6 6 3 : : 6 c n b h 6 : $ 6 b n S n h 6 6 c D P D n n c 9 4 3 3 6 9 n ",
"! E F B c 6 3 3 3 3 6 c S E / / D v 6 3 9 B W 3X9XqX3XR S n v c c b b c 9 $ # 6 D ! 8XeXeX) G n 6 #   X # 6 n D Q E R G D D D D G D n 9 6 3 3 : # $ 3 3 3 # + # 3 c F W W D 9 3 $ $ 3 3 : $ : 3 h n G G S c 6 $ # $ $ : 3 h n S G G D n b n B n b c 6 3 $ $ $ : 3 6 9 h h h h h h 9 6 3 3 3 3 6 9 9 9 3 : $ $ $ $ # @ # $ 3 6 6 9 9 9 6 6 3 3 $ : $ $ $ $ : : : 6 3 3 : : 6 9 9 3 3 6 6 6 6 6 : @ + $ 3 6 6 3 : 3 $ @ + $ 6 9 v n n b c 9 6 $ @ + @ @ + $ 6 c b c n D G R G F F D D v $ + $ 3 $ 6 : : 3 3 3 3 6 9 v D R E R P R E E E P S b c c b n c 9 9 v n n c 6 : # $ : 3 6 9 n E ) ) E n 9 3 : : 3 : 3 h B W / / E B 3 @ : v G / ) / G h 3 # @ $ 3 3 $ $ $ $ # + X + 6 n P / / E B v c n D E ! ! W R B 9 : @ + + $ 3 3 3 6 h 9 6 : $ : 6 c c v v b n B F E 3X8X8X) E A 9 : 3 $ $ $ # @ # : c D / 3X) W S h 6 $ $ 6 c S F F D n c 9 6 6 6 3 6 : $ $ 3 c S D D B n v h 6 3 : : 3 3 6 6 3 6 c n n n n c 6 9 h v n S D D F S B c 9 : @ # 3 9 b B B c $ + # 3 : : 3 3 3 3 3 9 b n n 9 3 # @ # : 3 6 6 6 7 9 9 9 9 6 3 3 3 6 6 6 $ $ $ $ $ # $ : : : 3 3 : : 3 9 v n S S n n c 6 6 6 6 3 3 $ @ + # $ 3 3 : 3 3 6 6 6 6 3 : : 3 3 6 6 6 6 6 c B D F G D n v c b B R W ( ) / E G S G S c : @ $ 6 6 c 9 6 3 : $ $ : 3 3 3 6 c S D D c 6 $ $ : 3 h n G R E E G v 6 3 3 3 3 6 6 3 : $ $ 3 c B F E G n 3 @ + $ : @ + X $ 3 6 9 h 6 : $ $ @ @ $ $ $ $ : 3 3 3 3 $ + + # 6 c D G D c 3 # + @ $ : 3 6 6 9 3 3 6 c b n n n h 6 6 6 6 3 $ # @ + + + @ $ 6 h A n n c 9 h c c n c 3 # 3 b G W W R c + X : 6 h h h 9 6 6 9 9 6 3 $ $ : 3 3 3 6 6 3 3 3 3 3 6 h b n n c h c v v c c 9 6 3 $ $ 6 v B B b c 9 6 6 6 6 6 3 6 n D D c c v n n c 6 : : : # + + $ 3 3 6 3 3 3 3 6 6 9 c 9 h n S G F G v h n F W ) 8X3XF n 6 3 3 6 9 9 6 6 6 9 6 6 6 3 3 6 9 h 9 6 : # : 3 6 6 6 6 6 6 6 6 6 3 $ $ : 3 6 9 h h 6 6 9 c n n b 9 3 3 9 b D G S h 6 9 b n D S n 9 6 3 3 : $ $ # @ # $ $ : 3 6 c b n n v c 6 9 v S n 9 $ @ + + @ $ 1 6 9 6 # # : 6 c n n h 3 $ 6 n G ! / W F D W 7X8X/ F n c c b n n 6 @ + $ 3 9 c c h 6 : $ # 6 v b n n b 6 3 @ + @ 9 D R W ! ( ( ! P n 9 $ : $ : 6 c v c c 9 6 $ $ $ 3 h F R D c 9 b n S G F S b 9 6 : # @ 6 R 9XuXeX_ E b h 6 3 3 3 : 3 3 3 3 3 3 3 6 6 9 6 : # $ $ : 6 9 b D R W R S n 9 3 $ $ $ # # # $ : 3 6 6 6 9 9 6 3 3 3 3 : $ # # : c D S c 6 6 c n R / W n 6 3 9 v n n n S E ) rXrX) D h 9 c n S S S D P W ( 7X( ( / E D c $ + + + # 3 6 : $ 3 3 3 : $ : : $ $ # $ $ 3 3 3 $ $ : : 3 6 6 6 9 h v b B S n h 6 : @ # $ $ 6 h v b 9 9 6 6 6 6 6 c 9 h h 9 9 9 c c v c 6 $ # $ 6 6 ",
"/ / ^ W F c 3 @ $ $ : 3 3 6 h 9 6 : + + 3 B W ) 7XIXW S n S G E ` / / W G c # + + 6 c n n h : @ $ $ # + $ u S D n n n S G P W ( 8X8X_ F c 6 3 # 3 # + # # + $ h P / 8XqX3XG 8 # 3 3 6 h n S D D B c 9 9 6 3 : $ $ $ 3 9 c n D G D D n 9 3 3 3 $ 3 : : : 6 9 c n B n b h 9 9 h c n n S D S n c 6 6 3 # + # 6 9 9 6 : $ $ : 3 3 3 @ @ # $ 3 6 6 6 3 $ # @ # 3 6 9 3 : : 6 9 h h 9 6 3 : $ 3 6 6 6 $ # + @ $ 3 6 6 $ $ # # : 6 v B G F D n c 6 6 6 6 6 : $ $ @ @ @ # $ 3 9 h 6 6 6 6 6 6 3 3 3 6 6 6 6 9 9 c n D D n b c h h n F W 9X9X3XR D F F S n c 9 6 6 6 9 h 6 6 3 : $ $ 3 6 9 9 c n S n h 9 $ # # : 6 c D E ) ) ! F b 3 # $ h v v c 9 6 3 3 9 v B G D c $ + $ $ $ $ @ X   + 3 6 6 3 $ $ # # $ 3 3 3 6 6 6 6 : $ $ @ + + 3 c E E F c 3 $ + + # $ : : $ $ $ 3 c b D R R S c 6 3 3 $ @ + @ # # + # $ 6 h n S S c 9 9 c b B B n 6 6 h n F E P B $   X 3 9 c v c 6 6 6 h h 6 : $ : : 3 6 6 9 9 h 3 3 6 6 9 9 h 9 6 9 b B B C n c c 6 : $ 6 b D P D S b 6 3 3 3 3 $ 3 9 n n n n n G D n c 6 $ @ +   + $ 9 l l 9 3 + + + $ 3 : : 6 9 c b b c 9 6 6 b F / ) / P v 6 $ : 6 v n c 9 6 9 9 6 3 : 3 6 6 6 6 3 3 : $ 3 6 9 9 9 6 6 6 3 3 : : $ : 3 9 v n v c 9 6 6 v n B c 9 6 6 n G E R b 9 6 6 h c c b 3 3 3 : $ $ # # @ $ : 3 6 h v n S B n b c 9 c n B B c $     + + # $ : 3 3 $ $ $ 6 9 v n v h h h S F D S D B n F W W R n c c c c c 6 3 $ # $ 6 h 9 h 6 3 : @ + 3 h b n n h 6 $ @ # $ 6 v D E / _ 7X/ P n 6 : $ $ : 3 9 n n b c 9 : + + 3 9 b n n 9 9 v n S D D S 9 6 $ @ # : n W eXuXeXW b 6 6 3 3 3 : $ $ : : : 6 3 3 3 3 $ $ $ $ $ : 3 9 m D P / / E S h 6 $ + $ # + + # $ : 6 3 3 : 3 3 $ : 6 h 9 3 # # 6 c n S B h : 3 b D G D B 9 + # c D D v b D W 3X7X_ W n b n D G P P F R R ! ) 7X) ! P D c 3 + + # 3 3 3 3 3 : $ 3 3 : : $ $ $ $ $ : : $ $ : 6 6 3 : 3 3 6 3 3 6 h v c c 9 3 $ + @ $ : 6 9 9 9 9 6 3 $ 9 9 6 : 6 c n n h c n D S c 3 : $ 3 3 3 : $ # # $ $ 3 6 9 9 6 6 3 3 6 9 9 3 $ # $ : 3 3 6 6 3 $ # + @ 3 h S G G c 3 6 c B ! 8X3XR S B G G B v c : 3 9 n n 9 $ $ $ 3 6 9 h h 9 9 $ @ : 9 9 9 6 : 6 3 3 3 6 h n B D n 9 $ + @ $ 3 3 1 $ $ $ $ $ + + + + + # $ 3 9 9 c 9 $ : 6 h c 9 6 6 6 c S P G G S b 9 6 6 c n F P F B B S B n n b 9 3 $ $ $ $ : 6 n P R B h 9 c v B S n c 9 6 9 6 3 $ $ 3 n G ) _ E n 9 n F G R S h : + @ : 3 : $ $ 3 6 3 3 6 3 c S G G n 6 3 : : # @ 3 h n S S D c $ + # $ 3 6 h b n b c 9 h n B B n n c h c h c 6 # $ 6 v n n b h 6 6 6 6 6 6 6 6 9 6 6 6 3 : 3 6 h v n B D G D S n v 6 3 6 c v c 6 6 6 6 3 h c n S D D n c 3 $ @ + + # $ : $ 3 $ # # 3 6 3 ",
"F D C n c 7 6 6 6 c n n c 3 @ + $ : $ + + $ : $ 6 6 3 # # $ 3 3 9 9 6 6 9 6 6 3 : # + X + 3 n F W E S 4 + + % # 6 6 $ # # : 9 B R W W R D b 6 $ # @ @ $ # + + $ 6 9 h n S S n b 9 9 v S D G F S 9 6 n R R D c $ + + $ 9 v v c 9 c c h 9 6 6 3 3 3 6 9 9 h 9 9 6 9 9 6 3 6 9 c c 9 v S R E F b 6 3 3 3 9 B R W W n h 3 $ # $ 3 3 9 6 9 h b B D G F S h : + + + # 3 9 c n n 9 $ # $ 3 : $ 3 3 : : 6 9 9 6 6 3 3 6 G R R F n 6 $ $ 6 c v v c 9 9 9 9 6 6 3 3 6 6 6 3 3 3 3 6 6 6 6 6 3 3 3 3 , 3 6 $ : 6 c n S D D c 9 6 9 c v n n c B F R E W G B 3 : 3 6 9 9 3 : 6 6 3 : $ # # $ : 6 9 b n S S n c h h c n S D S h 3 @ + + + @ $ $ : : $ $ : 3 6 9 n n n n v h v n n c 3 6 b D G S B n c 9 9 9 3 $ @ # : 6 6 9 9 3 : @ + # 3 9 c c b h : @ + @ # 3 9 b G W / / ! S v 6 3 3 : 3 6 c n n v 9 6 $ + # # : 9 c c c h h b n n n c 6 $ @ + + 3 n / 9X9X! S 9 6 3 3 3 3 6 3 : 3 3 : : : $ $ $ # $ $ $ # 6 6 h v S E / W F B 9 : @ @ # > # @ @ # $ $ $ $ : $ $ : 6 9 9 9 : : 9 n S D B c 3 3 9 b n n c 6 , @ : 9 l 9 l c F E W / ! G n S P E E E W E W / 3X3X3X/ E F n h 3 $ # 3 6 3 3 6 6 6 6 6 3 $ $ $ 3 : 3 3 : $ $ $ : 3 3 3 3 6 3 3 $ : 6 h c 9 6 3 $ $ $ 3 9 c c 9 3 3 3 6 6 9 9 6 6 3 h S G S n n D S c 6 $ $ : $ # # $ $ $ $ : 3 9 9 h 6 3 3 3 3 c c 9 : # # $ # 6 6 6 3 : # @ $ 9 c S P S 6 # 3 n W 7X9X0X/ G G / / E n 9 6 9 h n n 9 $ + : 6 6 h h 9 6 6 3 : 3 c c c 9 6 6 6 6 $ 6 n G E P S n 3 3 3 3 3 : $ $ 6 3 : $ @ @ + + X + 3 c n n n v 6 6 9 n B v 9 6 6 6 c S D n v B P P D B B D D C b c v b b c 9 9 3 3 3 3 6 6 h v n n c 9 6 c B S B n h 3 3 3 3 = @ $ 9 n F R P D c h n R R n 6 3 @ + # $ : $ : 6 9 c 9 : 6 n R W W R n : + $ 3 : 6 c F / / R n 6 $ @ @ $ 6 9 v n h c n S D G P P S n 9 3 # $ : : : : 6 9 h h 9 6 6 3 3 3 3 6 6 6 6 6 3 3 3 : 3 6 n n B S G R E P b 9 3 3 6 9 h 9 : 3 3 6 9 c b n n n b 9 3 @ @ $ $ $ $ 3 3 : : 3 c v c 9 6 $ # $ 3 6 6 6 6 6 6 6 6 6 : $ 3 9 n D G G n 9 6 3 @ # @ + $ : : 6 9 6 h 3 $ + + 3 9 6 3 $ @ + + # # # # # + + $ $ 3 9 n D D S n c 6 3 6 3 $ + + $ 6 6 6 : : 3 3 3 : $ $ 3 6 6 3 3 6 6 6 3 $ $ 3 b G W E P n 6 # + X + 9 6 3 $ $ : 6 h c b S G W 8XeXeXW D c 6 3 3 6 c S R E P P F D S c 9 : + X + + + @ $ 9 n S S n c 6 3 6 9 c S R P n b v b n n n S n c 8 # + $ 6 c 9 6 3 $ $ 6 9 9 3 : # # # # $ $ 9 c 9 6 6 3 : 6 c n c 6 $ @ + # 3 6 : + @ # @ $ @ + + + $ $ $ : $ $ : 3 3 3 9 n / ) W n v D P G D n h 3 $ $ 3 6 6 6 6 6 6 6 3 3 : : 3 6 9 9 9 9 9 6 : $ $ 3 6 h c h 9 6 3 : $ $ : @ : 6 b W 7X7X( R n h 6 : : 6 n n c 6 3 3 3 3 ",
"> $ # $ # # : 6 n S D D B c 6 6 6 6 3 $ $ 6 c n S B v 9 6 $ # # + # $ = 6 9 9 6 : @ @ # $ 6 c b v c 6 $ + + # $ $ 9 n G E Q F n c 6 6 9 h 9 6 h n n b 6 3 : @ + X @ 3 9 v v c c c c v c 9 6 : + X + h P W ( / P 9 $ @ 6 9 6 3 6 : $ $ 3 3 $ @ @ $ $ $ $ $ : 3 3 6 9 v n G R R G c 6 : 3 3 : $ : + # $ $ : 3 3 $ $ 3 6 9 9 9 6 6 9 c n S B c 9 6 9 h c h 9 3 $ # $ 3 3 6 6 3 6 v D G G S S S D R R W E G G P R / ) 3X_ W F b 6 3 3 6 6 6 6 6 6 6 6 6 6 $ $ 3 6 3 6 3 : # $ 3 6 6 6 6 6 6 6 6 3 $ 3 $ : 6 6 6 : $ $ : 6 c v c 6 3 $ # 6 B S 9 3 6 b S D D D S n n 9 6 3 $ $ $ $ # @ $ $ # $ 6 h h 9 9 6 : 3 c b v 9 3 $ # @ @ $ 3 6 6 : # # $ 9 b G G v # # 6 B ! 9XeX8XE R ( 7X) W D c 6 6 b S B 9 : $ 6 6 6 h c h 9 3 $ 3 9 v n b c 9 6 : + @ 3 n F E R F S n c c 9 3 $ $ 3 6 6 9 6 $ # + + # : 6 h S R F v 6 6 n D D n b c 9 9 h 9 c c n W ) _ E F D D n c h 6 6 9 9 9 9 6 6 3 6 9 9 9 9 c c h 3 6 h n S S B n c 6 3 3 , $ $ > 6 c n D S n b v n n n 9 3 $ # + # @ $ $ 3 c n c 6 6 n E / / W D 6 + $ 9 9 7 c S / 8X) E S 6 @ @ 6 h v n n n B G R E W W E P n h # + + + $ : 3 3 3 3 6 6 6 3 : : $ : : 3 3 3 3 3 3 3 3 6 9 v n B n S G W E D h 6 3 : : 3 3 : 3 6 9 h 9 6 6 c c 9 6 3 : $ $ $ 3 6 6 6 6 $ : 9 v c h 6 : $ $ : 3 6 6 6 6 6 6 9 6 3 # $ 6 c n n v c 6 3 $ # + + + # $ 6 9 c n c 6 3 : $ 6 n n 6 $ # # $ # @ $ $ $ $ : 3 3 3 6 c n S S b h 6 $ # # # @ $ $ : 3 6 6 3 3 : : 3 3 3 3 3 6 6 3 3 3 3 : $ @ 3 c S D D n 6 # + + @ : 6 6 : $ + $ 9 9 6 c B E ) eXyXeXW c 3 : : 6 l B P W ^ W R G P D v 6 $ + +     + : x n F F S c 6 6 9 9 h b B S S n 9 6 h c S F F G n 9 $ @ 6 S D c 3 $ 3 6 6 3 3 3 $ @ @ # $ 3 3 6 9 9 6 3 3 6 9 9 9 9 # + @ 3 6 $ # @ # # $ $ # # $ # $ $ $ : 3 3 : $ 3 6 c S G R P D n v S E E n 6 3 3 3 3 3 3 6 6 6 9 9 9 6 6 3 6 6 h c c 9 9 6 6 : $ $ 6 v n n b 9 6 $ $ 3 3 3 6 b P W ( ( W S 6 # $ : 3 3 9 n S D S n v h 6 1 $ 3 6 c c 9 6 6 6 6 6 9 6 : 3 9 n G W ( ( ! R v # + + @ 6 v n G G D 6 $ + X + : 6 6 6 3 : $ $ @ @ $ $ : # + @ : 6 9 h n n n n n v n n n b c n P E G c 6 : 3 3 $ $ $ $ $ : : 3 6 6 3 3 3 : $ : 9 n F / _ W S 6 @ X X $ 6 3 # # 3 c B E ! ) _ / W R S n b c c 9 6 3 6 b n b h 3 @ @ > c n S D D D B n 9 6 : : c E ) ( P v 6 3 9 G _ / P S c h c v n D E R n $ @ 6 b n b c 6 $ 3 c n n c 6 3 6 : + X # 6 v n n v 9 6 c D P D c 9 6 6 h c n n v c 6 : 6 n D P R D c 3 : 6 6 9 c c 6 6 9 c b v h 9 9 9 x 6 6 3 3 3 6 h b S F R E G n 6 $ # : 6 n S S n b 9 6 3 $ $ $ $ # + @ # $ # @ @ @ @ $ $ : h S E ( ) 7X3X/ R F S B n b 9 $ + + @ # ",
"x 8 1 @ $ 6 c B n n 7 + : S / 7X7X3X! G E ) 7X_ D b h c n n v c : $ $ 6 9 9 j j 6 6 = = 0 m A A v l 7 < > @ : h S E ! W E R D B c h , @ # 6 h h 7 9 3 3 , # @ , n F F S B v h b D G G S v x 0 6 : 6 b G / 8X9X7XR B c c x 8 3 3 6 6 6 7 6 3 3 6 9 9 6 3 = 3 6 6 l b C F F D B v 6 < , > > $ : : 7 c l h c c c c h 9 6 $ $ $ # @ # # 6 V C v 9 9 c S W X._ F 9 3 h h l b B D W 3XqXqX/ B 7 7 h h m m B S D P W / / ^ E F C h $ O O O # , 3 , : $ 3 3 3 3 1 $ $ @ < < 3 3 3 - - 3 $ - 5 9 c h c V H G P I S h $ # : $ $ $ 1 9 v c 8 6 6 9 h 9 7 7 6 6 6 : : h v 9 6 $ $ 7 9 9 5 6 > > > , , , 3 6 7 6 3 6 6 3 , , : 3 7 l c 9 6 3 , > # + + @ , 7 c C B v h : $ 8 D E G h 6 1 $ $ $ $ $ $ $ 3 6 6 3 3 6 6 h b m b 9 3 $ $ $ % # $ 1 3 3 = = 3 6 6 6 6 6 3 3 3 : $ , , : 1 : $ $ 1 9 9 x t 6 # + + + + $ 6 3 $ # > 1 h h j z b F ^ 9XeX) D h 6 3 6 7 v F W W T D F T I B h : $ # @ + + $ 6 c G Q Y b 9 6 h b b b n n n c 6 6 6 6 c S Y Q E F l , 3 D P S h 6 3 : 3 3 6 3 $ # # $ $ , , , 3 3 7 9 9 3 3 6 7 3 , > , 7 6 3 $ @ @ $ $ > , 3 3 3 6 7 6 3 < < 3 < , 3 c B G F S B c z C R E G c 6 3 3 1 6 h 7 , 6 9 9 8 3 3 6 6 7 j V V b v v z 9 3 , 3 c n B B v 9 - * % - 9 b S K R L R D c 3 # + # > , 5 u m m n v c 5 3 $ $ 3 6 9 7 7 7 6 8 6 8 8 6 3 6 b D E ! / ( W I c $ + + $ 6 5 u m n v 3 @   X @ 3 9 9 6 : $ $ > $ $ $ $ # +   + # 6 c n M M n b b b b c c c c c n B n 9 $ $ 3 3 : > # > 2 3 6 3 3 0 0 1 : > 3 9 B R ^ 3X( E c 3 + X + 3 6 3 # # < b F Y E W ( ^ W P B b c 9 l 9 7 3 6 m n n 7 3 $ $ 6 c v n b l h j j , , 7 b S E ! R b , & v S W _ ( P b l v V S I F S c 6 & $ , h h 3 < , 6 6 c c 9 6 $ + @ # $ : 6 m S n 6 3 9 b n G G n 3 , , 9 c l 9 l 7 6 $ + $ c S S v 9 3 $ , 9 l l 6 < 7 c n M S n x x v n b h 3 3 3 6 6 6 v G R G m 6 $ $ # , 9 l B B B b h 3 > @ % # # # # @ @ @ + % + + % q + 4 S R / ) 3X) / W F C n b b v b b b b V B n h 7 3 l c 9 8 6 3 3 3 < , 7 5 4 3 4 - 6 6 l c h 3 > 2 c S E / ) 4X( / F B c 9 6 7 h c n A B x h h 9 6 6 7 v F G C c 9 3 $ : 6 4 3 & & , 7 c S P W / ) ) ! C 3 @ $ 6 8 7 7 3 > # $ 3 6 h l c c 9 6 , $ & , > # @ $ : > 6 : > # > x S D S C n n x 6 3 h C P P S b 3 # : l S W / / R n c 6 6 h B F P I G n l 3 $ 3 b D G F B l > # , < 6 3 $ $ # # : 6 9 h j 6 , 3 c B n m w 7 7 7 c S G ! W F l 3 3 3 , $ 1 6 c 9 : # $ c c v l 9 9 j l 9 c c b C Y E E F D F E T S c 9 h h c b B A B A S n 9 : @ @ # < $ $ > : : : 6 h F E ( ) ( E S l 6 6 6 6 6 6 6 6 3 6 h m c 3 : 6 S Q / ! P c # X $ : 3 6 3 , , 9 m n m 5 - 4 5 9 7 3 3 3 , + X X ",
"% + q q % & 5 c D S n 9 0 9 n G / / R m 8 6 9 9 9 3 3 6 4 6 9 9 & % $ 4 w c c w 5 4 & % % , 4 7 - = $ = - - - 0 n n c 6 , $ # # $ $ $ $ $ $ $ $ @ : 1 # @ + + $ & 5 5 < , , , 4 9 l 9 6 w S E / 5X/ P c 3 3 9 c B G R T T R P D S n 9 3 $ $ # # o > x D P F B v 5 0 t B S v h h u t 0 3 = - 9 n ! ( W n 9 9 c B R G v $ + # 3 3 % % % % % $ $ $ $ 3 j V V c 8 1 1 3 1 1 6 0 6 9 t c 6 @ @ @ @ $ 6 6 9 5 5 9 5 6 6 9 l l l w c m n m 9 , 3 v S H D n c 6 3 - - 3 3 6 6 8 6 8 6 3 7 6 9 l c m m m n C n h 6 3 7 c n C n 5 & $ 3 6 9 c n H G G D v 6 # + # # # $ 6 3 9 v v v n c 9 $ + % - 0 6 3 3 6 8 9 6 6 3 3 6 v G Q W W E D c 9 & + % # % $ 6 x c 8 $ $ +   + # : : 3 3 $ @ : & $ $ # + + + + # 6 c n S S n c u 9 9 9 6 6 6 9 v m w 4 & $ $ , % $ & & - - 4 4 5 5 4 - & % & 9 R / 7XX.W S 5 # + X # 7 5 & % $ u n M Z K Q Q W / W F b 7 6 7 6 7 9 c M M m w w 5 9 c v c 9 3 $ > > : : 1 h B D R E B : $ 6 n P ( 6X! b 6 c B D S S n c 8 $ + $ 3 9 6 # # $ 3 5 9 9 6 $ + + % $ : 6 c B n x 3 1 c v n S c 3 @ @ & 5 5 4 - & $ q % % & 5 w 4 $ % % $ - 9 9 3 - 4 x S P P G S v v B A n 9 3 , , , 6 9 v M n 5 & % $ $ & 4 w m M M c h 6 3 $ @ # $ ; - $ # # o @ > > > @ X : A ~ 4X3X3X( W F B v h v b b B C S S D V v j 7 7 h b V 9 4 3 4 4 6 3 3 3 6 3 $ 8 n S S B m 3 + % 4 m G ! / _ / W C l < 7 4 3 3 6 h c h 3 1 3 9 8 3 6 9 n n m 9 6 3 3 3 0 0 0 6 6 9 c n D P ! 6X3XW D n - & $ & - & $ % % - 6 6 9 t t 5 3 $ % # = 0 6 5 6 $ + % @ # $ $ % = 9 S G G F I F F B c v F E P c 6 : $ 6 A R E Y D v 7 3 7 z b H G R R H u - $ 6 v G ! W B 5 3 $ 4 9 c c 6 3 : X % 4 n M c 4 6 6 h A G G v 8 1 6 h C R W E F B 3 % X + # 6 9 v w 4 3 3 7 m S S 9 9 h v n v v m D G G H H P E W ! R A 9 6 9 v n b n A D S V j j 3 $ $ $ # @ # : 3 6 7 9 S ^ 8X9X) W S t 3 3 9 t x 9 6 3 & 6 6 9 6 6 6 6 l G R G v 3 # # > : 3 9 3 9 c n S D D S A n t 6 4 t c 9 9 4 $ $ 4 9 m n w 5 & # $ , 3 3 3 3 3 5 c n n c 6 $ X + - 5 u N S P ! ) 3X( E S F D F P P F G R _ 3X/ P S D S m 9 9 c n n c 6 4 $ $ & & $ $ $ & 6 9 c c n D G G B n 9 $ # $ 3 6 6 3 : $ > $ # @ % - 5 u n S S B v c c n S D S n - % % $ & 4 5 4 , , $ + % $ 3 5 t m m c 9 6 7 m Q _ X._ / W F B 9 6 6 9 9 7 3 3 $ $ 1 6 3 : $ $ % - 0 5 m H R R B v 9 9 9 6 1 = = 0 0 t v A H A x 6 3 0 8 8 8 2 + # 6 c D Q ! ! C c 6 9 9 9 8 0 # $ 3 6 3 1 $ # 4 c D E / ( / W P M l 7 , $ & 3 # $ $ 3 5 w c n 5 u 9 4 3 3 - - 6 6 6 3 : $ $ 3 6 t J H G D n l 4 , $ $ & 3 3 7 7 7 6 9 6 $ # $ 6 c A H A 9 $ @ $ $ $ $ 1 $ $ $ 3 , $ $ # # $ , J S n 7 > 7 j 7 ",
"X + + @ # $ - 4 6 h 9 3 # + + + $ 3 , $ # # $ $ # # # # O + % # 4 w n S C M n c 8 6 3 3 , , 3 6 9 9 6 3 & & $ 3 # $ $ , 4 7 7 9 9 3 , $ $ , c F _ 3X( R n 3 X   $ 3 6 7 3 # + 1 v D G D P ( 7X0X) W S h 1 : 6 h b C P Y P S C n b b l 4 & $ # % @ # $ 5 m H G ' n x 1 @ 3 C E ^ T F n n n m B D S S 9 + + $ , : 1 6 1 @ @ 6 9 9 - $ # # + + # 3 l c u 5 5 - 6 j n B m 7 $ # @ # 4 6 3 # + X + # $ $ : $ @ # $ : 1 6 6 1 : 1 8 m W W P v c A D D n c 7 , , , 4 9 c c c h 9 3 < , > 2 8 x b m v c 7 3 @ + $ 6 9 h 1 3 : $ $ $ + X X % 4 n R ) qX9X^ P n m c 9 6 9 C G G D S A n x 6 3 6 v n c 9 9 7 7 6 6 3 : : : > 3 c S R W W R 8 $ + % 9 n T / ^ ! P b 3 > > , - 4 5 4 4 4 & & $ $ $ $ : 6 7 6 8 8 6 6 6 9 x c c 9 9 h c b D R ! ( ! P B 9 : $ $ $ = = $ $ $ $ 1 6 8 9 9 6 $ $ @ : h n C c 1 @ + + # 3 3 # % - t A ' T W ! W W S n S G H S n 5 1 1 x A D S n 9 , $ , z C F Y E ! E B 8 : 1 h F ( 7XW l 3 3 3 l S S B c 7 > # < S G G B c 6 6 9 F P D c 9 9 9 z F G Y G n 9 $ O X + 3 c v c 9 9 3 7 n D D b 9 9 n A n v b B A A v n G Q / W P D 8 6 9 n n v 9 h B S b 9 3 3 3 3 : 3 : > > 3 6 5 9 c R 0XeX5XE C 7 3 3 6 c c c u 6 1 1 6 6 6 6 6 , 3 l n n 9 : $ % % % = - 5 v C Y E ! W R G D n l h 9 7 6 3 , 3 8 8 h x x 8 6 1 3 : : 3 3 , < w l c c j 3 > # # + 3 9 v S G E ! 8X6X4X~ T G S S n C D P E ^ ( / E G n m c 9 l n F F C h , : : > , > @ O @ 6 v b b S Y ! W G m 9 : $ $ 6 6 8 6 = # # # > < 6 l m b B S S n 9 6 9 c b m v h 3 : : 3 0 9 c c 6 , $ + % + + 4 n S n n 9 6 6 b E 4X5X) ( W I B l 7 3 7 l w 6 6 3 : $ @ # $ 3 8 6 6 6 t u m m c 9 3 $ 4 4 - $ $ 1 6 8 c b n n v 8 3 6 9 9 7 6 3 , 3 9 B H R E G b 3 : h 9 6 1 : 1 1 1 6 : $ $ 3 h B G W W ^ ! R S c 9 6 6 6 3 3 3 6 6 9 u m n n c 6 $ $ $ $ 1 1 1 1 6 : 3 7 9 h b B S F F n 6 , $ > : , 3 4 7 9 h h 9 6 > $ $ 8 G / W S 9 $ $ % % # % $ $ % # $ $ $ $ X O @ 3 n / qXqXW S 6 + + $ 6 c j j 6 3 : $ % % + $ 8 x D T T P h 6 3 4 4 & + % : 3 9 b F E ! ! A v n H P H N H F P E ! W C l l h j 3 : > > : 3 6 6 6 3 : $ : : @ 1 8 x v v h 9 8 6 7 6 7 7 7 3 7 3 , , & & , , + > 1 9 c m c t , 6 B W _ W S c @ X X % $ # % + O O + : 6 3 3 9 v b c 9 5 4 5 m n G G S B v 8 : 6 4 3 3 & & 3 4 v n F P F b 3 : 6 : > : 7 b F E / ^ W Y n 5 , 3 9 h c c n S S B k > @ $ 4 9 h h 9 h m D G S v c c 9 7 9 h j 7 6 , $ > , 3 3 = = # $ 3 6 l n S D D S C B v 9 : $ $ $ $ $ 1 3 9 v ^ ( ~ U V z l h 6 6 3 $ # @ $ $ , 7 n P E P V V 1 $ + @ $ : 3 6 6 6 1 1 1 6 8 8 7 : $ # $ : 3 3 4 3 4 4 = = = 0 9 7 9 h 9 3 : , - 6 c v b n M M ",
"X O @ > j B P E Q P n : + + @ $ : : 1 3 3 3 $ # % @ @ @ @ $ $ $ 8 8 h h h x v v n b c v m B F R E E D l , $ $ $ $ $ $ $ = 1 1 6 8 8 8 6 1 @ : 6 c B G R G 9 +   + + $ 3 3 @ # 9 D E / / ( ( ^ E B n n B B c 3 , l h b A n 6 @ + > 7 n D ' T ' H S b 3 @ 3 A W ) ( ~ b @ @ n E Q I S b l 9 8 x V W W G 6 @ 1 c S S C z , & 9 m n D V c 8 : + X + $ 6 b B V 7 3 6 B G D n h 9 c n B C S B V h h x C F E / Q M 9 4 9 l l z z w w z 5 w w 7 4 5 5 6 6 6 6 3 : 1 8 c R ! ) ) W S 6 # $ 6 c B S b h 6 < < 3 3 & $ # # 1 6 7 , , # + # $ $ 3 9 v S T W ) 4X/ Q T G A B 3 6 3 1 6 8 9 c 6 6 6 h 9 3 3 3 3 1 $ : 3 6 9 c h 6 3 $ @ @ @ # 9 v S Y ! 5X8X7X4X( W P D A n x n B P ( ( ~ T I B n l 6 h D E E C z 3 # # & & & > : 3 9 t m S G W ( ) ( R m & + , 3 3 3 , > # # # > , 9 c v v b v w 7 , & : 6 8 c l 7 $ # $ 7 w v n c 6 $ $ @ @ @ $ 9 S D S m 9 $ $ h D E ( ) / E S c 9 8 8 h v c u 6 $ $ + + $ 6 c c 9 9 6 4 5 0 6 3 $ $ $ 3 7 @ $ $ $ 3 6 9 c v n c 8 6 8 h c v n v c c v v c S C b 9 3 3 3 3 : $ : 6 6 3 $ $ : 3 h V F Y ~ ! ^ W D c j j l 9 3 1 3 9 c c n C n n v 6 : : > > $ : : : 1 1 1 0 h b D P I I D V h 3 > > , 3 7 7 4 4 9 l l 5 4 , 1 x P ) _ G 5 $ + + @ : : @ @ % > 1 3 : # @ @ O = c R IX7XW m = + + & m n w 3 & > > > : $ @ $ 0 n S Y E F b 3 > : , : > , 6 l n S P W W Q G S n G R R P G R R P P G S n v c 9 3 3 3 : $ $ 3 6 3 : : $ $ $ 1 3 , h c c c u 9 6 3 < , , 3 6 6 < , 3 : $ $ # + $ 3 9 b n n b h c S / ( E n 6 # + + : > # O     q + : : 7 h c V B B 7 6 8 x B R W ` P D n h 9 7 6 3 j 7 : $ 6 b S I S n 9 : $ $ $ 3 h n Y / 4X( E F c 9 6 9 h 9 l V S D D n c 4 # & 3 6 9 9 6 0 u S E ! R C c z l b w l 6 3 $ $ $ : 6 3 $ @ @ 3 h n S S G E E P S B x 9 3 $ $ $ $ $ @ > j B P W E P b z 7 5 9 5 4 < : $ @ # : 6 v D ! ! P b 6 $ + + @ $ 1 1 6 6 1 $ 7 3 7 5 , & $ % # # , 3 3 3 6 3 6 j 6 6 j l c h j 3 3 3 7 9 9 7 x j 1 $ $ : 6 6 h h l 9 3 , , 3 m B b h 3 $ # & c B F F A j @ o O : 8 c n B n v z V S P S h > > 9 m S D A h : @ 1 3 6 3 : $ # # $ 3 9 c b v l 6 4 4 l n C n m b n v 9 6 6 3 6 6 - 3 4 - - - $ % 3 & # $ & & , , : 1 8 c c 9 3 $ > @ + + + + $ 3 h b z , & & $ # , , > $ : : = 3 j 7 , > # $ $ - 2 > 2 3 : > 2 2 6 6 h c n n B n h h b D B 6 @ @ j b G R G S c 6 < 3 h z m M n m 3 $ $ 3 3 3 3 - 6 3 3 6 6 3 3 6 1 6 6 h h h 9 9 3 $ # # $ $ $ : > $ $ $ # + @ # # $ 6 6 3 , > $ & & 3 6 6 3 6 c S S m 0 $ 3 8 t c c u 9 9 9 9 h w l c b v 9 1 1 $ # @ @ # $ $ , , , , , , 3 3 & $ 6 b F / 8X8X/ h : > h b c c x 9 h 9 6 1 $ $ $ > k V P ^ / / ( ",
"5 9 n P ! 4X6X7X/ E G S B c w c C F Y R Y G Z B u 9 w c M G P G c 4 $ $ $ , 3 3 % # 6 c n S G R 0X0X_ P m 4 & & 5 5 3 % % % % % $ 4 c M B c 9 7 w 4 $ % % % $ 3 6 6 3 $ $ 6 c v M M c 6 $ $ $ $ 6 t A T G c 3 # $ 9 S W / / Q P b w 4 5 u n M M M m 5 $ # $ 7 l Z Z m 4 & , 3 $ % * * * * & & 3 - 4 3 3 9 b n B C m 5 , - 6 v n G H B c 9 c c h 4 3 3 7 7 , & & 4 5 w 5 5 5 4 4 4 5 u M G Q ` ` D B A D S c 6 6 6 9 u m M B C S S n 6 # + + # $ $ $ & 3 3 4 c C K Q ! W R S c 9 4 - = $ $ 3 3 4 6 9 9 5 - $ 3 c ! ) ) W S 6 + X % % & & & $ & & 6 6 4 $ + O $ h Y W ! W F 4 O O w c m c 9 , $ % & & & & , 5 c M R R D 9 $ $ 3 3 3 6 6 5 v D E ~ Q G S n S R ` / K H P W E R P H G D n 9 6 9 9 4 6 3 : 1 3 3 $ % % % & 3 6 5 w c n n c 9 6 $ $ = 4 4 5 5 4 - & $ , , & $ $ 4 9 v m J c 5 u G ! / ' S 9 + + + # # # + + + % - 3 3 7 l b n B z 4 3 6 c R ) 7X) Q S n v w 5 5 7 6 6 4 4 5 c b n n c 3 # @ > , 9 B P _ ) _ Q S m 9 , 6 9 l z n C C C S n 9 $ % $ 3 7 6 4 3 - u G ` _ Y F n l 9 l l w 5 3 & & 3 4 5 5 % $ 3 c M H P E E R G n c c 5 3 & & % % % % & 4 M S H Z M m w 5 ; 5 5 5 4 & $ & # & 4 c D W ! R m 5 $ + + # 3 6 - 3 3 4 4 4 3 3 < , > : , , : : < < < , , 4 4 - 8 8 9 9 6 6 3 3 5 w c n b l 5 & $ + @ 3 6 9 9 h 4 , & & 3 6 c c u w - % ; u M M n b 6 # @ + $ 4 n S S C M n J S H C c 6 6 n G R G D c & # 3 6 3 $ % % & 4 5 5 6 9 5 5 4 - - 5 c C C B b c l c c 9 9 8 0 0 1 3 3 $ = $ % % % = = 4 4 - $ & - 5 u N H m 3 $ % % # O # , < 3 7 6 3 , , , 4 4 & $ $ - & - 5 5 4 3 & - & $ = 3 6 6 1 $ $ $ % - w l m C Z n z l l z z c h 3 : 6 n P Q F B x 9 4 3 6 w n S n c c 6 $ $ 3 6 6 8 6 3 : 6 6 j 9 : 3 5 5 0 4 9 9 8 8 1 $ $ $ , , , $ # # # # $ & , , 3 4 7 7 4 , , 4 7 7 4 3 4 w M F G F C h 6 6 x v l 9 9 9 7 7 9 9 9 h v b c 7 $ # # + $ & , 3 3 3 3 4 4 $ = = 3 6 6 h D ! _ W S u 3 $ $ 6 9 9 4 - 5 5 4 - % $ - - & * & $ , , , & & & $ # = 4 6 3 $ $ $ 4 c n S n 5 - - Z F Z b 5 & $ # & 3 3 - - 5 v n H H G D n h < , % % % $ $ $ % & 5 w c w w 5 5 5 0 4 3 3 6 c m m ; & 4 l v c t t 4 < 4 h b B D G S S B B G E E P c 6 4 5 5 3 : , 9 9 w 4 & & & & , , $ $ @ @ 1 9 G G S w & $ # $ c n n c z c c z 8 3 : : : $ $ $ , 6 c n n n v l $ & 3 5 m M M n u 5 w n b 5 6 j b n n c u u l h 6 6 4 4 4 6 8 1 5 5 w l w 9 9 6 : : 3 9 z v v z w 9 5 4 6 6 6 3 6 4 3 3 3 < < < 9 7 4 3 & % % $ t c m v 9 6 $ @ # $ 3 6 6 : # $ # & * * * 5 c n v w 4 , , 7 l n S G H M w - * q % # # $ $ # % % $ : 3 7 9 7 3 - & - 4 5 l S S m 3 # 4 C P F Z M m c u w 5 - - - 4 4 - & & 3 3 , ",
"=Xp.p.=X$X$X$X$X+X+X+XOXOX$.*.OX+X+X$X$X$X$X$X+X=X&.&.&.&.&.&.%.+.+.+.+.+.+.+.| | | |  .$.$.%.OX&.&.&.$.+.+.+.+.+.+.+.| | +.+.+.+.+.+.+.%.&.&.&.*.*.%.*.OX+X+X+X%.+.| | | +.+.+.[ [ ] ] | | | +.+.+.+.$.+.| +.%.$.OX+X*X*X*X+XOX&.*.+.$.%.%.+.%.+.+.+.*.*.O.{ O.+.+.| | +.$.OX+X+X+XOX*.*.%.@.+.+.+.+.$.$.$.OXOX$.+.+.+.$.$.$.$.] O.+.$.OX+X*X*XOX&.*.+.*.*.+.$.O.{ { { O.{ { { { { OXOX+X*X*X+X=XOX$.+.+.+.+.| | | | | +.$.%.OX$.%.$.$.+.+.+.| $.+.| | | | | | {  .$.OXOXOXOXO.] ] ] { | +.@.+.+.{ { +.$.$.+.$.+.+. .{ { { { { { { { { { | | | { | +.+. .{ { $.+X+X+XOX$.+.{ { ] O.O.O.$.$.+.O.{ { { O.$.$.$.$.$.*.$.O.O.$.$.$. .{ { { {  .$.$.OXOXoXO.}  .OXOXOXOXOXOX$.+X$X+X$.+.| +.+.| { | { { { +.$.$.%.&.*.+.+.O.{ O.$.OX%.%.%.&.&.%.%.%.@.@.@.+.+.| | | ] ] ] [ [ | +.+.&.@.| ] | &.=X=X&.%.| | | | | | +.{ { O.+.+.+.+.+.$.$.+.$.+.+.+.+.+.%.%.+.%.%.@.+.+.+.+.+.+.| { { { { $.$.OXOXO.} } } } } } } } { { OX+X*XOXOXO.{ { { { { $.$.OXOX$.+.{ ] { { { +.+.+.+.+.%.&.$.$.O.{ { { { { { O.+.+.+.+.+.+.+.[ [ [ [ [ @.@.@.&.&.&.&.%.@.@.@.+.+.*.*.*.*.*.*.OXOX$X$X$X&.*.+.&.&.&.&.%.+.+.%.+.%.%.%.*.%.&.&.@.+.[ [ [ | +.+.$.%.%.%.$.+.+.+.[ +.+.*.*.=.=.*.*.*.+.#.#.#.#.*.@.+.@.#.%.@.@.@.+.| | +.+.+.+.+.+.+.| { { | +.+.+.+.{ ] {  .$.OX$.$.{ { O.$.OX+X%.+.| { | | +.@.$.$.$. . .$.OXOXOXOXO.{ ] {  . .O.O.{ ] { { $.OX$.$.O.O.O.{ { { O.$.$.$.$.{ { {  .O.O. .{ { } }  .O.O.O.O.O.O.$.OXOXOXOXoXO.{ ] { { { { { O.O.O.] { { O.O.+.{ { ] ] ] {  .OXOXOX+.+.+.+.+.*.*.*.+.+.$.*.*.$.O.{ | | | | | | +.+.O.O.O.O.O.{ { +.&.OXOX$.$.$.$.$.%.%.$. .+.$.*.*.OX&.&.%.@.@.+.+. . . .{ { { { $.| { ] ] { { {  . .$.$. .$.$.$.$.%.%.$.| { { { { { { { { { { { { { { ] ] { { O.O.{ { { ] { { O.$.+.+.+.+.+.{ { { { { O.$.%.$. .{ { {  .$.$.$.$.$.O.{ { { { { ] { { { { | | | | +.+.+.+.{ { { { $.+X*X+XOX .} } $.OXOXOXO. .O.$. .{ { { { { { O.O.+.+.+.| | +.+.+. . .{ { { | +.$. .| | +.+.| | +.+.+.+.| +.+.%.%.+.+.| | +.OX$X*X$X$X*X*X*X+X+X*.{ ] ] ] { ] ] |  .$.$.$.$.$.{ { | | | | | |  .| | | +.+.+.+.+.{ { { O.$.OX+X+X+X*X*X+XOXOX+X+X+XOX$. .{ { ] ] { $.$.$.+.{ +.+.O.| +.+.+.+.+.+.+.| ] ] | ] ] ]  .+X*X*X+XOXOX$.$.*.+.$.$. .$.$. .{  .$.+X+X+X+XOX$.$.&.+X=X&.*.$.*.+.O.{ { { $.$.OX+XOX$.O.O.O.$.O.O.O.OXOX@X*X*X@XOXOX$.+.$.$.$.O.$.O.{ { { $.$. . .{ $.$.*.*.*.$.$.$.+.O.{ { { { { { O.O.O.O.O.$.$.+.| { { { { { { { { { ] ] ] } ] { { { { { { O.O.OXOXOXOXOXOXOXOXOX} ] ] ] ] { { { { { { { | { { { { { { {  .{ { ] ] ] { { O.+.+.+.O.] ] { +.$.+.+.%.+.+.+.$.*.*.*.o.o.o.o.o.",
"e.e.t.).'.`.{.{.|.|.{.K.E.W.}.}.{.{.{.{.{.|.|.|.`.H.L.L.P.P.F.F.H.H.H.H.F.F.F.V.5.0.b.b.A.E.E.E.K.K.G.G.G.H.H.H.H.H.F.e.5.5.4.4.0.e.e.7.F.P.L.L.0.V.V.V.A.}.|.|.J.b.5.e.e.5.5.5.6.6.6.4.q.C.G.`.`.`.`.`.G.e.5.6.A.m.I.I.n.n.n.A.G.G.H.H.H.e.F.F.J.m.Y.E.W.Y.A.E.r.G.G.K.A.A.v.f.%X%X<X;X}.L.H.r.r.e.F.F.A.E.E.W.F.V.4.4.4.4.4.4.V.V.A.E.E.U.h.h.6.3.,.;.j.n.A.A.K.C.0.4.4.,.,.3.,.,.;.;.;.,.A.K.K.K._.L.G.C.V.V.0.V.V.G.K.K.[.}.;X:X|.{._.`.`._.L.L.P.F.e.e.b.5.h.h.U.T.R.E.A.V.3.,.3.4.V.G.).).L.G.B.4.g.<.<.B.4.v.Z.U.U.R.R.U.V.V.V.V.A.K.S.V.V.V.b.5.b.b.b.3.:.-.-.-.;.3.4.4.j.d.i.u.i.j.j.d.,.,.f.n.U.R.U.Z.g.g.g.T.}.R.Y.n.;.1.2.B.D.B.<.g.z.z.l.p.z.z.z.z.1.-.1.g.g.,.<.4.,.4.B.L.[.K.V.V.V.B.V.V.0.V.V.K.'.`._.C.V.A.A.A.A.J.K.L.L.K.V.J.L._._._._._._.[.|.|.{.G.).).G.G.r.G._._.S.V.b.b.V.F.F.V.5.6.6.6.D.D.[. X|._.C.q.F.e.q.q.q.q.r.).K.K.F.V.5.e.e.e.e.e.e.e.F.V.A.Z.Z.n.f.;.;.n.Y.R.Y.n.n.n.n.Y.R.n.f.d.f.n.U.R.R.R.Y.Z.n.A.A.S.V.v.M.M.v.v.B.V.A.n.b.b.b.b.V.K.L.L.L.K.K.K.K.A.V.V.4.9.V.V.F.F.e.0.6.e.G.L.`.).r.r.0.0.e.G.G.G.r.t.w.q.F.G.G.0.0.9.A.B.v.b.5.0.G.`.|.{.`.).).G.P.L.`.{.{.{.{.{.L.H.H.r.r.e.w.y.6.y.6.w.F.G.G.G.r.q.r.F.F.A.W.;X<X<X{.L.G.).'..X X:X X.X'.'.'.t.r.t.t.e.r.G.G.G.G.r.r.r.)._.)._./.C.K.K.K.b.3.;.;.;.M.M.M.n.M.f.f.n.5.V.S.L.{.L.C.e.w.q./.].;X<X<X1X2X2X:X].D.1.;.:.1.,.3.3.,.f.g.n.U.Z.g.f.1.;.;.;.i.i.i.f.h.h.f.f.i.d.f.f.f.f.h.h.x.U.R.-X-X<X<X>XU.x.%X<X<XR.k.<.g.g.f.f.;.i.j.j.v.4.4.V.A.A.K.K.G.C.V.4.g.v.3.,.e.5.3.,.n.;X,X,X;X;X}.{._.).~.~.K.L.L.L.K.K.L.{.|.;X}.R.T.T.E.{._.[.[.S.A.V.4.5.b.m.A.U.U.R.-X-XC.9.9.V.V.V.S.[.}.;X<X,X,X:X].].S.D.D.T.k.k.j.s.1.1.M.A.Z.v.v.B.S.T.T.T.T.Z.v.M.M.g.f.f.,.,.1.1.,.,.,.v.n.A.V.V.V.V.v.4.3.,.,.<.v.4.v.,.;.;.d.d.1.1.<.v.n.Z.U.R.x.XX-X-X-X].U.k.M.,.,.,.,.3.3.4.5.5.5.5.5.7.F.F.K.[.K.V.B.<.1.1.1.g.g.<.<.1.1.1.-.u.u.-.d.f.M.M.6.0.G.L.K.C.C.B.K.S.C.V.V.V.V.G.`.|.|.}.;X;X:X;XE.V.0.e.e.V.C.S.`.{.`._.L.K.m.3.6.6.6.6.5.J.E.W.F.F.b.b.3.3.5.0.A.S.A.v.b.V.N.7.m.m.m.v.M.M.v.V.S.K.K.S.V.F.F.P.L.L.V.4.4.V.V.q.A.B.g.,.,.v.A.E.Y.Y.A.v.v.v.v.n.V.B.V.V.S.A.Y.Y.V.F.F.G.F.F.V.5.e.F.V.v.B.9.6.w.F.G.G.V.4.4.,.,.j.z.U.R.T.Z.B.<.k.k.k.T.T.T.T.Z.5.4.4.0.V.V.B.v.v.v.4.V.V.4.B.A.9.9.q.q.q.0.0.4.g.g.g.h.Z.U.Z.h.x.x.x.x.x.#X#X$X#Xz.d.1.1.2.<.<.v.n.v.,.;.1.,.f.M.n.A.Y.T.Z.k.k.k.k.B.g.<.<.<.,.,.,.1.d.f.f.M.v.f.M.3.4.v.v.v.v.j.j.f.d.j.d.d.d.n.U.U.R.R.U.v.M.-.s.z.%X-X#Xx.x.U.R.U.z.j.j.j.z.f.j.j.j.j.h.M.v.Z.g.d.-.:.:.-.-.1.,.,.;.;.;.d.g.;.1.d.d.U.;X<X<X}.E.V.5.4.3.M.n.x.U.E.{.`.`.`.`.",
"e.8.e.r.r.C.S.T.K.K.F.L.W.J.n.v.6.4.V.K.L.K.V.B.w.9.e.H.H.F.e.0.4.9.0.V.V.E.{.E.`.L.V.v.g.Z.T.S.E.E.J.J.J.F.F.F.r.r.r.G.`.G.q.C.r.r.r.r.e.e.0.0.r.0.0.V.4.v.V.A.J.F.e.y.y.y.w.r.'..X.X'._.G.0.0.q.r.q.q.q.r.r.r.G.F.F.V.b.w.w.w.t.t.r.w.w.9.9.<.M.m.M.M.b.K.L.F.F.V.J.{.{.L.V.V.5.V.T.;X;X}.E.K.t.t.P.L.K.W.W.Y.0.0.6.6.5.V.V.V.4.5.V.V.V.L._._.J.F.V.K.S.v.4.v.6.w.0.F.G.F.V.V.t.0.r.H.H.r.r.w.5.4.5.G.H.e.5.7.e.F.e.e.V.V.4.4.M.v.V.V.G.G.`.`.`.`.H.r.e.e.q.C.S.T.T.S.S.V.0.w.V.V.B.4.<.<.2.2.6.V.F.m.m.b.4.4.9.B.R.-X<X<X;X].B.4.V.|.|..X.X.X_.S.S.J.b.v.v.4.A.v.v.M.v.v.V.4.B.g.g.g.g.g.g.<.,.;.-.-.-.-.d.d.,.g.j.d.f.h.n.n.b.V.q.q.q.C.G.K.J.W.;X;X<X<X:X:X:X].k.1.-.1.1.,.<.v.B.B.A.K.[._.L.F.F.e.e.5.5.5.b.V.J.F.V.V.5.5.v.v.4.w.0.C.S.E.}.;X:X:X;X;X;X}.:X:X;X[.S.V.V.F.w.w.9.<.<.B.V.m.0.V.F.F.F.G.r.t.v.,.,.f.v.N.P.P.v.g.].:X:X:X X|. X|._.G.G.e.t.t.w.e.G.W.{.}.}.].S.S.A.A.E.E.E.}.{.{.L.V.V.V.V.V.m.A.W.W.E.Y.Z.Z.Y.Z.A.V.V.C._._.;X;X|.|.[.[.T.S.S.A.B.B.9.4.B.B.V.K.K.V.V.L.L.L.`.G.0.0.0.e.e.e.F.b.v.v.<.1.6.6.V.F.K.L.L.`.).q.5.5.3.b.m.A.V.V.9.6.6.0.5.b.N.Q.Q.E.`.'.'.'.(./.|.;X;XE.Y.m.5.5.5.5.5.5.5.e.r.r.e.e.e.e.r.r.~.'.C.9.4.,.,.3.v.v.v.Z.n.f.j.h.h.j.h.k.Z.Z.V.G.G.r.r.G.C.B.D.S././.e.6.5.K.L.K.T.T.R.].}.;X;XE.V.4.5.0.w.5.0.F.K.J.A.A.n.n.g.,.1.1.5.N.W.|.|.[.C.q.I.m.n.n.M.g.<.1.3.3.3.b.b.v.M.j.h.j.j.f.h.I.I.I.M.M.v.4.4.v.V.v.v.v.V.V.V.v.v.M.g.g.k.U.R.-X%Xx.d.d.g.Z.S.S././.q.w.w.0.V.G.L.S.F.b.b.b.3.b.F.b.4.9.B.V.V.0.8.8.y.6.3.;.f.x.%X#XS.B.B.S.K.K.K._.|.|.K.V.V.5.V.F.F.K.K.A.E.[._.G.)._.C.V.C.V.F.G.t.t.r.0.B.Z.S.D.S._.S.S.T.}.;X-X-X-X>X>X-XR.A.5.8.6.e.P.K.L.L.A.4.,.3.b.b.A.Y.J.].].].U.k.k.k.n.M.M.g.f.f.f.g.g.v.v.m.A.v.4.4.4.9.4.5.b.b.v.4.<.f.f.M.v.b.V.S.D.A.A.b.3.v.U.].].-X-X-X-X&XW.W.Q.A.m.A.J.N.N.F.7.9.0.0.G.G.e.0.6.4.3.4.5.5.5.5.6.4.1.4.9.0.q.0.0././.[.[._.G.0.0.5.4.b.A.J.E.E.}.}.].].D.B.g.B.A.K.|.;X;X;X;X;X}.{.L.H.t.7.F.{.;X,X,X:X;X}.S.C.K.H.H.P.5.3.,.1.1.f.,.6.8.8.e.V.E./.|.|.|.S.v.3.6.7.e.G.`.`.'.'.'.|.|. X|.|._.F.e.V.V.V.F.F.F.F.F.C.V.B.f.,.M.b.b.7.7.7.e.F.F.0.0.,.4.v.V.K.E.}.E.P.F.e.e.e.F.L.`.L.|.;X;X&XY.4.0.r.)._.|.|.|./.B.6.>.3.A.}.;X<X>XR.z.j.g.g.<.9.w.G.C.G._.'.|.|.}.m.v.,.,.,.4.V.J.R.T.A.v.4.4.4.3.f.f.j.j.j.d.d.d.h.j.j.d.;.;.1.s.2.2.q.C.C.S.T.Y.b.M.3.M.n.Y.R.R.U.U.U.U.I.n.f.f.h.h.Z.B.B.D.B.9.f.f.f.f.M.M.M.M.n.M.g.g.g.g.g.g.h.h.x.x.x.j.s.s.u.l.c.$X$Xz.d.;.i.:.a.z.#Xz.z.I.V.V.A.U.U.x.z.s.s.s.s.s.j.j.h.g.,.f.i.u.u.u.i.i.;.f.i.i.j.I.I.z.Y.I.j.u.u.l.c.#Xk.k.B.B.B.Z.h.j.i.d.g.Z./.|. X:X",
"5.e.r.r.).H.H.L.L.|.;X-X:X:X X X[.S.B.<.<.4.0.V.y.9.C.[. X|.{._.).G.H.P.P.7.5.b.T.S.S.V.4.v.h.h.b.b.4.4.9.S.}.}.;X;X;X;X;X;X:X:X:X:X|./.C.C.G.V.B.B.q.q.q.r.r.q.V.V.G.r.G.0.9.<.j.z.n.A.J.e.0.8.D./. X:X:X X{.`.).G.G.0.q.q.q.w.F.F.K.{.|.].].].q.0.F.L.W.{.|.|._.K.J.J.N.J.F.G.L.`.E.E.S.S.(.(.r.G.K.E.J.C.C.^.}.}.;X-XW.Y.A.V.w.V.B.4.V.K.L.P.K.F.G.G.L.L.G.G.F.0.5.5.N.F.J.J.J.N.b.b.5.5.5.b.E.{.`.).r.r.q.9.2.<.9.V.K.G.G.q.w.4.b.A.A.0.e.t.L.`.`.).(.).|.|.|.}.K.V.5.8.y.w.4.5.5.7.F.e.q.w.N.N.F.J.L._.G.q.h.d.1.g.g.g.g.n.b.n.n.U.x.k.Z.B.D.S.K.K.K.S.S.D.V.C.V.V.C.V.0.4.4.4.A.A.Y.n.n.A.}.W.W.m.M.M.v.4.M.3.5.e.e.0.V.m.Q.Q.Y.A.b.5.8.8.{.|.|.|.}.].R.E.R.T.A.b.5.5.7.N.F.V.b.v.4.v.v.B.v.v.V.V.V.V.V.5.m.N.7.F.F.F.K.L.L.K.F.V.C.C.C.S.[.}.;X;X;XW.N.b.C.S.{.{.{.S.C.9.7.5.0.0.C.G.F.0.V.5.5.5.N.F.F.F.C.q.w.w.w.6.6.6.;.i.z.%X<X<X}.L.C.).).).'.`.|.|.R.T.n.v.b.J.L.`.E._._.).).).)._.(.q.q.r.r.e.e.e.V.V.V.A.K.G.).)././.[. X:X-X<X<X1X1X<X}.S.0.5.7.G.G.L.L.F.0.6.9.b.V.V.A.S.[.|.|.].]./._._.G.r.e.q.V.V.V.F.F.G.r.e.e.e.5.5.0.0.0.F.F.b.3.3.>.>.!.b.b.b.V.C.C.V.V.6.5.A.}.;X,X<X<X;X;X;X}.E.J.N.5.e.e.e.e.e.V.V.V.t.P.P.F.V.v.v.v.9.0.5.5.6.4.4.9.9.q.D.V.V.S._._.(.(.G.e.7.7.P.P.E.[.}.[. X[.].].C.V.A.J.W.}.|. X X:X:X:X|.{.L.G.0.G.G.[.|.:X,X:X|.[.C.0.e.w.w.6.5.3.,.i.d.g.4.6.N.N.0.C.).G.G.L.K.F.5.6.6.0.r.G.K.L.G.r.).`.{.|.|.{.K.V.9.v.B.A.V.V.G.G.G.C.q.9.h.M.3.7.8.8.7.F.G.F.F.0.4.v.v.Z._._.[.|.K.G.e.e.G.G.G.).`.{.}.}.T.Z.M.M.b.F.L.`.'.'.).q.w.>.3.b./.|. X[./.Z.n.I.9.V.V.G.G.G.)._.'.'.{._.C.5.6.6.6.8.e.G.)._.S.S.t.t.8.8.7.F.F.V.N.N.N.J.A.m.n.n.,.,.1.1.2.9.r.t.'._.K.J.b.7.7.e.F.L._.[.E.W.W.E.A.A.b.4.5.V.S./.S.D.D.9.9.9.v.b.b.m.V.V.V.V.V.V.V.V.V.V.B.C.(.(.).G.q.9.B.R.-X<X;X}.K.N.6.M.z.z.J.E.E.K.K.).'.'.'.'.`.L.G.K.K.K.K.G.P.t.t.e.0.B.v.4.5.e.e.F.N.Q.m.Q.E.{.[.B.g.h.I.#X-X-X;X/.G.e.e.e.F.A.Y.Y.R.&X-X<X<X;X].K.e.8.e.G.[.}.}.}.K.G.J.F.P.H.P.V.B.h.-X-X}.]./.C.q.t.H.H.L.P.J.F.0.r.q.^.(.(.D.D.U.R.%X-X-X;X;X|.|.|.K.F.J.W.{.E.S./.}.}.E.K.K.K.L.L.G.G.G.L.`.{.E.K.0.0.5.5.5.5.w.q.).).(.(.q.G.F.F.^.^./.}.;X:X;X;X/.S.L.{.{.{.{.L.L.H.H.H.`.`.|.|.{.|.:X:X,X,X<X;XF.5.6.6.n.&X<X>X}.E.J.P.N.b.3.,.6.5.v.n.n.R.T.T.G.F.e.G.H.L.Y.Y.b.M.3.3.5.V.K.E.W.W.W.T.T.A.V.G.5.b.N.J.J.V.C.S.<X<X-X].Z.V.F.F.G.G.G.B.9.B.9.4.g.<.D./..X/.(.(.B.v.,.,.,.v.4.4.4.<.g.k.k.g.v.4.h.M.v.,.4.B.A.n.j.z.I.R.R.U.j.i.#.o.:.:.:.;.1.g.k.k.g.f.f.f.g.g.f.h.z.c.z.j.f.M.f.g.g.f.d.d.j.d.d.d.d.u.-.-.d.d.1.1.g.h.k.k.d.-.1.1.;.i.;.-.:.:.i.z.n.h.f.f.,.;.<.g.v.n.n.n.m.Q.",
"|.E.V.w.5.7.P.W. X X X;X-X-X>X<X;XE.J.b.3.6.6.6.0.5.v.v.n.I.U.R.4.5.V.F.F.5.5.4.y.8.t.r.r.r.t.t.L.K.J.V.V.S.[.{.|.;X;X;XE.A.A.b.;X;X}.S.q.q.0.w.5.b.m.m.Q.N.N.7.P.P.P.F.F.K.K.S.F.5.6.6.y.>.>.>.h.I.-X,X,X;XK.G.}.[._._.).`._._.F.A.J.J.W.W.W.&X{.[._._.'._.L.L.T.S.r.t.t.e.F.J.R.R.R.S.S.).).)./././.}.;X,X,X2X2X:X.X(.q.q.r.r.`.`.K.V.v.V.F.F.w.V.K.W.}.|.{.`.'.'.).).).G.C.C.9.9.9.q.q.q.q.q.9.w.w.w.t.e.e.e.m.b.3.3.;.;.,.f.b.b.8.w.6.6.5.b.S.[.;X:X:X:X;X}.;X;XW.J.m.m.b.5.V.F.N.7.5.5.e.r.F.F.F.0.0.0.0.9.6.6.6.4.4.V.V.F.Z.B.9.9.w.q.q.r.P.N.7.7.t.e.C.(.|.|.{.L.P.K.C.D.<.B.S.}.;X;X;X;X:X:X:X|.`.P.F.7.q.C.].;X:X:X X[.V.0.5.5.4.6.3.3.1.<.v.b.b.4.4.4.y.0.r.G.).H.r.e.7.7.t.P.P.H.H.F.G.G._.{.|.|.;X;XG.G.e.P.F.N.m.m.K._._.G.G.0.5.3.N.e.e.r.e.r.G.G.7.5.5.V.9.C.G.G._.`.L.H.t.7.P.P.r.t.P.L.E.W.R.I.5.5.7.F.).)._._.).q.6.1.4.B./. X^.(.A.m.m.Q.J.V.).).).).).'.'.~.~.r.0.3.3.6.7.e.F.F.G.K.K.S.A.Z.e.0.q.r.C.C.S.T.J.A.A.m.n.j.d.j.s.1.4.0.0.G.)._.V.V.F.F.F.F.F.F.L.L.W.E.W.W.E.Y.B.B.B.A.V.V.B.9.0.F.F.V.V.e.e.e.K.K.L.G.F.F.e.t.9.q.C./._._.C.q.5.V./. X:X X{.`.8.7.b.M.I.R.E.E.P.P.L.`.`.'.'.'.V.V.K.K.G.G.G.G.r.r.G.G.F.0.0.V.r.H.P.e.7.5.b.A.(.C.V.3.b.Y.-X-X:X X'.).r.V.V.A.b.b.A.R.R.;X<X,X;X].C.w.w.q.(.[.;X;XW.T.E.L.H.~.q.q.w.B.Y.&X<X<X].].S.C.G.G.).H.A.V.5.6.w.w.V.S.G.V.V.Z.R.-X,X,X,X;X;XE.K.J.F.P.|.|.}.[.T.[.}.}.E.K.K.K.G.G.G.G.{.{.E.S.C.B.4.4.5.7.7.t.e.r.r.G.w.w.t.t.r.G.K.E.}.}.|.|.{.L.L.L.L.L.L.L.L.H.H.L.|.{.{.`.`.{.|.:X<X,X,X;XE.5.6.>.z.%X-X<X<X}.S.C.5.5.5.6.6.4.V.F.R.R.].].E.J.F.F.L.W.W.Y.m.b.M.M.N.F.J.P.L.W.{.}.L.K.F.t.t.t.e.q.G.K./.].-X:X X.XS.V.q.G.H.P.P.P.G.V.C.B.k.k.D./._._._.G.V.V.V.9.K.K.G.H.r.r.G.G.G.G.r.e.0.5.5.b.V.V.K.L.L.E.T.E.[.[.S.4.,.,.,.,.,.4.0.r.G.V.v.h.V.A.J.K.K.K.K.K.[._.`.L.`.).r.e.r.r.G.K.K.G.0.w.0.9.y.9.w.0.G._.K.K.V.4.9.0.0.b.f.f.f.v.b.0.e.t.H.r.e.t.q.q.(._.}.R.U.g.g.V.L.L.W.W.}.|. X X.X.X).q.q.e.8.e.r.r.9.q.G.`.`.`.F.F.b.5.8.t.r.{.;X<X2X2X2X,X:X_.r.t.F.F.F.F.F.`.|. X|.[.K.A.m.n.n.n.,.3.6.6.q.G.[.{.{.K.V.5.4.4.9.q.C.G.G.G.L.`.{.{.'.|.:X:X:X[.q.y.6.5.5.e.G.C.C.S..X.X.X:X:X,X,X,X:X|._.r.8.7.P.P.b.B.Z.U.R.-X%X&XS.V.V.J.W.W.;X%XD.C.q.r.~.~.~.~.W.E.J.A.A.K.G.C.A.A.S._.[.|.}.].8.w.w.e.V.A.U.U.K.K.G.G.C.C.A.J.J.A.b.b.v.g.g.Z.n.m.m.b.4.B.k.k.D.V.A.m.A.E.}.].m.b.M.3.V.E.}.[.A.V.5.6.5.b.m.m.J.J.E./.T.Z.Z.n.A.A.A.V.B.B.V.v.F.V.V.J.A.n.f.f.i.!.M.v.v.v.h.h.u.u.u.d.d.,.4.4.h.h.z.x.x.x.U.Z.V.V.B.Z.n.f.1.1.i.i.i.;.;.;.;.;.u.u.s.x.#X-X-X>XR.h.d.1.;.;.f.z.#X#X#Xz.h.g.v.v.U.Y.E.K.G.e.e.8.",
"M.3.6.6.6.3.b.b.v.v.4.5.5.6.3.3.w.w.q.r.H.r.e.8.8.8.8.r.r.r.r.q.J.J.E.{.|.{.L.L.P.P.P.L.J.F.7.8.~.).L.A.V.v.v.4.V.G.G.F.F.F.e.t.5.0.G.G.).~.t.w.r.G.F.F.J.K.H.H.w.q.C.A.m.m.M.i.7.7.7.F.L.L.S.C.6.6.,.n.Y.A.G.G.9.9.B.Z.Y.W.}.}.).).q.w.t.~.~.~.F.V.9.4.9.q.r.r.G.G.r.t.r.r.r.G.e.F.P.G.L.K.E.Y.Z.n.n.n.n.h.z.z.g.<.9.w.w.t.P.P.e.e.F.F.F.V.V.V.K.L.K._./.S.V.B.Y.Y.A.B.B.4.5.5.F.V.b.0.F.F.P.P.G.G.F.e.e.e.F.F.F.P.r.r.r.G.J.E.[.|. X X|.`.e.6.<.g.U.%X-X}.}.E.E.W.{.{.{.L.G.e.e.F.F.P.P.P.e.0.G.G.q.4.4.0.V.F.t.r.0.4.4.B.A.A.9.9.Z.T.-X<X<X,X{.K.F.N.5.5.b.A.h.I.%X<X,X<X;X;X9.9.y.w.r._.}.-XE.[._.).).G.G.A.e.G.].-X<X<X-XE.r.r.r.t.r.e.0.4.4.4.4.5.0.0.0.q.Z.T.R.;X:X:X;X;X`.K.V.V.C.L.`.{.|.{.|.|.|.}.E.W.q.0.G.H.L.L.W.W.q.q.q.9.4.6.3.b.5.7.N.F.G.G.G.C.~.t.q.q.C.S.|.|.<X;XW.L.P.F.G.K.`.`.`.H.`.{.{.}._._._._.|. X:X:X X[.F.6.6.v.R.-X,X,X;X}.C.4.4.,.y.y.y.5.J.W.;X;X;XE.S.V.5.b.J.E.E.T.V.0.4.w.w.w.F.F.F.P.P.F.F.F.V.0.e.F.F.F.F.F.C./.[. X X]./.D.P.G.e.e.e.G.C./.S.S.S.C.S._._.(.V.V.V.G.G.)._.`.H.H.P.G.G.G.G.H.W.J.b.4.4.w.q.G.K.E.E.K.L.{._.C.4.,.1.-.-.1.4.V.G.K.Z.h.f.v.F.F.P.P.L.`._._._.'.`.L.L.L.P.G.P.P._.).q.w.6.6.6.6.y.w.e.G.K.S.D.D.D.D.B.<.g.f.f.j.j.g.V.G.~.~.t.t.t.F.L.[.}.].T.T.Y.Z.V.V.G.L.W.;X;X|.|.'.).S.Z.n.W.W.J.F.0.0.G.L.{.`.).r.w.w.8.7.e.P.L.|.:X:X,X,X X X[.C.V.F.F.0.F.G.{.|.;X|.E.T.0.B.v.M.M.f.g.v.A.Y.K.L.`.H.r.r.4.9.9.D.C.C.L.L.G.G.`.`..X X X:X:X X/.9.6.6.w.0.}.}.{.[._._.|.|.,X,X,X:X X|.'.r.r.r.G.C.V.K.&X;X;X<X-X;X}.K.0.w.S.[.].].].T.S.C.t.r.~.r.r.0.6.6.7.N.N.P.K.L._._.)._._._.S.V.w.w.F.F.L.W.{.{.}.}.E.Y.L._.L.G.7.8.q.q.B.Z.Y.Y.W.Y.5.5.w.C.G.q.q.q.G.G.)._.C.9.2.6.].}.|._.G.G.r.0.6.6.8.7.t.P._.[._.).C.0.e.F.F.K.m.m.V.F.G.G.L.}.{.W.K.e.7.8.8.8.t.t.q.C.S.A.V.V.w.q.w.q.V.Y.W.&XR.T.S.).).).G.G.F.V.M.g.g.v.5.5.5.5.5.F.F.F.L.{. X X X.X).r.t.y.0.V.A.T.T.T.Y.W.F.F.e.e.L.{.;X<X<X,X,X:X;X|.}._.[.[.}.-X-X<X<X1X-X-X].q.w.w.5.3.V.b.v.v.v.v.4.4.w.w.w.r._.;X<X1X%X%X%XR.R.S.G.r.L.K.J.V.A.S.R.].W.W.L.G.G.H.).).K.G.e.e.0.0.G.K.w.^.~.'.'.).).).S.C.G.G.G.V.A.Y.n.I.%X&X&XA.9.q.(.(.'.'.).G.e.e.0.V.V.Y.W.;X<X<XE.K.0.w.w.q.D.S.Y.A.B.<.<.2.6.6.w.w.w.q.G.`.'.'.|.E.V.6.y.6.q.r.'.'.`.`.L.W.E.E.N.N.N.V.E.;X,X,X|.{._.G.r.e.e.r.C.G.G.~.^.q.<.<.3.4.4.B.B.v.f.f.3.5.F.G._.|.;X;X[.K.F.5.3.4.v.k.V.V.4.,.,.n.R.R.U.A.V.F.e.F.L.W.}.|.]..X].].].R.V.4.B.C.C.V.V.V.5.5.5.4.4.2.4.9.q.^.(.(.D.4.6.>.M.f.f.g.h.n.m.m.I.I.Z.B.D.T.R.R.v.n.n.Y.R.m.v.v.Y.Y.n.M.,.,.M.,.;.-.u.a.a.a.i.s.j.j.g.V.S./.S./.k.k.k.k.g.<.1.<.b.b.V.C._..X X X",
"_.).H.H.e.7.5.6.;.,.3.5.0.e.8.t.E.}.;X:X:X;X&XW.m.N.F.F.L.`.`.{.'.'.'.|.|.{.}.E.q.C.S.K.E.E.E.S.w.0.w.4.6.6.6.4.t.e.F.F.V.G.r.r.G.C.B.B.Z.R.;X;X|.[.L.G.e.e.P.P.`.{.{.{.{.{.{.{.q.r.`.{. X X.X.Xr.t.6.3.m.-X,X2X:X;X].B.9.4.4.1.6.0.F.E.}.;X;X;XK.F.5.6.6.e.G.K.G.F.V.m.v.4.5.w.e.G.F.F.F.F.7.7.q.0.F.G.V.B.B.B.].]..X[././.E.E.F.F.F.F.J.K.[.}.L.G.G.(.(.C.C.C.V.S./.[.[.`.L.P.H.G.r.r.r.G.H.`.P.t.e.e.0.0.G.G.V.S._._._.V.b.3.1.d.j.j.n.A.G.r.4.<.f.f.v.V.G.L.H.`.`.`.`.`.'.'.H.G.G.P.L.`.L.L.0.0.w.6.6.5.e.e.8.e.F.J.Y.E.E.K.L.F.M.i.i.j.k.k.C.C.G.H.L.H.F.F.L.W.W.-X-XR.A.m.G.L.W.W.W.;X}.}.;XW.C.q.q.C.K.K.N.N.5.9.q.).'.`.W.P.e.t.t.t.H.L.G._.|.:X:X:X:X|.`.G.0.B.V.C./.}.|.|.|.|.{.L.V.V.v.v.v.v.4.9.0.q.{.{.`.L.G.0.0.0.K.K.L.G.G.G.G.G.~.).`.{.|..X.X(.^.9.6.5.F.W.;X;X`.'.'.'. X X:X,X:X;X|.`.).~.t.t.L.L.L.{.|.;X;X<X;X|._.w.4.v.Y.&X-X-X}.K.G.r.r.H.L.K.V.4.3.3.v.v.T.T.L.`.`.`.`.`.L.K.F.5.5.F.P.L.[.}.|.|.|.{.L.G.{._.C.0.0.0.e.e.V.A.R.%X%XR.5.y.F.P.H.H.G.G.C.D.S.D.B.<.<.(.{. X'.).q.w.6.6.5.5.8.8.G._._._._.G.7.5.F.G.K.V.9.9.G.K.L.L.{.{._.K.B.V.0.e.e.e.V.V.E./.D.B.9.B.V.F.9.V.A.A.Y.A.J.F.G.G.G.L.K.F.5.4.4.9.0.4.5.F.F.F.0.0.G._.{. X X X/.S.V.e.7.7.7.5.S.A.Y.T.Y.J.F.7.G.G.[.}.;X:X;X;X|.}.}.}.;X;X;XW.;X;X:X:X:X X.X/.w.w.w.w.6.6.3.M.I.U.Z.9.4.w.e.7.P.L.;X,X,X2X>X-X>X-XT.F.e.H.`.`.F.F.K.{.|.{._.G.L.L.L.L.P.F.V.V.B.B.V.C.G._._._.G.C.C.C.C.G.G.P._._.S.Z.U.W.&X&XW.W.E.S.C.C.q.q.w.w.w.w.0.A.W.;X-X<X,X,X:X{.G.w.9.B.Z.A.A.V.4.4.g.f.1.<.4.w.r.~.`.|.|.|.|._.G.0.6.6.q.G._.|.{.{.|.}.E.K.F.5.6.6.E.}.;X;X;X}.T.S.F.V.V.q.q.r.r.r.D.B.B.v.v.v.v.n.v.4.1.;.;.,.v.B.T.}.;X;X;XY.5.3.v.v.m.A.m.M.;.;.f.n.Z.A.V.V.V.V.^.~.).`.`.[.].XX].].].[.L.G.q.9.C.q.0.r.e.0.4.v.3.3.4.V.G.).G.r.e.5.4.v.M.4.0.e.F.P.H.r.r.G.)._.`.{.{.|.|.K.G.G.H.`.'.`.L.J.J.N.N.N.e.e.6.6.1.;.z.I.%XR.Y.B.q.C.G././.].]./.D.D.w.w.8.8.r.`.|.|.}.}.E.L.L.G.~.~.).(.q.9.B.k.k.z.U.T.[._.'.'.).^.V.V.A.S.K.G.C.q.N.5.5.3.4.<.<.<.D.V.w.e.7.b.b.n.K.V.5.4.6.3.4.V.P.P.P.8.6.e.F.A.q.G.G.P.F.F.F.V./.].S.D.Z.Z.Y.Y.B.V.V.q.r.r.C.C.w.w.w.e.F.V.Y.W.2X2X2X2X,X}.D.<.2.2.6.4.4.3.1.1.>.3.5.V.G.L.S.A.I.I.m.m.m.5.6.y.;.;.,.v.A.T.T.S.A.A.V.4.4.5.w.6.6.8.e.t.H.G.G.S..X X.X'.`.`.L.P.L.L.L.`.).).G.G.F.F.e.0.C._.'.{.L.F.0.q.q.V.F.N.e.F._.]..X].T.T.H.G.r.r.r.G.L.`.|.}.}.K.F.C.G._./._.[.{.E.V.V.V.%X;X<X<X:X}.L.F.0.V.K.{.|.{.L.L._._.[.[.}.}.}.}.<X<X<X-XR.J.N.N.N.N.7.5.w.9.9.9.3.3.3.3.3.5.4.6.f.;.;.;.1.<.g.k.V.V.B.4.4.V.V.V.C.C.B.B.k.k.x.x.XXXX].-X-XR.z.h.1.1.<.v.v.4.6.y.m.A.T.T.-X<X,X1X",
"w.t.t.H.H.r.e.F.^.(..X X X].D.D.J.A.D.D./.].|.|.|.{.`.L.L.K.E.E.Y.Y.A.Z.D.D.q.0.'.).G.r.r.G.K.[.E.K.G.q.r.r.r.r.t.t.'.'.'.'.~.^.w.q.C./.}.|.;X;XL.L.`.`.{.|.|.:X|.{.`.).~.).).).'.'.|.|.:X,X,X,X X[.V.>.>.Q.&X&X-X&XE.K.q.r.r.r.P.N.M.;.f.M.V.C.K.K.C.G._.[.E.E.A.V.4.6.0.G.`.{.;X;X;X&XW.{.`.'.t.r.e.F.V.V.G._.-X-X}.E.J.b.5.N.r.).).r.r.r.q.9.y.5.V.}.|.|.{.`.q.9.2.2.2.4.N.N.e.G._._._.C.w.6.F.V.b.b.V.A.J.K._._._.[._._.G.r.N.5.6.6.8.e.G.)._.S.C.V.q.0.0.0.V.V.V.V.B.B.C.C._.G.G.V.0.4.0.V.0.0.0.0.0.e.e.8.r.).|.;X;X].D.2.0.8.8.5.5.N.F.J.K.P.e.8.8.e.G.G.q./.}.|.;X[.(.(.(._.}.}.;X;X:X:X:X X X X X_.q.w.w.6.6.6.4.A.R.%XA.V.5.y.8.8.P.L.;X:X,X1X1X<X;X}.L.K.G.K.K.K.E.E.[.|.|.{._.G.G.G.r.r.e.0.4.v.V.A.V.V.K._._./.C.D.4.9.q.C.G._.K.S.S.S.E.-X;X;X;X;XB.4.5.0.w.q.^.q.e.0.0.C./.}.<X,X,X,X:X|.L.F.7.5.v.v.v.v.g.<.1.1.v.V.C.G._.`.{.{.'.`.{.K.F.5.0.8.~.~.'.).).L.W.W.K.A.4.4.4.A.}.;X:X:X}.E.J.N.N.N.F.F.H.H.H.F.V.B.g.g.v.v.b.v.3.1.s.s.1.2.w.q.S.}.-X].S.4.,.3.m.m.C.V.v.,.,.M.m.Q.E.E.E.J.F.F.F.P.L.L././.]./.S.K._.).C.G.G.F.F.J.F.F.A.A.m.v.M.M.q.q.r.t.t.t.w.w.3.4.5.6.w.e.P.P.P.F.J.E.W.{.{.{.}.[.[._._._.).).K.L.F.N.5.5.0.0.b.b.3.M.n.Y.R.-XT.K.K.G.G.G.G.).].R.R.R.S.C.r.t.~.)._.|.;X;X;X;X}.}._.).).'._._.h.j.l.l.c.x.U./.[._.(.C.C.C.S.E.q.q.q.q.w.0.w.5.M.n.x.x.x.k.v.5.b.5.q.q.q.q.9.g.3.3.M.m.A.V.F.e.5.5.0.G.G.G.r.q.G.G.G.C.C.S.S.S.}.[.S.V.F.F.F.F.q.C.q.<.9.V.F.F.4.9.B.U.].:X2X2X,X:X[.q.y.6.6.4.g.f.,.;.>.3.5.e.F.J.W.R.T.S.S.B.e.5.6.6.6.1.,.f.,.v.S.[.[.K.N.5.6.6.6.4.9.V.G.G.e.r.P.`.{.{.|.|.{.W.`.`.`.`.`._.'.'.~.~.r.r.F.F.'.).).L.G.V.V.V.R.R.C.0.w.0.K.|.{.}.;X;X}.}._.).e.e.F.G.K.[.[.}.F.K.F.V.K.E.}.;Xq.q.C.S.}.:X,X,X:X;X[.S.V.G.`.`..X{._.G.G.L.{.{.[./.[.|. X X X.X`.G.r.e.5.5.b.Q.Q.J.J.J.N.7.8.8.7.8.t.e.q.6.4.4.0.0.F.r.t.t.r.r.L.G.).).'.).(./.q.q.Z.T.].}.;X;X|.}.E.J.V.V.C.q.w.w.5.b.J.W.;X;X|.|.K.b.5.5.5.6.6.6.6.5.G.|.:X:X:X;X}.E.J.F.N.7.5.5.b.m.F.N.F.F.t.t.7.7.7.5.5.b.w.t.r.~.'.).G.G.6.6.5.F.G.L.L.L.F.F.0.6.6.0.J.K./._.G.r.e.e.N.m.Y.Y.A.V.w.6.6.y.e.7.m.m.Y.Y.T.T.]._.).~.w.y.2.1.i.j.I.I.I.n.b.b.N.F.K.G.C.q.w.y.q.C._.}.;X;X}.T.0.w.5.5.e.F.e.e.C.0.q.4.V.V.V.C.w.t.t.y.6.7.N.b.0.5.7.7.e.0.C.S.R.Y.A.4.4.7.P.H.).C.q.w.5.5.b.N.P.N.N.b.4.B.V.V.F.F.V.S.S.C.8.8.8.F.L.}.;X:X|.{.F.F.H.`.`.H.F.F.K.L.L.W.{.`.).C.'././.K.K.F.G.G.(./././.E.L.L.P.0.V.S.E.[.L.J.F./././.E.E.A.m.M.j.n.b.F.P.`.{.{.K.K.K.L.|.|.:X:X:X}.J.N.>.3.6.q././.'.(.q.q.5.v.5.7.b.5.5.V.V.9.U.U.U.Z.Z.v.<.1.!.M.M.m.Q.A.b.4.f.M.n.A.T.}.[.[.{.{._._._._.L.L.",
"t.7.8.8.5.V._.{.;X,X1X1X1X,X<X;XH.G.G.F.V.C.C./.|.|.|.{.K.F.V.5.V.5.4.4.g.B.A.Y.Y.J.L.H.H.e.4.1.9.w.q.r.).`.{.W.}.}.;X:X:X;XW.E.y.6.6.5.V.V.V.0.q.q.K.|.:X:X,X,X,X:X X).q.0.b.b.<.g.g.h.n.I.I.I.Y.A.C.~.).).'._.[.[.K.F.F.G.H.'.~.'.`.W.E.W.E.E.7.7.N.J.W.}. X.X|.{.G.q.w.q.V.V.E.E.K.K.G.V.B.B.Q.Q.m.b.b.M.f.f.s.1.4.5.F.K.T.R.S.A.b.3.3.A.T.T.J.v.,.,.f.A.E.{.G.F.e.e.r.t.t.t.K.K.S.D.D./.[.{.C.C.C.C.V.V.V.F.L.L.J.m.A.V.C.q.e.0.e.e.F.0.v.M.3.3.5.0.r.G.G.K.E.E.W.{.|.|.|.[._._._._._.K.V.V.5.5.5.5.e.e.8.y.6.<.B.T.}.;X|. X~.r.C.V.V.A.S.T.&X&XW.K.G.t.t.~.{.|.;X;X;X;X;X|.;X|.`.'.`.K.R.%Xc.c.c.x.x.D.(.^.S.K.F.P.F.0.9.9.k.D.C.F.e.V.V.V.R.R.R.U.Z.B.v.4.C.C.L.L.C.4.,.,.v.B.A.K.J.V.V.V.J.J.K.L.G.r.r.r.K.G.C.C.C.S./.}.[._.G.C.G.K.K.E.B.B.<.2.<.B.A.A.J.E.{.:X:X:X X.XL.F.0.0.w.6.2.2.g.g.,.3.4.V.K.S./.].].}.W.A.v.3.1.,.;.;.>.6.4.9.E.[._.C.w.6.,.,.,.4.0.G.H.H.H.H.L.L.`._._._._.[.;X;X;X|.|._.(.(.).).r.r.r.~.).'.C.C.0.0.V.J.L.E.5.5.5.V.K.E.{.{.;X;X|.[.K.A.A.m.V.G.K.K.A.m.v.M.m.A.Y.K.G.G.r.w.Y.W.;X,X,X,X;X;XE.K.V.C.G.).`.`.r.r.r.G.G.G.G._.`.|.|.;X|.[.C.w.7.7.N.5.5.N.e.e.t.t.t.e.e.e.r.r.L.F.5.6.6.0.G.H.L.L.H.H.F.F.G.G.~.~.~.q.9.<.g.g.D.D./.].]. X|.}.).(.^.^.q.w.6.5.5.F.W.|.;X}.E.E.F.e.t.w.y.w.w.5.9.C.].:X:X:X;X}._.C.q.9.6.4.5.b.J.J.J.F.F.e.e.0.6.4.4.4.4.e.r.t.F.e.V.B.B.4.4.5.F.F.K.W.E.J.b.5.4.4.m.J.E.L.G.G.e.e.F.V.V.A.A.A.<.<.5.5.7.7.5.0.Y.E.T././.).~.~.r.q.4.,.j.n.%X&X&X%XM.,.,.6.w.w.q.q.q.e.F.F.G._.{.{.}.S.B.g.h.n.Q.N.F.e.w.y.6.4.K.K././.C.q.5.5.7.7.e.7.5.6.8.w.8.8.e.K.E.Y.U.U.g.4.q.r.r.r.e.5.4.4.4.6.w.6.8.8.7.F.K._._.G.e.7.m.b.7.y.y.e.L.|.<X;X}.S.C.K.L.W.H.H.G.G.L.{.{.E.H.H.H.`.{.{.{.E.L.J.V.B.D.].}.}.K.G.V.e.e.F.J.J.T.[.E.E.W.{.{.[.].R.U.x.z.I.I.R.T.K.G.H.H.H.G.L.)..X X|.{.L.F.7.7.5.6.w.r.C.C.D.B.v.b.N.N.F.t.w.<.<.4.Z.S.S./.(./.T.Z.Z.v.V.V.V.A.A.v.M.;.;.,.,.A.S.E.E.W.`.'.~.^.~.'.'.`._.G.q.5.5.3.>.i.I.z.z.n.Z._. X X:X:X X`.`.).~.t.t.t.t.C.C.C.F.e.0.w.0.5.m.T.}.:X X|.|.`.`.G.C.C.S.S.T.~.).'.'..X/.S.D.B.D.C.K.L.K.K.K.m.b.7.7.t.t.t.t.y.6.3.;.i.i.j.f.g.v.V.G.G.G.K.K.C.C.q.0.w.4.4.g.%XR.R.Y.J.F.7.t.y.8.7.J.W.;X:X:X{.W.F.b.b.b.N.J.e.e.y.>.,.4.B.S._.'._.G.V.9.<.<.,.3.3.5.0.G.)._.XX/./.S.C.C.G.G.N.N.F.F.F.G.G.G.G.L.E.W.-X-X].].V.B.T.}.}.[.G.r.e.0.b.b.m.J.P.H.r.G.H.`.`.H.G.C.q.q.4.6.v.Y.;X;XE.E.K.F.e.e.0.0.q.~.).).'._._.S.L.K.V.V.V.V.J.K.b.V.J.J.L.{.|.|.{.`.e.y.5.S.}.;X X|.}.E.W.&X-X>X,X<X;X/.B.<.;.;.x.].|..X'.'.H.e.4.5.v.v.A.T.E.}.D.B.4.3.3.6.6.8.e.e.r.t.).'.}.].{.}.}.}.-X-X].R.A.S.K.[._.C.4.4.",
"9.4.0.0.F.F.J.E.;X&X&XU.n.4.9.w.r.G.P.L.J.m.b.v.A.E.E.K.K.G.H.H.).~.r.r.q.q.e.G.S.S./././._..X.X'.).G.G.V.K.E.T.<.<.g.n.U.Y.m.Q._._.[.|..X.X).^.D.k.v.m.Q.Q.Q.Q.R.Y.n.5.5.N.J.L.}.}.E.E.A.V.4.6.!.>.6.4.9.q.).'.{.`.e.y.y.6.3.M.C.C.).'.).G.r.G.W.W.P.F.K.[.|.:X;X;X|.E.E.K.S.S.G.G.H.H.t.r.F.e.n.v.B.D.S.C.9.9.4.4.0.G.{.|.;X<X}.|.L.V.b.m.b.v.Y.m.v.4.4.v.n.m.R.U.A.T.K.K.L.{.|. X:X:X X.X/.C.w.w.q.~.~.q.q.r.7.e.e.e.e.G.).(..X.X_._.L.V.V.4.5.7.7.7.e.e.F.F.V.V.b.b.F.H.).'.V.9.9.V.L.`.{.W.`.L.H.G.G.G.G.G.F.N.b.3.;.;.,.M.V.S.}.;X:X X.X.X(.^.q.q.9.6.5.V.E.}.;X;X}.[.S.0.y.y.w.r.r.e.0.V.(.]. X X X X].].K.J.N.b.b.b.V.F.C.C.G.e.0.b.5.b.f.g.9.q.r.r.G.F.0.0.5.4.4.b.J.J.N.N.J.J.N.N.5.5.b.V.K.E.{.`.G.r.V.V.C.S.S.V.B.v.f.,.,.6.0.q.e.G.S._.`.`.'.).e.6.i.f.z.#X>X>X>X-XV.4.1.1.4.b.N.J.6.0.7.F.F._.'._.G.V.3.;.;.3.b.J.C.q.0.5.5.4.V.S.E.E.K.F.b.7.7.N.6.9.w.w.w.e.0.e.P.W.&X&XW.J.e.8.e.t.t.P.F.N.5.e.q.q.5.6.6.5.e.r.{.{.K.V.5.4.,.1.7.F.K.S.}.;X;X;XL.G.G.G.G.G.G.G.K._.{.{.{._.).).r.).'.`._.[.E.S.V.A.T.].}.].T.A.J.J.F.C.G._._.'.[.[.[.|.|.}.].].Y.T.R.R.R.T.A.A.C.V.F.A.J.E.}.|.[.K.K.V.5.6.6.8.7.e.e.0.0.b.b.5.y.6.e.F.F.e.w.9.q.(.'.|.|.[.[._.D.C.A.A.Q.Q.Y.n.f.;.1.,.4.5.J.W.J.K.`.`.'.~.~.t.).).G.V.9.<.1.;.3.M.I.%X&X%XT.K.|.|.|.|.{.L.P.F.t.t.t.t.t.e.0.0.w.w.6.6.3.4.B.D.`.`.{.{._.G.r.t.T.T.S.A.V.G.P.L.[.E.T.Y.n.Z.A.A.A.E.Y.A.v.v.4.3.e.e.e.t.8.6.>.>.!.!.i.i.f.v.V.V.~.~.G.V.V.4.3.6.6.4.v.n.U.R.}.}.e.e.e.e.8.8.5.0.[.;X;X;X|.`.P.P.7.e.e.e.8.8.e.F.,.,.<.D.D.q.q.w.F.N.5.3.3.6.3.4.q.q.C././././././.S.C.V.V.e.G.L.K.K.K.L.L.E.Y.E.R.R.Y.A.A.V.K._.|.|.`.r.8.5.7.N.Y.L.`.r.t.r.r.).~.r.r.0.0.F.F.b.4.b.S.|.|.`.e.w.w.w.w.w.q.).'.).`.L.H.G.J.J.J.Q.V.V.V.V.v.v.n.n.C.C.G.K.K.V.F.e.9.C.K.|.;X}.E.S.x.-X>X1X1X>X-XR.1.1.u.j.x.-X X.X(.q.<.,.i.f.g.k.Y.Y.Y.Y.I.h.;.;.;.;.3.3.6.6.5.0.W.}.}.}.}.|.|.{.[.|.}.{.[.C.w.6.5.7.5.5.5.N.J.J.q.q.0.0.b.b.b.5.4.g.h.x.%X>X<X<X;XE.V.9.w.q.~.).'._.[.|.|.}.[.[.R.].-X-X-XR.Z.m.B.V.C.C.C.V.V.v.R.;X;X:X:X:X].(.q.C.}.;X;X|.{._.'.'.).).H.H.P.P.F.e.0.w.w.w.w.w.w.e.e.0.0.F.V.0.U.U.S.K.).q.9.2.>.>.>.8.N.P.G.(.).).G.V.V.K.[./.G.G.G.G.G.w.6.6.5.e.t.e.F.E.].}.;X&XE.e.w.t.~.'.|. X|.[.V.v.1.;.i.i.,.,.4.9.0.G.G.V.w.4.4.0.F.L.|.|.;X;X:X:X:X;XE.A.v.4.4.V.G.L._.C.C.V.b.5.7.7.q.0.r.G.)._.'.'. X:X|.T.Z.v.4.4.4.0.e.t.t.F.V.v.f.f.3.5.F.L.|.|.{.K.C.0.0.V.K.L.{.{.{.L.K.T.].|._._._.G.F.G.S.C.K.K.G.G.G.H.`.`.:X,X,X2X,X;XC.4.;.;.;.,.<.9.^.(.[.[._.K.E.}.}.;XW.L.G.q.C.].-X-X-X]./.9.w.0.F.N.n.n.R.R.;X}.E.E.G.G.9.<.<.<.B.D.",
"G.G.F.F.5.4.3.3.2.9.9.0.e.F.F.N.v.v.v.v.4.4.5.5.5.V.J.J.m.m.b.b.4.V.K.W.W.L.F.b.e.F.S.T.U.Z.v.3.4.v.m.A.A.C.q.q.t.t.r.).G.w.4.4.z.#X>X<X,X,X;X].g.,.1.y.w.w.6.6.y.y.w.e.K.[.[.T.g.g.<.,.v.v.V.V.y.y.6.3.v.A.T.T.A.J.F.F.F.e.0.6.M.5.e.t.t.t.F.P.[. X:X].].K.P.8.C.G.r.r.r.r.r.q.w.0.w.V.V.L._.{.~.r.F.b.v.4.6.y.N.P.W.;X;X}.W.J.(.).).H.H.H.H.L.[.|.|.{.W.L._._.'.'.`.`.L.A.A.Y.R.}.-X;X;X}.W.N.Q.N.K.|.|.|.].].;X;X|.{.E.E.].].-X-X-XR.Y.E.E.K.r.G.F.F.e.G.).K.V.b.5.6.8.8.w.w.B.4.4.4.4.4.5.V.r.r.e.5.w.V.K._.'.'..X.X].]./.].R.R.T./.S.V.M.;.i.;.3.V.F.w.w.r./.|.|.W.K.L.G.q.V.B.4.<.1.;.,.v.&X>X;XW.E.W.L.L.`._.).q.q.0.e.e.7.N.P.t.t.e.7.6.8.6.3.v.B.S.L.`.'.'._.C.C.K._./.{.`._.L.G.G.G.G.C.V.V.V.V.V.V.V.m.v.v.4.4.5.0.F.t.8.8.6.6.,.d.d.g.h.j.j.n.S.H.).r.w.6.1.;.,.3.3.3.v.T.}.|._.F.t.t.8.5.6.b.E.}.;X;X|.W.Y.m.5.6.6.9.w.q.e.5.,.;.d.2.2.<.9.4.4.3.3.M.3.,.,.6.4.0.F./././.D.k.Z.Z.A.V.V.V.S.V.B.9.9.e.e.e.7.m.m.n.z.4.9.V.J.K.[.}.[.V.V.5.3.4.S.].].G.V.0.G.H.P.H.P.J.F.5.5.4.9.V.S.|.|.[.S.V.V.5.5.t.q.C.)._._.).H.V.C.C.V.V.J.A.m.n.n.n.m.m.A.A.Z.Z.n.v.4.9.V.S.E.}.{.{.`.K.T.].-X,X,X<X-XU.g.,.,.D.[.|. X X.X/.(.V.9.4.5.b.V.J.K.Y.m.n.f.f.,.6.1.>.6.3.v.A.W.}.{.E.T.T.}.}.].].].}.}././.C.9.9.9.F.F.V.b.4.b.F.F.4.6.,.1.1.1.d.h.%X-X<X;X;X}.[./.C.0.F.G.G.C.(..X-X}._.V.V.T.%X>X-X-X].k.g.g.B.B.v.v.,.;.d.k.-X>X:X X].k.k.k.x.x.-X;X-XR.Y.K.K.P.P.P.F.7.5.5.5.7.w.w.9.9.9.9.9.9.4.4.B.Z.T.].].].(.(.g.1.;.>.5.8.N.b.0.G.e.e.e.P.K.E.;X;X|._.r.y.e.0.V.b.7.7.8.8.e.0.T.:X<X:X;X].q.w.0.G._.`._./.k.g.d.d.d.f.;.!.6.5.F.F.F.0.6.y.4.4.b.J.{.|.|.:X,X,X,X<X-XT.Z.v.V.F.K.L.L.G.C.q.b.b.5.5.e.e.r.r.L.{.{.{.|.|.].].B.<.d.h.n.n.A.J.G.G.V.,.;.,.M.v.A.T.E.}.E.A.g.f.v.V.G.`.`._.E.{.R.R.R.}.}.T.Z.B.f.f.h.U.U.x.h.k.n.h.z.$X#X>X2X<X>X#Xp.o.[ @.@.#.#.#.s.j.s.i.s.s.x.x.R.T.T.Z.g.g.s.s.x.-X-Xx.s.s.1.,.,.!.M.n.R.%X%XR.R.T.Z.M.M.M.b.b.b.4.4.V.G._.K.K.E.W.W.{.K.S.7.6.;.:.:.i.I.I.m.M.3.V.K.K.T.Y.n.n.n.A.K.L.L.L./.C.0.e.G.C.]. X1X2X2X2X,X;X].T.].R.T.U.U.A.J.J.A.V.B.D.].].|.|..X.X'.'.'.'.'.).G.G.r.q.V.B.v.M.6.4.6.0.C.C.C.C.N.3.3.5.V.S.[..X/.C.9.9.V.T.}.;X|.{.).t.t.8.e.V.r.r.G._.K.S.K.E.[.{.H.e.5.3.;.i.g.<.6.6.>.;.;.M.].-X;X}.}._.G.r.r.r.r.H.P.P.P.P.H.H.`.`._._.S.S.W.W.W.[.}.[.S.A.V.5.e.8.8.8.5.b.F.G._.'.(.9.1.;.>.3.B.U.].].|.{.F.b.b.V.V.V.0.0.K.F.b.3.6.0.).'..X^.^.G.G.K.S.S.|.{.`.`.H.0.V.V.].].}./.V.B.4.4.J.P.P.e.8.7.N.N.b.V.G.K._._._.{./.}.R.%X-X|..X(.~.r.0.v.M.M.v.V.w.q.q.0.0.N.N.b.n.n.v.V.V.S.E.}.|.|.}.S.S.K._.G.w.w.0.G.L.F.e.e.C.G.K.K.J.m.b.5.",
"e.e.e.F.F.F.b.5.6.6.5.5.0.G.).).[.L.C.q.C._.{.`._._.C.C.F.J.J.W.C.C.C.C.C.K.V.V.V.v.v.4.4.5.5.F.t.y.6.6.3.M.Z.U.n.U.Z.S._.).r.w.<.1.1.f.i.!.!.M.9.S.].]./.K.e.t.8.y.e.L.E.;X,X<X|.K.V.5.5.7.F.N.q.w.w.9.2.2.<.k.r.r.e.8.6.7.N.N.6.3.6.8.7.e.G.L.T.S.Z.B.B.V.G.H.).H.F.e.5.5.V.A.w.t.w.5.4.v.v.M.b.A.S.K._.`.`.e.7.5.m.Y.&X;X;X|.~.w.q.).G.G.F.V.F.F.e.e.G.)._.[./.[._.G.F.e.7.t.~.~.'.'.).L.L.J.V.V.K.K.K.J.V.V.m.m.A.A.S.A.Z.v.4.b.b.N.J.{.|.;X[.[.E.T.-X<X,X,X,X;XY.b.3.5.V.S..X.X.X'.S.A.b.v.5.0.V.V.V.V.V.v.n.f.f.f.,.,.;.;.1.6.b.E.W.E.K.A.F.F.K.T.].;X-X-X[./.C.q.0.V.m.J.B.B.D.D.D.<.<.,.;.;.;.;.g.R.-X<X,X,X:X|.[.C.C.C.q.r.G.L._.{.{.'.W.K.A.V.T.}.;X-XR.T.S.V.9.4.4.3.M.M.v.S.[. X:X:X{.[.S.V.A.}.;X;X}.E.S.V.G.H.P.F.J.b.3.5.3.3.3.6.2.1.<.<.<.<.B.v.q.G.).(./.'.L.J.i.i.i.n.M.M.b.5.5.6.6.6.5.v.U.W.>X<XR.B.4.4.4.B.6.6.6.6.3.;.f.h.R.].-X]./.(.q.w.5.9.B.B.k.k.1.1.z.z.z.z.h.g.g.v.5.4.,.,.,.1.d.g.v.m.E.E.;X<X<X,X<X-XR.h.d.g.Z.Y.V.V.V.B.v.v.M.M.y.y.w.0.0.C.S.S._._.[.[.S.v.,.f.I.I.U.Z.V.V.0.w.5.3.f.h.n.Z.S.[.).C.B.g.g.f.n.Q.Y.E.S.B.B.T.%X&X-X-XW.Y.m.M.f.h.k.R.R.R.R.R.U.U.%X-X<X<X<X-XU.f.u.:.u.z.U.n.h.n.V.V.v.,.,.Z.E.W.}.}.E.A.V.v.v.A.T.}./.k.<.g.n.M.h.j.z.x.R.x.x.U.U.h.j.f.;.;.;.,.1.4.v.A.E.Y.Y.Y.Y.Y.Y.A.n.;.:.:.:.-.i.I.I.j.d.-.1.g.Z.Z.Z.h.j.z.z.h.I.I.n.h.h.h.m.A.Z.U.-X2X1X1X,X:X].k.k.x.#X#Xx.x.x.x.z.d.d.d.Z.T.R.-X;X].].].T.S.S.V.4.4.4.6.b.b.M.;.-.d.d.d.1.,.g.g.f.;.;.;.,.<.k.D./.V.v.m.m.Z.R.-X}.].K.e.t.y.6.5.F.F.C.L.G.C.C.A.A.E.W.K.0.4.,.f.f.f.,.,.1.;.1.g.U.-X<X,X|._.q.9.4.4.v.m.6.5.0.V.G.K._.[.S.S.E.W.W.W.E.[.T.R.T.D.k.v.4.5.N.P.N.7.5.r.).(.^.0.4.3.3.4.V._.}.|.|.}.].R.I.z.g.<.1.1.1.1.f.f.3.3.9.D.q.9.B.v.Z.n.I.R.R.R.U.k.1.1.h.n.R.R.W.R.j.-.-.f.f.j.j.j.j.i.u.u.i.i.j.j.s.u.u.p.=X$X*X*X*X#X#Xc.s.#.o.@.#.&.p.l.s.s.u.u.i.i.u.u.u.u.u.u.p.p.$X$X#X#X#Xz.i.i.i.1.1.g.k.D.Y.Y.Y.A.V.J.K.S.G.H.H.G.V.V.B.B.P.F.b.M.h.h.h.h.v.v.f.f.f.,.<.v.V.S.}.;X;X|.K.G.Y.Y.E.}.{.L.G.0.J.J.N.b.m.m.U.U.#Xx.x.x.x.z.z.z.n.f.f.,.,.,.4.V.F.F.0.4.,.f.h.z.n.M.v.5.7.e.G.`.'.'.).H.C.q.^.^././._.F.5.N.F.b.8.e.`.}.;X<X<X-XJ.5.6.8.w.6.<.g.b.b.A.T.T.A.V.b.4.4.4.V.K.K.G.).`.`.`.P.P.e.8.7.8.8.w.8.6.5.6.3.!.!.!.;.,.A.[.[.'.).C.V.V.F.N.7.M.M.3.5.7.e.G._.-X<X<X:X;X}.L.P.G.G.G.G.0.0.8.y.9.B.S.}.}.[.C.w.w.6.,.f.f.m.N.F.5.5.7.F.J.E.;X;X X X).y.6.M.z.#X>X<X:X|.).H.e.7.Y.E.K.S.C./.[.].;X;X|.{.'.r.q.q.F.L.`.`.).`.P.F.G.G.H.'.`.`.[.[._._.(.D.B.v.n.n.4.4.0.V.b.b.v.3.>.>.3.b.A.A.b.b.v.v.v.4.4.4.9.B.J.E.W.W.E.}.].R.V.4.5.7.7.8.8.e.).G.G.r.e.e.5.7.",
"t.t.t.).).).).C.m.m.J.K.E.|.;X;X_._.G.G.e.w.6.2.b.m.K.{.|.|..X(.[.S.C.C.S._.{.|.J.J.P.P.L.P.P.t.7.t.t.7.5.3.3.;.1.<.4.4.4.V.V.V.C.C.(.).).C.0.4.i.f.M.m.J.F.7.8.8.8.6.5.N.W.;X;X|.{.L.F.0.5.e.7.8.8.7.7.5.b.A.S..X X X{.).q.0.q.9.9.9.9.B.B.v.n.R.R.R.k.k.k.D.B.b.0.0.5.5.0.0.0.W.W.}.}.;X<X,X,X}.S.D.D.C.C.).`.H.r.e.e.8.y.8.8.P.G.H.`.L.K.K.K./.C.V.b.b.m.I.Q.S.K.L.L.H.H.e.8.F.F.0.q.r.)._.).L.L.V.6.5.F.G.G.q.q.(._.|.|.|.;X X{.G.w.y.0./._.}.}.E.E.R.R.%X-X<X;X;X|.Z.1.-.:.z.x.R.R.U.Z.B.<.v.f.f.f.I.W.&X&XE.A.v.,.2.9.q.C.C.C.G.G.G.G.F.F.%XR.R.R.%X%XR.U.z.i.i.;.;.;.3.3.Q.Q.J.J.J.J.J.W.K.F.N.b.;.;.;.i.h.U.R.Y.n.M.f.f.k.k.U.U.U.U.U.Z.D.S.D.D.k.k.k.k.k.k.XX-X2X2X2X>X].].R.R.%X-X;X;X].T.D.D.k.D.].}.}.}.}.|._._.L.L.V.b.4.3.3.v.f.1.s.u.u.d.d.1.1.1.k.h.d.u.u.s.j.d.Z.h.<.,.3.4.4.V.x.].R.A.A.m.M.;.M.M.3.4.V.B.g.k.1.,.v.J.Q.M.i.;.z.z.l.u.u.-.;.;.h.I.}.;X:X].D.k.,.d.;.;.1.1.;.,.3.M.M.h.h.j.j.j.x.x.#X%X%X%Xz.z.z.j.i.-.:.;.;.,.;.,.f.v.Z.n.f.f.i.:.;.j.Z.D.T.].R.-X].R.U.h.j.d.;.;.1.1.<.g.d.h.d.d.d.d.1.g.n.U.%X%X%Xx.z.g.M.3.h.z.U.%X#Xj.i.;.g.g.g.v.v.v.v.B.Z.n.M.f.f.f.M.I.x.%X>X1X1X1X>Xx.d.s.-.:.-.1.g.n.U.Y.T.T.T.A.Z.n.h.h.h.h.n.Z.U.%X>X>X#Xs.s.s.s.s.-.d.j.z.x.R.U.x.b.v.v.m.m.m.n.n.h.g.j.h.h.j.j.h.j.j.j.j.d.i.a.a.;.;.i.i.j.z.z.I.U.R.R.Z.Z.h.h.h.I.I.h.h.g.g.g.g.1.<.g.k.#X#X*X*X%X#Xz.h.d.-.-.-.-.u.i.j.j.i.;.;.-.u.a.i.l.j.j.j.d.1.g.Z.E.E.S.B.v.f.;.u.s.d.d.d.u.u.u.i.1.1.1.4.%X>X>X#Xz.h.i.;.-.#.u.s.s.d.d.g.d.k.d.d.-.d.1.g.6.V.J.J.J.J.J.m.5.4.6.,.3.3.3.3.b.>.;.;.;.i.i.i.1.1.2.V.C.V.v.v.5.5.5.4.3.3.M.M.4.4.6.9.S.].-X<X;XR.S.0.q.q.0.V.6.6.1.;.i.I.%X%X/.S.V.v.f.u.u.u.u.d.g.Z.B.,.>.y.>.m.R.-X-X].B.2.-.u.l.%X>X<X:X].4.,.,.f.j.g.g.g.k.x.x.x.#X%X-X%Xn.f.d.f.f.j.j.s.u.u.u.u.u.u.s.z.$X$Xp.p.#.#.#.#.#.*.#.#.#.#.#.#.@.o.[ [ o.:.:.:.u.a.#.#.@.@.#.#.o.+.@.%.p.p.#X#X$Xc.c.j.d.;.;.;.,.,.4.4.9.q.^.^.q.C.(./._.).G.e.D././.].].k.2.1.1.,.,.d.i.1.1.1.d.d.s.j.j.h.n.n./.[.}.[.S.v.g.g.v.v.4.4.4.B.D./.].}.S.B.<.<.<.,.d.;.1.d.g.g.g.<.<.<.B.S.S.T.T.R.g.<.<.<.9.9.B.D.W.K.P.F.J.&X<X<X,X:X}.J.0.e.r.r.w.4.4.k.k.R.}.].V.4.4.V.B.D.S.S.y.9.D.].:X X.X.XV.V.5.b.V.0.0.e.w.G.L.L.L.H.t.t.P.t.P.e.e.e.F.F.P.P.N.7.0.C.).(.K.K.K.K.W.E.K.A.A.V.5.0.0.V.V.S.-X-X<X<X;XY.b.3.A.E.E.}.{.`.H.P.N.N.N.J.J.7.8.8.6.w.C.G.V.6.>.>.y.8.7.K.}.<X,X2X<X;X{.F.5.>.;.;.;.;.6.8.e.q.B.B.M.M.,.;.,.v.m.m.9.B.n.f.f.M.M.;.;.;.3.b.b.F.J.J.3.3.3.b.A.E.R.R.%XR.Y.n.v.4.w.w.9.9.B.A.A.J.L.).C.V.S.}.;X-X>X>XE.T.Y.A.v.,.,.1.g.g.g.k.D./.(..X].T.V.,.6.6.6.6.1.2.6.C.G._.`.{.",
"S.S.S.S.S.S.E.T._._._.S.D.D.T.U.9.k.R.;X<X;X]..X^.(.].-X;X<X;X X/./.(.(./.[.|.|.{.{.`.`.).'.'.).F.J.F.V.F.F.F.V.9.9.9.0.V.V.A.A.V.M.f.i.d.g.q.w.B.4.3.5.N.N.V.K.`.{.`.H.H.r.q.e.C.C.).).q.w.0.w.N.N.N.N.b.b.n.Z.%XR.U.g.<.3.b.J.'..X X X X/.g.,.>.>.3.b.b.5.5.N.G.G.C.V.V.V.S.E.|.}. X|.|.}.W.W.Y.v.v.v.b.5.5.F.9.q.q.q.q.4.3.M.1.<.9.C././.[.[.-X-X}.T.S.0.6.6.5.5.6.w.w.q.q.G.b.b.3.v.S.}.;X;X{.K.V.B.V.V.C._.}.}.}.T.U.Z.I.Y.A.J.A.b.5.b.b.b.g.g.B.Z.Z.k.D.].,X2X1X1X2X-XZ.<.:.:.-.;.<.B.S._.D.D.Z.Z.U.U.R.R.B.B.B.k.R.-X<X>X].R.B.<.2.<.4.4.j.k.R.-X-XT.Z.M.Z.Z.Z.B.B.V.C.C.B.B.B.n.n.h.z.j.z.z.I.I.i.:.:.u.i.j.j.j.g.Z.D.D.U.U.h.j.j.I.Q.Q.T.A.Z.v.g.f.h.h.I.I.%X>X>X>X>X>XR.U.h.g.g.g.,.,.v.4.4.4.4.<.<.<.x.x.x.z.s.s.d.d.k.k.Z.T.T.k.g.1.;.;.;.;.;.;.;.M.h.M.M.3.v.Z.R.R.-X-XR.Z.f.;.-.-.s.s.s.g.d.s.s.-.1.1.-.-.;.d.d.j.k.k.k.Z.n.M.,.1.:.:.;.1.1.;.:.:.a.a.a.u.u.d.d.h.b.b.v.v.M.f.i.i.1.d.d.j.j.z.z.z.;.i.h.I.R.%X%XR.I.h.d.s.1.1.1.;.;.;.d.h.U.T.U.Z.1.-.o.#.#.u.p.$XM.M.M.!.!.M.M.n.K.L.K.m.M.;.-.i.x.-X<X-X].k.<.1.i.i.d.k.k.k.k.k.x.x.%X>X%Xz.d.1.1.f.B.S.K.V.4.6.<.<.v.A.T.T.U.U.n.h.j.s.i.u.u.a.s.s.s.u.-.#.#.o.:.:.:.:.:.-.;.;.i.i.u.u.i.i.d.j.h.U.R.R.R.T.U.k.j.i.-.:.:.;.;.1.,.4.v.Z.Z.k.s.s.k.h.g.d.h.d.j.z.R.].D.D.<.1.1.;.;.d.1.-.d.j.z.z.#Xz.z.j.j.z.x.x.%Xx.z.s.d.d.h.h.b.b.M.m.U.x.j.d.u.-.:.-.u.u.a.p.-.-.d.d.j.h.g.k.g.k.g.d.g.1.1.2.s.d.g.k.k.B.B.B.j.l.#X#X>X>X%Xx.g.1.s.j.s.u.u.u.l.#X#Xc.l.s.i.-.z.z.j.d.;.-.-.d.%X>X>XU.j.i.;.:.g.d.d.d.d.d.g.M.f.f.f.;.;.i.i.i.;.;.d.j.j.j.i.u.u.d.h.U.R.U.n.n.m.m.m.n.M.!.!.!.f.f.g.k.R.>X1X1X$Xz.i.;.;.g.Z.U.U.k.k.g.d.i.u.u.i.j.d.-.-.1.1.1.i.i.i.:.:.;.;.M.%X%X>X1X1X-XT.0.6.;.i.a.a.i.j.f.,.g.h.z.z.j.i.i.;.d.h.h.U.U.h.f.u.u.#.o.o.#.u.u.u.u.s.j.j.s.i.u.l.l.$X$X$Xl.#.#.a.a.u.:.o.:.:.:.l.l.p.&.@.#.p.l.#X#X#Xl.p.#.*.+.@.o.o.+.+.+.#.&.l.l.z.x.h.j.d.i.1.1.-.1.d.j.x.x.-X>X-X-X-XR.U.k.i.u.u.u.i.i.;.;.;.1.d.j.s.d.u.-.:.:.;.i.f.M.M.b.S.S.D.Z.h.h.n.I.B.B.v.n.h.j.s.s.R.W.W.m.M.M.i.i.,.,.f.f.M.A.A.v.f.i.i.f.M.i.;.;.M.;.;.:.:.:.:.:.u.-.;.1.<.R.<X<X].D.B.<.2.<.9.9.9.9.9.9.9.V.V.5.;.;.f.R.&X-X;XR.V.A.T.R.R.R.n.v.K.F.e.0.5.e.e.e.E.A.Z.v.v.V.V.0.V.V.C.C.(._._._.C.V.4.4.3.3.3.3.5.5.7.e.F.G.G.C.0.q.e.r.G.G.K.[.T.U.U.Z.Z.v.B.V.z.x.U.U.T.S.S.V.b.v.v.A.V.4.3.4.Z.A.S./.C.q.C.G.K._.[.T.R.x.c.l.j.h.Z.V.0.6.2.2.M.v.3.3.v.U.R.x.x.j.j.j.x.U.Z.Z.g.g.1.1.1.d.i.s.d.d.g.k.Z.g.g.g.f.f.d.1.;.1.d.d.1.1.d.d.d.d.u.-.z.z.j.i.i.;.-.-.f.f.n.Z.Z.Z.k.k.U.U.n.M.v.M.,.f.1.,.,.f.f.j.j.z.R.%X%Xz.j.x.U.h.V.v.v.v.v.v.v.V.",
"[.T.A.m.v.A.E.W.K.V.V.V.V.V.A.A.].-X2X1X1X1X<X}.].].D.B.v.b.m.Q.A.V.V.V.V.A.A.A.}.}./././././.(.).`.H.G.r.e.6.6.6.6.6.w.e.w.8.e.e.0.w.6.9./.|.;X|.[.S.V.w.9.9.D.D.T.T.S.C.9.w.2.b.4.5.V.V.V.V.F.D.S.S.S.B.4.,.,.;.;.3.4.6.>.>.;.i.i.j.g.B.q.e.t.H.F.F.G.G.0.w.t.N.N.F.K.G.G.e.P.0.C.T.}.;X X.X.XL.K.P.P.t.7.6.6.<.9.C._.[.Z.j.u.-.-.;.i.h.U.U.U.b.M.M.3.M.V.C.L.`.).q.2.2.<.T.;X X X|.).C.9.4.4.V.S.E.}.E.B.9.B.;X;XW.Y.n.f.f.M.Z.Z.k.g.1.1.,.,.I.I.Q.Q.Q.I.n.n.J.A.Z.k.j.k.k.R.K.A.M.;.;.;.-.u.1.1.,.;.;.;.i.i.z.z.j.h.n.Z.B.B.%X%XR.U.I.I.m.I.5.5.b.V.4.1.1.1.Z.Z.n.n.h.Z.Z.D.B.V.V.V.A.D.D.k.k.k.g.<.,.,.1.1.2.2.1.s.l.#X#X#Xs.s.c.z.x.R.R.R.h.h.d.j.j.j.j.j.M.f.h.k.g.<.,.3.j.j.j.j.d.d.s.s.1.,.g.B.B.v.<.<.j.i.u.u.-.-.;.f.f.n.Y.A.K.C.B.9.R.-X-X;X;X/.9.2.B.v.f.i.i.z.x.%XR.U.h.;.;.f.n.I.f.;.;.i.h.x.-X-Xk.k.d.-.:.i.i.z.d.d.j.h.I.m.Q.N.V.b.4.4.3.,.,.1.f.f.f.i.i.u.i.d.U.R.T.k.g.s.s.l.g.v.,.;.;.;.,.f.z.%X>X1X1X>Xx.s.,.,.d.h.h.h.j.f.i.i.i.z.z.I.I.I.v.<.1.-.;.;.i.i.;.:.;.;.f.x.-X<X2X,X,X;XY.f.:.:.o.u.z.U.U.v.4.4.Y.n.h.d.i.i.j.z.z.U.U.h.h.n.f.i.;.i.i.d.h.I.A.Y.b.v.v.v.Z.U.R.%X%X%Xx.k.g.g.g.h.;.;.i.d.j.I.I.I.z.j.i.u.s.I.%X&XU.Z.h.g.g.,.1.1.2.g.j.j.z.x.#X#Xz.z.j.u.;.1.1.1.1.1.d.x.x.x.#X#Xx.x.x.j.s.u.-.u.i.j.f.d.i.i.i.i.<.<.<.2.1.-.-.-.:.u.u.s.j.k.k.k.j.h.h.M.M.m.A.A.f.f.j.z.%X-X-X%Xf.f.d.f.d.d.d.d.d.d.d.i.i.i.1.1.j.j.i.i.i.i.a.a.:.:.:.:.:.:.:.-.i.j.U.<X<X%Xh.M.6.4.4.A.U.h.j.i.j.j.d.d.;.:.a.a.x.-X-XT.E.A.n.U.#X#Xx.z.j.h.g.g.-.-.-.d.j.j.1.;.;.;.i.i.i.f.h.n.v.B.B.g.g.g.f.1.;.;.;.;.;.;.;.,.Z.A.S.S.V.B.V.V.b.m.n.z.z.#X$Xl.#Xz.j.,.M.n.%X%XI.h.h.f.,.;.;.i.i.;.-.-.-.s.g.g.n.n.n.f.f.z.z.z.$X$X$X$X$Xz.f.;.3.,.,.1.1.;.;.,.4.B.Z.Z.Z.g.g.v.k.U.k.g.g.g.d.d.i.i.i.a.:.u.u.u.i.u.u.u.u.-.:.:.:.:.:.a.a.a.@.@.#.#.u.s.s.u.u.u.o.#.@.@.#.&.&.p.z.z.z.z.j.l.u.a.@.@.o.o.o.@.@.a.a.p.z.#X#Xx.s.s.u.i.i.j.i.i.-.:.u.l.x.>X<X>X-Xx.x.z.u.i.i.d.f.f.f.i.i.:.:.i.j.z.d.d.d.j.d.d.-.1.1.1.g.Z.S.K.S.V.B.Z.A.R.R.I.i.i.i.i.i.f.M.M.h.h.u.i.j.z.x.%X-X;X/.S.S.A.V.0.9.w.6.,.<.g.U.R.R.R.V.v.v.T.%X-X<X<XA.b.M.i.i.i.a.a.d.h.n.n.n.M.M.!.4.4.f.h.z.x.h.h.v.v.v.Z.U.R.-X<X;X;X;X;X}.].R.k.3.;.6.8.8.e.F.N.6.w.q.r.G.).~.~.t.r.H.`.`.[.[.[.[.[.G.0.w.6.5.5.0.V.F.G.L.K.S.A.x.h.j.f.i.i.-.-.1.f.f.g.v.5.5.5.M.v.,.;.,.v.v.v.;.;.f.n.A.J.L.L.-X-XT.v.4.1.y.y.i.i.;.M.A.K._.{.-X%Xx.j.z.%X>X>Xc.l.l.z.z.z.j.j.j.d.j.h.h.i.u.u.o.o.o.u.u.u.-.-.-.:.i.i.i.i.i.i.-.-.u.:.@.o.o.o.o.o.o.#.-.s.s.s.p.l.c.#X#X#X#X#X>X#Xx.s.u.u.u.s.g.Z.Z.g.d.d.d.d.<.v.Z.R.R.&X&X&XK.J.J.G.V.V.0.9.",
"@.#.p.l.$X$X$Xl.#.+.+.@.@.@.@.@. .$.$.+.+.+.$.%.$.$.$.+.o.o.o.+.+.@.@.@.@.@.@.+.@.@.+.| [ o.@.#.s.l.l.l.s.#.#.l.#X%X%X#Xl.u.#.o.a.a.u.-.s.$X*X*Xp.p.a.u.#.u.p.#.@.[ o.@.@.p.$X$X&.+.[ +.+.+.+.@.#.&.p.p.p.a.a.@.o.o.o.o.o.@.@.@.@.+.+.| | +.+.%.=X=X&.%.+.%.@.+. .| | +.+.@.&.p.#X>X1X*X*X=X@.o.+.o.@.@.@.#.#.#.%.%.%.&.&.&.#.o.+.+.o.[ o.@.o.o.o.o.o.@.&.$X*X*X>X%Xc.#.@.| | $.OX+X+X&.&.#.#.#.*.%.%.+.+.#.=.=X&.&.&.&.#.@.@.@.@.@.@.@.@.@.@.@.@.#.#.p.l.#X#X#Xc.c.=.#.+.+.+.+.o.o.u.p.p.p.#.@.@.@.#.p.$X$X&.&.+.+.[ [ [ [ +.+.%.&.&.OX&.&.%.%.o.o.o.#.#.o.#.#.s.c.c.#X$X$X=X+X#.#.#.#.#.&.&.*.+.+.@.@.#.u.u.:.@.+.| | | | | ] | +.+.*.%.%.@.+.@.@.@.#.#.#.%.%.*.&.$X*X*Xl.#.o.:.:.#.@.@.o.o.o.@.@.+.[ [ +.@.#.@.@.@.#.+.+.[ ] [ [ [ +.+.+.+.&.$X*X$X=X&.#.#.#.#.#.#.#.#.#.#.@.#.#.@.+.+.&.l.l.l.p.&.%.%.=X$X$X=.#.+.%.+.+.[ [ | | | | | +.@.@.u.u.u.u.:.u.u.u.#.#.@.@.+.[ [ [ +.@.@.o.@.#.&.=X&.#.@.@.@.@.@.@.*.&.OXOXOX&.&.p.@.#.&.+X=X+XOX&.@.@.@.@.@.@.o.o.+.+.@.#.p.u.#.o.#.@.@.&.&.&.OX+X*X*X+X%.@.@.+.+.o.[ { | | +.@.@.+.+.+.+.+.@.#.#.%.%.+.o.o.+.| { | | | |  .+.+.@.@.@.@.+.+.+.O.O.$.$.| | [ [ o.#.&.#.#.+.+.+.o.+.+.+.+.*.&.&.=X=Xp.p.p.p.p.@.o.o.o.o.o.@.@.#.&.=.$X$X=X&.+.+. .| @. . .| |  .OXOX$X*X*X+XOX*.+.+.+.+.@.#.@.@.+.[ [ [ o.#.a.@.%.@.@.@.@.@.@.@.@.#.#.#.#.#.#.#.l.l.l.l.p.%.+.+.+.|  . . . .@.@.#.#.&.+X$X$X$X=X&.#.+.+.+.+.| ] ] | @.&.p.l.p.#.#.#.l.$X$X$X=X&.@.o.[ [ [ [ +.@.#.#.@.+.+.+.+.| $.OXOX+X=.*.#.#.$.%.*.&.&.=X=X=X=X=X$X=X&.%.$.+.+.+.o.@.+.$.+.+.+.o.@.#.#.#.#.#.#.@.#.u.u.u.#.@.@.@.@.@.@.@.#.#.#.#.#.&.&.%.$.$.+.+.o.+.+.+.+.$.+.+.$.%.@.@.@.+.| | o.o.@.+.+.+.+.+.+.@.#.=X$X=X&.&.$.+.{ ] ] [ o.@.#.s.c.x.x.l.=X$X=X$X*X*X$X+X%.@.=X=X&.@.@.@.@.@.#.@.+.+.+.+.+.%.%.$.$.+.+.| | | { | +.+.$.$.+.[ ] ] ] { { { | +.+.+.{ { {  .%.OX+X=X=X$X$X=XOX$. .{ | +.+.+.+.+.{ { { +.$.%.&.OXOXOXOX=X=Xp.&.&.[ [ @.#.&.p.&.&.@.@.+.@.#.@.@.o.#.#.@.+.+.+.+.+.+.+.+.@.#.@.+.+.[ [ [ o.@.#.#.#.@.@.@.&.p.&.p.p.&.&.#.#.@.@.o.o.#.@.#.&.&.*.@.@.&.p.p.p.&.%.@.o.[ +.%.=X$X$X=XOX+.+.&.=X$X+X=.#.#.#.#.p.u.#.@.@.@.#.u.u.u.u.a.p.p.p.p.p.l.l.l.s.p.a.#.@.#.&.=X=Xp.#.#.#.#.l.l.l.p.p.s.x.j.s.u.u.p.p.p.u.u.u.a.#.o.o.@.&.+X*X*X*X$X$Xl.#.o.o.@.#.@.@.@.#.@.#.@.@.@.@.@.a.a.@.@.+.+.+.+.@.#.#.p.p.#.u.#.#.#.#.o.o.#.#.l.l.l.u.#.o.o.@.#.#.#.#.#.@.+.+.| | | +.+.+.| | | | | | { { +.+.%.%.%.$.+.+.@.#.%.$.$.$.O.{ { O.$.OX+X+X+XOX&.%.$.OXOX&.$.+.{ ] ] } } { { O.+.+.{ ] | +.%.&.OXOX$. . ...oXOXOXOXOX$. .{ { | OX+X*X*X*X$X+X*.+.| [ +.o.o.o.o.@.#.l.$X#X$X$X$X",
"5 u m N H N M w 5 4 5 u u e e e H R Q L N u 4 & ; 5 9 j < $ % q * ; ; ; r u u i m m w 4 ; * ; ; 4 4 4 ; 4 w Z W _ _ ` H u 5 5 4 e 5 5 ; ; u u u u r ; ; u M Z B e ; 4 m N Q ` Q m w 5 5 5 - - % # $ & - - 4 - - e e e ; ; 4 5 w u w 5 - * ; 5 t t t t 5 u M N N r ; ; ; ; ; 5 u D R _ ) ` K M e u m Z K K M w 4 e 5 4 < & * * * 4 5 5 w e r 4 r & - 5 m R X.eXsX9X_ H 5 * q q % # & & % * r e e w 4 4 3 4 w u 5 u e e e e 4 < < ; ; ; - - 5 5 w 5 5 ; ; e M N N M w < , < 5 ; ; 5 5 5 5 5 5 e u r u N Q ` ` R G N M u 5 3 & & & * * ; 5 c N H K N u ; * * * * * * 5 m H Q _ @X@X0XX.K u - * - - ; ; * * * ; e u m w 4 & & ; ; r e r 4 4 5 w u u u e u i i i i u w 4 5 c c 9 5 5 e w e 5 r u i i Q Q K m 5 4 4 - 4 4 4 & & % & 4 w w e 4 , 4 z M ` _ ` N 5 * % q - - ; ; 5 e w w ; 4 & $ 9 G ` X.L K N u e i M N i i i m M N N N N N u 4 & ; 4 e m u e 4 ; ; t t 5 5 5 5 0 - - - ; 4 ; * * ; ; ; 5 4 4 e w e w n K K H M c 4 - * e w u m m u u u r r 4 ; ; ; ; ; 5 5 u M i r 4 e n H Q Q K m - % & - - * * * ; e i M i e u N K Q 5X_ G 6 6 M P R u r 5 e u 5 5 5 - 0 5 t t t 5 ; ; ; ; ; * & - - ; 4 r r 4 - & & * ; 4 * * ; ; * * ; u N K N M M B N B M m 5 - - w e w 5 4 4 5 t u i M N K K Q Q K N M w 4 - 6 9 S G G N M i e e w e 4 4 5 5 9 9 , 3 4 u u 5 5 w u u u 5 - $ % % - - - ; 4 w m S Y Y Z m w u u u r r 4 3 4 9 v n i i u u m M N N i u ; * * q * e Q _ X.` K N N N _ ) W v 6 c M m z w 3 $ $ 3 5 w i i u e w m M M M m u u u 5 ; e u N ` @X_ K m u m C Z M M w - ; e w e ; ; e u c u e 5 5 4 * * e N ` @XtXtX` H c 4 ; ; ; ; ; - - 3 3 3 6 6 5 5 r e e 4 4 3 4 5 w w w u i i u w w 5 5 - - - - 0 5 9 0 0 4 5 w u 9 ; ; ; ; ; ; - 0 e i M N M i ; ; m M n m u u i i m c 5 ; ; ; 5 r e 5 5 5 5 5 5 c m M M m e r e e c m w 4 * ; ; ; ; 4 5 w w 4 & * * r i N N N N H R R Q Q Q P S m $ $ - u N L L L Q ' N M u 5 - $ = - - 5 5 w e 4 - ; ; 4 r 5 4 = * * ; 5 w u u u r ; ; * * * * * & & 4 5 e 5 3 & $ - 4 5 5 u 9 5 3 - 3 0 - * * ; n H ' R K K N M r ; e M Z H H N i m m u w u u u i i N N N m 5 ; * * * * - 5 u t - - 5 u u e e e M N N i u 5 - 5 n D G G H N J M u e 5 4 3 4 ; - * 4 u M K L K K u 5 5 w u e r r ; 5 5 u c w e e r e r e w u c w w 5 4 ; ; r e u R ' H M u u u 5 5 5 e w u u u u w w 5 4 4 5 w z v c c c w 4 5 l n R @XsXrX_ H z w w m m m m m m M m c 9 4 5 4 * * * 5 m M u m J H K K Z M m m m i u u u u 5 ; * 5 m F W _ X._ ` H H H ' R H m u ; - - 3 3 4 4 0 ; 5 5 5 w 5 5 c M N N M m m u e 5 4 * * * * * ; w c n S S m w w M M N N m e ; * & & 4 5 5 5 4 3 ",
"1 = $ $ : 7 l 9 < 3 j x h 9 7 7 8 9 b V b 9 1 $ 1 1 3 6 6 6 c m A n l 3 # # $ $ : : $ @ + @ @ + 3 $ + X + 6 B D _ W S 1 X + @ $ & , 3 7 j 6 < # > # > h B E / W C b j c b n n u 8 6 6 8 h c c h 9 7 , $ : 1 6 8 j j 8 2 1 2 2 2 1 6 6 3 1 : @ + + O + + # > , , k 2 2 6 7 9 v n F S v 9 = $ : 1 6 8 x n n c 6 6 = = $ $ > > > , 1 8 j j h 6 3 8 I P G n h j 7 < 3 , # + # $ & 4 9 9 8 6 x P ~ ~ u - 4 v n n m c 1 = $ 1 1 1 1 2 3 6 9 h h 6 : $ $ $ $ + $ : : : 1 = % + + % , 7 - - $ $ > $ $ $ 3 7 c b b c c c A n l 3 : , 3 6 , < , : 3 h b n A B S F P Y Y I c 6 # + $ h S R ' H B c 9 8 3 1 > 2 6 j 3 > # # , 3 3 3 6 9 c c c h 3 > $ $ $ $ # > : j V I T E S b j j 8 2 2 2 > $ @ = 0 c V U v A D D A n x 8 : # X   @ h P ! 5X4XR l 9 G _ ) Y D c 6 3 7 3 $ + @ $ 1 2 8 3 ; 6 6 9 h v n n n c 6 : : 3 6 u A 3X8X( I V V C C A B c 3 $ : 3 3 > > : 6 8 7 6 1 3 > # @ > h S R 4X4X~ I n h 1 @ @ # $ $ $ $ 1 6 $ 3 3 3 3 3 - - , , , 3 6 6 9 u c l 9 8 6 3 : $ $ $ 3 6 $ + + $ j z b z 7 , & & # # $ # $ : 9 v I I S b w m S F J A A v c m z 4 3 > > 2 3 3 3 3 6 3 $ $ 3 6 6 9 6 6 3 3 3 9 h 6 k > # @ % @ > > 3 3 $ + + $ 6 9 b n V V C F E / / / W P n 4 + + 9 v S D D D B n z h 6 3 - 3 3 6 6 6 6 6 1 $ $ $ 1 6 6 1 : $ $ $ $ 3 6 9 9 6 $ @ $ $ $ $ % + @ $ 6 6 3 : # $ $ > > : 3 7 6 : # # $ $ # # 1 x n S n n n c 8 1 1 : h c b c l h 9 9 c h 6 3 3 6 h n n b h : $ + X + # : 3 3 3 3 7 j c l h 6 9 t c c 9 9 3 2 7 b D G A A A V x 8 : $ , : : 1 : + $ 6 u M S C n 9 - - l c 6 $ # 3 h l 6 3 6 0 6 $ # 1 9 c B S B c 6 > # & , 5 c n M M h 8 6 6 6 3 3 3 e 9 h j j 3 3 & 6 6 3 3 3 6 6 8 7 3 : $ 7 S ! 4X3X/ S 3 # 6 z z x j z b z j j j 3 3 # # # # > 6 9 9 9 6 6 v M M B v c c h 9 8 8 3 3 $ @ : c F W 6X6X( W G S A S P D n 7 > # $ : 2 3 3 - - 3 3 > $ : 8 b S B b x j j 9 6 6 : > > # @ # > j B P R K Z M v z c b c 7 1 $ + % % ; ; 9 6 1 > > : , < 1 1 3 1 3 6 6 6 $ > , 7 h h 9 6 # @ @ $ 3 7 9 h 9 6 6 3 4 9 v b u 6 # @ O + @ > , 7 z V C V l < , $ : 9 c b c c h 8 1 : 3 j c n 9 9 9 t 9 0 1 $ o # $ 3 9 b n v 9 6 : $ $ # $ : , 6 7 7 7 3 : 3 $ 4 9 l h j 6 j w c v l j 9 9 t h c v x x x h h 9 9 j j b v 9 0 = 1 1 8 j x x h 8 t n S S n 9 : : > > > 2 6 8 x 7 6 3 : $ $ 3 6 4 0 6 6 6 6 0 6 6 0 0 6 9 b B S n n A G A j 6 6 b D Q _ ` G c 3 3 6 9 c n n n n V x j 8 6 9 c 9 1 $ $ 3 7 9 v S W ^ W F n x 8 $ o # 6 m n u 3 & $ , 7 h h j 9 9 b n B n 9 3 $ @ # $ $ $ 6 9 u u b b w 5 4 , < z F E ! ! ( 0XqX0XI v 6 1 1 $ $ = 3 3 6 7 6 $ + + $ , 6 3 : 3 3 7 8 8 1 1 $ @ + + ",
"w 5 3 $ # $ 3 1 & & 0 c H R R G v 6 1 3 0 6 3 , $ $ 3 7 l n S F G P P D n l 6 $ @ + X X 3 S W _ ! R S n S W ) _ S c 6 3 3 $ % % + @ : 3 3 7 6 4 1 1 9 n n n n c 9 8 = $ 6 n G W _ / E S n H Y G n c 3 @ + # , 4 - - - , 3 5 4 & % + + # 6 n K Q R P C 9 - $ # @ % $ - 3 3 3 6 3 0 0 6 3 $ $ $ $ 3 4 6 3 6 9 c l j 7 6 3 3 : > $ & , , & , $ 3 u C S n 4 % % % + + % # : 6 x A G R G S c v P ` Q S x c n b c c 6 6 < , 4 4 4 - - = = $ $ 3 3 3 3 $ = 3 3 3 3 3 3 & $ $ @ $ 1 , , $ @ @ $ 3 6 8 t m n G E W / / _ / E n & + = 5 t n n v c t t 9 9 6 6 9 u c m m m b h 1 $ $ $ 3 3 9 9 3 # + # - 3 4 - 4 5 6 $ @ $ $ $ + X @ 6 h 9 3 $ + + + + # $ $ 3 3 3 & & & $ @ : 6 c m n n c w 5 3 3 6 9 9 t 7 3 3 6 9 c c 9 3 = $ - 5 c n n 5 = % $ $ 3 6 6 4 - - 5 9 c v l 7 4 4 w c c h j 2 3 9 m N n A A B S v 9 1 $ : 6 8 t 0 % = 3 9 m A D n 4 3 c b c 3 , 3 w c l 9 9 4 3 $ $ $ 3 b D E W Y m 4 & # $ 3 9 c c c c 6 6 6 3 3 3 6 7 9 j 0 0 3 3 3 6 6 6 3 3 3 6 6 6 3 : @ 6 c n R W Q G 5 = = 5 c c h h t t 0 = 3 6 4 , + @ @ > : 3 3 3 < & 3 9 c c c m h h 9 9 6 4 3 & $ , l S Q _ 3X3XW P D A S G F B 0 = @ $ > , 4 4 6 3 3 3 $ # : 9 n G G n 9 9 5 - 6 6 6 7 , + + @ , l D Q W W Y S v l 9 8 8 3 : > $ $ : 3 6 6 3 1 & # # # $ $ $ 1 3 6 6 9 6 3 $ # - 6 6 6 : # + + # & 3 6 4 6 6 5 7 7 9 c u 4 & $ $ $ @ % % 1 h b D C n v 6 $ $ , h n S n c 6 3 : 4 9 c m b m c c v m 9 3 = # + $ 3 0 u m u 0 $ $ + + % 3 6 7 9 h h 8 = = - 3 6 h m m w 3 4 z m m 5 6 6 6 5 6 6 c B D B x h 6 3 6 0 0 6 : > > = 3 9 9 9 7 l m C S S n 9 3 $ $ - - 1 6 8 h c c h 9 4 & & 3 0 6 6 7 6 6 0 0 0 0 6 8 0 t m S D D S n m v j : h R 7X9X8X( F h 1 1 9 c v v n A n m u e 9 h 9 6 6 = $ - 9 c D R W ( ( E M 5 & % + $ 6 9 n n 9 # % $ - 5 5 9 l l c m m b 9 5 3 & $ $ $ $ 3 6 6 3 6 x c 9 3 6 9 m S G W / ) ) ) / G w $ + * - - 3 , 3 4 4 $ $ $ # 3 9 u 9 4 & & 6 6 6 3 6 6 3 3 - & - 3 0 9 8 1 @ + # $ # 3 $ # $ 3 3 3 3 $ $ 6 9 m n n n h 8 , $ 6 9 c x 3 3 9 n D D n c - % % 6 9 8 4 4 $ 1 9 m S H H D M c 5 - & $ # # > $ # # # # # # + + % 4 9 7 6 6 7 4 3 6 6 3 1 = 1 6 : $ , 3 - 0 t c m b B n m M S B c 5 4 5 c b S N m 3 # + $ 4 S R W E R G F F G S b 9 6 3 - - # # 3 v n c 9 5 - $ $ $ $ $ % % = $ 3 4 6 3 7 l S S n 9 : : 3 3 h l c c u t 9 0 4 7 c D G S c 9 $ + + # # > & 4 6 6 6 6 9 6 6 3 & & 3 6 6 9 9 8 3 $ # % # # $ $ $ = +   - S / ) ` R S b l c m n S S D D B v c n P R R H n m c h 4 - # # 6 S W ( _ ( W I B 1 X % 4 c n n B G D m < $ 3 b v 9 : # $ - 3 $ $ $ $ # +   X + $ - - 3 - 4 9 c c 9 6 3 ",
"+ + + @ + + + + $ 3 3 3 6 6 3 3 7 6 h b b h 9 6 , 3 6 7 9 l h 6 : , 9 b n b h 6 : $ $ : 7 b B n 9 6 3 6 9 c n b 3 6 9 c b b c h 3 6 6 9 9 9 6 6 6 6 c B S n n n B n 9 $ $ 3 9 c m m 9 $ # 6 v B C n b h 9 l v h 3 3 6 c b h 3 3 , : $ @ 3 S ! ) 3X! F l > @ $ , 3 9 h 9 6 6 3 : : 3 3 6 6 6 6 6 3 6 6 6 3 3 3 3 3 6 9 9 6 3 $ $ $ 6 n R R S 9 6 6 3 6 c c 9 6 6 3 3 3 3 3 3 3 $ # @ $ 3 6 : $ 3 $ 3 9 b b h 6 6 6 6 6 6 6 3 $ 3 9 c D W / / W G S n n S S n c 6 $ @ @ : 6 9 9 9 3 : @ + $ 9 n D D S n c 9 9 h v v h 6 $ + + $ 9 G W ) 5X/ R n c 6 3 3 , $ $ # # , 3 6 3 , $ # % # # $ $ $ 3 3 9 c c 9 6 3 : $ 3 6 6 : @ @ $ : 3 > 3 3 , 3 3 6 h h l h 3 : > $ $ + # 3 h n D G F G S h : : 6 v n C C n h 6 3 3 3 v n n v v B S n l 6 $ @ @ + # 6 c c 9 $ # $ # $ $ 3 6 9 c c h 9 : 3 3 6 h v v c 9 6 9 c h 9 6 6 3 3 3 3 9 B G R S v 6 3 3 : 3 6 $ $ $ $ : 6 6 6 6 6 9 c b n n v 6 $ $ 3 3 3 : 3 9 v n S n h 6 1 3 3 6 6 6 6 9 9 6 6 6 6 6 6 9 h n B S n n n v 6 $ 3 D 3XeXrXqX) n 7 3 h c h h b S S B b c h h 9 7 6 3 3 3 9 n S G E / ( / P n 9 3 $ $ 3 9 c c 7 : + $ 9 c b b b v b c b b c c 9 3 3 $ $ 3 3 3 6 3 6 6 h c 6 : 6 c S G R W ! ^ ~ E S 9 $ + + @ $ , 3 7 7 7 3 $ # 3 6 c n n 9 3 $ $ : 6 9 9 6 6 6 3 3 3 6 6 6 6 3 $ + + @ @ $ $ @ , 3 3 6 6 , : 3 9 v S S n b 9 : $ 3 h n n 9 3 6 c v l 6 3 $ $ 6 9 9 6 6 3 , 3 9 n S S S B v h 6 : $ $ : 1 $ $ $ @ + + # @ + @ $ h h h 7 3 6 9 7 7 3 , , : , 3 , $ # , 7 h h h v b n b h c B C B 7 6 h B F S b h 3 : $ : h F ~ ^ E P F P I C n b b c 9 : : : $ 6 c c 9 3 , $ $ : : : $ $ $ : : $ $ $ 6 h b B B v 3 $ $ 3 6 h c c b c l 9 6 9 c B D G n 6 : $ # $ # $ : 3 6 6 9 6 c l 9 6 3 : , 3 9 9 7 6 3 $ # # + + # $ : : $ 3 6 c D W W G v v b b c 9 c D P F h h n P E W W R n c 6 : $ # # 3 9 b F ! / W P S c 3 3 3 6 v S G E E P B b l 9 h c v 9 3 : : : 3 3 3 $ + + + + @ + $ 3 6 6 6 3 : $ : 3 3 3 $ + + @ + $ 6 c G W ! / W F m l v v h 6 , 3 6 9 6 9 m S Y R F B c 7 , $ h F ) rXiXuXqXD 7 # @ + $ , 3 $ 3 3 6 c n D G D S b 9 3 $ $ $ # 3 6 h 9 $ # 6 b G W W R b $ + # 3 6 6 6 9 9 c v v h 9 h c n C C D R W W R D B n c h 6 3 : 3 : : $ : : $ # # @ 3 6 6 6 6 9 9 6 3 3 , > 6 m B v 3 > 9 C W 0XeX8X! D 9 # + + : 6 9 c n B n h 6 3 9 9 6 , : : 3 6 9 9 h h 6 # + # 6 9 v n D R R G h 3 3 9 c b b m 9 9 6 3 3 3 3 7 6 6 9 6 3 3 3 # $ $ $ 3 6 c b v 9 6 $ # 3 c S F G F D n b v n S D D n 6 , 9 b n B n h : v / eXeX) P v 3 $ 6 n S R R D 9 6 c n n S n v 9 6 6 9 6 3 $ 6 c c c c 9 : # # # + # : $ : $ $ $ : 6 9 9 6 6 6 h h 6 $ $ ",
"# # $ : 3 6 6 9 9 9 3 # @ # $ $ + $ h D R E R I S m 7 $ : 9 n S B b h 9 6 9 9 h c c n n S S B b 6 $ + X + # 3 3 h 6 3 : $ $ $ $ 3 6 h b n c 9 6 $ 3 h n n b c 9 6 9 9 9 9 6 3 3 $ : , 7 n P P F c 9 3 : $ 3 3 : + @ $ 3 9 7 6 3 6 9 l b b c 9 3 , : : : : , 3 9 C D S B m 9 6 6 3 6 6 6 6 6 6 6 9 6 6 3 , 6 9 c n b v c 9 6 6 9 v G 7XuXuX8XR n 6 3 6 9 c v n n S n c 9 6 9 h 9 : : 6 c n n S G / / W R D n h 6 3 6 6 9 9 6 3 3 : 3 c n S D D S v v n S n c 6 6 3 : : $ $ $ 3 3 6 9 9 9 9 6 6 9 S F G G G R D b 9 $ + + + + # 3 6 9 c 9 9 6 3 6 S S C c 7 3 $ $ 3 7 h l h 6 3 & 7 7 9 9 7 3 $ $ @ $ @ @ $ $ 3 6 9 9 6 $ $ , 7 h n B b h 7 3 : , v b c h 7 3 , : 6 6 $ + # 3 9 h 9 6 3 $ : 6 v n B n b 9 3 : : 3 $ $ $ # # $ $ # $ @ + + # 3 h b n b c 9 6 6 3 3 3 3 $ $ $ $ # $ 6 6 6 9 c n n b 9 9 c n n v h 9 B S D B n c 6 # $ 6 n G E E P G R P D n v v c c 6 6 6 6 9 h c 9 6 3 $ # # $ : 3 : : : $ # + @ # 9 c b n v 9 6 : 6 6 6 9 9 c b n v v c c n D D B 6 $ : 6 6 6 6 $ 6 3 3 6 h c b b h 9 6 3 3 6 9 9 9 6 6 : # + @ $ 6 9 h 9 6 6 9 b B S C v h b B b 7 6 b S S n h h C P W W R B 9 $ @ # @ @ $ 6 c n R E R F B 9 1 : 6 v n D R ! _ _ R H m h 9 h l c 3 , : : , , , , + + X + + # : 6 6 6 6 3 $ $ $ $ 3 : $ # @ # $ : # 3 n P E E P D l h 7 7 9 6 3 6 9 9 7 7 h n S S S m 7 $ $ $ 9 S 7XrXuXuX7XD : X @ $ $ : 3 3 7 9 8 v D E E G n c 9 6 $ $ $ $ 3 6 9 6 $ + $ v F P F C h : @ $ 6 6 3 3 7 h l b b b h 9 c n C S D P / / E S n n b c 6 , > 3 6 3 , , > $ @ @ : h V B h 9 9 h 6 , 3 3 3 6 7 3 3 3 6 n R / 8X8X/ D 6 $ $ $ $ $ 6 c n B v c h h 9 h h 6 3 3 1 3 6 9 c c 6 3 $ $ $ 6 c n E W E D b 6 : $ v c c c 9 9 6 6 3 3 3 6 6 3 6 7 , 3 3 : : : : 3 8 6 h h 9 3 # + 3 9 G / ( E S n n n B B S G D B c 6 h B B h 7 9 D W 7XqX8XE c 3 : 9 S E W W F n 9 6 c n n b c c h h 7 3 , : 3 9 6 h 6 $ $ $ $ : + @ @ # # # # $ 6 6 6 3 3 3 6 9 9 9 6 6 3 $ # @ O # 9 B F E E P B b b b n B B n 6 3 $ $ 6 c n B Y R Y R P F S n b b n F P P F n l 3 9 b v c 6 6 9 9 6 # + + + + + $ 3 9 9 3 $ + # $ : 3 3 # @ 6 F E E G B 9 $ $ 3 6 6 6 6 9 9 9 6 6 9 9 9 6 3 3 6 6 6 7 6 6 9 7 6 : 3 3 3 3 6 3 3 : 3 3 : : 3 : $ 1 6 6 6 9 9 6 9 c b n C F F S 6 : 3 l S W ) _ F b 6 $ @ # : 3 , 3 6 9 8 3 $ # $ 3 h b n c 6 3 : 3 6 h c h 9 h n n c 6 $ : 6 9 D F F B c 9 6 : 6 6 6 3 , : , 3 c c v v b n n v , $ $ 6 9 c b n n v 9 3 $ : 6 9 c v h 6 : : : 3 c h 6 3 3 c D R W W P n S W / W c 3 3 9 6 : $ $ 6 6 3 # # 3 9 9 9 6 6 3 $ 3 3 $ $ @ 6 b S S B c 3 @ + @ 3 h n v 6 3 : : 3 9 h 9 9 9 6 6 6 : # @ ",
"v v h 9 6 3 3 6 v n c 6 3 3 : $ $ # # $ 6 h c c 6 3 $ , 6 9 b n b b 9 3 $ : , , 3 3 , $ # $ $ # # + + # 3 h n n v h 6 6 6 3 3 3 : $ $ $ $ $ $ 3 6 6 6 9 9 c v b 9 9 c n B c 6 9 D D B c 3 : , 6 h c n D F F F D S B v 9 9 v n n 3 3 6 m n b c 9 $ $ $ $ : , 3 3 3 3 $ # @ @ $ 6 h c c 9 6 6 6 6 6 9 9 h c n n n c v B D D n 9 3 6 6 9 v b 9 3 3 3 6 h n n n n c l 9 6 6 6 9 c l $ @ @ $ 3 3 6 9 n S n h 9 c c 6 3 8 x v n c 6 6 h c c c h h v n E E R D v 3 @ X + + $ 3 6 n D G D S n c 9 6 6 c D E W W _ 8X7X( v 9 9 b n 9 3 : $ 3 3 3 : # + % + # $ # $ 3 6 6 , , : $ $ $ , 3 $ # $ $ # $ $ , 9 b D F G n 6 3 $ 6 6 6 6 6 6 6 h c l h l c c v 6 : @ @ 6 S ( qXrXrX_ n 3 $ # @ @ $ : 3 6 9 v n R E E R D n 6 3 $ # # : 3 3 3 3 : : 6 9 c S S n 3 $ $ : 6 6 3 6 3 6 c n n c 9 9 c b n n S P E E D S S S n c 6 3 $ 3 3 6 6 3 : $ + $ 9 n S B b c 9 h h 9 6 3 $ # 3 3 : : 6 B E / / W F c 3 $ # $ $ 3 h n n n c c 6 9 c c h 6 3 $ $ 3 9 b n c 6 6 : $ $ 3 c D R E R S h : $ 3 h c 9 l 9 6 3 3 3 $ 3 3 3 3 3 6 6 6 , : : $ $ $ : 3 3 6 3 # @ : c S ) 7X/ D v n B C S D G G D c 6 9 S D m 9 9 n E / ) / G c 3 3 9 n W ( / E D b 9 9 h n v v c c 9 6 3 3 , , 3 7 3 $ : $ $ , , : # + @ # # $ $ : 3 3 3 3 3 6 6 9 9 9 6 3 $ # + + $ 6 D P W / W F n n S S n n c 6 3 3 : 6 h B G E ^ / E R D n b v n G P E E R D c 6 6 9 c h 7 7 3 3 , $ # + + + $ 3 6 6 6 : # @ $ 3 6 3 3 $ # 9 F / / Y B 9 $ + $ 6 9 c h h h 9 9 6 3 6 3 6 6 6 9 9 c l c h 6 6 6 3 3 3 , , : $ $ $ : : : : $ @ $ > $ 9 9 h h 7 6 j h S F P F n 6 # 6 D W 7X8X_ G 9 $ # $ $ $ : 6 9 9 6 3 3 $ $ 3 6 6 c c 9 6 3 6 6 6 6 6 9 9 c v v c 3 3 6 9 c n S S v c h 9 6 6 6 6 3 3 3 6 9 9 l c c c l 6 3 $ $ : c v n B n c 6 3 $ $ : 6 h 9 6 6 6 3 6 9 h h 9 3 > : b E W S b n D P E R G b 6 3 # # $ 3 6 6 6 3 : $ 9 v v h 6 7 , 3 : $ : : 6 v W W P b 6 @ + + 6 9 9 9 6 3 : 3 7 9 9 h 9 9 9 7 h h 9 7 h c v c n b b b v v l 6 # + + $ 3 6 6 6 6 9 h c B S S B 3 : : 6 h j h h h 9 l n B n n l 6 3 v D S v 3 $ # $ $ # $ $ # # + + @ # # @ @ @ $ 3 6 c c 6 3 6 6 6 9 6 3 $ $ $ 6 6 3 3 3 3 3 3 9 9 9 6 6 6 3 $ + + 3 c n n n b 6 3 6 9 6 6 6 3 6 6 6 6 6 9 9 6 6 3 : 3 3 6 9 9 n v 9 6 9 b S D S b 6 $ + + @ @ # + @ @ # 3 9 h 9 9 c n n c 6 6 , 3 6 9 c v c c : 3 6 c n S D D n c 9 9 3 : 3 6 6 6 6 # + @ # + + # $ $ : 3 3 3 6 6 v B S S n v 3 $ # : : # @ $ : 3 3 6 6 6 9 c R R S 9 3 3 3 3 # $ 6 c n S F G E R S 9 c D W ! E G G P S 9 : $ & & $ $ $ $ $ # $ $ 3 6 u n B n : + + $ $ $ $ @ # + + @ $ 6 9 9 6 6 3 3 6 6 9 9 v b c 6 3 : : : ",
"b v h 9 6 6 6 6 6 6 : $ h E 7X9X/ R c $ + # 3 3 3 $ $ 6 c n G E _ ( W D v 9 6 & $ # # # # # # + # # $ $ $ 3 3 3 $ $ 1 6 6 6 3 : 6 9 c n n h 6 3 9 c b n B D F G G G D S n 6 : 3 6 l c h 6 $ # $ 3 c D E R S v c n n v 6 3 3 $ + + + : c S D G G n v 6 $ # # $ , 6 9 c n b 6 : 3 n B n h 6 3 $ : 7 h b n b 9 3 # # # 6 v S G G D 6 $ # $ 6 6 6 6 6 6 3 : : 3 6 6 # # : 6 6 6 7 3 3 $ # # # # $ - $ $ +   : G 7XeX7X/ P n c c b S R R P S n b n B B B S S D R E E D n 6 : 6 G / 3X( / E G b : + + 3 9 c c c 9 3 # $ $ 3 9 9 : + + 3 6 6 3 3 $ # # + % % # $ 3 3 3 6 6 3 , 3 6 6 6 $ + + + @ 6 b D ! _ ) / W F B n G G n 6 : > : 3 3 v P / 3X( E I B b l v n F W ( 9X0X/ n 3 : 1 3 6 9 9 6 3 $ + # $ = 3 $ 3 6 9 9 3 # # 3 3 6 3 3 + # h G E / / G 9 # # 3 9 9 9 h b v c 9 6 3 3 6 v B n c c B S B b h 9 9 6 6 6 6 6 3 3 : : $ $ $ $ # @ # # $ 3 6 n c 6 $ : 6 n D F S h $ : c R ( rXeX_ B 6 $ @ + + # # $ 3 6 6 6 3 3 3 6 6 6 6 6 6 6 3 3 3 : $ $ $ 6 v S S b 9 3 6 9 h c v b v c 9 9 9 9 6 3 3 3 6 9 9 9 9 6 6 3 : $ $ : 3 9 b B G D n 9 3 $ $ 3 6 v n n b 9 6 6 m n n c 9 : $ 9 F R S 6 3 9 S G W W G n 9 $ # $ 3 h c 6 6 3 6 9 n S m 9 5 6 6 6 3 3 6 h C W ( ! n 7 # + + # , 3 6 3 , $ : 6 c b 9 9 9 h 9 9 9 6 6 3 $ $ @ @ $ 6 c n b 9 6 @ + + $ 6 9 c 9 6 6 6 h v n B b 6 $ : c n n c c 9 9 c n B B B n h 9 c S D n 9 3 3 $ $ $ $ $ $ # # # # $ $ $ + + # # # $ $ $ $ 3 l v h 6 3 : 3 6 6 3 3 3 3 3 3 6 h b b c 9 6 6 3 $ $ 3 c n m c 9 6 , : $ , 3 6 6 3 3 3 3 3 7 7 6 7 7 3 3 3 3 6 h b B n l v S R P b 3 3 3 6 3 , $ $ # $ # $ 6 6 h c v v v c 6 3 $ : 3 3 h c 9 6 3 3 6 6 v n n v b n b h 3 # $ 6 9 c h 6 $ @ + + @ # $ $ # # $ 3 6 l n S E E G n 9 3 : $ # $ 3 7 6 0 3 3 # 3 c D E R G n 3 $ $ , 3 3 6 9 c C W 3X3XW I D E W E R G G S B n c 9 6 3 3 3 3 : $ : 3 : $ $ 3 n B m 9 3 @ + $ : 6 3 @ + + + $ 6 h h 6 6 : $ : 6 6 9 h c h h h 9 h b B Y ( 8X8X! R F F G P P F n 9 3 : $ # $ $ : h F ( ( Y b 9 h 7 7 j h h c n B n c j h S W E S c 6 6 $ # $ 6 v n B n c 9 3 $ $ # + + + + @ # $ 6 v S D n 6 3 + + # 3 6 6 6 : @ # $ 3 h B D D c 6 $ # # $ 3 $ +   X % $ 3 6 3 @ @ 3 c n S S n c 9 9 c c c c h 9 c n F F S v 9 # # + # + + $ $ 6 h B D S c : # # # + + % 3 6 6 6 6 6 9 c 9 5 6 6 6 6 6 9 v n n D S n b b n b c 6 $ + # $ : : $ # $ 3 9 h 6 $ +   + $ h D W / / G m 7 $ + + # # $ $ , 9 9 6 3 3 $ : 3 6 3 $ # 3 3 6 6 # # 3 6 6 6 6 6 c c 4 $ $ + + +   + 6 b n G S n 9 3 3 3 3 3 3 3 3 3 $ # # + + + + # 3 3 $ $ + # 3 : $ $ $ $ : $ # @ : 9 b S D G F D S S P ( _ W S c 6 3 3 "
};
