/* XPM */
static const char *Carretera2[] = {
/* columns rows colors chars-per-pixel */
"450 450 256 2 ",
"   c #0A0A0C",
".  c #0E0E11",
"X  c #131315",
"o  c #161619",
"O  c #1B1B1D",
"+  c #18171A",
"@  c #101012",
"#  c #211D1D",
"$  c #27261D",
"%  c #1E1E21",
"&  c #1A1B29",
"*  c #16192B",
"=  c #211F23",
"-  c #241C29",
";  c #2A1F2C",
":  c #1D2328",
">  c #232325",
",  c #262629",
"<  c #29272B",
"1  c #2B2B2D",
"2  c #292926",
"3  c #312D2B",
"4  c #36342C",
"5  c #2E2E31",
"6  c #282836",
"7  c #312E33",
"8  c #332C39",
"9  c #333234",
"0  c #363639",
"q  c #39373B",
"w  c #3A3A3C",
"e  c #3A3836",
"r  c #2D3233",
"t  c #1D231D",
"y  c #423D3A",
"u  c #4B3B28",
"i  c #4E3B19",
"p  c #3B4239",
"a  c #46433B",
"s  c #584B2B",
"d  c #675729",
"f  c #695531",
"g  c #746534",
"h  c #5C4C19",
"j  c #3E3E41",
"k  c #383845",
"l  c #2E2F44",
"z  c #413F43",
"x  c #443C48",
"c  c #443D55",
"v  c #3E4245",
"b  c #424244",
"n  c #464649",
"m  c #48464B",
"M  c #4A4A4C",
"N  c #4A4845",
"B  c #4E4E51",
"V  c #464754",
"C  c #514E53",
"Z  c #525254",
"A  c #565659",
"S  c #5A5A5C",
"D  c #59575A",
"F  c #53504B",
"G  c #675B4F",
"H  c #73674D",
"J  c #5E5E61",
"K  c #575866",
"L  c #535267",
"P  c #615E64",
"I  c #626264",
"U  c #666669",
"Y  c #6A6A6C",
"T  c #696769",
"R  c #6E6E71",
"E  c #676677",
"W  c #706F74",
"Q  c #727274",
"!  c #767679",
"~  c #7A7A7C",
"^  c #79777A",
"/  c #73726D",
"(  c #5D6365",
")  c #AE7B14",
"_  c #9A7429",
"`  c #87744E",
"'  c #887D70",
"]  c #C37C15",
"[  c #B98818",
"{  c #B78C12",
"}  c #B88926",
"|  c #B7922C",
" . c #B69C2C",
".. c #D7990B",
"X. c #C78B18",
"o. c #C99718",
"O. c #D79918",
"+. c #CD900D",
"@. c #E49B17",
"#. c #E69A0B",
"$. c #DAA50B",
"%. c #DBA31C",
"&. c #D9A718",
"*. c #DCB419",
"=. c #CEA616",
"-. c #E7A80C",
";. c #E3A41B",
":. c #E4AB1C",
">. c #ECAC1C",
",. c #E8A716",
"<. c #F4AB19",
"1. c #ECB31C",
"2. c #E9B718",
"3. c #F3B41C",
"4. c #F3BB1C",
"5. c #F8B818",
"6. c #EFB30C",
"7. c #C89826",
"8. c #D69B26",
"9. c #C89936",
"0. c #CC912C",
"q. c #E49B25",
"w. c #E59930",
"e. c #CBA427",
"r. c #D9A727",
"t. c #DBB428",
"y. c #D8A936",
"u. c #DBB537",
"i. c #CAA736",
"p. c #E4AB23",
"a. c #EBAC23",
"s. c #E6A828",
"d. c #F4AB26",
"f. c #ECB323",
"g. c #ECBB24",
"h. c #E4B32B",
"j. c #ECB42B",
"k. c #ECBB2B",
"l. c #E4B625",
"z. c #F4B423",
"x. c #F3BB24",
"c. c #FCBC24",
"v. c #F3BB2B",
"b. c #FCBC2B",
"n. c #F8B428",
"m. c #E5AB35",
"M. c #E8B736",
"N. c #F3BC33",
"B. c #F8B936",
"V. c #F4AB35",
"C. c #EBC41A",
"Z. c #F8C51A",
"A. c #F7CE15",
"S. c #EBC528",
"D. c #F4C324",
"F. c #FCC324",
"G. c #F4C32B",
"H. c #FCC42C",
"J. c #FDCB2B",
"K. c #F8CB26",
"L. c #FBD529",
"P. c #EAC537",
"I. c #FCC433",
"U. c #FDCB34",
"Y. c #F7C738",
"T. c #FCD638",
"R. c #EBD332",
"E. c #FCE437",
"W. c #DDC330",
"Q. c #9B8D65",
"!. c #D9B646",
"~. c #D3AD4C",
"^. c #E7B846",
"/. c #F6BB45",
"(. c #E8B750",
"). c #D6AC56",
"_. c #EAC648",
"`. c #F9C846",
"'. c #FBD647",
"]. c #E9C757",
"[. c #F8CA56",
"{. c #FBD757",
"}. c #EBD54F",
"|. c #FDE657",
" X c #FCE84B",
".X c #FBD866",
"XX c #F0CF6B",
"oX c #FCE96F",
"OX c #DBC654",
"+X c #7E7E81",
"@X c #757785",
"#X c #736A82",
"$X c #807F84",
"%X c #7E8086",
"&X c #828284",
"*X c #868689",
"=X c #8A8A8D",
"-X c #88878A",
";X c #8E8E91",
":X c #878894",
">X c #929294",
",X c #969699",
"<X c #9A9A9C",
"1X c #98979B",
"2X c #919092",
"3X c #9E9EA1",
"4X c #9899A4",
"5X c #A2A2A4",
"6X c #A6A6A9",
"7X c #AAAAAD",
"8X c #A8A7AA",
"9X c #AEAEB1",
"0X c #B2B2B5",
"qX c #BABABD",
"wX c #B5B6BA",
"eX c #B0AFB2",
"rX c #AAA497",
"tX c #FCED89",
"yX c #ECD994",
"uX c #BDBDC2",
"iX c #B8BAC4",
"pX c #B1ACCA",
"aX c #BFC0C5",
"sX c #C2C2C5",
"dX c #C4C5CA",
"fX c #C9CACE",
"gX c #C7C8CD",
"hX c #CCCDD2",
"jX c #C9CBD3",
"kX c #CFD0D5",
"lX c #D1D2D6",
"zX c #D4D5DA",
"xX c #D9DADE",
"cX c #D7D8DD",
"vX c #D2D0D0",
"bX c #DCDDE2",
"nX c #DADCE5",
"mX c #DFE0E5",
"MX c #DEE1E9",
"NX c #E1E2E6",
"BX c #E4E5EA",
"VX c #E7E8ED",
"CX c #E9EAEE",
"ZX c #E8E7EC",
"AX c #ECEDF2",
"SX c #E6E9F1",
"DX c #EFF0F5",
"FX c #EFF2F9",
"GX c #F1F2F6",
"HX c #F4F5FA",
"JX c #F7F8FD",
"KX c #FBFCFF",
"LX c #F7F7FA",
"PX c #F0F0F2",
"IX c #E1E0E2",
"UX c #C3BBA7",
/* pixels */
"A M 9 j 0 A J 0 B > 0 9 1 O > % 9 1 + 0 =Xn M S 1 w q , 0 M 1 > b 9 w 0 0 1 9 b n Z j 1 b 0 2 0 0 0 1 0 M n > *Xn 9 n 3XS 1 q S w 1 9 , 0 M 1 w 0 R S A M 1 1 S Z q 9 w w w q w w T M 1 q 9 9 j B > X 9 Y S 1 1 , M 6X=Xn 1 9 n 1 ^ -Xn w 0 q 1 j M M O 9 0 q 0 Y ~ 0 0 5 1 A w M 1 1 n b 0 9 5 1 % , 0 9 w j zX*X0 1 b A , 1 1 b 1 A M w , I *XZ ;Xq 0 w 0 w , 9 9 0 w S M n b 5 w w j 0 w b 0 z q n M S Z = 9 Z w B w 1 M 9 0 0 0 q 0 w ~ Q 9 > M B M 1 > 9 0 ^ Z > j I 0 0 j q 9 w w b n b O 0 1 9 9 b D 1 n 0 P m 9 9 1 1 O B uX+X1 9 , ^ ~ J n 9 j n J R n 0 A n 0 w 1 n b 9 w b b I b 9 b 5 w Z X J *XB 1 1 1 0 b 0 > I q , 0 n b n M w 0 0 > M Z 1 5 0 M b b w M n w 0 1 j 0 0 9 n w 0 9 0 0 M 5 , 0 w 5 5 M 0 w w w 5 T Z 5 w ~ ~ 1 9 , A 9 &Xn , w w n j w 1 1 % 0 9 A M q n w 0 9 9 P w 1 n w 9 b 0 9 1 0 > 0 S 1 % 1 O > 0 5 9 % o , 9 O , q , > 1 5 n 1   Z 1Xb 1 n j > b q 9 1 0 R 0 , 9 5 5 j q w ! j P Z D ^ w n z b ",
"0 b b w 9 I U M B 1 1 0 0 Z A > 9 M A > % w w j w 1 n 1 I >Xw j q 9 n 1 , , > M b Q Y 0 b M M , w w 1 1 j M 1 1 0 j n Y &XJ 1 9 5 O 9 9 1 O q b j n 1 n B Y b -XZ n n q 0 9 9 b j j b 5 M w j w b Z J q b 9 w 0 5 , I P b 1 9 0 n ^ D 0 b Z 9 w 1 5 0 0 j S 0 > -XJ O n M B 9 9 j 5 0 A S Z w , q 0 M D qXB , J 1 w M w n w n b > 9 w 0 n 0 b 0 w J M M j w 0 D , X 0 M b , 1 0 0 1 j 9 n Q w 1 q n j S &Xq > 1 M w A 1 j w b A 9 0 0 1 1 q w w 9 0 I 5 w 0 q 9 ! 5X, 1 1 q w b 0 b q Z n S U w M w 1 1 0 M U 1 5 +X=XB 1 w w 9 n J M 9 > 5 *XY n 0 0 w D J Y 5 9 1 9 q 0 9 , 0 w 9 1 n B S 1 w j 9 O 0 T b S > 0 j n w w 9 0 , % j 1 9 w 1 A &Xo b b 0 0 , w 0 w 1 0 0 9 1 1 0 , q b 1 b n 1 9 0 1 Q Z B > + >XI 1 9 5 1 > Z > O 1 w 1 9 1 9 5 5 , > , j w M b Z w 0 5 1 1 9 5 q ! Z w n 9 B sXA w Z 5 1 1 w b w 0 5 O % 9 j , S Y n 1 5 0 w 9 w % , n 5 9 v 1 % X M A n >XD w b 9 1 , 1 0 M ~ n n 0 1 0 9 b A 6Xb =XI Z &XS M , n ",
"w M 9 0 9 n Z 0 n 1 > n 1 I ~ A O w Z I M 5 9 % 9 Z M > A <X1 > j Z 1 5 <XwXb , w Q Z > 0 0 M w a 1 1 9 ~ B n n 5 q q w *XA 0 1 , w Z w q 1 M n 9 0 j 5 1 w w w w Z n w 5 0 9 D n w w 1 0 b 9 0 0 n *X0Xq r > 1 9 9 1 0 , Z 1 > b fXJ 1 M S n 9 1 > 9 q 1 w M 9 1 w n b w n n 9 1 0 O 1 , w *Xw 0 w j Q ,XT q 9 b j b 0 9 w M b j M 0 j 5 w b w w n 9 5 b 9 b *XO b Y 5 9 w 1 1 9 0 w 8X9 S 9 w 9 n w 1 0 C 2 D 9 O 0 j n 0 j Z n b b 1 9 1 1 w q 9 % 0 9 w w 9 0 b 9 5 O 1 Z w w 0 1 M +X9 1 I bXS , 1 M n 5X<Xw Q I M 9 b w 5 9 w D n n w q b w 9 w M o 5 j 0 9 w 9 w n 0 5 9 +XR , 1 j 0 O 1 w 0 1 , 9 9 9 5 , 1 , 0 j w b 1 D w 9 9 1 0 B Q , w 9 0 0 1 M Z 5 1 r 9 + A 9 , w 0 Z 9 % > 9 0 9 5 D Q j 1 O R M , 1 9 9 0 M 9 q 9 9 b 0 j 0 w 9 9 , w S Z Z w 9 n M 1 9 U J n R eX&X0 , w 1 Q n , 0 n 1 w 8XS O 0 w M w S S B =X^ 9 5 1 , 9 5 b 5 % D U 0 9 b o 0 A n , 5 % w D A w 9 9 1 O J Q 9 Z Q b b 0 w q 1 0 0 w b M M U b ",
"I b 0 w 1 9 0 Z 0 O n 9 1 j 1XB 5 j 9 n q M q 9 b n n j 5 > > , > b Z O ;X6Xj 9 9 I w 9 9 9 1 w M b 0 0 *Xw >XT q n q 0 , > , 0 w A 5 n n 9 5 w w w M Z 0 w b b B U R > , B M Z q 5 M 0 j 0 0 j 9 1 Z ! 9 1 b Y Z 5 5 1 j Y -X> 0 M 0 0 0 w w w w A M U 1 5 1 9 9 b A w w 9 I R b 0 n 1 > n 8X~ 9 1 + ;X&XI n 9 b A I &Xw 0 M b 0 q w 0 j w 9 w A S M 5 M 0 w 5 > Y Q S , 9 w j n 0 1 n 5 O q b n b w M b 7 2 D B w 5 w n j b q Z b 9 9 9 w q 0 9 S j 0 0 w b S 9 1 0 w n w n 5 w 0 q q A 1 w 9 U M 9 9 0 Z 1 I > 9 w b M n w 1 1 , w w Z n q b q 0 0 A &X1 n n 0 w n 0 0 9 0 > 5 0 > > , % w 0 9 , > , 1 1 O 0 9 > 0 0 9 9 X 9 +XQ n w n , 5 1 1 1 1 I b w , 1 1 n 0 n -XU I ^ A *XJ A b M a M 5 > 0 1 0 w 0 + , 1 1 1 1 1 , U j U b 5 w 0 0 9 q w 0 , Q hXI , 5 0 M q 9 D Y X U >X*X9 9 > 0 > 1 q M D w q cX+X1 j Z &X, w q 0 M q 1 , > % O n % 9 , % D 9 9 0 1 1 1 o X , 0 , , Z b 9 0 9 1 M M T n b *Xw w O $X<XJ , 1 1 Q J -Xj ",
"0 0 A A b w , > w b M A 0 w ! 1 0 M M w w 5 w , 0 A B B 1 9 B 0 Y wX8X5 1 5 9 Z w 1 w b Z w 0 w w 0 w w 9 w w n n w n 1 Q b X 9 b 0 0 1 1 9 9 0 I q Q M 1 5 j w q Y M 1 w 9 , M w 9 w q D b 9 w 9 1 0 9 9 j 1 b 9 5 j w w M <X0 % % 1 n v 0 n 5 n A b S w Q n 1 , w b =XA 0 *X2XD 1 n w j w b M b , 0 J A b w q n w n Z 0 3 1 , n 0 9 1 q A m 1 9 Z A 1 0 b b , w Z w B 1 1 w n w q 0 b 1 1 b w 1 9 1 Q ^ + n z , 0 > b q w > w 1 O j 1 , 1 w M > 9 , 0 0 1 w R U Z o 9 7Xj 9 1 0 > 0 B O 1 0 0 9 1 0 0 1 1 , + 0 M M Z M M b w , 9 1 b 1 R <XS 9 M 1 ^ wX> M n 1 , 9 Z 0 n 1 1 1 0 S M B >XY 0 9 9 j 1 M 0 O q Z b 0 b > + w Y 0 I Q 9 A M w 0 5 9 5 ~ R B b M 9 9 j B Q A B Y q U n M 1 b 0 j 9 9 1 1 q 1 1 5 1 9 w O ! T , n > *X! 9 0 j n 0 w w j q 1 J 0 1 b 1 1 w w > O Z B Z =X> 0 0 1 9 1 > Q ! b 9 1 w b A 1 9 % Z n 0 b b 5 D ;XS 0 M 0 9 > > > 9 1 > j n w M 5 5 1 , 1 1 b 5 1 0 M ~ T I 1 1 w > w j S zXJ , w 1 1 S 1XI ",
"9 w n M 0 1 0 5 w 1 > b w 1 1 M A 9 A 0 A 1 9 1 1 + O R ,Xj 9 1 J Q *XJ 5 Z j n B A 5 A M w A n w b 0 M b b A j 1 w w 5 Q 9 , =XA 1 0 1 0 9 b % =XD , 9 b w w w w 1 M 9 Z D % 9 b M n b M A M M 0 0 j 1 0 n w , w q w w w 9 > e n 1 > n 0 0 w w w &Xn , w fX&XO 9 a M R 6Xw I Z n b w w 1 , 0 S B A n q B w 0 0 M 1 , w w 0 w w b n 0 0 1 ! Y 1 5 0 , , 1 w 5 1 O , 9 > 0 1 O 1 9 M 9 1 0 ~ w 1 7 j 5 C Z 1 b 5 Z 0 9 M n , w 0 7 q S j z n B Z b 9 9 q 0 w , U Z 0 2 1 M 1 , 9 9 w 9 n b v w r n w b w 0 0 9 1 n Q I M 1 0 M n w j &XM Z >X1XJ 1 1 , 5 D 5 1 b M > =XdX1 % Z M I w D M A &X0 1 1 > > 1 0 1 5 > Y Z 1 b 1 , n 0 1 o % , n I M 0 0 9 % , Q b 1 Y ~ M b 1 b b 9 9 1 w M J n w 0 , 0 1 , 9 1 9 > 1 0 q M n ~ Q M o 0 > 0 w 9 w 0 j S Z n 9 9 , 1 5 0 b > w b 5 1 S +XB 2Xn n I 9 q 9 1 > 1 5 1 w O O > 5 1 1 Q I , 1 1 0 *X1Xb A +X> % b 9 j w 1 n >XQ M M n 9 1 1 7 q w , 0 b j > 5 1 R A b w 1 S 1 j 1 9 M 5 > Y <XT ",
"0 w w 0 w n A Z Y U , 0 1 9 w b A 0 , n +XY 0 b b w 5 Q +XA 0 + Z 6XS b j 5 M U ~ A 1 0 w w 1 1 , w b 9 1 n A J 9 M b 0 , 1 D J I 0 1 j M D b 1 , w + w w 9 n 1 M Q > w M M M 5 0 0 n w 9 w w > 1 q , w M 1 M M 1 0 9 w ^ M n 1 1 U M j 1 w 9 1 b 9 1 1 9 0 j 9 9 1 b > q > 9 M M M M b 1 9 , , q 9 M Z n w b 9 Y 7X1 Z M 0 1 b w 0 b q > % O 1 1 > j A 0 5 1 , 1 0 , 1 0 0 1 j w 1 , , b J -XS z b 1 1 1 > 9 q Q q b , % 0 b M S 0XA *X! J ;XA S j D n M , 1 , + M 0 3 1 1 1 9 > n 1 w D n =Xv 1 M w 9 w w 9 0 1 >XwX9 0 0 9 b 0 9 B w , S 3XR , 0 9 0 , 9 M J U 1 S 6XM Z 5 U A O j 9 b B 5 1 1 q O n q 1 1 > 1 b 1 , , , 1 0 o 1 9 9 O j n w 1 w 1 Y A R Y , ~ B 9 O A fX>X9 9 % M D M ~ w 0 1 *Xb O > 9 , n 1 0 w J *XY q *XJ q b 0 9 b 0 9 w w 9 q , Q 0 n 1 w n > > , w 9 B b 7X*XI M M Z 1 5 1 1 1 q 1 , A I , Z U b j , 1 1 , 1 q , 0 <X9 > > ! R 1 w 1 q U w w A X 1 0 w 7 9 w Z Q ~ Q 1 n A j 9 9 , % 9 1 b *XI 1 > 9 > w ",
"9 Z 9 w w 5 S A q j Y 7X9 1 1 b I 7XM I -X! w q n w 0 b n Z 0 0 b j n j 9 B 9 1 n q 9 9 1 w M a 0 1 M ! 0 1 9 D 1 1 9 Z q 1 M j w 9 , 5 0 9 n 0 M 1 w w w 9 , 0 M >X> 0 n 9 9 , w A 0 , 0 w X M 0 > 1 1 Z 9 > , w w 9 9 I Y A , O <XB , 5 9 5 0 A , 9 w q w 9 w j 9 1 9 , b A n A b B n b 5 w Z b w Q 7XY 1 q 9 T <X> w b 9 1 b Q 0 w 9 9 j b Y Z S 6XI 9 5 1 w , j 0 O w I b 0 n O + M T 0 M n 9 S Z n w q 9 1 Y *XM j Y w w w b J 0 b B q B j n 1 w 0 1 j 1 0 w 1 2 , , , w 9 q =XU 9 , 0 Y Z 0 0 n w a b M M 9 , 9 , w b 1 3 n w 1 1 +Xj R A , b 9 9 w > 9 Q n 0 0 1 > n 0 > > j Q 0 q b 0 M 6X<Xj Z n , 5 1 > 9 5 , M I B Z b 1 5 1 1 1 q 9 9 O M n ^ 1 0 1 1 9 5 S 5 >X+X, w w X D ;X<XA t 1 n b 9 9 , , 1 q A 5 n q > S M A T w 5 1 A B b D -XY 0 5 0 0 q 0 w 0 0 I Q U 1 1 w D 1 w w w 9 M 5 9 b q 1 0 0 j Z 0 A B j > q n n 9 0 0 0 5 9 9 0 > b 1 O , o J wXI % b Y 9 0 0 w M A 5 n P 0 w Z 5 > X Y S Z A q Z Q M , 0 , , , ",
"4 n 2 V 4 q F Q 2 b Z 0Xq j 1 M x R Q > C b F v n 5 2 3 a N F S 9 N F x e 4 F e 3 M w e N p a y b 2 9 ( 3 1 1 = , 9 e 7 O $ % 6 O q k O 1 3 0 x = O ! / e 9 n $ 9 x 9 w 3 J Z 0 8 v ; p b w U ( C A K Q P F M N n w w > m y 3 y 8 2 9 6 6 4 3 2 y S a B 7 a m e j q q w , w -X1XB 7 3 M b w j ,XA 0 4X>XS 0 # 6 2 7 w x N D 2 ,XIXe > M T I 4 N n F P 1 7 2 $ & j 2 2 e $ S B 1 b 3 9 8 > # t 2 1 1 A Z 4 9 q $ 0 L w M Z >XA e < J U N 2 $ j P Y m n 0 r 9 a t 3 2 8 < e 9 m x R #XT e V 9 > w q e y 9 V ( n v 1 b x 7 q 9 n 1 x 4 3 1 &XA &X5XF A J e a 4 6 & > 9 4 q < < 1 4 w Z Q v > > 2 n @Xn 2 ;XE t 3 V F N 0 4 K Y m Z ( a 2 r r y e r 0 S a 0 8 $ Q Q Z u , w y O t k D y # M U b B 1 1 5 j < 1 2 a 1 9 A 1 w b / I   / y 3 $ w e 8 v Z 5XT : p w 1 x n 2 6 0 ~ Y 1X3 = 1 2 2 4 I 0 5 n 3 8 b F w p q k , 3 I F y e k 4 M p 2 3 2 5 3 t # 8 $ # 1 x 2 w 3X:X$ =XiX4 2 P C K q O N 3X- x v 4 T @XeXC CX' e q C y 4 N J 7 n ",
"l 6 , r : 8 8 & 6 8 , 6 > r , , : o O 3 k x y V V 0 l 6 , 6 l & +XL k c r k pXK 1 B 6 6 , k k k k % * * 5 k l A E V , 5 q > 0 8 + : n 0 w 0 6 X O B k K :Xk k k r < 8 6 < R ( k q r 8 k c V :X#XS :Xp +XB K : m 6 B > 6 6 o k 8 , 3 t , r o A V , c k :XL < k x 9 0 q 9 0 , K 4X1 r 0 : 9 j < 6 > j k >XW & 9 8 k : > 9 @XK r r E c L 6 V l & V 8 k V w , B J > v v 6 & o O 5 6 * : t r v & & 0 < 6 6 q 8 0 , 5 / T U V % K 6 6 t L nX@X, 8 + k x R :Xk 6 8 +X8 + r O 1 k : p r Y E v J W Z B q 8 r V 5 5 x b 0 k 1 A r v : v 5 , & n 9 8 6 A *XK V l L 8 r : q < 6 - 6 > +Xk l A Z , , 9 9 5 > < x % J K - + j %X5 , 6 @ Q U % k , % 9 8 1 7 V k E E Q 9 8 B , * 7 x * 5 q 9 Q @X1 < & > 5 E 1 & 9 , 7 , l l 6 : & : 6 l E 5X*   & k l 8 z q & r r < q q 9 +X7XM e , 6 V 0 J 8 + & & k < 8 1 k r r , v l & 6 l w k 6 : 0 k l & w 8 6 8 8 6 E 1 6 5Xk & o A 6 : 0 m V r w 5 X 1 R 1 ( - L P Z w & o 0 l k :X9 V r k r Z : * 6 k :Xk ",
"s f f g g _ ` d g g Q.` g ` g g _ _ d Q.Q.Q.` g ` ` g h ` ` ` ` rXUX` h g g Q.Q.h H g d H rX` d d g ` ` Q.` ` rXQ.d d s f f g g g h ` ` f g d h g ` ` s s h ` Q.` ` d g h g Q.' ` Q.H H g d g ` h H d g g H f g f h g d d ` d d s s f f H H rXQ.d d h ` ` g d ` g g ` ` ` d d s h g ` f d g H d g Q.` ` H f ` g d g h d ` d g ` d h d d h d g Q.g H g d ` UXrXg Q.H i f g d g d s Q.Q.` H H f f d d d ` d d d g g _ h H ` _ g g Q.d Q.` d ` g h Q.Q.Q.d d g d H g d h g s H ` s H s f H f Q.Q.f d s ` H ` Q.UXG f s s s g f f f H rXQ.` i h ` H i f H d g ` i g ` g g ` f f f ` ` H f g ` ` ` d g g g g i g i f s i h h g UX2Xg s rXQ.g H g H ` g d ` f s Q.g f d ` rX` rXg H ` ` d g g ` d g d f f h d d h f g ` H ` H d ` ` Q.h g Q.d g ` ` g d g g d f f Q.Q.f G H g ` g f G f d g ` g s ` d H g h ` H _ ` g g g d Q.d g g d h H H g d s f H g vX` f d rXg d g f h d i d H h Q.` i f Q.` ` Q.g H i g f i d s s f H rXH s h d Q.f ",
"2...N.$.f.2.N.N.Y.k.&.j.N.O.r.M.B.p.O.y.tX].&.%.:.G.p.j.P.P.o.M.[..XM.&.&.j.#.<.Y.W.'.k.[ tXXX&.7.^.[.o.y.e.i. .o.O.p.e.{ 8.8.o.t.=.{ !.0.} 7.e.[ [ ) [ k.1.%.0.y.7.o.r.e.u.u.u.!.7.!.(.7.o.u.XXXX7.r.&.i.].!.!.y.t.e.].7.o.O.o.[ y.e.r.r.].).(.r.(.M.%.e.8.8.y.o.7.i.i.o.P.t.OXr.m.8.m.8.o.+.p.t.i.'.{.oX}.B.^.h.M.y.o.o.&.=.o.i.[ i.e.e.M.y.y.p.{ o.X.0.X.) 7.].!.[ 7.i.}.e.e.9.~.y.t.y.].h.=.O.f.j.s.p.p.[._.].&.e.^.m.y.r.o.&.r.{ t.}.M.r.$.} 9.7.^.o.o.p.a.X.O.r.M.7.0.) ) | 9.yX~.) 9.{ 7.7.7.0.) _ 9.).} { 9. . .). .} ) | ~.).OX{ { | [ } 9.i.e.{ _ _  .9.7.[ [ 9.7.| [ i.!.| } 7.e.e.} o.o.l.P.8.t.e.) ) } r.&.*.~.XXi.y.XX .{ y.^.y.r.X.M.(.y.[ 7.r.y.!.oX!.XXXXe.y. .r.p.r.^.k.O.m.p.8.0.^.y.h.Y.h.X.[ e.r.[ 0.^.M.].o.o.P.N.O.r.8.o.!.!.!.9.| | | i.i.) y.r.r.9.| } _ [ e.^.u.0.9.{.s.o.:.r.8.t.s.m.8.[ 7.y.r.o.r.h.e.7.} 7.t._.r.0.t.9.o.k.r.y.m.o.X.7.{ t.X.8.M.o.i.(.0.8.e.) } } } |  .XX9.[ i.9.} 7.}  .y.e.+.t.{ o.",
"o.r.e.r.{.t.t.:.!.[.i.7.y.t.M.M.t.M.m.0.} i.p.j.8.O.N.h.p.O.y.M.M.XX[ %.r.y.M.{ [ i.OXy.0.} { k.B.[ { o.y.y.r.!.P.t._.oX_.e.e.r.} } { X.7.[ ) 0.m.y.9.X.8.o.X.O.r.h.7.[ | ~.].u.i.o.o.7.8.k.8.yXXXo.8.r.{ t.].yXu.e. .y.y.8.p.O.;.r.r.P.t.r.(.7.!.^.u.u.y.r.r.!.r.e.!.].u.o.8.0.p.p.o.m.y.r.r.`.N.r.&.G.`.P.M.O.M.h.%.O.r.r.%.*.e._ ).9.i.y.i.[ 7.m.u.| o.*.y.o.| } 7.[ | ~.[ 7.{ ) XX].e.r.M.O.y.&.r. .P.u.u.OX~.7.P.u.[ ) W.M.o.M.y.y.(.(.[ s.=.| 9.~.7.r.:.*.0.7.| ) 7.7.} | } ) ).OX) _ | 9.|  .~. .) _ _ } | | | yXOX| } } | | | | 7.7.) | 9.) } e. .} | | 7.} ) | | 9.y.y.|  .9.} [ 7.| 9.7.r. .u.o.).yX| ) | ).) r.t.e.9.} | _ { M.!.y.y.i.(. ._.i._ } | } | } _ _ 7.} ).u.[ 7.{ 7.M.r.7.e.e.9.~.y.y.!.9._ [ +.r.y.h.S.+.8.) } 0.8.o.r.O.9.^.7.y.~.} } | i.i.y.9.i.| } [ } } _ 9.[ 7.) _ O.e.oX_.%.V.&.r.8.8.[ O.p.O.8.8.} 7.| } ).XXe.o.y.r.O.o.r.=.!._.X.) _.P.h.8.O.M.~.} o.{ { } | | | { !.].[ e.!.9.[ ) 9.} ) ) y.M.*.l.",
"o.y.y.].(.`.p...7.8.y.r.r.M.s.m.k.S.f.p.t.&.1.p.M.8.%.t.r.e.t..XN.XXy.m._.l.%.i.X.[ [ o.r.y.r.&.,.7.y.e.~.u.:.j.%.7.OX).0.^.|...=.t._.M.M.e.!.XXP.u.y.r.p.t.8.8.j.O.O.8.y.7.t.$.y._.M.W.=.R.j.] e.M.M.u.{ 9.(.9.e.o.o.8.8.a.,.,.Z.o.0./.%.f.&.P.M.r.{.'.%.V.p.=.j.M._..XM.%.r.O.:.v.f.%.r.^.{.].`.;.$.U.z.=.t.B.7.r.M.o.8.N.M.j.P.u.) } ^._.u.9.0.M.h.y.7.r.7.O.e.) =.o.0.) { y.e.e.].XXe.y.tX[.h.m.B.y.i.o.o.XXr.8.v.*.^.~..X!.yXoXy.r.j.m.r.y.P.j.+.e.7.8.O.h.e.} } 7. .i.9.). .| ).).~.) i.i.[ ) 9.| 7.9.~. ._ [ | Q.9._ _ 9.i.| |  .7.e.e.y.9.[ }  .| | [ { 9.i.y.9.0.} 7.h.i.{ } 0.[ } ).u.8.r.i.) e.~.).7.} 9.XX[ X.r.r.{ 0.{ i.[ r.[.7.X.y.} | ~.^.P.e.u._. .[ 7.0.7.[ ~._.r.[ [ =.M.m.O.r.u.| XX~.{ 7.r.i.y.y.e.7.).) 7.M.u. .e.y.=.h.h.{ { r.{ y.y.u.o.X.8.y.!.u.e.} 8.&.7.7.e.m.r.t.o.O.{ ~.{.x.N.P.t.&.=.k.p.p.%.e.9.8.^.!.7.~.(.g.r.P.!.r.O.0.e.XX}.h.[ ~.!.=.o.m.7.~.O.$.r.7.&.o.9. .e.0.} X.y.^.t.9.X.{ 7.!.y.X.{ 9.) ",
"*.t.i.].}.u.^.[.h.h.r.p.p.p.O.m.m.r.l.p.M.Y.>.r.j.G.%.o.=.M.8.M.S.XXXXP.M.m.j.N.l.&.G.:.p.r.7.y./.o.y.!.y.r.r...7.o.| 0.O.7.].a...o.[.P.l.l.o.u._.M.k.x.,.%.h.k.e.u.h.`.].XXy.e.^.9.X.%.f.=.h.;.2.`.(.7.%.[ 8.8.^.e.o.r.M.$.p.B.&.j.O.O.,.b.P.[.{...+.h.F.n.j.h.s.) s.M.s.j.k.G.{.|.P.l.l.%.m.`.`.5.3.,.4.I.P.U.U.O.o.V.j.j.s.X.X.r.`.9.7.&.h.M.8.&.t.t.7.i.r.M.Y.r.u.P.+.O.h.r.;.r.y.~.y.M.(.} ..`.M.M.r.r.M.m.t.) } l.h.~.XXi.).i.h.s.l.&.&.O.m.M.7.r.h.7.9.(.O.^._.7.0.) 9.) } 9. . .o.{ | ~.e.} 0.X. .OX~.9. .i.| } ). .} 9.9.~.9.} ) } } | ~.} | 9.~.[ | ~.} | } 0.7.o.8.7.7.[ } y.e.7.} { e.]._.O.9.i.o.7.e.9.i.y.X.) X.r.M.o.m.7.e.m.h.r.*.e.) 0.8.&.o.].^.p.M.M.o.o.8.i.7.y.7.u.t.l.p.&.r.7.i.]._.u.t.j.r.r.o.M.X.) r.y.9.r.&.2.f.O.m.8.m.o.p.h.o.o.r.p.p.r.r.&.=.e.} 9.p.B.r.O./.s.%.f.%.m.) X.s.e.} 0.&.8.M.h.h.y.u.^.t.^.oX:.:.o.,.M.!.].j.2.r.[ ].u.k.r.) [ t.M.8.8.o.t.&.r._.'.P.[ !.e.=.[ X.t.=./.r.7.7.!.P.N.Y.R.M.8.",
"u.u.h.w.s.8.N.M.[.u.r.&.P.Y.k.Y.{.|.t.o.7.O.a.M.1.f.N.M._.[.e.o.,.`.l.D.m.y.f.S.r.r.y.j.2.K.M.} i.t.M.M.f.O.^.k.P.#.j.W.=.8.} o.a.s.7.o.+.p.{ ].{.t.%.B.Y.b.x.g.t.'.k.&._.y.O.I.P.>...I. XS. XG.V.M.`.$.a.Z.2.8.m.j.x.D.4.4.:.O.8.f.T.G.T.D.1.Y.{.K.+.k.A.v.j.T.U.G...a.s.B.p.f.XX].t.v.4.H.H.j.N.A.b.<.L.Y.,.2.C.K.G.l.k.h.=.h.I.k.G.S.k.7.X.r.:.r.7.l.h.r.1.8.r.l..X.Xn.O.(.`.#.j.k.O.7.o...o.:.`.!.y.s.^.!.y.}.P.o.7.p.r.} ) X.:.%.y..Xu.{ 8.O.M.M.m.X.r.y.7.(.r.o.y.u.i.e.=.r.u.!.| ) i.} } 0.| | M.o.9.y.o.e.~.y.o.| i.u.(.y.t.r.u.{ 7.7.{ i.7.7.) ) [ ~.yX9.i.M.e.t.=.e.e.7.o.7.) [ r.i.e.y.XX_...r.y.X.[ 0.[ e..XR.+.t.oXl.j.>.y.].t.%.%.7.o.m.%.;.X.y.XXO.,._.P.r.7.X._ X.) X.7.l.,.n.>.t.7.0.y.8.t.`.].`.m.r.r.G.g.O.8.m.8.8.h.N.z.f.k./.p.l. X|.h.&.v.S.=.G.I.s.o.S._.m.j.r.o.%.r.O.a.f.Y.T.>.p.R.t.p.>.p.N.h.h.'.k.l.k.y.i.C.,.X.1.&.0.m.<.o.g.h.(.M.5.j.4.*.h.M.%.>.I.h.r.o.].tX].&.8.(.e.W.OX_.%.m.2.s.0.7.l.-.k.oX&.&.",
"9.9.O.N.h.oX=.r._.f.:.r.s.d.r.y.].`.%.h.h.&._.P.r.r.&./.^.XXr.O.C.k.a.p.`.B.@.e.<.s.M.n.d.y.t.t.X.7._.G.F.:.p.z.P.n.r.=.p.K.:.*.2.o.O.O.k.r.2.y.XXM.N.oX}.5.g./.B.M...*.]._.#.k.5.B.`..X`.{.tXF.b.<.M.S.D.Y.`.,.f.x.-.<.B.N.a.k.x.s.2.K.m.j.g./._.`.,.G.T.4.s.M.d.x.H.`.`.1.<.b.s.Y.*.;.b.b.U.k.B.:.1.4.I.U.1.d.}.U.x.&.p.%.u.t.f.z.,.z.M.r.=.o.:.s.O.~.j.K.R.S.7.p.y.9.t.G.Y._.O.+.r.7.o.O.7.u.X.q.[.7.8.g.o.o.i.t.(.8.}._.t.p.G.g.t.7.i.W.u.X.8.r.r.e.r.r.g.^..XP.7.%.%.m.1.s.| } 9.8.t.u.M.y.u.7.7.y.7.+.,.=.o.m.h.S.o.8.h.y.h.C.h.m.p.r.r.&.m.y.o.r.[ [ ) Q.~.| u.M.o.o.e.y.y.o. .~.^.8._.l.=.9.m.r.u.].!.=.t.o.^.(.`.-.} 9.a.x.h.8.8.v.=.7.g.g.:.r.M.R.t.X...8.B.h.P.y.;.2.(.].y.+.;.j.O.M...&.r.O.O.y._.6.S.}.p.O.r.O.m.h.P.G.z.,.x.D.H.2.1.n.a.~.XX_.:.h.'.G.;.a.<.@.P._.r.8.f.p.G.K.S.S.s.;.N.t.B.M.R.C.f.4.h.8.;.k..X_.>.:.l.2.1.s.N.M.C.J.'.+.7.y.t.2.[.c.4.f.n.f.:...j.j.3.>.(.[.*.-.m.!.o.OX(.P.T.z.c.v.A.t.@.q.[.tX{ t.",
"O.O.&.h.y.[.`.o.{ G.H.n.x.J.j.X.%.q.B.M.4. XoX'.S.x.a.m.l.Y.n.F.;...H.U.g.K.g.e.-.F.I.3.8.[ r.I.U.t.=.l.I.f.x.v.S.f.=.c.d._.K.M.oXS.%.>.Y.,.5.G.N.k.*.N.,.,.J.P.M.`.:.P.u.P.g.[ &.H.&.^.^.0.0.t.g.Y.P.:.5.>.N.N.V.n.J.x.n.j.P.T.H.v.X.8.@.s.I.L.A.;.q.X.N.b.a.6.5.>.'.L.D.T.U.a.s.^.`.2.Y.v.F.J.*.%.o.o.w.M.%.,.0.V.-.Y.{.2.a.s.r.f.>.O.8.r.%.w.!.:.s.:.$.j.oXT.;.w.B.>.h.k.h.D._.$.] e.R.j.,.4.l.M.t.m.1.M.j.8.8.O.>.1.{.m.-.T.B.%.O.m.e.O...l._.r.V.m.r.%.*.u._.S.J.P._.h.O.m.P.X...f.8.8.+.1.k.n.a.s./.B.a.4.J.o.8.,.h.l.D.j.1.r.o.0.s.:.M.s.%.!.+.&.| 9.y.) 8.8.0.[ %.%.r.M.h.8.].r.h.y.XX'.g.$.X.:.k.).y.$.P.7.^.^.r.:.O.{ $.`.N.r.&.r.h.&.j.|.|.p.s.k.C.D.k.R.v.B.P.:.#.!.`.6.S.|.T.S.h.+.f.v.v.x.a.I.*.Y..X,.s.r.s.r.S.n.b.2.D.f.1.j.m.m.@.>.x.K.=.O.@.k.%.:.&.&.x.>.m.#.2.'.E.O.t.|.K.2.Z.@.,.D.-.m.9.y.I.v.'.|.K.j.M.Y.F.s.$.O.&.6.j.j.T.B.O.f.'.D.*.7.u.l.$.n.1.g.b.b.f.G.1.g.o.| `.5.,.k.M.z.oX]./.&.r.O.p.k.:...o.).m.8.",
"L.G.[.f.N.G.|.l.s.T.D.>.N.Y.4.5.a.j.j.1.1.M.].t.;.B.b.b.x.b.4.S.3.F.Z.1.$.D.C.E.P.f.n.1.P.L.I.n.F.L.Y.r.:.x.f.,.v.T.P.f.3.7.l.B.XXS.b.f.{.<.d.c.4.5.2.-.v.m.c.{.v.;.N.y.y._.E.K.p.D.T.f.O.j.f.g.r._.'.f.#.-.a.I.C.2.g.G.;.'.`.O.B.P.`.`.S.C.v.{.e.-.L.S.o.M.j.2.K.b.O.G.3.$.T.U.k.8.>.H.Y.U.U.S.v.5.F.T.,.k.T.5.$...-.y.tXY.v.'.Y.x.:.g.G.a.a.;.| 8.x.U.p.m.OXU.z.K.P.1.,.j.:.M.oXT.-.M.{.g.n.m.x.[.I.#.6.O.-.4.b.4.<.v.).<.5.Y.Y.b.f.o.o.m.7.[ X.j.r.,.l.*.h.O.h.8./.[.N.[.u.;.=.'.p.s.j.N.m.>.4.U.b.c.G.v.,.{.oX|.G.>.'.P.>.c.B.-.*.}.[.s.f.8.s.h.p.8.y.e.`.t.l.k.P.k.y.8.s.r.8.B.P.P.Y.:.i.=.j.O.O.:.%.r.M.0.X.2.^.P.S.N.3.z.M.t.p.8.t.M.;.a.m.oX}.-.&.].P.N. XR.L.3.<.J.l.o.m.-.4.{.tX_.@.<.y.N.I.I.j.X.~.[.`.D.Y.5.K.h.c.p.D.U.n.3.T.T.1.-.L.1.8.{.K.Z.5.,.d.d.T.1.a.%.o.-.v.oXoXC.} 9.V.;.C.G.:.2.6.b.k.p.I.N..XoXT.x.j.`.N.f.s.x.U.O.:.B.9.8.P.2.{.f...+.O.e.D.4.M.;.L. XS.1.B.|. X&.>.5.U.{.Y.=.N.r.+.-.%.Y.O.@.E.}.%.{ j.j.",
"r.5.o.s.G.S.(.<.+.Y.T.x.r.m.a.v.'.Y.G.x.b.V.m.{.>.p.k.I.`.j.&.O.;.j.`.N.;.m.{.3.>.r.-.v.j.:.b.,.>.&.k.j.;.G.F.Z.j.s.x.T. XN...N.h.f.`.U.'.M.O.@.8.:.D.s.S.h.>.Y.k.>.U.2.#.+.r.b.3.{.'.5.I.L.2.5.4.h.f.J.k.S.I.c.x.c.c.U.Y.{.'.U.5.5.b.f.4.b.X.X.>.I.a.v.T.b.v.a.s.f.a.O.x.:.s.x.U.D.c.b.p.H.v.l.q.c.c.H.6.K.`.<.J.,.,.7.[ B.p.*.M.6.n.h.j.n.a.S._.'.p..X`.z.=.*.5._._.[.5.F.../._.N.,.[ } a.x.k.d.&.z.z.p.J.E.S.&.`.L.2.o.#.h.v./.U.6.,.`._.Y.Y.S.C.k.O.p.,.j.4.:.:.k.2.2.P.T.$.7.0.8.p.k.Y.G.c.>.c.z.U.1.>.3.$. .!.p.>.t.P.C.$.r.<.p._.h.,.C.G.k.E.L.D.x.O.8.f.r.t.t.M.h.j.h.t.s.r._..X2.5.D.l.*.h.1.N.U.K.P.h.O.r.C.&._.Y.a.&.z.2.:.;.7.P.a.<.w.(.k.a.M.&.r.M.].[.{.F.J.1.L.J.;.O.y.tXXXO.5.H.8.S.T.b.J.T.f.&.,._.`.<.J.z.<.t.%.`.F.f..X`.J.;.p.5.x.M.B.>.k.L.Z.B.`.z.5.'.|.T.s.r.!.T.k.6.,.6.g.1.p.2.F.Y.'.`.c.D.7.} 8.&.E.L.x.J.b.z.r.p.O.a.4.2.g.O.Y.h.'.A.,.4.D.U.J.4.e.oXtX:.B.oX}.4.<.v.2.z.L.P.@.o.&.K.R.m.g.#.m.tX'.a...n.",
"r.p.a.I.U.E.$.6.t.X.r.v.:.x.D.d.'.F.G.P.D.1.r.h.F.K.P.P.H.4.f.;.k.O.m.p.c.O.[ d.f.tX X1.B.N.x.4.:.s.%.1.f.p.f.-.N.2.>.].|.5.s.G.<.6.a.D.2.{.T.+.s. XL.b.<.I.`.Y.2.5.:.p.3.4.n.#.5.[.N.c.U.Y.m.@.p.o.O...%.k.6.x.b.3.x.x.f.I.v.T.T.'.U.x.v.I.J.2.<.;./.;.1.c.I.d.c.Y.Y.F.T. XS.p.<.D.2.g.U.v.>...2.H.B./.3.,.V.d.@.b.H.T.g.,.Y.S.e.4.<.x.U.B.B.}.f.F.j.).R.5.<.;.6.m.m.p.p.Z.2.(./.2.2.f.>.n.U.Y.5.G.M.G.;.I.oXoX2.s.P.G.T.L.'.b.N.k.M.8.m.k.2.x.oX'.K.%.,.c.c.Y.B.r.j.p..X[.;.u.r.f.N.I.D.G.k.3.k.Z.x.;.$.k.O.b.T.$.,.p.k...B.h.*.a.s.O.#.T.oXK.{ ]._.4.-.v.@.F.<.;.h.e.N.N.`.|.|.Y.a.m.U.k.y.+.$.%.y.h.h.!.y.*.'.E.k.O.8.m.O.l.1.@.k.T.H.1.l.Z.l.+.p.c.6.I.{.3.Y.{.I.;.:.4.%.r.F.2.{ 0.O.D.C.4.n.r.N.:.=.G.4.x.5.t.I.r.8.5.5.T.L.*.H.Z.l.G.4.v.O.-.,.s.<.b.o.y.J.;.s.<.<.N.:.<.&...;./.Y. XA.p.z.I.4.;.m.r.e.r.B.f.2.Z.5.@.u._.6.c.c.s.p.4.v.c.5.1.^.M.^.M.y.j.T...;.N.n.2.&.8.r.h.o.8.O.p.a.q.C.3.r.#.I.g.2.I. XU.N.I.:.y./.a.I.N.",
"I.Y.c.1.s.!.8.R.T.G.h.b.d.v.G.>.O.5.,.p.T.J.S.@.s.b.U.K.K.4.n.b.J.F.4.T.c.F.f.:.+.9.[.Z.G.T.x.3.z.I.N.3.1.r.m.n.T.K.v.^./.5.Y.'.Y.1.C.j.4.{. XJ.0.!.v.b.3.z.k.I.d.,.b.f.*.D.G.S.M.~.,.<.P.J.I.F.s.2.Y.B.8.o.1.B.-.J.$.3.2.,.>.N..Xc.U.'.5.<.G.<.B.v.Y.U.x.2.J.B.I.x.4.,./.XXoXS.,.`.'.4.>.b.-.:.|.'.p.;.f.z.J.S.S.3.f.U.H.N.P.T.E.6.z.j.%.r.x.T. Xx.5.t.e.5.%.1.H.$.G.T.p.+.l.k.C.T.J.5.c.j.v.6.;.x.G.1.n.m..X`.>.b.'.z.[.}.'.L.Z.5.L.G.p.d.%.v.oXtXp.3.n.h.T.F.U.a.$.^.`.G.'.Y.Z.F.>.4.&.`.T.b.S.|.U.3.S.U.z.r.P.H.4.g.l.<.c.T.5.3.k.p.b.^.XX|.v.{ o.@.2.Y.h.O.4.p.U.K.D.Y._.XX).r.H.R.N.>.m.4.H.j.X.1.a.O.J.x.S.[.$.$.@.+.k.4.h.B.:.|. Xf.f.|.oXL.<.n.c.'.T.:.O.8.X.f.&.`.l.>.M.oX}.@.a.R.T.'.Z.f.1.E.W.8.d.1.4.'.5.D.k.3.K.H.P.M.X.O.Y.U.I.L.{.Z.>.r.>.6.N.+.j.k.&.4.N._.v.4.T.^.&.<.r.i.4.Y.N.4.J.M.8.1.K.F.D.,.f.g.b.n.+.o.D.x.O.c.4.I.x.4.g.H.2.f.O.s.s._.y.6.5.z.,.;.r.@.6.`.m.3.F.4.U.$.G.'.Y.c.H.z.,.w.'.L.2.s.6.Z.H.4.I.c.",
"c.d.F.2.+.;.5.B.s.N.D.F.<.>.j.D.N.2.c.d.@.a.F.x.Y.v.z.D.y.O.>.5.H.c.3.B.B.z.5.1.b.+...<.m.o.<.5.1.j.U.c.N.M.Y.B.^.|.D.<.-.Z.P.(./.N.K.>.V.M.u.4.p.X.;.Y.Y.j.f.s.G.<.G.'.|.j.j.Y.Z.:.-.2.I.g.U.a.;.D.'.K.T. XU.F.j.@.c.c.F.k.l.Y.4.l.T.G.l.r.8.s.I.x.G.4.b.s.1.4.n.d.d.d.<.&.7.7.:.M.p.4...>.4.k.M.,.4.T.K.*.E.E.C.I.,.#.3.>.p.:.M.I.b.Y.{.P.l././.v.J.6.u.;.x.b.M.'.E.y.a.G.T.Z.t.^.H.1.B.J.6.b.l.M.U.5.5.0.8.F.5.>.t.z.2.[.{.T.c.I.:.G.G.-.O.9.XX~.,.5.H.O./.T.N.L.L.&.<.$._.v.r.`.-.1.v.h.g.A.z.[.U.Z.q.@.A.3.B.4.>.r.T.4.j._.<.b.[.{.2.s.+.^.Y.T.K.,.j.:.4.5.K.S.^.^.g.K.&.=.O.>.f.|.J.Z.`.4.8.O.m.s.3.Z.:.N.j.`.P.T.6.g.&.c.K.C.f.~.XX/.q.OX).V.;.p.4.-.Y.P.1.q.<.F.T.N.s.G.O.].oX%.@.@.P.].l.3.j.[.|.6.5.z.;.M.a.3.D.l.X.q.8.S.T.7.7.+.B.G.^.-.T.'.I.T.'.P.z.Y.v.c.Y.'.H.Y.e.}.oXc.>.k.<.z.N.3.1.K.K.G.T.*.;.c.3.U.I.c.F.6./.I.J.2.c.H.x.f.>.5.4.6.G.6.M.`.O.>.>.b.j.1.D.G.r.v.b.:.B.c.J.4.8.M.v.Y.5.5.Z.o.[.{.Z.+.O.`.A.F.P.G.",
"'.n.b.H.T.3.M.s.B.>.n.U.S.B.B.T.>.Z. X|.U.:.g.U.:.C.U.F.&.S.{.v.M.j.<.3.j.a.<.x.'.E.v.v.E.P.z.l.a.I.v.j.'.Y.Y.4.m.i.D.<...x.-.s.v.>.&.A.M..XS.c.x.Z.S.B.H.4.L.G.p.5.p..XoXx.-.`.J.Y.|.'.K.g.c.I.p.8.n.>.6.}.tXR.:.&.f.F.H.I.M.8.r..X[.p.k.x.F.P.U.C.T.x.x.G.L.G.;.*.K.&.M.E.Z.b.p.a.@.v.G.1.,.O.+.,.[.oX Xo.~.(.3.r.J.*.N.5.<.G...n.`.`.oXoXK.z.V.{.:.m.@.Z.$.p.c.M.0.n.n.R.'.6.+.O.O.:.4.:.>.U.E.Y.1.5.T. X&.r.b.A.{.{.;.B.].p.@.%.Y.&.&.L.R.+.X.:.L.D.S.H.0.z.1.7.M.4.G.B.b.C.$.O.I.D.T.T.h.h.4.U.x.5.I.f.>.O.;.2.B.X.p.5.#.r.2.a.<.#.x.1.+.f.V.M.T.H.m.I.Z.j.O.8.;.O.j.f.x.D.I.c...i.;.4.,.*.&.G.F.4.x.1.f.M.j.M.y.>.'.Y.#.m.f.<.%.e.o.2.%.w.-.;.N.O.1.T.*.@.v.U.5.3.'.E.4.M.T.#.n.f.t.O.p.s.h.q.;.h.8.,.Z.b.B.a.j.o.6.L.<.<.a.k.T.L.A.Z.p.r.$.5.<.I.N..XoXb.I.P.,.F.T.3.<.a.f.,./.b.4.1.c.x.Y.p.k.'.H.x.s.V.n.d.j.1.F.L.'.N.4.g.k.p.n.,.>.g.s.;.`.@.H.n.^.U.:.H.Z.<.k.v.3.n.F.b.H.F.5.b.>.F.1.l.`.C.1.q.G...~.i.5.D.t.s.'.R.'.`.",
"T.L.<.>.r.>.N.c.U.U.1.>.I.D.U.5.v.1.~.).[.$.*.].T.,.,.1.1.k.'.k.$.I.g.L.T.K.H.2.:.v.f.B.N.T.K.1.b.h.r.<.P.oXP.5.D.S.S.5.z.P.G.L.U.Y.+.8.I.&.T.T.C.5.d.I.1.;.O.Y.a.c.s.].P.3.c.M.a.y.XX`.T.K.D.b.L.J.@...M.oXtXr.<.K.O.Y.U.Y.G.Z.N.B.<.'.U.b.L.d.>.,.j.T.H.V.oXT.G.a.v.Z.&.^.c.<.K.G.z.H.'.2.Z..X'.G.m.~.{.R.%...q.4.5.j.%.g.S.`.'.J.P.p.9.9.e.J.E.5.c.G.Z.4.t.O.>.g.<.F.,.H.R.S.S.@.3.C.b.U.H.=..XoXV.4.oXoXH.-.c.1.v.T.S.,.] +.S.x./.v.-.h.tX.X&.>.h.|.'.I.3.C.|.Y.,.,.:.v.I.a.K.x.f.j.^.s.j.+.e.h.I.D.'.'.4.N.g.g.v.P...B.n.l.H.Y.{.I.P.}.R.D.@.X.s.f.Y.:.U.G.v.&.J.'.%.C.1.j.c.g.f...1.J.g.h.K.b.Z.I.<.5.Z.:.1.p.M.`.8.O.1.z.>.a.l.k.,.3.Y.n.Z.D.U.Z.%.{.Y.`.F.5.5.+.[.T.T.+...b.A.c.H.L. XJ.3.J.k.3.3.D.Z.G.F.J.U.L.t._.J.<.5.Y.S.|.oXI.$.2.2.O.p.4.j.[ B.Z.b.,.F.H.s.b.3.2.C.L.F.3.4.F.Z.H.I.v.B.%.H.p.j.v.d.I.:.4.<.0.y.H.O.r.N.U.T.G.1.H.3.P.oXk.-.T.P.{.M.,.>.b.'.Y.d.p.3.b.I.3.1.v.G.5.,.s.`.1.p.x.*.[.+.O.5.C.Y.[..XoXD.4.",
"'.m.h.k.s.G.G.U.k.1.b.z.b.j.;.s.,.>.K.t.O.-.v.$.#.N.$.z.j.:.%.,.|. X$.p.oXL.p.D.@.,.H.,.>.r.h.U.b.|.|.'.z.V.B.`.p.*.=.p.z.v.k.'.M.&.I.'.Z.2.7./.>.,.J.-.3.J.f.x.G.2.c.+.h.J.6.n.'.,.Y..XP.B.p.6.%.s.k.&.X.~.e.f.z.H.:.^.B.-.z.T.D.>.,.M.g.O.k.3.c.L.2.f.L.2.B.P.J.-.@.5.1.M.d.1.0.U.F.s.V.,.z.k.v.l.&...N.M.E.L.g.l.v.F.4.1.M.m.i.t.Y.f.f.g.f.;..XZ.D.T.n.O.n.c.s.1.4.r._.s.`.^.N.Y.<.#.G.x.x.1.9.).p.8.~.0.m.a.O.1.2.r.a.N.f.3.Z. XS.h.4.@.^.'.@.s.+.N.p.p.s.g.].B.6.F.H.;.a.1.>.1.a.....$.'.E.>.7.%.3.B.q.6.T.H.'.|.'.x.G.P.1.D.T.F.c.v.e.[.[.Z.x.x.-.b.a.&.k.T.H.g.j.>.z.a.b.B.H.T.I.N.z.F.I.j.b.,.l.;.<.>.4.D.U.%.`.n.>.1.1.4.p.3.J.z.x.H.<.n.I.J.4.O.m.G.D.b.-.H.&.u..Xv.,.O.:.J.S.O.y.M.1.2.`.tX}.Y.`.d.a.,.p.B.v.q.m.>.Z.Y.{./.M.^.+.,.f.T.-.j.%.A.A.<.J.<.#.H.V.<.3.*.k.g.&.;.3.5.U.J.D.f.x.Y.M.j.b.x.J.'.K.Z.1.f.a.%.;.%.j.b.j..X.Xx...<.`.`.b.b.a.1.n.F.x.q.3.D..Xb.3.H.z.`.5.x.{.G.1.I.z.6.z.1.P.{.`.c.d.G.E.6.3.X.0.T.x.",
"v.Y.I.H.Z.5.k.1.T.J.>.R.E.U.6.G.J...M.Y.H.c.;.a.<.Y.`.-.p.=.@.b.XXoXL.} } 8.>.g.I.%.h.1.D.G.l.b.`.XXoXR.5.5.v.2.p.:.J.U.+.>.b.X.a.N.Y.{.6.o.+.O.:.Z.t.v.4. X|.S.3.}.oX X..3.K.'.{.:.*.M.+.,.&.Y.Y.%.T. XP.+.2.T.T.L.Y.m.2.L.t.7.2.4.J.'.g.H.$.I.Y.b. Xt.O.k.K.Y.4.E.R.>.O.8.<.C.%...J.%.O.b.N.N.p.Y.T.&.;.V.y.M.D.N.B.F.f.r.o.:.g.G.a.s.1.Z.x.O.7.$.D.+.s.V.n.K.5.6.4.M.m.B.&.s.V._.v.;.j.<.<.&.&.8.J.r.>.c.N.5.p.v.T.:.1.F.Z.<.<.'.E.z.B.Y.,.2.B.1.a.k.1.G.>.<.%.+.n.U.z.b.I.j...G.L.6.n.B.G.K. XE.K.%.=.$.a.l.J.y.XXP.U.k.h.G.P.Y.z.<.#.g.v.j.2.j.v.c.U.B.v.P.N.4.n.s.f.c.<.a.4.v.N.Y.v.f.b.f.B.g.;.S.1.-..X`...U.k.'.l.x.H.5.F.P.j.@.F.x.B.U.c.f.-.H.b.p.N.U.,.,.,.j.7.7.:.Z.P.m.[.|.S.k.z.n.n.r.)._.%.p.x.4.Y.t.a.6.z.P.1.6.}.XXj.O.%.I.M.[.:.z.J.U...D.;.8.c.Y.v.<.c.2.s.+.p.:.c.4.&.m.s.$.Z.K.G.=.s.I.G.v.j.1.,.<.5.U.h.a.1.g.6.H.u.{.3.a.<.d.6.@.1.Z.`.x.<.H.l.>.1.T.U.`.F.Z.x.c.H.Y.U.a...4.5.b.1.M.Y.G.`.Y.M.M.j.L.A.8.{._.",
"<.`.3.x.U.#.b.%.m.H.K.^.{.K.b.8.z.H.s.N.-.:.Y.K.4._.N.5.Y.oXT.f.8.!.T.S.C.@.5.g.3.f.1.D.M.{.P.Y.S.o.o.8.;.|.E.5.U.J.>.8.s.@.,.Z.1.S.;.T.S. X3.-.1.k.L.Z.h.i.tX{.<..XXXk.3.d.>.,.Z.T.p.O.@.U.I.P.:.x.@.XXoXB.,.O.}.T.P.f.K.}.oX>.a.<.-.v.N.4.J.O.=.a.r.S.f.X.O.;.U.'.S.x.'.`.F.P.T.&.k.P.x.4.'.{.U.h.!.|.J.>.q.t.6.B.m.B.v.H.G.U.U.;.x.x.c.F.N.x.a.v.x.Y.N.Z.F.g.n.2.3.F.-.c.g.a.[.O.O.f.b.1.>.v.I.:.j.G.j.4.P.U.F.r.[.Y.`.c.<.4.7./.'.K.X.+.I.L.c.4.{.{.D.c.'._.C.J.F.x.D.g.S.'.J.r.P.5.5.f.T.G..X_.@.,.R.*.@.@.G.f.O.J.Z.<.<.Y.j.>.5.J.L.A.Z.v.5.H.U.K.4.g.Y.j.f.B.j.g.Y.N.5.2.4.r.X.j.,.;.p.v.`.|./.;.b.3.}.'.a.x.N.Y.G.f.@.<.I.{.Y.>.d.B.B.J.,.U.K.x.z.;.M.F.<.P.v.'.m.#.S.D.Z.I.(..XY.F.L.R.c.:.O.;.<.c.2.f.M.f.n.J.K.S.Z.b.k.f.a.1.x.B.Y.N.p.O...j.r.8.B.>.Z.P.].2.5.5.Z.5.Z.F.3.U.k.o.>.6.h.m.N.J.I.v.f.>.:.O./.3.4.I.`.Y.b.j.j.v.g.j.O.j.G.1.a.D.L.n.>.3.p.x.G.I.O...2.R.`.Y.>.p.p.1.T.H.s.:.O.f.b.H.;.x.k.1.s.@.V.{.T.U.%.,.",
":.S.S.X.p.N.v.E.I.1.Z.g.H.Z.F.:.;.,.d.V.b.&.o.L.-.m.>.<.d.d.@.*...O./.v.|.J.p.M.I.4.$.s.p.o.O.b.j.b.Z.H.;.u.P.n.g.a.8.p.T.>.n.z.-.M.N.(.M.8.U.'.O.d.B.a.2.%.9.p.r.o.8.O.n.O.v.Z.e...f.I.5.>.'.E.B.b.D.s.N.h.a.+.r.r.p.@.a.M.y.-.F.n.n.:.j.+.6.F.O.,.@.Y. XK.2.p.>.8.p.4.c.5.'.tX.XF.I.h.l.G.Y.1.>.n.*.M.[.n.5.G.3.b.j.&.H.T.g.v.:.j.z.,.z.x.`.T.Y.2.I.b.f.f.6.d.s.=.;.z.>.x.Y.a.Y.a.k.K.6.x.j.g.D.J.B.H.x.4.K.x.Z.:.m.v.Y.3.-.K.&.~.].1.1.z.q.R.D.*.&.%.z.,.[.tX_._.M.h.2.2.v.V.d.p.m.a.x.{.[.M.:.m.@.<.P.F.c.H.O.L.L.d.B.<.5.x.6.c.a.7.e.r...:.,.x.'.g.2.G.N.f.&.f.`.G.T.'.F.f.@.b.f.p.%.j.v.x./.oXU.6.#.d.P.>.G.z.v.j.F.U.f.>.5.`.'.k.H.4.U.c.4.[.'.2.4.Z.4.3.1.>..X'.B.B.B..XF.<.*.{ t.H.S.`.T.T.K.1.'.T.:.<.@.,.>.f.d.:.<.;.@.c.Z.L.F.N.'.G.F.j.F.J.T.H.f.6.A.D.[.[.2.[.N.j.v.z.I.d.,.x.1.p.A.U.@.N.[.{.v.<.E. Xk.G.I.3.F.G.Z.4.b...g.g.1.4.Z.3.F.=.%.5.5.B.XX.X-.x.4.C._..XL.D.K.F.U.Y.s.G.*.f.s.b.x.Z.U.c.z.F.Y.P.1._.XX`.x.D.",
"U.U.6.U.j.x.K.x.}.O.X.t.Y.B.F.E.Y.*.r.V.$.U.8.@.H.r.z.J.Y.Y.f.'.R.t.5.+.9.C.J.N.b.H.N.8.j.U.J.z.x.z.v.Z.a.+.O.J.C.O.Y.4.G.H.6.4.J.6.>.,.p.N.M.r.d.6.3.,.s.r.2.>.`.:.U.P.J.D.r.'.Y.H.H.x.n.O.`.T.J.&.*.4.F.G.H.T.T.U.n.N.:.:.;.n.F.Z.g.'.Y.f.s.'.Z.d.c.Y.P. X|.Z.$.2.$.8.a.Z.&.~.`.F.c.1.G.k.D.4.1.&.x.H.b.>.4.H.D.K.K.G.p.j.B.>.N.j.I.j.;.x.%.r.Y.f.;.b.v.'.M.a.G.H.j.oX[...G.Y.'.N.a.c.f.`.`.n.<.s.n.B.I.,.1.j.`.,.&.`.c.:.h.s.Y.X.+.1.Z.G._.oXoXI.c.F.4.f.8.i.s...6.4.G.P.t.1.b.F.J.4.N._.^.s.O.k.`.[./.>.,.S.b.+.:.8.w.x.`.j.<.c.<.1.1.H.c.I.N.r.8...1.G.Y.G.k.D.j.k.&.O.a.d.<.b.I.f.v.:.f.k.g._.c.&.:.d.,.>.2.F.z.H.-.1.H.x.:.>.H.'.I.G.j.<.f.M.T.Z.p.p.,.F.4.j.s.2.G.N.h.m.-.{. X}.s.s.q.c.v.N.a.%.y.].|.F.U.4.>.:.c.v.>.G.D.&.'.`.<.f.`.L.,.N.$.Y.v.4.N.8.X.:.I.U.'.N.f.|.M.b.3.z.I.f.j.s.M.N.;.I.P.G.F.d._.|.T.*.>.6.J.`.v.Y.H.1.O.I.5.%.,.5.%.T.2.:.D..XtXY.>.U.V.r.Y.{.k.f.p.f.N.p...2.G.T.Z.f.L.1.c.F.s.O.U.`.,.4.m.3.z.>.",
"O.N.<.G.1.#.7.q.r.T.N.X.8.s.I.^.:.K.'.H. X|.T.:.Y.f.b.K.T.Y.U.=.W.oXG.v.D.-.d.j.*.t.L.K.M.`.f.>.f.j.F.N.J.J.z./.N.U.F.4.5.2.f.-.6.x.4.`.;.`.l.&.j.2.4.j.x.A.v.j.I.n.3.D.L.Z.;.m.B.Y.b.5.F.$.h..XH.r.+.3.J.J.>.m.[.4.6.T.oXP.L.Y.j.5.2.g.Y.K.@.u.3.5.2.`.`.[.~.+.#.S.L.o.y.2.T.l.4.I.<.-.U.a.<.4.S.T.S.p.3.Z.L.L.K.C.g.Y.j.N.f.z.Y.U.U.4.F.<.j.0.a.@.:.j.x.P.oXU.#.6.3.`.`.4.G.j.B.T.N.@.3.I.{.U.>.N.H.Y.H.<.'.I.3.F.:.j.c.f.k.Y.}.B.-.P.T.4.Y.y.i.T.Y.T.L.b.b.>.>.U.x.>.a.p.N.3.U.f.,.4.z.x.4.4.C.J.Y.S.1.s.O.8.D.V.a.2.Z.K._.[.I.>.U.4.c.b.n.b.D.2.>.b.4.g.N.g.G.'.`.z.,.N.m.b.4.b.`.H.J.F.v.p.j.h.$.&.U.Z.<.2.S.J.-.<.n.`.Y.J.v.O.:._._.J.H.j.2.k.I.U.f.r.&.>.5.`.H.2.4.F.:.f.q.`.{.'.>.P.j.;.c.Y.n.B.8.y.!.H.T.L.I.T.J.U.b.G.j.;.~.j.-.`.k.s.P.T.D.r.:.Z.G.A.D.3.,.g.B.C.*.O.6.J.g.l.G.2.x.z.p.1.:.k.I.g.v.;.X.V.>.G.Y.z.a.[.B.k.C.L.x.3.5.N.G.T.l.7.`.g.:.:.[.[.'.T.v.#.].].+.H.3.h.N.c.H.f.,.1.D.:.-.n.c.D.K.m.>.H.O.s.f.D.<.5.",
"v.M.q...Y.K.;.4.a.M.E.E.A.*.%...,.j.c.n.]..X_.U.N.f.C.R.g.<.@.p.a.B.z.f.M.b.5.N.j.N.Y.J.Z.2.p.b.a.j.1.I.`.T.G.4.x.x.a./.@.g.g.8.B.[...U.N.P.b.M.G.Z.>.`.k.d.c.U.D.`.z.5.>.B.v.1.N.J.,.%.<.v.7.~.2.Z.k.s._.E.1.:.q.a.4.y.yX[.p.u.a.z.Y.>.M.f.d.k.s.5.{..Xy.%.,.P.g.[.d.Z.T.<.,.L.O.s.c.b.j.>.b.2...X.p.$.n.a.p._.s.1.J.T.h.=.p.U.G.Y.N.x.-.a.H.4.r.>.N.2.c.^..XH.<.,.<.n.-.3.2.H.b.3.J.>.<.2.U.T.'.D.U.Y.z.F.}.T.5.p.B.Z.g.3.z.[.J.`./.^._.2.4.C.o.h.p.s.`.'.Y.g.m.'.T.G.n.>.,.,.;.1.a.s.,.,.f.T.U.6.P.{.F.b.H.J.'.K.I.a...p.F.{.Y.'./.I.b.x.b.Z.-.<.n.a.:.'.m.;.[.].M.z.z. X XS.a.4.4.I.f.4.F.n...Z.c.b.s.1.a.D.+...Z.G..X.Xj.,.v.x.D.{.{.F.5.R.I.`.8.a.D.Y.G.n.J.x.b.H.<.,.T.[.x.,.{.`.B.b.K.Y.Y.P.F.3.v.1.%.,.N.L.{.oXm.@.n.k.o.O.e.=.N.].(.;.^..XD.*.p.5.p.8.3.r.:.X.p.k.9.t..X_.G.J.x.O.r.h.d.&.=.P.4.>.v.K.r.+.;.Y.{.'.C.U.x.`.p.-.F.F.;.%.Y.p.-.+.y.I.z.c.,._.N.P.b.O.i.+.O.@.2.{ o.1.O.%.O.q.s.4.s.U.4.G.,.4.U.L.H.>.C.!.b.H.",
"C.U.T.g.s.Y.4.,.v.Y.W.oX_.,.-.K.O.8.&.J.o.r.J.b.-.n.Y.;.v.x.K.C.U.H.1.4.D.D.D.D.k.I.%.B.;.v.U.G.v.1.z.s.X.r.M.%.p.x.Y.{.P.1.Z.5.{.|.r.j.Y.N.'.h.>.:.Y.{.P.p.a.n.I.I.j.l.I.B.z.%.s.B.q.B.h.P.k.+.2.Z.Z.Y.].oX'.Z.L.J.N.O.O...-.4.D.l.N.j.1.K.G.U.Z.H.a.j.a.&.I.Y.`.N.q.O.%.N.+.@.M.$.v./.B.4.5.d.D.F.J.4.F.U.:.$.;.,.a.N.K.U.Y.K.x.:.+.p.n.d.j.`.G.I.f.f.z.v.v.l.O.v.f.:.x.x.F.,.D.p.n.G.G.@.O.*._.Y.U.f.;.p.p.I.T.:.:.$.x.H.v.:.b.F.f.s...j.{.|.'.p.j...j.f.b.>.p.r.(.{.R.T.4.d.G.U.v.1.J.D.l.{.z.n.b.J.F.l.G.$.p.f.b.I.:.O.j.v.U.I.6.v.B.a.b.,.`.U.J.1.O.s.f.g.`.M.j.x.8.(.[.l.&.%.M.^.`.M.G.1.&.&.H.:.:.G.f.l. Xh.-.D.oXoXS.I.{.@.m.oXh.>.1.V.x.v.;.>.4.J.H.p.x.H.>.U.v.$.:.I.,.j.r.&.G.I.z.v.k.:.v.x.1.H.U.:.O.`._..X{.p.H.v.t.q.z.].oXM.8.*.h.r.+.j.j.8.8.8.M.k.k.r.8.X.X.[ (.^.r.1.:.k.h.8.:.t.{.oX_.k.:.>.D.J.'.G.G.Y.U.,.G.%.p.1.1.n.n.<.`.{.k.v.b.,.c.n.v.v.v.k.Y.r.O.8.:.:.O.j.&.2.k.t.r.k.N.j.b.....>.b.S.,.{.{.;.U.;.4.F.",
"k.N.v.p.O.p.f.v.{.[./.m.r.O.@.'.4.1.f.p.T.4.z.z.,.n.,.>.x.O.r.m...:.:.f.U.'.g.x.Y.Y.j.j.v.G.Y.'.U.c.3.c.v.O.f.,.j.b.f.oX{.z.-.z.v.H.U.c.3.c.c.U.6.,.F.U.'.g.x.F.U.b.4.T.T.6.c.F.4.5.c.f.'.'.Y.j.M.'.F.1.p.) _.P.Y.T.U.U.I.h.'.M.$.%.@.n.b.n.b.;.5.1.z.b.F.J.D.U.`.N.b.>.f.U.U.b.4.Z.J.Y.'.Y.j.{.z.b.4.c.b.>.n.n.3.Z.I.B.:.Y.[.`.<.G.'.G.D.K.H.I.U.I.x.H.>.x.1.:.c.U.H.x.-.-.4.5.j.^.{.v.b.N.p.c. XT.J.K.H.I.U.g.I.f.p.a.a.b.b.'.5.c.H.H.B.>.G.'.U.f.Y.z.x.U.U.b.v.:.8.&.D.D.T.'.T.1.U.b.I.8.8.7.1.I.{.M.r.{.'.K.z.4.Z.F.T.1.1.$.G.Z.L.:.&.G.T.x.Y.%.O.N.n.:.O.r.S.G.%.v.o.} } X.T.Y.&.h.Y.N.x.2.I.f.:.:.U.v.k...| [.z.4.j.N.'.`.J.#.s.].X.b.Z.-.r.v.J.F.;.O.v.H.-.-.F.F.J.F.x.U.n.@.v.k.'.v.,.1.I.'.b.v.>.b.I.N.O.{ ^.[.{.p.+.h.l.X.O.!.oX^.w.G.:.&.S.l.{ { =.M.m.o.p.o.r.o.y.e.i.y.+.O.a.&.h.m.8.o.^.^.r.r.O.r.:.j.O.p.%.....,.t.G.:.v.f.1.3.a.j.p.v.b.<.3.b.I.b.x.v.U.f.%.%.;.M.N.&...r.`.`.P.G.H.J.1.-.4.<.3.#...d.p.p.B.v.<.f.f.",
"y.7.r.r.m.y.o.y.OX!.0.[ !.y.[.!.$.2.k.o.+.r.[ 7.^.m.r.h.r.o.7.9.r.o.m.o.r.X.o.h.`.r.h.8.M.N.t.r.o.a.O.p.`.s.s.p.r.p.h.^.^.s.+.8.8.O.O.O.B.j.p.p.N.p.r.t.h.`.P.M.l.p.l.h.M.Y.o.r.&.%.%.8.u.^.^.^.r.y.7.[.P.P.o.0.o./.h.M.r.o.!.].`.h.m.8.+.O.s.s.O.r.r.s.`.P.r.t.'.M.h.h.P.Y.M.j.r.o.[ r.`./.^.M.N.P.a.N.r.m.m.m.8.o.M.y.%.`.`.M.a.p.{.|.P.o.%.p.P.h.j.Y.h.+.M.k.%.+.%.o.Y.&.+.v.`.tX].s.O.M.t.p.[.`.p.%.k.M.h.{ *.S.Y.f.1.G.l.*.f.r.=.G./.m.k.M.M.h.M.Y.N.j.r.k.h.p.M.p.O.P.}.|.oXy.r.j.h.&.l.*.Y.`.u.^.i._.P.l.+.h.l.+.o.M.r.&.X.m.7.o._.tXu.M.l.m.y.r.&.r.r.^.P.y.8.e.y.} } y.~.].^.u.u.M.y.0.o.M.r.o.o.`.e.o.&.2.:.:.*.r.M.t.`.j.r.=.p...&.8.o.r.o.o.O.r.o.r.p.p.%.h.r.=.k.`.{.&.p.o.7.o.P.r.r.o.o.m.r.m.7.[ M.o.7.i.7.y.7.7.e.y.o.y.~.{ 0.O.y.7.7.7.].!.].} y.y.7.X.7.y.7.e.i.^.8.[ r.e.e.y.%.r.{ 7.o.o.r.t.8.X.X./..Xs.O.o.]._.P.{ 8.'.t.X.) %.m.m.v.p.h.&.N.r.o.P.t.e.r.r.9.e.%.t.y.y.[ t.M.o.o.k.:.;.p.p.1.p.%.g.'.N...,.Y.:.",
"N a a F N 4 4 a p y y a F F F b 3 3 a F 9 n y 4 M =XD 4 4 a 4 a w e N a 4 4 y 3 a F 4 G G a u y F F u a T / S N a a 4 N N $ a F 4 e 4 4 3 3 y F F N N 3 2 N J D F y 3 a F N a 3 4 4 y S M w 4 y 4 F e &XU / 4 G a 3 F a N y w D / p T N N a H T N C y e Q.4 a J a N F F a a $ y F P y u $ a N 4 4 4 4 a 4 T F 4 N 4 4 e a F J 4 a 4 J / 4 F u e I =XN y a N 4 4 a N F y a / / 3 p >X5XF / / # I fXy 4 u 2 N N 4 4 3 b y y 3 4 a F a a 3 N 4 b 9 e S a u a a a F a 4 a T e w / F 8XY 4 a y a 4 a 7XeXN y y a 4 3 y 3 4 a F F y y y 4 3 e e U 4 4 3 4 a N u 3 F 0X>Xn z 4 e 4 / a I , j 2 2 e 4 e 4 y a 4 F Q.F F s a 7 L b M C 4 N a 3 p 4 a 4 4 4 3 T F u a F y y 3 3 3 4 4 $ / =X4 a N 9 e G I $ 4 y a a 4 3 J G 4 9 e 3 e n N r 0 4 F D I w y a y 3 # D &XI b 1XJ N N N N 4 a F a y y a Q.^ >XN y q w 1 F / e 3 e e Y / 4 4 4 0 9 e e   p e 2 e G F G s a e a a y 3 4 a y ' I e 3 3 F G F a T 4 y 4 F F y a y 2 N 4 y Q.9 2 N N 4 ",
"6 < 1 9 , 0 , 5 2 3 m w r R P 9 C c A D m j 4 , 2 S 4Xx *Xm B w 5 S 5 = j 8 7 q U 1 V ;X=X9 1 C I D 9 e q b 0 8 0 Z % 5 z 9 0 < , 0 % : % w W 1XY = j q M ! R j 0 M n J j j M j m b j j j w 2 3 b +X5 7 =XT j n Z M A K V j j 1 r 0 j j ! 3X> q n D 9 > 0 7 B >XW 6 ;X+X5 j , q r > 1 t 2 w n M : n +XB n j j , a e 1 6 7 q c 8 w v > - 3 &XA n A C A q 5 j 5 , 9 q M j   q S q 2 8 C U J C - V B % 1 9 % 5 6 q 0 % 6 7 q 1 9 j z 2 q k b w < 2 I C 6 8 < k R k 6 9 B V 6 & 6 ^ J D 9 5 w b j < K 4X, 1 w 2 1 k 5 q 9 w z j 5 5 > k 0 9 0 b B # & y n j q 0 0 J e 5 k 0 1 0 j o w 9 O > 9 J a $ 9 , 5 0 q % < q q 5 k k N y 1 S p q k 8 k C k 0 1 P ^ B m B j < , , 7 7 , 5 , > t m 8 9 < m P q B m n C P 9 M R < P B 7 q 8 z 0 O Q b 8 E uXj M e 2 N D b 1X9 3XW r 0 w 5 & 1 9 5 0 7 = P $Xm A 9 S M , , 9 2 1 k k r 5 A 9 : , p 8 % a ~ j , 2 B dXJ o A K j 6 q 8 m x 6 m k 6 e 0 6 5 1 w , & < 5 q > 1 z I n V w r 7 = : > B 2 , ",
"A y 1 w A b 9 e 3 N R , q Z M r 4 a e w 7 b C k $ e n P D O ~ m 9 w O Y y e 3 w w 7 Z J z q 1 A >XS > 3 3 F I n m v r 1 w e 1 e 2 3 M 0 , 0 eXwXn M ~ b 3 T / e 2 e e n 7 O k m e e 4 a 1 4 9 3 4 J 0 9 b b m Z b M Z 1 w e 4 y M 7 n ^ U 8XJ 0 n 4 a w 2 Y >XM D y S D > w e 3 1 9 A a b e e 9 % D 6Xn 7 > N A q 5 0 n *XQ 3 e 3 w b e n I ~ Z 9 > Z 1 2 > y e > w &XZ 0 1 9 9 z m x J 9 J b > 1 3 > 3 y r O 1 % 3 M M e e 1 , 3 2 9 0 ,X&X2 e , e y M b 2 2 w M q 4 # 7 A O n 4 2 M w e a y 7 ! 9 $ e e y w > S M <XI 9 R z 0 9 L n 1 e S P 2 = w D Y B e e 0 $ 2 n B 9 1 2 0 6X! , 1 q $Xb Y O M C 7 > 7 7 D F e 2 a a q % n B 0 q A N 9 < j b A 2 w q m 0 y a 9 e e 2 e e O I T 8 2 $ y m w =X-X+ b 0 2 9 O : j 0 # 1 b = 2 3 D 9 b D ! 9 2 0 9 M 7 2 w z C j b 9 9 , 2 > q q 7 > N n w j 9 q ^ Y > 9 1 , M y 1 e N Y , , < M P n 9 KX&Xo e e uX<XX j q 2 9 w e q 0 b 9 1 1 , 1 9 1 > e 0 2 9 1 b e X Z M 5XB 3 2 3 5 r b K b M ",
"C e Y A Z B n A + n P + T R b b %Xm b 0 , j n N 0 1 % M 2 j O 5 n j v S 1 9 b r 1 7 j B w 9 b 8 Z 5 m A 5 n ~ S z > M w > 1 A b A , q *Xz 7 q *XQ I J q 0 uXz 2 k & w B 7 e O 2 3 b % 1 j B q v 9 y e 9 r k I a 1 3 y I B y 2 x P w O M B +X~ 9 q b q 1 < :XwXn 2 0 1 w 2 1 2 2 w Z m 8 8 q q 9 b 9 Z z 1 1 < z Z v , b <XQ w n 0 8 7 U , C = > t 3 e 0 1 9 9 3 r B A 0 n j 0 5 M M v w w w w e 7 q B 8 2 = M -XF b n n r > t r r 5 > > V A 1 m 9 9 0 Y v > w w M B 2 D ~ e M 1 j 6 k n 5 : b 9 n ~ &X8 C w 2 q 1 R &X0 ;X+Xn B k w $ j j 4 e x 9 ^ Q ~ Y 0 9 k 7 5 J w 5 w 0 b Z a 9 0 , 9 O 2 O t 1 r 1 U Q n z S N r w k 0 3 1 j J U e 5 0 2 Z B v v 9 1 0 0 q 5 w b 5 0 b 5 A w O v A , 9 1 M b 0 , 1 r 1 q w 9 b 1 % r n 7 5 q 1 t J b 9 5 T T   2 N o e z 1 1 q z # B Q 3 7 r m 9 b w 2 0 5 j I > n 5 > 0 b 0 w e O , M I q j 5 8 U M 5 V 9 w r 1 1 , 9 Z 9 j r e w w 9 M q 2 y 2 7 < 2 2 , q q j v v 5 < 2 2 O 4 2 2 N S b b ",
"D F eX>X+ b C N 9 0 2 D Y ! J w 7Xb 2 e 3 w O 3 9 q 0 z M y > 7X&Xb 0 w n n q 9 w w Z q w 0 M q > 2 T R T Z C n F O 1 e e 5 1 N Z X # e z 3 w r D z A j 5 9 1 $ 2 4 5 3 > 5 2 e x 7 b 9 q 9 , r y J I 5 > N A 0 w 3 1 A q w w m v O e o R S n n q q B M 7 Z ^ % 0 z 0 9 w q Z A F 9 D e 4 > M p 2 w m Q % > 0 m b w b 0 w , 1 w w r r 1 O ( n % > w ~ n m , z b 0 2 + 1 w w 1 w e a e 1 I n q 0 w e b w v e Q w y b A j w 1 5 9 1 9 e 3 O w S 1 7 9 A M q *XA y D A e n q O W 8 > w 9 r 5 m ~ 4 B ~ =X5 B 1 e ( w U R C >Xb w 0 0 $ > 1 e w 9 6 w ^ M a 7 C $Xy , 1 > > n 0 0 > V J > $ e D j < 3X7X1 , 9 >XvX1 6 Z N q 0 k q F b 5 j X 5 n , $ > 9 b > 2 3 w 9 O w J I ^ 9 q 1 - > 4 k E 1 7 , 3 q j q 9 w z q # n e 9 w 0 9 w Z w q r > = 3 5 k P 1 > > R ( & 2 8 , 5 o 9 I p 9 9 q m + 7 N # 1 m 3 2 O < 1 9 & O = b 9 9 n b 9 y D 9 , , w w x 3 q C 9 9 6 3 0 9 w U 9 w q I q w U 1 n q 5 , M n 7 7 C Z = M 3 8 < r : : & / 1 2 ",
"A Y J 5XZ b n 0 w , b 0X+X0 M 0 M 1 9 0 1 5 n Z n w w 0 1 , 5 Y U > 9 > n Z 0 9 , &X0XZ 0 1 0 0 M B M Z b 9 > 9 j 9 9 1 q w 9 Q Q n 0 w % n M b Z j b Z 1 5 9 9 1 5 0 O j b 5 M A M 9 1 % , 9 9 > I <X5 q 0 1 0 Z A > 1 j n j 1 , Z A 5 > 9 > j w w 1 0 > U n b 1 w b q > b D -XA b &XZ b j B j 0 n b n 0 1 M Q -XY 0 0 0 9 1 S B 1 1 5 b <XS 5 9 0 B 9 I X j b 1 1 w n I M b 5 w M w > 5 b 0 J Q b % 1 q Z Z 9 Z 0 q 0 j n 0 n q > q j > -XZ > 0 9 9 n w ;XS , 1 1 0 9 5 5 1 0 > 9 0 w , 1 q , M ^ n q 1 M 9 1 9 9 > w w w w w 9 > b 2 0 1 9 3 m M 0 0 b q Q b 1 w 9 0 M 9 w Z Z q > q 0 A I X Q dX1 0 0 A 3Xw > 0 , b q b 5 9 b j 5 w 5 1 0 0 1 1 9 1 9 5 j b 1 5 n U S 1 , 1 9 9 M Q 0 , w M Z 9 0 M j w 5 R *X0 > q , 1 o A -XU 1 9 M 1 1 1 9 % , M &XT 5 O w 0 1 1 Z w 1 , 9 1 1 w b q 9 , , , b n > j M 1 , 1 Q wXB 1 q n 0 J R 1 9 0 9 0 0 D Y , w 0 1 1 9 5 m &XS > q ! I % S D ! S n , M q , 1 1 9 > 1 0 J Y j b , 0 R 1 A ",
"O q U Y A 0 9 b w 1 q 1X-X+ w 0 1 w 1 1 0 9 j M 0 w 1 9 j b b w A w % 9 w n M n 5 U Q 9 M w w 1 B 9 1 q O O 1 B b 9 , 9 9 5 j 0 , 9 w 5 0 n B M 9 M n q w 0 5 M w q O Z &XU M M M 1 1 O 0 9 , 1 > 1 1 M 0 b 1 w I b b n n Z D 9 n ~ 9 A j 9 0 5 M 1 , Y w 9 ~ 7X9 A w > A 0 Q ~ M eXU n M 0 9 % 0 0 b b q 5 *XR Z Z w n b , 5 n 9 0 b w 0 b n > 9 9 w , O A q , 9 , =X*X1 b S B 9 q 9 n n 9 b J 9 w b 5 1 0 j b 5 0 1 w 5 1 9 Z q n w 0 0 9 O , B A 1 9 1 b 0 j 0 1 w 1 q 5 n q 1 5 q q 0 9 q 5 1 b 9 w 1 &XM   9 1 b Z 1 1 1 9 0 X Q Y 9 0 w D , w 9 9 1 0 Z w > 1 > 1 0 0 > 1 > O 0 Q M , 0 n 0 9 w q n 1 , 1 j 1 1 b b 0 w 0 w b 5 Z n 1 q w 1 1 1 5 , 0 b j n T , 1 > 1 + > 1 1 , n A 1 O j w q 0 b q 5 n ~ U n , b 9 1 > M Y S , w 0 1 1 1 , 1 > 5 B w > w Q b > q I M 0 , , , , q w 1 > 0 9 b U b j 9 b 9 M M ~ ,XS o 0 w > A ! q 1 w 0 w 0 Q T 0 0 9 9 b m n b C +Xn z ^ M q > b 5Xn 9 0 1 C T 9 j 0 b w 1 M q > q 9 9 S 1 Z ",
"j > D w w M w w Z w 0 ~ 1 1 0 a j 9 , Q B <X0 B A 0 0 w D 1 9 q Y B O > A A S b v 0 1 > w B j 9 , > Y 5X1 9 % ~ A U w 9 S 1 1 > 1 Z M 0 9 w j b > M Z w 9 M n w , n b D w 0 w n n b j 1 w 0 1 q q > A U 5 9 0 b n w >X&X9 n b w w O > n w O w w > 1 0 T 1 B T R 1 q 0 w Z 1 w B b Y j n j q 1 , > b 0 5 1 n D 0 w q B 1Xn , 1 , 1 M 5 q 9 A S , > w J A , wXzX1 5 0 >XhX9 , M w 0 q w 5 b b 0 1 5 1 1 9 1 O j w , 9 0 b w + n S >XQ > 0 1 1 0 b S b 1 0 0 0 0 b j w M w n 0 w 1 b 5 w > I Q j 9 1 1 > 0 5 1 j , w D =X1 , , w > 1 1 , w w 1 1 0 q O B 0 > 0 > 0 , 2 0 w > O X T Q 1 n 0 b w J j > w 9 j b 9 Z Z q 5 9 + 9 w 9 ^ U 1 5 B S 9 A S b S M > b Y 1 1 5 U > w b 1 Z w q + O Y ~ j *XQ M I , , 9 , q 0   n n > 9 M Q 5 n 0 9 , 1 , 9 , 0 9 I Z > 9 1 M 9 , 1 Y 6Xn % 0 , , q > 5 1 S R q 5 > U A 9 Y 5 q Z S *Xn 1 0 + > 9 b M 9 0 b w w n , 5 1 1 , 0 S b q A 0 X S T 1 n 1 j ~ 0 B w I ^ U , 5 , n A A 0 % 1 , w , 0 0 O ",
"w w , 7 > w M , > w 9 J ~ J 1 n 0 0 > n Q R w =XR B M n 0 , b q M 0 b w -XU *XM 5 0 5 9 n U 5 9 q v Y U 1 q w w 1 0 5 X 0 1 w b T M M Z b 0 M w 9 1 9 j S Y A 1 1 1 Z M M n b , 0 j n w b b 9 9 b , U n > w M 1 b 9 U A 5 1 9 5 9 j w w j 1 , 9 b 1 , w 1 w R M n > R b X 0 w + n w 9 0 w 0 > D M 1 9 0 n 9 M 9 0 b 9 J M 1 b 1 9 n 0 0 n w , > A w b M + A *Xw w j q I , 9 1 1 B b b w 1 M w w M w 5 9 q 5 1 1 5 1 0 b M 0 n w M 9 1 > 9 0 9 b U 1 , , A B q w B n 5 b >X&X1 1 j , > , Y +XZ > j b 1 1 9 9 , O U &Xw > q D O 0 b B b 1 , 9 1 0 w n , , 0 % Z M w 1 A w 9 1 Y <X3X, 1 w n 1 ;XS > b 9 7 1 A ! n 1 q 1 b 9 9 0 A ^ M > I Q , , M Y Y n 5 q 5 q 0 1 5 9 % 5 M =X5 b 0 1 Y J Z S n b 9 0 0 w w , q A ~ M 5 > S 5Xq X % 9 > , 1 , j w A Y U M M b 0 q 9 = $Xb 0 , I 9 5 b n 1 A n I j , 0 b n 0 > w O Z 0 n 1 , 1 ;X5XZ , b *XY 0 1 q , 9 q 1 1 1 , 5 0 9 9 1 9 5 b X Z M n J w w M n J Z 0 1 0 w M U Z > 1 0 0 , 1 ^ A ",
"1 I , 0 9 0 w , A Y 5 n 5X^ 9 A j n I 0 =Xb +X*Xj n w 9 , > 0 w w 0 1 S &Xb M 9 I J 9 > 1 1 1 j b 1 5 J 9 , 1 M 0 , J wXb 1 % Y hXZ + A A 9 0 j w M M 9 n 1 , M w 1 , 0 j > , w w 0 O 5 I S I q q 1 1 + 9 j U 1 9 1 9 9 j q 9 w 0 q O n n 9 0 w 0 0 b 0 q 1 > , 5 0 A I % , , R n 1 9 1 1 1 X S Q 0 j 9 A 1 O w 0 , b B 9 O 5 O 0 1 1 O 1 9 , w D b 1 n M , 1 0 j b 9 5 w b 9 9 9 9 1 b A q b 1 M n 9 M q 0 w 0 5 5 M 0 0 B Q O q 1 9 % 1 , > % A R > n j q M 1 9 0 1 I Z , b , q w w 0 M T M 5 9 5 1 9 , > 1 j > 9 1 9 Z D 5 O R ~ q , , > > 1 9 1 0 b M 9 M j I 1 b B b S S &X&X, 9 9 . 9 B Z 5 j w M w Z S b 9 0 , b Z J 9 S Y M 1 ! n Z , > ^ +X9 n 5 D *X0 w 9 n A Z 9 > , 1 9 1 n M j w 0 9 1 0 O B U 9 0 A 9 w w w M Y M O w M 0 0 9 w &X, j 9 5 B n 9 9 5 1 Y &X9 1 M n w q 1 0 0 n b 0 w M j 1 1 1 1 0 j 0 q 1 9 n 1 ~ Q w 1 1 5X=X+ j b > U 8X, , 1 9 9 w w q 1 U b , , w 9 5 1 1 1 0 0 5 w 1 1 w 0 w ! 0 0 w 1 , 9 1 j B ",
"0 j 1 % 9 0 , > w w 9 Z Q n 1 e M 0 5 9 , q n j b n b w 1 1 5 0 1 9 j Z w 9 w M I R 1 9 0 1 M 0 9 M Z M 1 9 1 M I 0 j CXU 1 0 b wXT + 0 9 n b w q 9 0 b 1 q 0 1 5 9 , 1 0 1 0 w q n 5 5 n ^ *X1 1 1 0 0 b T b 1 w M M w 0 A w M w S U 9 , b 0 1 + T =XZ 9 w w 1 5 q 1 1 , A ~ T 1 5 5 1 9 9 Z , 1 0 1 , 1 0 w b 0 , 5 , n 9 , M q , + w >X>X9 b w B 9 R n , b 9 0 w w U n 1 0 1 1 9 j 9 +XT 1 1 J U , n A S I Z > M S , 1 1 M > 9 w n Y b w 1 1 *XI b 3XZ S j 1 5 9 1 , 0 > ^ w , 1 *X! > , , 9 > 1 1 1 1 b Z ~ S , q 1 n O 1 M ;XT 5 1 Z O b j 5 1 M A Y 1 5 9 Q 9 M b > j Z U J 1 1 0 Z M 1 n b n 0 j 9 j 1 + 1 1 1 O 5 M 9 b w o , Y > w M , I M 9 I n -XU j 1 1 5 n A Y , 1 > q 1 1 , 0 1 q 9 M j , S q 9 9 > 9 w M T Z S 1 9 0 j Z 5 1 > 1 , > 1 1 A B 1 1 0 M <X,Xb 0 M w b 9 1 0 1 b A w n 9 0 5 0 9 > 5 b b M 0 n Q w , 1 9 5 I A 9 X 0 w 5 b B , 9 w w , 1 0 1 5 0 0 &XM I b j > 5 q w j W > -XB 1 b , b b , 1 1 1 9 5 , 1 ",
"9 b j 1 1 b b 9 1 w , w M w b w =X> O w 1 w M 1 0 , b > 9 =X9 9 w M j 5 b 1 w 1 b S , 9 9 > j q q > 1 > > Z T 1 w w 0 M M w n 0 1 1 w w 1 0 M 0 b j w b 9 M n 0 9 M 1 9 % w 1 > b n M Z 0 0 O 0 + 1 0 1 5 M Z > O j j b w n B 9 M +X^ b , w 1 , > S J B , w w 9 1 , 5 , > w Q w > j ^ 9 1 B A A 1 > 9 O b w b , 1 q > I Z M 1 n 0 n M U *X<XO > w , b ^ R , w 0 0 0 D +Xq 9 w 5 n n j 0 Z +XS , Q Z 0 1 j -XU 0 9 1 w Z b q 9 b w , A U , 0 0 w S S A b w w 1 b 1 M Z 1 n Q M n 0 1 I ^ q + 5 q 9 , 9 M D 1 J n M j S q b q 5 M D 0 , Z M 5 0 w b 0 I b M 9 q 9 0 0 > 0 0 0 n 5 9 1 1 A sX~ j o >XqXI + M 0 9 Y A > 1 9 w 0 0 w 0 j n O O w B b b w 1 n q q S j > w w b U D 1 1 0 w , 1 0 > 5 % 0 b b b A q q w b 9 w 1 M > q w 1 w T D > w Y R X q 0 0 Z A M 9 b M J 0 n , n S J b 5 M , 1 Z w 1 , 0 , 9 , j w 0 M A b j 5 0 j w 0 w Q Y n , Z M 0 , 9 q 9 1 1 5 0 % o R U M w U I 9 w 9 1 0 w , j M S 9 1 , b n 9 , , 1 1 9 0 j 9 ",
"5 b 0 j w w O T A 0 w 1 , 1 9 9 b b > 9 J Q O 1 9 5 1 1 , b M q 9 9 w 1 , Z > 5 b 1 5 O 5 0 q + % 5 Q 0 b M b 0 n A 1 9 w w w q b M a 0 0 1 1 w w D Q 1 9 j S w M S q J M 1 5 U 0 1 0 U 9 5 Z 1 M 9 0 % + I ;XM Y U n S 1 5 9 , M M X w w 1 0 A I 9 M b 0 , 1 , 0 1 1 9 I w > 1 0 M 0 1 , +X1X7 > 1 , 1 1 1 1 e S I 1 9 0 Q 0 Z S , S B *XY 9 0 1 X 5 0 Z 5 b q M 0 M q 0 1 5 > 9 Z J 9 U Z 1 w R w M , 1 ~ S w Z M +XQ 1 0 5 n D S w > , , 9 , b 1 q 0 w 1 w 1 , A Z 1 w 1 1 q Z M U A 9 1 M b 0 0 1 0 S , 9 9 0 b n > 5 5 b 0X&X, n b j n 9 1 9 q M q j b n w 3 9 1 1 q j n b 1 A Z 0 M 1 9 < M U 9 , M 9 5 5Xn % 5 0 9 1 n j 1 w Z D w n w 0 , , q 0 0 M 9 5 M 1 n , D A 9 w , 1 9 5 w b > 9 b ^ b 9 j b 1 9 n 0 n 0 1 0 , 0 q w w 9 9 =XS 1 O Z j 1 q T I O 9 9 1 w 1 9 0 w Z M 0 w 1 w 1 O 1 0 0 M b 9 9 j U M n C A 0 < U U 1 9 M *Xw 9 0 I n 5 9 j 0 > , 1 % 1 I S ! j Y q 0 > , 0 1 9 A 5 9 > O , 0 , , 0 9 q , J , 5 1 q q ",
"! O 9 w > O 1 ;X&Xw 1 b j 1 1 9 , , 1 *XQ 0 > M b , 0 Z n 0 1 5 1 9 w M 9 1 9 1 1 A B , b A 1 0 q ^ qXZ , 0 M 1 S ~ 5 q j q 0 0 Q J % j 5 0 q 0 q A ~ M 1 n +Xq , D U *Xn 9 9 b 9 9 5 0 1 O w b =Xj n w , I S Z Q M B w 5 0 0 0 , 9 n &Xb 0 X &X1X1 + % 9 > , 1 1 9 q U Q Y q n 9 q q 9 w *Xj 0 9 S % j M q 9 A B Y 1 , 9 A b 9 0 , 1 M q B % 1 M ;XR 0 1 I U M 1 w w 1 1 0 1 9 1 1 0 b w w , 1 B + w A 0 J w 1 A M Y S n , 1 5 n S R 1 1 9 q 1 1 1 1 1 9 w A w n S 9 0 9 0 0 9 A U b n 1 0 9 I M 1 1 n , > , 1 z R 9 q 7 b Y ^ I q 0 M B b 1 q q , M A M 0 1 9 1 0 1 0 5 n Z C 9 Z M 0 > j 5 A =XM 1 1 w n , w 0 r 0 q 9 1 5 > q j 9 Z T ! Z M 1 1 9 n 1 U M Q ! O w w w n , 9 1 1 5 0 j 0 1 > 9 1X1 1 1 , 5 w n 5 S Z 0 5 1 0 > > 1 0 1 9 w 1 9 > , 0 w 1 9 , 9 0 1 1 0 0 1 9 w b M 9 n 1 1 9 J Z j w j 5 9 9 1 U 0 w A 1 U S 0 0 w n b 1 q M n n 1 9 0 9 0 9 , , 1 J q o 1 J U , % M S 9 1 Z , 0 , 0 Z 9 w 0 1 1 9 M w 1 > 0 *Xn ",
"q 9 1 w 1 9 0 I S b 5 q 1 9 9 , 1 , 0 5 M , q S Z > 9 ! S w % , 1 > j 9 0 0 n w q Z M M 9 Z n A A +X>XZ , w O , M Y q 0 n w b M T n 9 q 1 0 M U 1 B J I 1 T Z M 1 , Y *X9 b 9 n &XM j 9 n A q 0 b > 1 q 9 M D M M q 1 9 w 1 M T 5 b U w q b w n T n + q M 0 0 9 M ~ > n w 9 q Z 0 b 9 9 Y J b 9 Z M w q 5 0 w S b j j M 0 r 1 5 9 w w j 0 1 b 0 M 6XM 0 O *XqXB > Z , j 5XA O , 9 b b q w 0 M A + , w b w 1 0 1 9 w 9 n , 1 w b q ~ b 0 5 0 , 9 1 w 9 > 0 b 1 n q Z b 0 w n 0 b O 9 , 0 q w n Q , q I ~ n X U 5 b j ~ n q w w n 9 0 1 M A Y w b 9 5 0 w > , 5 0 0 9 5 b Z D n Z B b 1 0 J j 9 q D Y 9 w T M 0 , w b , 1 , 0 > , b 6XS w b D w , 0 w 1 n , 1 w 9 > 9 1 1 B w 0 > 9 5 9 b q , w 0 M X 9 Z n 1 1 n 0 q b 0 0 w q 1 0 <X=Xn 0 , 1 9 , , 1 B M w 1 1 5 1 1 1 9 5 ^ w b D A 9 0 w j n I 1 9 , q 1 0 9 Z n *XJ 9 q J 1 w n Z M 1 5 9 0 b 1 > 1 0 0 n 9 5 w , , > , 0XM o Q b B b 1 0 1 M D 1 n ~ T I n n , w n > 1 , 1 S Q ",
"% R 1 , 0 <XD > 9 9 1 % 1 , 1 1 n Z +Xb 5 1 0 0 , 1 T >XS O 0 0 , n 9 1 0 n Y j , > J S 5 I 5 1 A A ~ 0 9 0 , b w b b w 0 w w q 0 O 1 , 1 , 5 Z 0 D M 1 + ^ b 9 B O U S > A q -XQ w , 1 1 B A U 9 1 1 1 1 9 9 0 w 0 5 M 0 5 M q 0 9 > 9 q Z I S S 5 5 w M n 1 0 , 1 1 , 1 9 Z q 1 , 0 S 3X=X5 b b n b 1 9 q 5 M b M b 0 w 0 w 1 , 5 M B Z 9 I A 5 1 w 9 b A b o 1 j w , ! 9 1 j q , 1 0 q > 0 w R M J n b , 1 w n 9 R 1 S T , n 1 n M 1 9 1 , w 0 w M , O J 6X, 1 q 9 1 b b 9 A b q 0 1 0 9 1 , 0 M *X, % 1 b , j b S 0 > w q , b 0 9 9 w q 9 b q j 9 1 1 n j b M j 5 0 b D M j D b w Z ~ w 0 n ~ D , j w J w 9 w j 1 1 > , , A J M , M A j > 1 w w O F b 0 , , 9 1 , , , w w 9 S n 1 1 b j > w 9 w Q M b 9 Z n M 9 Y S q b 0 , j 7X~ S 9 1 0 B 0 j n 9 A 9 0 > > w , , 0 5 B Y 5 , , w D A &Xn 9 > 5 B M 9 5 5 0 n 0 0 1 9 U 0 A 0 j 0 1 9 1 9 1 1 X b w j 1 1 0 M j , 1 q T D J Y n , 5 1 , n I 5XM b 0 9 j j Z 1 1 1 I >Xq q , 0 ",
"&XJ w w 9 *XQ , O 1 w 5 1 1 Z n 0 ! B Z n A q n b , S M 0 9 I n 1 q b w Z M B n 0 5 0 w w > M 1 n 0 w 1 > w 5X6XM O I wX^ 1 0 j 1 Z S 1 1 9 w q M j q 0 w > 1 > I n b n 1 M q n M M 5 5 w M U I 1 9 0 n 9 , 9 > , 9 0 b b j S b q 0 b 0 j 1 A , M b 5 0 U M , 5 ! Z X 0 , M I b 0 q b I J j n 9 Z J A 9 w w 5 0 I 9 0 1 9 5 1 5 n 0 b A Z n q w b 0 j 0 S ~ D 0 w S b 9 , w 0 9 9 0 5 5 O n R j w T Q b j w 1 0 M 1 M M Y q 1 9 b M 0 1 5 , 9 9 b j 5 0 9 w b 5 q 5 1 w b w j S w 1 1 1 0 , M Z 9 > + 1 w 1 > 0 w 1 1 1 1 0 w 1 9 1 b 0 0 Z S n q 9 9 , B U q 0 0 1 w 0 j j D M Z 0 b U 1 9 n b n , 9 q Z 9 9 1 1 9 n b 1 9 1 0 w % 0 J M b 0 0 Q q 0 w 1 0 1 1 ^ D S M n > 1 n 1 1 > 5 , q 1 > > S S 0 0 5 &X^ 5 M <X*XM n n 0 > ,X<XA O > Q +XI -XI 9 1 > w O A <Xw 1 q 1 T U 9 1 w R D 0 0 j 9 1 9 b n b n 9 b 1 1 1 9 0 , 9 O > , > b b b M , Z q 5 0 5 > 0 S b 9 , 5 1 X n R n q 9 b 9 M 1 1 5 Q 0XB U Z b n 0 9 w M Y q 1 M 1 ",
"b 9 b Z n I S 1 , M b w 0 1 I n 1 0 , 0 n j 1 9 , Y 6XZ 9 Z w n b 1 0 9 b n 0 n n b w w 1 9 0 n j n 9 n M 0 U M 9 1 9 ~ I O B q O =X+X> > 9 9 w 0 j 0 0 D w 1 w j q > 0 5 0 1 b b 9 j 5 M , S D 5 0 1 1 0 9 w M > 5 w A 0 9 b n 9 w b 9 Z 5 1 0 1 w n n M 0 0 <XA 0 o T 9 9 0 ~ M , w r 0 w 9 1 w j J w B 9 9 w , , 9 0 b j q 5 w A R b I A n 1 0 *Xq 5 w Y Y 5 0 Z D 9 5 b j > > 1 9 > n A >XM S w w 9 > w q , n 1 9 9 % , 0 1 , b m j , A 9 0 0 b 5 9 b w + D A B 1 9 b j w j 0 j M b , S fXQ M 5 5 9 5 , , 0 Z D 9 0 1 9 > 1 1 1 M *Xb w n 9 5 z U B J q , 0 q w 5 1 9 n S Y 5 9 U n b A 0 B b , 9 5 w 9 O 1 w w 0 w 1 M 9 1 1 + *X<XX A Q 1 0 1 9 5 M *XI O B A Y w S v , j 0 M 9 9 q w M I 1 j ! w , q 9 Z O M +XY A ^ >XU . Z A X , 9 ^ n ^ S Q q w 9 , O +X5X1 w w S Z 1 9 5 n J Z j 1 9 0 j I b M D M j w % O j > b 0 1 5 9 > q 5 + b n , q 9 1 5 0 w 9 Q B w M 0 , 0 5 1 9 0 0 b q M A A b ^ &X9 A 9 9 q 0 1 0 0 b 1 , w 1 ",
"1 w 9 I D M b 9 1 w S q 5 1 0 > 1 , 1 M I 5 1 b M >X^ I q b D n 0 , n 9 1 U n M 5 0 5 0 9 1 9 w A Z M j Y 0 1 q w 0 -XJ , , q q 0 w w 9 0 j 0 5 9 1 0 1 9 M I Y U M w , 1 Z 0 I B S -X1 q j b B 1 > 0 1 1 0 0 n 9 > 9 8X5 , 1 1 9 q b 0 S A b 0 9 q 1 1 1 9 q n j 5 1 > , j b 5 5 1 5 w > w w 0 9 M b j 0 j n , 1 b S n 0 n w 9 1 1 M J < S 0 M Y Z 9 n b S b 1 M n M 0 1 q w w 0 1 , 1 Z Z , o b Y j O w M b , A 0 w 1 5 B 1 5 9 1 9 1 b M 9 > 9 w n , 9 , U Q w w w &XB b b 0XI n q 1 % Z <X~ Z O 1 U S M Q j 1 1 0 w > q D , 5 w 5 A S 1 1 n J J Z T 0 1 , 0 A w 0 q 1 j 1 1 0 , 0 Z w 9 0 0 1 n 1 j 1 b 9 > q w 1 , 9 M w 5 O w w 0 =XT D , w 9 0 0 w Q Y Y U 0 j b n 9 0 1 w 7XQ 9 b 1 &XY X A =XZ > 5 1 O O , ~ S b U A S , > O q w , 9 n w =X<X0 1 0 0 9 ! U O 5 n *X9 0 w 1 M J A b w q q A M b M b ^ n , 9 ;XM 0 , 9 9 ! Y , 1 5 Q 0 1 n 9 1 1 0 , w , 1 S b 0 9 0 9 w w b 9 0 1 q I Q 1 A A J ;XA o w w 9 0 1 j Y Z 0 0 w ",
"w b 0 , 0 , w 0 n M T O M I -X1 1 M 9 M n T 9 n 0 A n q 1 0 D I A b n 1 1 0 w 1 1 w q 5 9 b n Z n A A n 1 9 Z n 0 b B Y b 1 S Z q , w b 5 1 9 0 1 , , ,XQ M n Z n , 9 b 1 n 9 , 0 b w 1 5 9 M b 0 1 1 1 0 0 w 5 w 0 M X q A n 1 1 b b w M 9 5 q 0 9 0 &X^ b , O 9 0 1 , 9 A M 9 0 5 9 w 5 0 5 n U 1 A U Z 5 0 n 5 A M 1 9 0 9 9 0 b n I W b w M Z 1 b M Z n > 0 0 n 1 5 1 5 w n j 1 q , 1 1 X ! +XX B M w S 1 0 9 q B 9 9 +XR Y M M 1 1 n O 1 1 9 , 0 9 w , S n 9 5 w Q J , Y ! Q M I ~ q 1 3X~ > > w ! U ~ Q j w 9 9 > , <X&X1 b 0 b *Xw 0 1 M A C , , n 9 q n j Z D 0 b 0 % 9 1 0 0 5 , % > O b 0 1 S 1 0 n 9 1 j 0 9 Q A 9 0 b 1 > 1 n 0 b 9 M b M M b 1 j 0XA S U w M j 5 b w 0 1 , 0 w >X+X, A M q q n 0 q q > . O 1 , q w 0 0 > &XQ O 1 9 % 9 A Z 9 > , 9 O D A 0 Y w M 6X0 o A 0 M 0 1 0 M 1 0 5 w 0 Y M w n Q 0 0 > b Z 5 S j > 1 9 w , 5 1 q B , ! 1Xj 0 j q n q 0 j < j b 0 0 9 0 w w 0 Z 0 1 S 9 n Z 1 1 1 5 1 1 M Z w 9 ",
"j w D q b 0 9 q w 0 0 0 U =X> 1 9 n O n Z J > 1 0 5 0 w 0 5 0 n b 9 b 0 w 9 , 0 w j M b j , w J D Z n D 9 n U S 1 w I *X0 q 0 S b 0 q q 0 > 1 1 , M ^ A b w J w , 1 9 j , j n 9 0 , , 5 1 > 1 M n 9 A m , 5 M w , 0 w 0 I M Z 1 M b b 0 I A n Z q 1 M wXQ D 9 5 q j 5 w n b S 0 q > , 5 , 1 9 w R I 1 1 1 w D I T M 9 , b M n 5 1 5 j b n 5 1 A M n S 9 A 5 0 1 0 0 0 % 1 b n 0 5 5 B b 9 , 1 *XU B U S > 1 0 5 9 D 6XU 1 j 0 M w D 0 1 1 M *Xb j b M Y U O A =X9 1 w , 1 . S 5XD A -X^ b X 0 + O 1 n A n I ;X>X5 9 z % B 6XJ > j S Q + 1 n 9 S U M j j 9 w A B n Z Z S 5 1 1 M 0 , q 9 b D q 5 q 1 M 1 w 9 5 , 9 1 0 9 w M D 0 w , 0 w 1 w q 9 0 w w J A S J ~ S Z , 1 0 0 9 5 q J I > 0 Y S 9 1 , , 1 w >Xb + > o A M , 5 5 1 9 , , 1 1 9 , j M 5 9 q b w 1 > 5 9 n 0 1 > + B M % j w 1 9 1 , 0 w w A T M o 9 9 1 > 1 n B b Q w j 9 9 % O 1 M S I ~ &XA Y +Xn 0 z 9 j 0 0 j 9 , 0 q 9 > 9 0 1 w Z O j Z > T A S w 9 1 9 5 M 9 b 5 ",
"w j Y q 9 9 9 9 5 b n 1 O 1 w 0 , > 1 j j 1 1 3 q 5 1 n 1 M 9 M M A w n w , 9 T Z 9 0 w 5 w 9 w S B w n 1 Q n 1 b M n w , w B b 9 1 1 0 b a 9 2 9 0 M , + M S M 0 1 Y b 0 w 0 0 0 , Q A M B 0 5 > M w , > 1 1 z 9 1 % A D w w 9 *XR 0 Z 6X*Xb n b 1 5 1X>XB X > ! Q I 1XM 5 % 9 0 % T &X, j 9 w Y B 0 0 n Y D q M j 1 1 9 M n n w 0 w 1 5 5 0 , 0 5 > > , 1 B w b 1 n n , 0 w 1 1 A M 9 , 1 0 O 1 &XC M 5 n j M b 1 b A 7XU D Z w M 0 w 0 n =XM 5 w , 7XM 1 Y Y M > 1 0 , 9 O w 0 w q A Z 5 1 5 ~ w O 9 0 0 *XI 9 5 1 w 9 A S , w T Z A T 1 9 M j A q j b B b b n n D Q n , Q *Xw 5 , w b *Xb , > S A 9 q 5 9 0 5 q I n , M n w 0 0 w 5 j b b 9 5 0 M Y 0 1 A b U &X% M 5 j 0 1 5 q U j S M 1 % > 9 b 9 q 1 q R 9 I b b M > 1 M q , 9 S b O 5 A 7X+X> 0 0 U b 1 j B 5 S S 9 , *XhXb 0 9 9 q 0 w 1 9 w Y Q n 5 1 > 9 w w 9 9 % M B 1 T b w &XM 8X=X1 D M &X>Xj 0 o 9 n 9 5 , 9 9 1 0 1 w 9 S b 9 , 1 I , 0 9 j 9 D , > , 9 5 9 9 w w ",
"w n w 1 b M 9 1 Q qXU b 5 1 5 1 , , n S M 9 9 1 1 w 9 1 1 Y T q j B 1 w M Z n I 1 5 0 w 9 9 9 B M +XM 1 M S 9 D b Z Z 5 1 9 w j > 1 9 a b w 1 b j 9 > O S wX, w ~ 1 M 1 5 9 b T J > A S Q b A j 1 M 1 j q 1 e w q S 1 b R 1 9 9 q J > S ^ I S Y =XJ . Q D O 1 j R Z ~ U U n b 0 > 9 <X+X1 b M A S 9 w 0 Z A J 9 1 j 9 A Z M A I M q 9 o 1 1 5 b 9 1 9 9 , n > , U , 0 w 5 9 w w 0 Y A b b n , 9 q 1 q 0 5 n n j B Z n S -X9 I M w n 9 5 w 0 9 1 1 9 T *XI 1 q 1 9 A Q 1 q 1 , 1 > > 0 , 1 j > 1 U b 1 5 9 O , Q j w X , , , S M b Z > S Q + 0 M q b 1 1 w 9 5 9 b b j q q 0 b q w b 1 +XM 5 C q >   , , 1 j n I m n 0XQ 5 b 0 w n 0 b 9 1 w w b b 1 w 1 0 S 0 > A , w T b j 1 5 9 1 w B 1 M M % 1 n 9 q U 1 n *XS <X>X> ^ q 1 0 0 0 M B 9 , n &XM 9 b , n + 9 O *Xb Z I M b j Y >XA M 0 j w M M 1 5 M M j 1 1 5 n n A b 0 1 , M M n 5XU O % A 6Xb 1 0 M 9 Y =XM O 1 % > b 1 , b w 1 j U J *Xb , 0 j 0 j M w > 5 , 5 S M 1 w 0 q b 9 ",
"j Z 8XZ b n 1 > Y >XQ j , 1 Y n M ^ 0 5 9 0 w + Z 0 > 9 q 9 Y M 5 5 M T M Y Z 0 1 > M M b 5 5 w j 1 1 9 9 Z n M 1 w 5 w 0 9 w 0 w O b 0 0 1 1 b q 0 O 9 n n Q T J 5 1 q 9 w w Y $XA A 1 w b B q 9 1 0 7XR 9 b 0 +XT % M =XZ O 0 1 > X > -XI M Q I A , O O w 5 9 j M b 5X5X, 1 q 5 b =XA O 9 S &X+ 0 M , S I n b M 0 M Z b M B A Q 0 > B ~ 0 9 5 5 A *Xw 1 5 n S , n 0 5 9 5 1 q 9 > A M w 1 1 0 q j w j 5 1 9 Z R n n I Q ~ U X 9 w b 0 1 0 ! J 1 B J 9 O % 1 0 > b T 1 1 O 0 I Z , 1 0 M 1 1 5 q 5 1 , R =Xj > 1 M D 9 1 9 w 9 b , % o *XZ 1 b w , w > 9 j j Z +XY 9 % 1 9 , 9 0 Z w n A b 0 b 1 n b M 7XS ~ ~ Q >XI B 9 9 n w 0 9 9 b 1 9 0 5 > 0 b 5 0 9 j 9 M 5 S n U q 9 1 1 0 9 0 0 b 1 0 0 1 , > T b > 7X*Xn S w n n 1 b n 0 9 b 0 5 9 S , , 9 , 0 , % 1 0 1 0 0 1 q ! z 5 M D Z B 0 1 O Y S b Y q w 0 , 8XY 9 =X1 9 0 1 w 9 w b > 9 1 9 > 9 9 Z b 1 5 b M 1 M *Xj b j 9 j 0 j 0 D M , A S 0 , R T 0 5 1 5 j b 5 1 b 9 w M Y ",
"0 Q &XR M Z Y , M wXI O + Z R Q Q Q 0 q 9 0 , n 5XZ 9 B 1 I Y 0 0 0 I S M , 0 q 0 n j Z Z Z q n 1 1 9 1 j , 5 X , O 1 n 9 M w 5 Z 9 , n 9 1 B Q 0 1 w 9 > > M B j 0 q M b A b , 9 7X^ A ! q M w 9 w j b 0 9 9 7 3X&XO A D M w j 0 j 0 1   > 1 9 M w 0 9 1 ;XZ , 1 1 > M I M 1 + 0 > , I n b ! j Y -XX 9 n 0 S 5 0 b M 1 w q q J Y b 1 Y Q 0 9 % J j U M 9 > b n 1 9 1 1 M 5 B 6XZ 1 n w b n w j 9 0 M j q b 0 n Z 1 M b 1 S Z 5 D 9 b , 1 5 1 B B n M 1 > 9 n q B n % S ! j 1Xj w U % 0 w 9 9 M S 9 O B I ,XZ q 0 B w 9 1 Q b A ^ S M j dX<Xq 0 0 b n Z j + 1 n A M j 9 , , q M 0 1 > , T 5 Q =X% I b *X3X1 0 w n *XQ S X O w 5 w 9 , 9 q 0 1 A n U R 5 9 , S 0 , w 1 1 w 9 1 j 9 0 9 q q q , q w 1 > 1 w A 1 1 9 > O 1 w 0 9 M w 1 1 1 q 0 w 1 w q j 0 1 J 9 X 9 9 1 M A fXeX7 j Q Y Y M , O > b M > 5 Z J 5 M B , 1 Z > b 1 0 1 9 b 1 n w O M , 0 , o 1 0 9 1 Q R z T , 1 0 5 n 1 w M , 1 5 Z 0 9 0 o R 5Xq 1 M T B w 5 A j 0 J +X",
"+ Q ;XM T *X^ 5 o M X , 1 D M S T <XQ 1 j 0 O Q 5Xw 9 q R Z % q b j U I b q w w j S b Z I S n 1 > 0 w 1 0 0 q M M 1 n , 9 0 b 9 0 , 9 0 5 w w B Z 9 n , 9 j q 9 q q 0 b b Z M U m Q A B w 1 b w 9 9 0 S B > , Y I b 5 1 > 5 w <Xj O % + S b 1 1 5 1 9 1 % q 9 0 5 M j > n 9 M 9 > , 1 q B 9 9 O 5 U 9 , n M 5 0 , 1 j 0 j U I 1 1 0 9 1 5 q Z b ! D j Z q 1 X > 9 B A U Q J U 1XY 9 b b q b j j q 1 w b b 5 5 0 1 w J > 1 J + U S A w w 9 w 1 n n > Z j > 5 b , q Q % C 3X~ 2X*X1 ! 9 0 w B 5 M b 9 > U Q + 1 > 9 0 > 1 j Q , M q 0 0 B C A U Z 0 M j 9 w U b A n 9 1 1 w ;XM S M 1 j , n 0 B ^ 5 . > I Z , 9 J M 0 J S 0 0 1 9 n b 0 w q 0 q n Z ! b 1 b w , M T n 1 0 0 5 M A , n q q w 0 A ^ w 0 1 0 , 9 , w w 1 0 , , , Q Z n 0 w w 0 q 0 1 n n 0 , U >XM O 5 9 > Z b U n q j M I 5 b j , 9 w S n 1 Y Q M D n 9 1 O 1 j w 5 > M M 1 n n > 1 5 + 1 0 , 5 n , Z S M B 9 0 M Y . 0 9 S A 9 5 > , > , > ^ T &XM n b I A 5 n w 0 9 1 ",
"% 5 n w M B J w 0 O M Q 1 1 w 5 S <XM 1 1 0 9 n S b 1 n Q b Z M 1 w M M B n b M n B q Z n Q A w 0 1XA 9 , 1 0 +XT , > w R 0 0 b 1 w 9 5 A Z , j A b w 0 w q w b b 0 9 9 j ! b 1 S n S 1X> w M j w 1 0 M S w Z Z 1 % O 0 n 5 w b j S 5 Z b D w 1 5 Z 9 , w S 0 % 9 I 0XJ O 5 n Y 0 1 w j 1 Y n 5 > 8X<X0 w 9 9 n 9 0 5 b M ~ ! q 1 , 9 0 w M q 9 1 I j b J , Q Z I 0XM Y Z T 6XS n O 5 n n 0 1 0 w 9 0 1 1 9 M A 1 9 1 Z w j w n 9 A 9 1 , 1 9 9 9 b 0 % w j > > 5 S b 0 &XM , 1 0 b b 5 M w 5 1 9 w 0 1 w 1 0 b 1 > 0 > % > 5 w n b <X^ q q R B Q j > , , T 9 b Y 0 A > A =X% U S , 0 9 0 w 2 9 1 M w 1 , 1 9 5 Z 9 O 0 M I , +XZ 9 j 0 b M 5 M w q 5 B U w 0 q A Y w 1 , Z b j , w w q M 5 b ^ ! n > 9 S b . w w w , 1 1 9 0 Z M I w Q w 9 1 5 5 0 b 9 1 R ! o 9 j , &X>X;Xj A q j 9 O n I S j 1 +XR O T Y n % 1X0 q Y 0 0 M 1 , 1 Z 9 I I j Q U j 0 =XM 0 n 1 w > j 1 1 n w *XY > M I 1 1 9 1 1 0 1 q q &X~ Q A 0 % b 0 1 9 q 1 1 ",
", > 0 % 1 9 1 5 9 1 w +X1 9 9 > X j Y b 9 X 1 > w U b Z b 5 *XA . A b B b 1 9 w 9 1 w b 0 B 0 j b n b 0 9 D R 1 A B , > > 1 , 9 q A D j 5X=X9 w n 0 b n j 9 9 b M w M 0 j 0 9 S w > b 5 5 T 9 0 2 3 0 > b D 9 M M + 0 M 0 b U , M *XZ 7X=Xo R 9 1 j b 0 M b q > A +XM n w 9 n > 0 1 >Xw Y I B M B 1X=XZ M q n n A M , 1 M Z z 0 1 0 9 M Z 9 1 1 1 I 1 +X<X> 9 5 1X*X+ 9 b 0 U -XT , O 1 % q j , 9 M 0 9 Y A ! D 9 1 0 b w j b 1 0 0 9 n S 9 n w w n 9 j A 9 1 5 0 j b > 1 1 1 1 1 , q M D 5 1 , w 0 j 9 9 Z q 0 0 U Q , , M , 0 n ~ sXj j M *XQ B 0 % 5 1 J Z > > =Xq S n % 0 > 1 1 b 1 9 O S b j n o 9 q > 9 X X 1 w > q 0XM P n 1 0 n 9 0 9 q w 5 0 5 , 1 9 > w wXS n q D U S 1 Z Z w 5 w 1 b =X9 X T *XM w , 1 0 > 0 1 n w b M 1 D I ,X0 1 w 5 1 j j , > 5 , 1 , 0 Y S M m J > n &Xj 9 j ! J 1 I -X> b 9 1 1 B 5 S U 5 j ~ U o + M 9 0 Z M b 1 Y D I Q 0 I B Q n 1 0 1 1 M 0XT w n > 9 b q M <X1 5 0 0 b 9 9 O b j > Y n 5 5 0 9 ",
"% 9 R n 1 1 j n 1 , 0 5 9 5 9 Q Q , 1 1 A n > , 9 9 0 9 , . j ! q 9 b 0 0 5 > 0 b n U ;XM > 1 , 0 1 b Z A q Y Z b n 0 9 q 1 ^ ~ ^ +X&X-XR S 9 9 b j M 9 q n 1 1 w 3 , 1 b w 9 j w 1 Z 9 D M I n n 7 1 0 q q 0 j 9 9 5 0 1 + Y q 5 wXQ Z Y 9 A j 9 n J 0 0 b 9 9 n U + 1 5 > 9 , 5 9 w 1 q 0 1 M J n 0 ~ Z M A 9 > 9 ~ j A J 7 n 1 n wX5 Q S , q 9 9 j , Z 1 , 1 b 0 1 1 M S 9 0 b b n 1 Y M w n b 9 0 b 0 B J 9 w U q 1 S Y w 9 1 0 w M b O b w w b 0 T ^ Z 0 1 1 w 1 > n w 9 9 1 > 0 I b M A 0 Z 5 0 1 5 w n q > ! &Xj O 0 > b ~ Z M w Z 0 9 1 1 I w w 9 j Q w j 3Xn Z n Y O n 0 9 M 1 1 1 A 1 0 Y M 0 b b . S n > M q 1 7 n M j w b R q , 0 I U 0 1 5 1 > > 1 n S ;XQ Z n 0 B w 5 b w 9 q M , % 1 J ~ Q Y w n I Z M 0 T J > 1 , 9 S U 5Xw 1 w 5 1 j n M q % w q 9 B S % > j U 0 O Q >Xn b q 0 5 O j w X O 0 9 + 0 9 w 5 n q 1 Z A > 1 1 0 > 9 D ~ I 1 1 0 n Z n 1 O 9 0 w A b 9 0 1 j q M , w 3Xq > 1 O 9 1 o q cXJ % 0 0 1 1 1 1 ",
"B &X1 b b % w n , 9 B S , , S ^ 3Xb 9 w Z j 1 w T 9 Y ~ Z b U ZXU q w 0 b n Z % > w J Y n q 1 , 9 A n 1 1 % Z Z q ,Xn b Y I uXA 1 b w &X-XI 5 X 9 b 0 9 1 0 w w , n Z M Q 9 0 > D w 5 q 9 > w w % 0 9 0 0 q b q , 0 j , % w b J 1 0 0 > + 3 0 b 5 Z 0 , , 1 0 b 5 9 n 0 M 0 0 Z 1 o j 1 w M I cX~ q n Q I &X0 O , > M j , m A B q Z B o Z n 1 0 0 9 w w 9 q D 1 q 9 , b o 1 w 5 , D -X5 R b 9 q 1 Z 0 9 M 1 1 9 M M 0 0 , n 0Xb 0 0 I M n 1 n n 0 n 0 1 ~ >X, , A &X9 X 5 n 5 , 9 9 j 9 J Z M A -XM 5 0 9 1 0 b 0 , Q n X w 1 n -X7X+XA B 0 Q j X A Q R 0 j eXb 5 S n , S R , R T 9 Z D w O w Y 5 U 9 &XJ Z D U -Xw n 9 A n 0 0 , w 5 Q qXM 0 n , 0 b > n b 0 9 w S *XM J O > 1 b M , 9 w 9 q 0 1 A R =XU A I b 6X*XJ 0 J Z 9 w 1 9 M S S 0 r q 0 1 9 w M D j Q w 9 5 , 9 5 q w 1 &X>XD A q n 9 1 9 1 0 <XU 5 q w j Q Z 0 1 . 9 <XU q M 5 9 0 1 Q Y D b 1 w > w S j z w q 5 , A ,X1 1 9 1 9 0 1 > 0 9 1 0 w b 9 M Z , , 5 b q 1 ! Y ",
"I 7XR 9 S , w w Z 5 Z 9 q , +XD + w > b > w , I S 9 P 9 0 M A J J R j b S w w M Z q M b 0 0 , I S M S 1 0 5 j b w *XS   X M *X1 , A n 9 Y Q b 1 0 > b M q 0 q j 9 Z B Q S 9 0 j 9 n T b , w w 1 Z T 1 b b 0 b w n Q b 0 9 0 0 w , b w 1 n > , , R D w q 9 0 q j 5 5 Z b w 1 ! -X9 , w 9 , A Z Q j M n U J 0 M 1 0 w Z U 0 1 ;XM S n w 9 > % 1 M 9 5 1 U 0 q n 9 o 5 > > 5 1 , b 0 1 *XB J j 5 q T X 9 9 b Z 9 1 1 O 1 , 1 S &XQ A b M S Z 9 A b w 1 b 9 9 M X w +XQ Z B 0 0 0 5 0 M n r 1 9 9 A Q <X> 9 j 1 1 M w 1 X , 0 9 > J B = , J S X m 1XS 1 M J b 1 b U O O 9 , 1 > q n w 9 Z *X9 q > , + n b 1 1 B +X0 S q M U M A > 1 w 9 b ! B 9 b j b b w 1 eXY > 9 1 + 1 O . T >XO M Z 1 1 0 M ~ b 0 1 , Y U 0 *XD S n Z Z 1 , w 9 w 9 5 0 0 , v w 1 5 9 5 S q J *XO , 1 X 1 b B A 9 A ~ M 9 j q 9 ! b 1 , A ;XJ % Z n Z 1 1 w n I Q 0 w 9 9 9 q , w J U S n 9 9 1 J Q b b 5 1 9 M D b > w q 9 q j 1 O q 0 b 9 M 9 1 , n 1 n n w 5 1X! ",
"w 1 9 w M w q B n 1 5 9 j 1 n w 1 q 0 1 1 > > 1 > 9 w w B <XM w Z D S Y 9 , X D U 9 J n w b 1 ,XS 1 -X1 9 0 9 w 5 , > j j q 5 1 0 % Z j , O n Y 5 I Y > n q j n j b b b q q Y b 9 b T S n 1 1 S b w , q b w n w n ~ Q M , 7 J q . w n 0 1 9 , 0 b n M I w ! 1 0 0 1 9 j b 1 n =XS X w 1 j >X*XY b M b q > % D M Z 1 5 =Xb w >XZ w M -XX D M 5 n 1 q % b j j Q b S U U , &XU 1 Z 0 q % M w 9 b b Y Y 9 0 U n 9 0 9 1 5 9 w w Y =XY Y 0 > b j w 0 w 0 q b 9 + S ~ =XY I > J -XQ D 0 *Xn 1 9 > b I &XQ 1 0 j 5 , w B A n 0 A 9 j M w , 9 b A 1 S Q ! M n 0 5 5 1 0 n M 1 j 9 , w D w b 1 X b -X0 n w , 9 , S ~ *Xb > 9 b w M 9 1 9 0 j q 0 S b > 0 w w q 1 j S , 1 1 w q 5 1 5X+XO 1 1 w 1 , q Y j w > 9 9 R A 9 U S 3XA 0 j q 9 0 9 1 D M M n 0 0 9 1 > 5 n % Y Y % 9 5 1 9 w n 5 5 w 1 9 b j 5 w U 9 9 M 1 n Y j q 5 ! n 1 j 0 9 9 0 0 b q 5 9 5 > 1 9 1 0 w w 0 R Y 9 M M w 5 Z Z O , 9 q w 1 9 b Q b 9 1 0 b 1 1 r 1 q O 1 5 > ,Xq ",
"1 1 0 , 5 j M I O 9 1 j q b 1 M M j j w &XA > 1 j 5 M B eX5Xw M U &XQ M 1 O 9 w J 0 O Z Y q U 9 1 1 9 , M 0 0 , M Z w B 9 + M O q > X , b 5 % 5XI Z A 9 1 M w 0 1 0 w 9 9 0 0 1 9 > 0 sXY j 9 S S S 9 Z M q 0 w 1 n =X1 O I *XM 5 1 9 w 1 1 0 M 0 n n 5 B +X*X1 0 w 0 0 n M % 9 w , 5 1 b R T B S M % Y U , 0 S ^ n 9 ;XA , n 9 > n n b Y S 0 A =X0 O 0 Z > Z 0 J 0 b R n =Xb w M U I > w , 0 9 >X<Xb j b , b b 1 =XM 9 0 b 0 M 0 , 9 w , D M , 5 w b n 9 0 j M >Xn M 5Xj <XZ B n w b w 0 w w q M 0 9 0 0 1 q 9 0 n M I Y O 1 > > w q B 0 0 sX^ n q n w 9 b w 1 M wXU 0 0 A M I , w 9 , =XQ q w b 9 b > 0 Q S Z Z 0 O 1 M A M M q 0 , 0 +XU 1 9 0 5 0 w 5 O w q w b w b 9 9 , 0 w B Z 9 M M O 1 S 0 1 n D 1 &X% 1 J , 5 9 , w M Z 9 n M w q q j n 0 9 5 1 1 w 5 w , > 9 q , 9 9 9 b 9 1 9 w 9 1 1 Q q J b > Y n 9 n A 5 1 0 9 9 b 9 n j 9 9 5 1 9 1 % 0 1 , 0 1 j 0 5 M w b n w q 1 5 , 5 1 w 0 M sXn 1 T n 0 9 w 0 0 0 9 5 w 1 9 O ",
"9 q j , O b I q M M 0 M 5 0 9 5 n b 1 j ,X~ , 1 0 % S I M n b n 0 b > b A , b 1 S S 9 Q ^ n w I 9 0 1 5 b w 1 , M b % I D , 9 M + 0 A % 0 Z 1 j n D n 0 b T n X 9 M I b , w 1 1 , 5 n T R ~ Z Z w J w q b n 0 b M > 1 > S &XY S b n Z b M w U A , , 1 q Z J 5X1 9 j 9 1 n B n 1 > n 9 1 Q b O 1 A U > 1 =X^ b n b b 1 1 Z , X 1 0 , , 0 w w 0 A D 1 I , 1 > b 9 , n I ~ w 0 5 Z D M 0 , 1 j 9 B M , 0 0 q b n w , <XU X 9 O 9 9 O > uX-X% w 9 5 1 0 Z =Xw q > w b ~ b A R n U I b 0 5 0 9 9 5 j b b 0 w 0 1 9 , w A O *XA + w 1 > 9 B D 0 9 5 A b q j 0 S ~ X 0 9 9 >XS 0 b n M % 9 M n D 0 q 0 9 0 9 9 > 5 Z n n b q 0 j ,XB b q 9 1 b D w , 1 w 0 9 w 0 9 9 w j 5 b w 1 1 w 9 1 0 w , Z B 1 S =X> 0 b A > D 0 1 w 9 w w 5 1 0 B 9 w Y w b q b b w n b 0 0 w 1 9 1 O ~ B , 0 0 w 1 9 1 , q 9 b > n 0 U q 1 0 A w j q 0 0 w 9 b A b b n 9 0 9 5 b 1 0 S 1 , 9 1 5 > b n 0 9 n A 0 1 0 1 1 b 0 1 5 Z 1 A ^ n Z 1 9 w w , z n 1 n M 9 ",
"w w > 1 0 n 0 A M n R Q 9 0 5 0 0 j n 9 9 +X1 % b % Y =X0XC S 9 A D + 5 I Q A > Q =XO U S 0 1 =X0 n ^ b q A M 1 % Y w D j A Y Z I J ,XM w w q Z 9 w 5 5 9 S 0XQ 1 A 9 1 M q q j 0 w w M *XM Y 5 > , b n 0 9 b 9 w b 1 Z I *XY M n b 7X^ S w D Z w j 9 9 A U D 1 0 w 5 , w Z Z A M I 9 w 1 9 1 0 w b 9 <XR I A n 0 w 1 9 , J <X9 w 9 0 Z Q 0 9 > X I =X9 Z A % b > Z +XY b 1 q w 9 A w n w b j > 0 <XM , 9 0 1 w 0 , 0 w 0 0 n j 0 j Y 0 > 9 n n 1 9 b 9 5 w 1 1 B A b Z n S ;X% 0 0 9 b M 5 0 U b n q 0 0 w > > 1 9 1 T w 9 1 1 9 0 1 b 1 w b 1 5 M b % 0 b D 0 Z , M I 9 q M T 9 q 9 1 9 9 w w M 0 9 0 5 5 1 1 w , q 0 M I 1 n M n j 0 S , 1 , 0 w w 9 0 -X=X+ w 0 M 9 9 0 5 0 0 , w 1 , A b b q % 5 5 w =XJ n O 1 > n I b j 9 j M 0 1 1 q T T J 6XM 5 9 q A 9 b 5 1 5 9 , S S M b 1 0 0 S Q 5 I J b % > ! J w 0 5 1 M Z M 5 q b 0 9 0 w w 0 q w > Z w b 1 w q 1 w 1 n 0 9 J n > 1 , , 0 0 w b 1 1 , 1 > 0 b 9 9 9 A 9 1 Z S ;Xw + ",
"n 1 j 0 B w 1 0 1 w Z =XY 1 j 0 5 b B 9 , o 9 w 1 9 U w 1 9 ~ 7 O Q ^ 0 q S I 0 9 ! w O 1 1 1 5 1 n B 9 A ;XZ 1 , 5 > q M 0 9 w R A Z M w S S U , 1 5 0 w S ! w n w b j A O >X&XO q 1 , 9 > . B *XO M S , 5 9 n Q q 5 5 5 Y Y n *XB I 9 Z B 1 1 w w 9 9 9 q 9 5 q n > j 9 9 A 9 U Y O 1 1 + 0 M I Z 0 ~ +Xj 0 b w n Y 1 5 1 *X=Xj w J b M , 9 M j =Xn b w q 9 0 1 5 M R I S 9 1 1 n *XM Z 0 9 1 n I A 1 0 w 0 1 b 0 + 0 w b 9 n q 1 > j 9 b M M 1 T b O A ^ > 5 Z n 9 T . 9 j > b 0 1 5 Z M 0 j Z M w q n w b M 9 w 0 1 9 1 , 1 I q , 9 w w 0 5 9 1 9 n 5 w A M R > b I n w n w 1 9 n 0 j M q M 5 9 9 1 9 5 O 0 b > 1 1 > 1 5 w b 0 M Z n 1 w 5 9 , q 0 1 ~ Q > =XU n 9 w 0 0 0 q 1 w > 5 1 9 1 9 n M > A Q >X6Xq O 1 9 M B 1 1 1 9 5 M w q j >XM A =X1 9 1 9 9 9 M w > 1 X Y fXM S > M n M Y M I j Z 0 0 D B w j q wXfXM q n 0 w M n I n 0 0 9 w w 1 > 9 9 9 1 9 1 1 > ~ Q &XM 1 9 w 9 0 1 b 9 , 9 0 > w 0 , 9 D M Z 1 z ~ I *X9 B ",
"! Y D j *Xw 9 9 1 B A =XS , 9 b , , M D J 0 n M 0 n M 1 1 j A b 9 J *XI M b 1 9 1 9 b n 1 0 n > 9 M b q q 1 , Q Y 9 b 1 5 , b Y &XI > 9 b M M 9 0 9 w w w 0 n n 1 5 w 0 M , M I 1 1 , q b 0 1 <X,X, 1 1 w 5 , w R m A = 0 0 R M 9 Y Z 5XM q j w j 9 9 1 S n Z w 0 9 0 , % 9 M > ! S + 0 0 1 0 n Z 9 5 1 5 b M b 1 Z S , w n > Q S q 9 M T > w w 0 w 0 q q b 5 0 0 , 9 q 0 0 j b w M -Xq n n w 1 b D 1 > 1 w w w 9 w S M 1 w w M 0 1 0 9 0 1 1 0 1 0 I , R M > 0 b n M Z q , n 9 w n 0 q 9 M 0 B n 1 w B M S U 0 M 9 M n 5 j , 0 T 9 9 n q j 1 0 1 0 D q 0 j B 0 w 0 M 9 B b 9 1 w M 0 9 M M b q M 9 0 5 M 9 1 J j 1 9 w 5 w 9 M n 1 b Z w 1 > 1 5 0 w 9 1 , , w M 5 M q 9 0 q 1 > S w Y M 5 1 q 9 D b O b A B J 5 5 5 1 0 w 1 1 1 w j 0 b q J U I 1 M 9 b 0 b 1 9 5 j w 1 , M *X+ q M J , q 0 b 9 w 1 1 0 9 9 q S Q +XY , O M w 5 1 D n A M 5 b 1 9 w 1 5 0 q 9 9 0 9 5 A I D Z b q q q q 1 O 1 > > , 9 A n w > A S A n 5 w J b T , ",
"<XM A w w w b n 9 j b M 9 0 9 w 1 w 9 b A n +XM , 0 + 1 0 j M 1 U qXD M b M 0 w j 1 1 +X<Xw 9 M M R w 0 9 > M >Xb j A 5 b 9 , T Q U Z w 1 , b S n M b w > 9 &XQ 1 0 q 0 9 b 5 > 9 w b w b j 0 0 1 9 w J A 9 n M , , D 1 1 n A 0 T > 1 Y > 5 w 1 0 M M 0 M M b j 0 b n 9 b 5 5 0 w 0 w O 1 b w 1 0 0 0 n 5 q 9 n 5 , b Y 0 T > n Y w n M Z 1 w b 1 b b q M w , q 1 9 9 > 1 w , 0 w 9 b 1 M b j n b n 1 0 , 0 1 w w 9 eX! o J M M 0 9 b 1 j q 1 q 1 1 n 0 9 5 9 5 1 A 3XY I O + , Z U q 9 9 j q 5 9 9 M R +XZ <Xb 9 9 w w b w w 1 > 1 > <XU J b 1 n j ^ U w Q A b 5 b ,Xw 0 > b &XQ M n b 9 M 9 b M 0 0 q 0 0 w 9 5 q 1 w 9 1 9 5 M S J U > , 9 1 5 9 9 Z 1 9 9 1 , w 5 9 j w n A > J Z *XQ 5 9 M J = 5 > b M   > 1 0 9 1 j 9 M ;X9 9 > 5 q b A % 9 1 > b 1 w 0 w b M 1 , 5 0 , > , j Z I 0 1 O , 1 1 0 w , 1 9 A w b , % 1 1 , w q q S M 7 j 5 5 9 w q 9 0 5 w 9 b =XS , S Z w b A q b n , w r 1 0 A A > 3X&X1 b , I 7X;X9 % I n M +X",
"b J A n 9 0 0 1 9 9 w w b 0 w 0 1 1 > D j 0 =X1 % 9 % 1 b D D 1 0 M n q n 0 j *XM > w 1 Q ~ 9 n w A 9 1 w B Z M 0 b 5 0 5 9 1 > M J B w w b 0 *XI M b q 5 0 Z M 1 1 j j 9 j w 9 9 0 b w b b , > 0 0 1 q w 1 D M , A =X> 9 b A > T 0 1 n 9 w b 9 9 w M 9 n U q j q j M j Z n b b 0 0 0 > w ~ 0 3 0 q b r 1 1 9 9 b q 1 M M Y 9 1 M M b w 0 9 9 w 0 M n M M q 0 0 0 j 9 > B b > 1 9 1 1 0 b j 5 M S b 1 9 9 5 0 b 9 1 Z n w &XB A 9 0 w w 1 9 n 9 j 0 9 9 9 b I M + U Z <X=X1 1 1 , w n 1 % 1 0 b n w 0 b ,X5 J Q > w r j , w M b 9 > X 0X=Xq j 0 M 5 M A Z b 0 9 0 w w 0 n I R bXQ > 9 B 5 j n U Z M 9 j 9 w q 1 , w w 1 5 0 , 5 B <XU &X1 q 0 w 0 0 1 , 1 o 1 w 1 w w , M Q j < o ^ I &XB 1 n ^ R M 0 1 1 O 1 0 j b 1 % 0 j 9 A b w D 0 0 1 , 5 1 w 0 1 S b X M B Q A 9 T M + M eXq > > > 9 ^ w > , b B > 0 9 1 M w 1 > , ! 0 9 Z Z 5 9 9 v j 9 w q n 9 > w S 0 1 Z A 5 q q w Z M b 0 w 0 2 , 1 1 M Z w % 9 n b q I J o 0 U &XJ J A ",
"T ;X+ q 9 w n b 9 b I j b 0 0 j 0 > 1 9 , M J q 5 , w w 9 w w 5 w 0 0 j M 9 1 w M b n q , ~ b j w U b 9 w 9 1 j w w n 0 1 b 1 0 9 > w 9 0 n w T q b A b n b n 0 1 1 0 j 0 9 q ^ <X, 0 0 M j 9 9 w 0 9 1 b 9 , S w b w > 5 w 0 *XA b % 1 1 n I j w 9 M n q 9 1 w R Y R <X0 q 9 M M 0 w 0 > w w > R b M 9 w 9 w ~ A r D J 0 O w &X0 b 1 0 9 A A n 9 b n 0 0 n b 9 0 w 1 n Z b 1 w n 9 w 0 j n r B Z 1 1 , , 1 0 0 b 1 1 > 9 % , b q 0 1 b w % A B -XM 5 9 M q w 1 % M w O 5 1 w 9 0 b 1 M Z 9 w 1 0 b n A n w 1 9 b 0 n w 5 w 1 1 0 1 9 n 1 X B Y I 9 1 , 1 1 w 1 5 1 1 n j U Z b 1 1 > 0 9 5 q S , A 1 q 0 1 j 9 0 5 9 j w b S 1 w I b M Z n 0 n q 0 1 0 1 n 9 > R >X0 0 9 j R 6Xb X w w 9 1 , *X>X9 0 9 b 1 1 n =XeXI j A D n S 9 w n M 1 % , 0 w > Z S ~ I B b 0 j Z B B J 1 O U &XZ 5 O n ~ 9 1 U 9 9 , n A 0 , w 1 =XI 9 9 w 1 5 9 j q 1 w 0 0 b b 9 M 1 B Z 5 O , 9 q j 0 0 b w w 0 q 9 , 1 0 j O , 0 , 9 > > j B 7 j Z q < M B ",
"9 5 1 n 1 , w S b 9 M Z M 0 b b 0 b M 0 b 1 1 0 1 , n D 5 9 0 q w 9 9 9 , w w , J w Y w 1 S A w b B 5 9 n w w n w Z j 9 5 1 0 0 > 1 n 1 > 9 , 5 1 q w 0 M Z M 5 w 9 , 9 b q 1 Q ;X> T ^ b 0 0 b w w w , w , , 9 9 5 0 n M O Z ~ =X<X9 % O w A M 5 9 0 1 0 M j n Z 1Xn R Q , 0 5 9 0 q n 9 , 1 X <X;XZ A 1 M q U T M U Z n q w Y b b w S lX-X0 B M 0 M w I I 0 q w j n 0 > , j 1 , 5 1 0 , D &XQ ~ 5 1 w 9 9 1 q b 1 1 b 0 1 j 9 5 B A Z 0 5 Q I *XZ 0 w U M 5 0 , n 1 O 5 , 5 1 1 b w I ^ 5 9 0 w 0 w 0 % q 9 1 0 9 , 7 A A W , 0 M w X D A O 9 j 5 9 j 9 % 1 n 0 , 0 w j j 1 > O 0 M 1 b D M I 9 w n 5 9 w 0 w 0 9 M b 1 U >Xw 0 J w n M B w M 9 9 9 1 1 n Y b b +Xw n q M 5XU q j U S j M 5 w 1 > 0 0 5 0 0 1 j 0 Z b 9 n Z 0 n b j n 1 B 1 1 0 > O Z *X, D Z B q n n Q 6XZ , *XM , 0 1 > > I 0 b 0 > U ~ J M w w > =XU o n w 0 + Z M > O > > w 0 % 9 n b I 9 O 5 1 T 0 1 0 Z 1 1 0 5 1 9 1 1 j Z 1 5 0 Z n 9 q &X=XU U A &X5X. J ",
"w b 1 M M 9 w 9 n w Z q 9 n M B Y J b n b M 9 M q , Z U O w b b 0 1 5 , n n q 5 B n b w n 1 b b q , 9 n b 9 w M n j w n 0 q w n % Z B 0 1 b 9 9 w n b 0 j B j 1 1 , 0 9 j w 1 5 1 5 Z 9 M b 9 9 w 1 > A j T A 1 0 w 0 J w + M A Z Y 1 0 9 , 0 n 1 , > b b 9 w w B *Xn q A q b j b 1 9 w j j , > ~ T O b B Z 5 q w n 0 9 5 q 0 w w w ^ U <XM > 1 M 1 1 b I q S 9 b 9 0 0 9 1 0 j q w 9 0 9 n Q I I b q 0 w b 9 > , , > O 9 M b j , n D M B , M A Z w > A ,XQ n 9 5 9 5 1 n ~ Y 0 1 M w 0 Z 9 M A 0 1 + 1 w 0 q M n *Xn 7 b n U M n J 0 . U 1XD 9 , X ^ Q O q n n w 1 w r 0 j w w n b S 1 b B 9 1 w w q 0 0 j M w , 1 b S j O 1 9 1 w q M A M j j q 0 , 1 , Z w 0 O o b q 0 w A O 1 A Y b 5 b 1 > B w % 9 0 6XwXn w , n *X1 , > 1 M M 9 0 b b M A ^ b , , B 1 *X<X~ 1 > j n ^ w 1 D D , 5 b M R 1 0 Y M 1 b q 9 n Z 5 M , , 1 A   U 0 > S 9 9 w w U S q b 9 9 M 0 0 , w 9 O 9 w ^ S D 0 j 0 9 9 1 M =XU 1 1 Q J 0 b J R U b m M D 1 I ",
"X > , J A w 0 w B 5 0 0 q Z ~ Y Q *X> 9 1 n 0 b 9 q O 1 , b <Xn U 9 M w M -X9 Y Y A 1 9 Q Y w 1 9 J *XD Z B 1 b w q Z n 9 j 0 w 0 j 1 0 0 9 0 1 9 w b D Z Q 0 > 5 9 1 q 5 M 0 5 9 9 > 0 9 9 0 b n S O S Z *XY w 1 M A , 1 , B n   > 5 0 0 9 b 0 Z -X0 0 , 0 M b M % 9 1 1 b 5 j 0 M M j % , w w > > % b J S 9 1 > , 1 0 q 1 5 9 n n q j > 1 9 , 9 w n n S 1 b 0 0 1 0 j 1 q 0 q w w Y ~ > A D q M S B j B 0 j 0 9 9 Z Z , *X3X9 M 1 Z 3X5Xj o b j n 1 , ^ S 1 9 b 9 > w n ^ *XU 9 D S S w 0 j M b , 0 5 w 1 , w ^ J n S w w b B n Q R 1 1 &XM 0 1 , b S b n A , w n ~ A 5 , 0 b sX9 , b q % 9 Z b 1 1 5 , n 5 1 q S 9 U , 0 , w A w 0 9 0 0 q 1 9 j 1 9 9 M , % 0 5 1 > , w R A I Z Y M Y 9 0 > A Z % , Y <X>XU 5 D M I n w j 1 M 9 0 0 n w Z S 1Xn , 1 , 1 Z &XQ O w 9 O X , 1 n I > 1 b b U 9 5 ! Q 0 0 q b 1 1 1 1 % 0 Q U w n b % S Z b 9 j , b b 5 9 5 , , 1 1 1 1 0 b 9 5 w I w w n b 1 9 > b b , B 1 > > = 0 B 5 < b 1 % A U ",
", 1 1 , M b 1 > 1 9 b n 0 b J =X> ~ A 5 9 q 0 1 n M j 1 X q fXZ n 9 n w n B D n q j 0 q b M w I S wXqXq 1 B 0 0 q A S Z b 0 w n b 0 , 9 b 1 5 q 5 1 0 <XQ ;Xw w q q w 9 w 1 1 % 1 w > q 0 9 b Q n 1 X Q J &XM 1 M Q J Z w , 1 1 1 0 w 0 1 , j j n A b q Z 0 9 5 5 5 9 j 1 0 S 1 1 M A =XM j U j . ~ >X, , + , n Q 1 , 5 M w > q 1 b M 1 1 O n J > Z U j w 1 b Z 9 w n q b , 1 S M 1 w I 9 5 b j B A b j B 1 1 > 1 % Z S b O b w M n A ! % 9 J *XB w B 1 1 1 , 5 q 0 &XZ 9 1 X B Z , 1 0 1 S q b 0 b Z 9 0 A > > I U 1 T &XM w j D ~ <X> J &Xj 5 0 0 > n j w M 0 9 Y M b S 5 b 0 S % w 0 1 n > I , 1 , , n D % b q 9 Z S , 1 1 Z w , 9 U I 9 q w 9 1 , , 0 Q U 9 1 D ~ Z 5 Q ;X+XR q Q <X6X0 1 1 9 , 0 1 -X~ 5 9 0 > 9 A , n n j w 9 A B 0 b M , I 1 q 5 , w 1 M M O j S B O O 1 w q 1 % w 9 , , , J ! Z q 9 1 j 9 Z j % 1 ~ ~ 9 9 0 0 1 w n , Q sXY 1 0 1 0 0 5 , D M % > 1 0 > 9 > , b w 0 w 0 9 % 9 U T q w 1 < 1XS 5 , & 7 -X*X3X",
"0 w 1 9 n 1 M w 5 n 1 n q D M Z 9 1 w n n M 1 b 5 1 , w 0 9 M + 9 Z +Xw w , 9 5 0 q 9 9 w q n n U w w , > 9 j 5 9 I 1 M q 0 b , q q 9 w 0 n j b A 0 0 U M Z B A 5 n b v , 1 9 9 1 1 Z =Xw w 1 b S 8XM % 0 n 0 , , ;X<X0 q 0 w 1 1 B *X0XI w S Z b I 1 n S Z > > = b j , M A *XZ n n j n A n A S O 1 =XY b , > Q U , M J 1 0 5 Z n , 9 n j =X0 0 w 9 w 1 q n 1 0 w 0 b b 9 w b w I b , , 0 j j j 0 n n q 5 w 0 1 1 9 B > > 5 , b 7 , 0 n q q S m 1 j 5 9 > U b O 1 I wXqXw M b U Q 9 0 1 w m b 5 q M 0 S Y *Xw 1 , 1 w <X=XZ O O j 1 b 1 0 Z A O q M Y R o U &XM 9 w q q q 0 5 1 , w A 0 1 R O q ! j 9 n w M U 0 w 1 0 1 5 q > 1 1 0 b M B ~ D w b b 9 0 1 S *Xw w w A 1 1 0 b J 0 b z O , 0 M w 9 w 0 1 w 1 1 1 n 1 0 A > M q 0 9 1 b Z 9 9 j O , 0 7X0XQ + 1 O + 1 I I w > 9 > Z M b > , 0 0 >XQ , w 1 w 1 9 w w M 5 w U 1 q w j Y B j M A q B -XI 0 Z R Z I I =X<Xq j j w 1 1 1 0 > , 9 5 n q w A D &Xb , , 1 0 A 7 9 5 = 9 2X5 0 ",
"1 9 1 9 n w ^ T 0 0 1 j 0 j 1 % w 1 1 b r 1 q A Y S , b M 1 1 U 1 > M 0 9 0 0 , > n w , 1 w n b 9 % O 1 B , q I Z A M , M w 1 w b w 9 0 B M , A 1XB 1 S b b Z S b A w 9 w 1 , 9 T M 1 ,Xw M M b <XR b 9 I Y n z 1 M w , 9 0 0 q 0 9 q b S 0 w A Z 5 n w n M 1 M 1 0 9 > % Y R 0 Z A n n m D *X<X9 w >X1 0 w , o M A b b 5 9 Q &XA n 9 0 w 5X, 9 j j 1 9 T 5 , 1 > 0 w 1 9 w Z n S o 9 , A S 5 9 M b , b 9 9 9 1 1 w A 9 1 w q b 0 5 T 1XY W A 2X1X;X9 9 , w 9 1 q 5X+XA M w w n n b b b w b 0 b b b Z M D ~ , , > 9 w 9 =Xj % A 1 > o 1 w Z j o q 7 9 0 , 0 *XU q w b 0 9 0 0 1 X A <XZ j 1 j 1 b 0 0 w D M b 5 0 0 5 1 , % w 1 , q w , 1 w 0 n j b 0 1 0 O , > T B 9 5 + M R j > 1 1 M Y D M 9 n q 0 1 9 1 0 w 1 0 0 q 5 9 M n 1 Q w , , 9 1 n j % M >XZ X > , 1 n A , n j 1 9 n w > w 9 O 0 T b % w 5 5 , > Z w 1 5 9 I ,X, M w M U 1 O b 0 b w 9 O M n S S b w 0 n b b I b > > 5 w 0 5 , + w S j 1 % B > 0 A Z q , w 0 9 5 9 1 > ",
"! A 5 9 Z 9 b A , Y I w > > 9 j 1 n b S +X1 w M A U b B J > O 6XQ n o > 1 <Xj , M w w , 9 w , w n j M 5 U 9 0 Z M > w w w M 9 w j n 1 0 9 S M % 1 0 9 9 w n Z B b j j 5 , 1 > M w 0 , > w B w 0 Z , > Z W M 9 q 1 1 b b O 0 q 6X7Xw q 1 j ^ 1 , 1 1 Z M 1 w n q A Z ! 9 > q M 0 <X5XJ 1 > M I *X, b Y B 1 0 w M A , n T b 9 M 0 w Z 0 q 0 9 > n 1 1 S X A M 9 9 0 S T M q w , n w 0 9 0 w > 1 w Q T S b j q 0 1 1 9 =XQ 0 , I ~ w 0 Y ! R M 0 B I M 9 w w 9 9 0 0 I j 1 1 j > w M + S j 0 0 0 I n w 0 j > w n +XS 9 w 1 1 % 1 j R w > O , b q 0 o b 9 j D w S n M w 5 w j 0 A 1 M w J j 0 b M 9 q U w j 5XqXD 1 Z w n b M Q Y 1 9 5 w 9 9 0 o , 0 q w b w 9 w &X&X9 9 0 O Y Q 0 9 , O ,X^ q % > 9 9 9 9 1 0 , M q q n q q n Z 5 1 w 9 > > 1 Q D 0 > > 1 , q J > 9 A S 9 b 9 9 5 1 9 1 1 1 , 9 % 9 9 b 5 0 w o O > Z j , j U 1 w 0 1 1 5 U w > , 9 j A w 5 0 b 9 n > M Z w *XdXJ > A n w w 9 M n > + % 0 R Y j J D 0 , b 9 > 1 9 Z 9 ",
"&X<XU 1 R S S 0 0 j D w , 0 1 b > , Z ~ M B S q j M M Z ~ D X b ^ 0 0 9 9 n Z 0 I 0 > w I +Xq 1 q > 6X*XO q b 9 % A M e , 1 1 b b 1 1 J 1 I b 9 9 0 S w j 5 0 9 n 9 9 b 9 9 q n 9 % 9 9 9 , > 0 Q S Z M I M Y 0 9 + A S O 1 T <X<XA 0 J A U M 0 w 9 M 9 b b M w A I >X0 5 5 > 0 Y *XZ > b 1 X O 9 w Z n o b w A D > b *XA q j M w 1 9 1 , > A ~ n 0 M 1 q R M w n 5 5 S 9 0 9 1 , 1 1 > 1 0 M j w 5 Q n b b n 0 9 , 5 Z , A b w > , 5 M b 1 m 0 > n M A 1 w n 1 1 9 1 0 9 w 1 M A 9 w j j 1 M 0 0 1 n , 1 , 0 eXsXZ X 1 O 1 Z Y 9 0 5 w w S w 0 7 2 > A 8Xj , 1 5 0 1 0 M 0 0 , Z ! 0 b M b Q D 9 w B j D b w 5 Q B Q A A =X9 M b n 0 > > > q 0 1 1 1 1 b D D j q , > q w M 1 1 5 1 , S n w Q w 1 w 5 > O , M n m 0 S B M j > 5 n 5 5 0 , % 5 + b M 1 5 > ;XM 1 , O =XU > 1 1 1 1 1 b 5 , w w +XB n 5 9 0 q -X;Xn D Z > 0 1 1 9 b 0 O J Y 1 9 w w 1 q j 9 w q ! J 9 n Q A b Z M % 9 <X9 1 , M M 0 O 9 0 n w U 5 Z , % % A 1 b 0 M 9 ",
"O > Z b 5 1 0 9 J 0 w 0 n D 9 n n O % Q M M ~ ! b M 0 U 6X~ + =XU 9 0 w > 1 Z w b b 1 Z S M Z M 9 w J j > b 1 M O A n O 1 , w D 0 w b w j S , 1 , n n > 5 A ! 9 5 n 9 1 1 > 9 Y U 0 , M Q S 1 ~ 1X-XT b I >X<Xj 1 1 9 , 0 5 ~ ~ 1 w w , 9 M 1 b n q 0 j A b b b M 5 D 1 0 1 , M > J b X A S w > O b b M O 1 w 1 , 1 9 ! Y w q 9 0 b b M 5 , b 3XM q 1 B , 9 M 0 q <X>XM 9 j 1 0 b 1 w S 1 > 9 0 1 1 1 , q w b 9 0 w , > J ^ n 0 9 o &X~ 0 , 1 1 &X^ b 1 1 n 9 w 1 q 1 q b 1 w q 1 w M Z 5 b U 5 , 1 5 A J 0 o 9 M O % b O n S b 1 A , 9 1 9 9 O q , , 1 9 , 5 b 1 q , o 0 w 9 w > >XD 1 M 9 M 9 , n , 0 0 w j 9 q 1 A 9 9 > 0 A 9 I ,XY , w w 0 j 1 0 w n 1 % X M J 1 Y U M 5 9 b > w , + Q 7XZ M 1 1 S Z 1 *XU b % 1 > D n M S *X9 b 0 5 1 > > > 0 Z U 5 5 > , > 0 Q A 1 1 1 1 B ^ M 1 b , 9 j 1 9 0 9 + M M 8XY > w w 0 1 1 5 M Y b 9 0 n 5 1 > U M > j M M S I n 1 j 5 j =XuXI + 1 X A j ^ M q Z ^ X 5 > Q R j n 0 > Y I ! n 0 r ",
"A w Q Y 1 5 1 w b 0 w w b 5 J ^ +X1 w 5 % Q 6X;X0 O 1 q w b 1 j J 0 , j M &X0 1 ^ Y 0 w 0 n 0 b 1 0 O w M A X J j X Q Z j b b S S M q 5 9 1 1 w 1 9 9 q 0 M A Y U 0 M n 0 w 1 A *Xb 0 w D 5 9 w M I q n M > , w A 9 e q q 1 q 1 1 1 b , w D > B w w 9 , M B 9 w w o 1 b eX6XS > 1 > + b Z I 5 1 5 % Z j j + 5 9 M 1Xn 9 0 w b , w 0 w n > S C 5 n j A U n Z S n 0 *XQ Z 5 Q B I A Q <XB w j j j 9 5 9 5 1 0 1 b j w Z D &XM , , 5 5 S b w 0 > 1 <XB 9 b > 1 0 0 1 , 9 9 M M b J B Z w 9 1 9 , 1 5 o b J 9 j w > , 0 ;Xj 1 1 M Y w , 9 w 1 , 1 9 > 1 0 M M n q 0 b 0 B Z 0 1 Q 1 1 j 0 9 w 0 9 1 ! B 0 1 9 n n Z w q 1 n A B 1 T J Z =X>X, 5 &XM 0 , b Y 1 X , 5 B U S D I M % 9 n 5 > 9 1 w I A 5 1 Z T I n ^ 0 , B q U >XU , S A n b b 1 0 0 1 0 w n n 0 , 0 n M , 1 0 0 0 > 0 n ! > + ! R 9 , 5 1 w 0 w -XQ B w O 5 % > 9 , , 0 ~ U % 1 5 1 O 9 D T n 5 w n 0 M 7 q 5 0 0 J sX~ 1 o Z M w 5 0 M S <Xb > 9 A A % j Z 0 M w 1 9 , 7X",
"j j D n 0 M w j w w n n q A b U I > , 1 0 q w =XO j Z 1 + 1 0 n Z 1 , 0 9 w 1 > I +XM 0 b q w 5 w 0 , > =XQ w 5 w 0 b b b 9 A B M w 1 0 1 9 , 1 w 5 1 9 q 5 1 0 0 j j M 0 1 9 > 1 , A D n 0 X n Q n > 0 1 n R B M 9 n j 5 9 5 9 w w 1 w q w 0 0 Z b 5 Y 5 1 , w 1 B 0 o U =Xn . 1 , 5 M D 1 M 9 5 9 M 0 > n 1 > v U 1 5 w 1 5 1 1 D 1 0 0 1 3XA 9 A w I B O 9 b w M w , 9 Z M U n w n 0 D w J A 1 O 5 w M 9 1 O 1 Z n 9 o j 1 , Z D n 1 0 w 5 1 0 > ~ ;Xn w 9 1 0 1 q Y Z q 9 b 0 M n b B S 1 b 0 , % o % 0 w n w 9 I % 1 + b 5Xw q 1 , 1 w Z b q 0 1 D I 1 M > 9 > D =X7Xb Z 1 0 1 , , n M 1 1 U 0 q 5 b , Z , 9 b q U Q A , J A n B T S . Z M 1 j q U q 9 b w 1 , A S n w 1 + M S S Z 1 + M M > S 9 1 w b 9 w 3XcXn b U B 0 5 S M n M 1 5 9 O 0 q 9 O 1 D 1 S Y o , w M 9 Y j o , 1 . Q ~ 1 0 9 0 9 Z S 1 j q 0 , , 0 S , , J ^ 0 1 + 0 > 9 A 9 0 n Z , Q Y , 9 5 1 9 A n > 0 w Z 1 0 % , 0 M M 1 n Y q 1 > O 5 M , 0 9 1 0 9 w S ",
"9 % b j , D q w 9 n S n w w w > 0 D ! M 1 0 , 1 > 0 D Q > > + 9 w b + 9 w 1 Z M M S w b w 9 w w J j 5 n M D 0 b Z 9 q U J , Q fXY 1 M b j M M I Q 9 9 9 b 9 1 q + 5 0 0 w n 0 j n ! *X0 0 1 > U Q w 0 1 . &X! j > O e 9 0 9 9 1 1 M n w M w w M M 1 9 M 9 1 % 0 Q A 0 > O 5 > M M O b D Z 5 b , 0 9 , 0 > 1 % 5 1 1 0 0 w w n 5 o X 0 Z 0 > T M 0 b 1 9 , n D 1 5 O b Z n w , 0 9 w 9 9 B n Y qX;X% Z M 0 j 9 M U 1 o > , I Q M Q T n , b 0 , 9 0 , ~ Q A b 1 b &Xn M -Xn 1 1 > M ^ n M ~ J q w 0 5 9 w , , 0 U A 9 , 9 , 0 w M w q , 5 1 &X*XO 9 A q 1 % 1 9 b , w Y S ^ > % 0 1 1 1 O , M 5X0 , w w 1 O B Q 0 0 q b j A M 9 0 5 1 A zXsXq X + j J M I w b 8Xb % w M =Xw 0 J n n J b M n 1 w > 0 j M B S 1 w n 1XwXI q X 9 w X B Q , b q w 5 > 1 + 9 q ~ b > , 0 9 O 9 w 0 j 9 1 > > , 5 1 0 w q 1 9 5 5 > =XY 1 0 5 9 B b 9 , 0 O 1 I U > w >XI O O w w Y ~ > 0 M n w b Z 9 0 b n 5 X > , , j w 0 w I D n , 9 9 1 1 T > n Q 0 w 1 ",
"j , b M 9 w b w 0 j 9 5 5 j O 0 > I wXeX, 1 , > 5 D A 1 5 0 5 M Z 0 9 , 1 5 +X+X+ 1 9 0 2 , M w 5 1 0 S I 1 A b T T M 1 A M B S w 1 T J U U B ~ A M w Z w 5 > , j w 9 9 1 1 q Z S n M 1 O q 0 M 9 9 9 5 , A M w Q w 2 9 0 > , 1 Z M M w I n D b , 9 B 1 9 0 , 1 9 O b M 0 , 9 >Xw 1 O w 3Xw 5 1 , 5 , w b 1 9 0 I ! b M 1 w , Y ;X&X0 R 1 1 9 1 9 b M 1 5 -Xq 9 9 M 0 0 n 0 w 9 T I M > &XY M U B 1 O ,XD 1 O b S j % 9 w n b Y n Z 5 > > D 0 0 9 9 + S M > n A j B Z M 1 T -Xw =X&XJ > D b n Z j 1 0 O 5 a b 9 , 5 w w ~ j O 9 0 b 0 M 9 9 0 o 7 5XZ 0 9 0 0 w A A Q b w 1 1 > 1 9 O w Z D M 1 % 1 , 1 9 q A Q w w A 9 w 9 1 9 w A 1 I Q n , n M % 9 , b b Z &X9 1 0 b % 0 b w 9 9 9 5 M 1 > w &XB w n 0 w j 0 7 9 b w w 1 b 1 % > % 9 n 0 1 ^ j 0 1 M 6X> 1 1 > S D > , M b A 1 , 5 5 b , q U 9 1 1 9 9 <X&XO q 1 w 9 Y j > 9 1 > 1 I Q q + S D 5 Q , w n w 9 0 w w 9 9 Z Q M j O q U 0 b S w 9 1 1 M B 9 1 w O Q ^ w 1 0 j 1 9 w ",
"1 n 9 0 0 A A 9 M U , 1 1 0 J Z , o n n o 5 9 > B J 9 j n , 9 5 0 1 , j O 1 9 > , b 9 9 j O 1 0 w q 1 D <X, M b w M % w q 1 q 0 j 0 w , Z b , > , D q Z >X^ 1 0 w 0 b 0 , 9 M 9 , X b T 9 A W n 9 9 w 1 0 0 O T 5XZ n 9 , S A 1 +XI j , 1 > A M I T Y q q j 1 , 1 O 1 9 A J 1 1 , > , j ~ j 0 9 , 5 I &X0 9 M 2 w 0 , q 0 1 > A U 5X9 5 9 j 1 > , 9 D Y 0 w w w 1 , w Y > 0 M M A J M w b w w I 8X&X> 1 , w A I Q w w &X1 , 1 Z ! j n j % I J Q A > 9 M , 0 A % Z n 9 0 J xXfX0 1 1 b 1 , -XA b q w 0 1 > 1 9 1 1 I M , A q % , w 9 n Z , O , % > A w 1 q w 9 q b 1 % ! n 1 > 1 A M % q B Z o 1 M n O U Y 9 > 1 0 b 5X9 9 w n q w S 0 1 1 Z n O O O 0 w B 1 1 D D n , O 1 n , n 0 9 M n 1 0 9 1 Q b w *Xw 5 0 w n 9 9 1 , q 0 n I n 9 7 A , Y 7Xn 0 w , U Z 0 D , 9 *X0 1 1 1 1 1 1 9 0 n 1 j A w ^ 0 n O ~ <X0 9 M 5 j 0 O 1 0 b , b <XwX0 1 % > 5 0 j b 1 9 1 > 1 w w > Z J , 1 0 1 n 0 S 3XS 0 5 , 1 b A 9 + o 0 ! ;XQ , 1 0 w w ",
"M M J n D w , 1 9 1 0 1 o Z M 9 w 9 , > Z &X5 1 , Q I 1 , 1 0 1 1 9 1 > , n M Z j 9 b b w M b > U Z + 0 0 0 b w 0 , A ^ 1 9 5 w M M n b , j M A , D U Z ! <Xw , Q S 1 1 w T 0 + O q A Q J S Z z > , n 1 > 5 5 9 A D 9 9 A Q U A ~ 0 5 M q U <XS , ^ M b M n 5 0 1 0 9 9 Z w 0 1 w n n > 9 0 n , 5 5 Y J % , =XM 9 1 0 9 b w B ,XM M 5 > 1 , 1 > > 9 Z =X1 , 9 1 % , A T B 0 0 w 9 M 0 9 w q 0 n qX3X9 X b M j 9 0 b M ,XS , w S U > q T M w b 5 w Z , 5 q M B M n b j 0 b U D I 0 1 w b . 1 w O j 0 w 1 w 1 1 1 ^ &X. , o 0 M 9 , j w q n , 1 1 9 1 > n M 1 > 1 1 q +X~ 9 M w 0 0 Q 5 1 , O O n ~ q O Z >Xw 5 w q Z I j 9 j M w 0 M w A Z n > j w % 1 b w w 0 Z U M 1 w 1 0 b A q 1 Q j , , , 1 O , M w 1 B b j >Xn 5 b 1 1 , 1 9 5 1 1 > % Q Z , 1 w w 5 > 0 w > Q I q z > 5 w 1 w 9 n j > 1 > 9 Z 5 1 M 9 D M w &Xn 5 1 1 0 b 0 q Z ^ Q > 1 O > 1 5 9 5 0 9 9 n 9 w 0 5 > > , 9 Z 0 O 0 1 j B B 5 9 5 b *XB q n , > >XT n 9 0 M n ",
"w 0 n q n M 0 S S 1 b 5 1 > o 1 b 0 Z 1 n M > 1 O ~ +X1 b , > 9 n Z 9 w 0 w Y w n 0 9 , w Q 6X^ q Z 9 q > 1 0 M b > Z b 0 w j 5 n j 0 1 M Z ! A 5 Z Y n n J S O b I , j w U M 9 b w 1 , n S w q 1 % M I A S 1 O M b , A 5 > b b w w 5XxXb b I A , w S M Z b 9 w 1 > 5 b 1 + 0 Z 0 Y Z X 9 0 j b Y 1 O O , > <XM 1 w 9 q w Z M w b 0 5 1 , M b X n U U O > 1 w > M n 5 w S 9 M &X5 0 w 1 0 B U 5 0 n M j 9 1 % 9 w n 9 0 Y w 9 % > 1 n 5 9 w 5 j n w 1 , B >Xw q ! > j q w 1 0 9 , 1 1 n w n 1 > b B , U 6X1 q , S Q 1 M n 1 I U o 5 q n q 1 1 9 w b > T Z n M w 0 M fXb , 1 9 b M M , 1 n 9 1 M =X&X1 > n , U M 1 b 9 0 , 9 5 j 1 w <XD 9 , , A B b >XQ 1 1 , , M M 0 1 > 0 7XY B 1 , 9 , 0 A O 1 > , q 0 j b 1 S j 1 w 0 0 w 1 9 9 O , 5 O J Q , , 9 w 5 > D 6Xn M 9 > 0 0 w 0 M w 9 0 b 1 9 > % 5 q w j &X9 , 0 0 9 9 1 0 0 M , U U O X 5 1 w 5 >XI % Y 5 q w , B b 9 0 9 w 9 1 > 0 j , D 9 q q 0 n w 5 1 Z -XJ w 1 M w j w 5 M Q ",
", 5 > S Q j S *XB j j q 9 0 9 1 > b Q b , , 5 > j 1 Z 9 9 > 9 M <XZ o M B 1 > 1 1 q w % Y I ~ b % , w 1 5 > O 9 -XI > w w 5 o 0 &XB 1 b w M M Z 0 b 0 1 n 0XfXB X X w T n U q b <XS o n w =XM w Z b b Q M Z w 1 b , j w w D U 1 b A <XwXB w X 0 q + S I 9 0 j q 1 > 1 O 9 M ~ 5 > , 9 5 % 9 0 w 9 9 , , , , 1 1 5 M 9 1 0 0 > b 6Xq 0 0 9 M D 5 1 9 1 % M Q w X Y &X9 X , n j ,Xw 1 B B n 0 D 0 9 w M 9 > , O 1 w n 0 w S I B 1 0 1 w > U 9 w Y w , 9 9 , 9 0 S J w n 0 M Y 0 0 w , M 1 n D 0 0 0 0 9 <XS 5 j j 0 M 1 0 9 1 S D M 5 1 > 1 1 w 0 B 5 9 0 , S A 1 9 1 Z ! 5 R I 1 5 O , w j b 1 &XlXI > 9 o 1 X 5 n 9 0 5 w 5 9 w 9 1 5 1 , b b > 9 5 S S U 0 1 1 1 Q D X O O % -X7Xn 9 5 5 1 0 1 j n 9 j B w A 9 , 1 b 1 w 3XQ 0 q 1 1 S b 0 +Xb X 1 9 9 w 5 Z b b w D Y R -X9 1 0 9 1 0 9 0 b q 0 1 1 n n 9 w 1 b b b j , 1 w 9 5 *Xw 1 5 1 n >XZ ! R j A 5 j j 5 > q 9 9 5 0 1 1 9 , n w J +X7XY O b 9 0 w C 5 j w 1 n b O 5 0 M Q ",
"*X&X9 *XR M , U w n A j 1 w , 1 j j , 1 9 w M +X1 , 9 q b q Z > n > O U <X0 j 0 0 j M A Y U 9 w 5 1 5 w 1 1 Z D B 9 % 1 1 > 9 0 M S J 0 S q 0 w 9 0 9 S w Z ! n 1 w M > 1 1 M q B +Xj 1 0 b O q b q 0 w r q Z > 1 q ~ n w B 5 w w q 0 0 b 0 w 9 j , , , X q b 9 5 ! w 9 O I =XO 0 5 1 I I % 9 n M n , 1 1 j b , Z J 1 0 9 9 Z 0Xj 1 q 1 w j R 1 1 0 , O b ~ A 1 9 Y 0 J n , M j j 5 0 w w 1 n Q D n 1 1 I b q U Z 0 9 1 b U n 9 w + A *Xn 1 1 n 9 , 1 0 , , > 0 1 0 Z b n *X1 0 w > > , 1 , 9 > , , 9 U M , , j 9 2 > T T 1 -XO 0 1 , n w j 0 q j j > , , , w b q J M 9 1 n B j 9 0 9 M b 9 U b 0 > , 1 > 0 ! 1 b n 9 b 9 n n w 0 1 0 0 1 0 j 1 > q w > q 0 w b 0 w Z Y *XB % Z D b A 5 j 1 9 0 b D , 1 5 9 *X~ q M q 9 Z M Z M % > M wXM +X~ 2 M 1 1 w b q A w 9 > &XW q Z n 9 , w w 0 1 , =X<Xn 9 9 1 1 9 1 q 9 1 J b A 1 q 1 1 > 9 5 w 1 b q 1 A 9 A 0 1 , 9 0 0 w b q b O 5 w j 1 1 I b S S n % A *XQ b o > q w 5 , % 5 w B 0 b ",
"GX7X1 5 9 0 1 w +Xb w 0 q w > 1 , 9 5 q R 0 0 A 1 > 1 w 9 D b > % 1 X q A 1 9 j 1 9 w 0 + B Y 9 1 , w S 1 1 M R > , b Z > M Q q , 1 q 1 7XU 1 w b j n J B 1 , M b , + % 1 w A w 7 S I n > % 1 n 1 n q 9 Z B 9 5 9 5 Q n n >Xw 5 w j M w 0 1 > w w 0 A n 9 j n 1 ! 0Xb w 0 9 I n n A O Z ! 9 1 1 1 1 1 , 0 n 0 9 Z n M I 0 9 9 7XY , b n q w , 1 q j 5 9 Y sX^ 1 1 O > j 0 b w 9 9 1 9 9 j 5 w Q 0 1 0 1 w 0 M ,XY q 9 > 1 b D 9 X O , &X*X~ 1 , q > n M % 9 1 1 Z b w j > b 1 0 0 M &Xw 0 q 1 O 1 0 O ,Xn O 1 0 q 9 9 ! Q j q w A A U 1 9 Z 5 9 0 b 0 w 1 1 5 0 M M U > 0 b w 0 1 1 9 M > A &X1 1 1 1 B T b 7X, ~ n w n 9 1 j 0 1 9 5 w 1 , > b 9 A U Q ! 1 w 0 q 1 j R A q 9 9 Z 1 5 w j 0 1 1 b 1 > % O n 1 1 q 1 > 0 M % q Z n > w 7 % n q w Z M w q q w j S D 0 0 z % q Z b M > M w j % *X&X1 9 0 b 9 w w b 9 q 9 1 q 9 < U M 1 Z w w 0 5 > 9 O + j M w M 9 9 -X1XU I J 0 1 j 5 , 1 Q w q w 0 , 1 =XR 0 w 0 % 0 0 1 9 1 1 9 U w ",
"J A A 1 0 w 0 X q 9 > q v 5 9 9 1 1 0 5XM O % > M q 0 > n 5 b w , 1 1 0 , 1 B n 1 > 9 9 S ;Xn j w 0 1 S n , 1 > O 0 ! S , , =XU > M 0 Z T M 9 w b n 0 B n M M n 1 w n > 1 j 0 w 9 m T Z 0 b 9 w n M w , ! j , 1 > 1 , 1 Z q 9 Z Z 9 1Xw 9 M 1 1 , 5 9 5 1 , , , ! j 1 1 b b 9 % 0 0 9 -Xq n 0 , 1 w 1 q 9 M q , , > n M 5 q n 5 U 9 I U 0 5 1 5 M j q n Y &Xw , 1 , 9 1 9 9 q w j 0 n j b 0 1 > 1 , M b > 1 1 w b I 9 j 0 0 Y S j n 0 X *X$Xb M , q > 1 n n D , w q n *Xn b M n 1 M ~ U q 9 > S 7X0 &XY % 9 1 5 q 0 j B 5 0 0 <XU ^ I 1 9 0 w 0 9 1 M Y S q 5 5 0 9 1 j 1 w w J b 0 9 9 1 j n > 9 1 1 Y S B I b j 5 9 0 b 9 > j j b 5 1 , n 0 , n w T =X^ , 0 Z q A 9 1 q M 0 5 w > 9 n 0 , 0 O 9 b % 9 M 1 5 , B ~ I w 1 U b M 9 w Y w , + 9 , w w b A 5 b Y n w , w , B &Xw 9 q 9 b 0 w 1 + 9 5 1 I D b w b b j 1 w b 5 q 0 eX+X1 b j A n w 1 Z J I Y M M 0 9 , M Y S B J w 1 1 w n q > S q 1 , 5 1 9 O b Q 9 1 j n 0 9 b > 9 M 0 ",
"1 0 9 1 0 1 b 0 b 1 1 M b > *X=X1 b O Q I q Z 0 9 =XM > 0 j M 1 1 1 w n w b I w B n j 1 ,X5Xo 1 1 w b M 0 , b j > q ! <Xb > 9 9 n T > M 1 9 1 1 9 q 1 5 ! T 1 9 , M J 9 &X=X0 5 , , M b 0 , > 1 ,XU A 0 > 0 1 9 I > 1 > 1 0 j b b 0 D b 1 w 9 0 0 , 0 0 + % 1 > +XR O 1 w 9 0 , ~ <X0 A 1 1 0 j w 9 M 0 w j q 9 5 > > w b w J ^ + 0 9 w w 9 0 9 M 1 n ^ 9 X 1 1 0 w M 6X+ Y M 1 n 9 w B 9 5 w w 9 1 > 1 e 1 M Z 9 b q j j 0 1 b ;X*Xj 9 j z q b 9 n 5 w 1 n 9 > , 1 b S Z q 9 1 M A , b b , % A U 1 &Xj M n w 5 M n n n B j 9 +Xw o Z n w , b 0 q % M fX! 1 j 5 , 0 9 0 q 0 b 0 M n 1 b w 1 1 b 0 9 0 1 > 9 % w J 9 9 5 9 M R J b M w 1 w n 1 , Y S 5 n M 1 1 >X3XA % , , 1 9 1 , , w M w 1 9 1 5 0 0 w q 9 1 1 q Y I 9 w I 0 , U M J Z 9 > b z > 1 9 M n , 0 w 0 A 1 5 B A , 9 , , 5 9 0 Q D w q 0 M 1 w 9 0 w w w b ! I j M wXQ 1 M M D w M 5 9 M =X&XM O w S , 1 1 9 w , 1 9 j 1 n 5 Y Q qX*X% 1 j n 5 % 9 , M 1 1 9 9 b 1 , q q ",
"Y 1 b w 1 n , j M 9 w 0 1 M >XM 0 w b j n 1 w 1 9 Q b Z , 1 > 1 9 9 b M , 9 , 0 Y 9 0 0 5 *XM j +Xw w O 1 9 B y 0 M qX5X, 9 + , O 1 w w b q 0 w 1 w b 1 1 1 > w b > 1 q Z I Y b 1 9 1 ! T , X > % +X7Xb q 0 0 1 1 9 w j w n Z q Z 9 1 9 M 1 w <XY 0 w 9 1 S 9 b *X1 > 1 0 j 0 w A j M 9 J ! -X! > w w 0 0 9 w b b w 9 1 1 M 9 b 0 0 M q B 9 1 9 0 1 D T % 0 1 9 R ! n >X0 S 9 q n 0 , 1 w w 9 5 w > w 1 q 9 U ~ 6X~ > j 0 9 q M b j n 0 w M + 5 w e 1 1 , 0 1 O > 1 0 1 O Z b 5 1 0 , n M 1 q b O % > 5 9 Z n M w 5 A Z U j 5 1 1 M Y 1 I w 9 M b 1 1 b 9 , w A M w b M n q 0 9 1 1 9 n <X0 b n b n b 1 0 q 1 1 b A B M 1 B 5X<XS Q w 0 1 5 0 9 1 b w O 9 1 > 1 Z 0 T Z 9 9 A 1 0 w > 1 5 1 I , 5 q M 1 n A 0 , > 0 q 0 9 j Z > 0 9 > > , q J q w 9 1 1 1 b n Z b S q Q , 5 M S T w w ^ > M 0 1 5 9 , , 0 M q 1 j n A 0 Z S , , > w A A 1 5 w q , , 1 9 1 5 w b q U q $X*X5 , , Z ~ M % B M =XZ w J > , 9 > > 1 q w 0 1 , > > I J 0 ",
"*X9 w 9 O % 1 , 9 1 O 1 > b &Xw , 9 w w O 5 ^ M M Y o q , 9 j w n 0 b b 9 > , > 0 n 0 n J 9 0 9 M w q 0 1 b b 2 Z S 0 1 1 1 9 > Y b 0 B 5 q 0 b Z w w 0 9 9 1 1 j 0 , 5 Z , q 0 b 0 q w M U &XZ 1 j S b Z 1 w 0 0 n 9 A , , 1 q ~ U w M w w A j A M , % Z wXn -XT 1 n 1 , n n n Z j q 5 3XA n A b 9 1 b 9 0 , b 6X~ 0 w 9 1 5 1 0 9 1 j B Z Z 1 b 1 5 5 w 5 5 5 M , n 0 B w 1 5 5 b b b M b n 9 , w M 9 , I n S D B , q &XQ A + % q b 1 9 > > b Z w , 1 , w 0 1 M n 1 9 , I -XQ , S Q 9 q M S ,XM 1 > 0 1 9 , M Z b w S 1 9 q 0 9 Q J 9 , , 9 0 0 n b 9 w 0 w J 1 j w w b 9 9 M D A , -XfXn 0 b A Z w n > T U wXU 0 1 0 1 1 1 j , w 1 0 9 0 j Z 0 R Y Q 1 O 0 M 9 = B w 1 9 w b 9 w w , 1 5 0 5 w I Z w b q 1 b > q b 1 B Z 1 0 5 0 1 1 1 1 w q 0 w 5 0 1 B j b w M 0 S b > S =XS +Xj 9 o 9 0 5 9 5 9 w O M M 1 b j q 1 A D 1 1 1 w 1 1 0 q w 5 5 > 1 > U wXn M J J q U j Z 5 5 M -X~ n X U j + n , 9 w 1 1 > 1 q 9 w j , % ^ *XB n ",
"q , 0 j M =X0 j b , , 9 9 0 ;X1 + 0 w w 1 b &XA 0 w n M Q Z , n j 1 9 q b b 0 , 9 1 n w Y w , n b q 9 , 9 w w 1 *XZ 1 1 5 w Q w ;XS n Y 1 n M , w 9 9 1 3 0 1 1 > 0 M M I S =Xq 0 b w 1 n J M w w 1 M 1 9 9 n w q > w 5 O > % n 9 5 w 1 O b b % 0 S 0 , q 5 > q 9 M B M b j b b M I M 1 w 0 O M w C 0 0 b n 1 w ,XD > w w q w j b b w j 1 0 9 5 w Q 9 j n q 0 j % 5 , > , Z b z b 1 I 7X~ A U b 0 5 0 1 > I n 9 j 9 1 , ! &Xb M M 1 1 w 1 9 9 1 w 1 0 M 1 1 w w 5 b q 5 1 9 j q 9 1 b 9 1 Z 1 q 1 9 9 U 0 1 9 9 0 0 , j j I M q j b 9 b M w % n w n *XM 1 w w 9 5 w w 9 0 M Z U Z S 9 Z I 9 n S Z b 0 n 1 > n Z M 1 X ! 9 M j q Y M , 9 0 M b > w Y ~ qX9 Z 1 2 0 1 > 2 b z , 7 1 9 , , S 0 5 j w b 1 w 0 > R zXn % 5 1 n ^ <Xn 9 , 0 9 9 A 9 5 w 5 B S 1 n R Q Z M 1 1 0 , 9 M > , > 9 1 S ,X~ , 1 w T M w 9 w w A 0 > 9 <XM 1 B b w 5 q 0 0 1 5 0 0 1 q I M S S M 0 B 1 <XqX9 1 &XM 1 ^ q w n , q > , % 0 1 w w b n 9 9 1 A M > w ",
"0 M b 1 M ! I 0 1 1 Q ;X0 5Xm 1 1 1 0 b 9 D w 9 5 S 1XI &XM 9 q 9 0 j 1 q D T M 5 1 9 w , 0 0 9 5 A Z n 5 0 1 w n , 5 9 , S T w U M n , 0 0 w 9 1 w b n 9 1 1 b j 1 q M S ~ +X0 1 A j A 9 1 0 Z 0 9 w O 1 n w 1 9 > 9 0 1 0 n 1 0 > M Q U 1 w I n b 0 M R w 1 % 1 > q 0 D M 0 Z U M 5 0 w , D ~ 0 0 9 5 b 0 b , > 0 1 0 R n n b n M 9 0 b b w 9 T wXb q n n B n j 1 S Z R Z M w 9 , 0 U Y n S 0 9 9 0 b M 1 Z Z 5 , > 1 1 , 5 Q n 1 n M 0 9 M 1 5 > w M > n Z Z , U n 1 1 > B j 0 Z M 0 , 9 b 1 1 O Z M q n 9 1 1 q S B w w w U Q , 9 ~ ^ &XI Z M + > O 1 9 9 , 1 9 U 1 0 9 j b 9 Y b + + 0 w b 0 0 0 0 9 1 1 1 , Q Q 1 b T S I ^ M + , 0 -XQ S X M Z 0 5 D 1 w 9 > + 1 0 9 0 0 1 > 1 &X>XA Z 0 b q S =X5 q B qX~ O 0 9 > 1 9 5 5 1 Z 0 b 0Xw 1 M M Z , M Q M Y 1 w 9 0 , 1 5 > A n 1 +Xn 1 ,X*X> 1 > 1 w 9 0 0 9 1 X Z Z w , b j b b 0 w n 9 1 0 U A w 5 B M 9 I n 0 Q > b D w , 9 1 9 M n 9 9 M <Xn , 1 9 5 n b 0 j 5 > 9 b q B Q ",
"9 w , A S O B n , % Y Z w &X5 B M 0 0 M M n M I 5 b Q O > A b 0 1 n 9 q + -XsXM w w 5 1 j 9 j 0 w n 9 Z 0 0 b 0 5 w w 9 9 5 > 9 9 O D j 9 1 9 M ^ T M M n , w M 9 % I Q 1 j n 1 % +X<XS > 1 1 1 1 1 > 5 9 b w > 0 1 1 5 b b w w > 5 0 I I 9 w I 9 1 Y M Q Z 5 > Z q , 1 q M w 1 b 5 b M 1 w D j 5 9 1 > 9 0 B ! Z w n w j , b 1 w w b 0 U Q A 1 *X7Xj j M A Z w n , b T 5XZ 1 % I 9 9 , > 0 9 , 0 q w q 9 Z ^ <X7X9 5 9 b q , 5 > n 9 , w 1 b 9 1 w q 5 j w Z 9 0 1 , Y Q > 1 9 1 M U A j 1 , > 1 1 , 1 0 9 1 A b , q S A J b , 0 w O R U 0 n O + 1 Y I w 9 5 n Z 1 M 0 0 Z M 1 w M Y 5 b w q 5 w , b 1 1 , 1 1 1 6XQ n S J 9 b 9 I 5XB 1 ~ &X0 b n b 5 1 > + 0 1 , 9 2 q j q b 1 5 D Q D M Q 0 9 b +XU U M Y Z 9 b 0 n 0 5 > M 0 1 5 + D S , 1 j M 0 q , > 5 1 0 w w 1 q 0 1 j 0 0 Z S 0 1 *XJ 1 1 e w 1 1 M M 1 M A q q > Y T 0 q w 9 j n J w 1 9 n 0 0 9 9 1 1 5 w -XM 6X1 , 1 w w w 9 1 1 , , 9 > > S B 9 9 n n q S ;X+XZ D b S ",
"Z w w 0 1 q n M 1 n 0 , % > 1 w Z b A 0 0 J A S w 1 1 9 D Z 9 U > M b q 9 w w , 5 M Z w 0 A n j q 0 1 1 0 1 >XU 9 M n n b w 1 b 0 1 q M B M 5 0 *X6XU ! A 0 1 9 w w 1 b Z 1 , 1 > , b 9 S I 0 1 M b 9 b , , 1 1 A 1 q M Z , B A 1 1 1 0 w 9 w b b 1 q w 1 > , j D w j 5 1 , w M M w Z M A I 5 9 U S U q S D , A , 9 1 0 , 0 b Z 9 9 b M B w U w > 1 9 b S n 9 1 q 1 2 1 9 1 b 5 B 1 T M T =XD O , b Q S 5 5 Z U Q 5 I 9 , 9 > > 1 b 9 0 5 , > % U ~ 0 b w w 0 M U 9 1 -XNXM + 5 9 9 Y I 9 1 9 D 9 J <X> w b b A q S T ~ A q w 9 5 1 5 , 0 b 1 q Y 1 I wXD O 9 0 S b 9 1 w 0 9 > n I T % j M 0 j w Z w , 9 b D w 5 0 D n Z J q S Z 1 qXJ , 9 Z + Y S q M > Q S > % , 0 0 b b M j 5 , 5 D , , M 0 b M w 0 D 0 j M j S q 9 1 0 > 1 5 , 9 5 n n 1 q 0 5 b Z w 1 9 Z 9 , 5 0 1 0 0 M 1 M M A ~ + 1 1 1 0 0 M w 3 1 0 w 9 w B I 1 j 1 , > 1 1 0 Z ^ 0 1 > 0 0 1 &XS 0 0 j S ;XM S J T w 1 1 0 9 1 Y 0 , b 1 % 5 > b q b n w J ~ D D A , 1 ",
"U &XR O R U 1 n S S ! 0 , 1 b > 1 w Z A 1 A n > 5 w w b ^ n > , 1 9 1 n M 0 b w 9 S M j j w b q 5 z I A 0 m zX&X1 M n I b A , n J 5X&Xb > 0 0 , r w 1 1 0 9 0 0 w M j I Q ^ b X 9 M 1 > n 9 1 w w q 9 w j 5 , 9 0 5 q S Z 9 n b 9 b > b n 1 Z Z 1 j w w 1 1 , 9 w 0 j 0 w w 1 M j M B j j A 0 > Q ^ A Q 1 1 % 0 q 0 0 5 9 q > I w 0 b b 9 j I w 9 5 0 w 9 0 5 b 9 , 7 5 , 9 uX&Xw B R Z Z B Z B 9 j -X~ A . b n O q 1 > b 5 , , 9 w w 9 q , , D =XR J S 0 b j -X! b Z S *Xw 0 b q % O > n 1 0 9 % W ! > j M S 1 1 M b 0 j w w q 9 1 j 1 9 A , D U > A 3Xn , 0 1 1 9 9 B 0 9 b b A O , D B w Z q w b n 0 , b S b w b q 9 q w 1 B Z M B , n 9 j 1 0 w 9 1 9 T M , j A w w M w j q b I n m 5 > w j 9 Y 9 , b j Z J , M M > 0 1 > 1 1 , Z w 1 j M 5 M , w , 1 , 1 R 9 M S w M b n X 1 M + w B 5 o 1 % 0 w M A b 0 A 1 9 &XD > , 9 O 1 1 > Z 0 9 1 , 0 9 % 0 0 b q 1 1 w w > , o *XB 1 O 1 0 1 > n + 1 , 1 1 0 M w 0 R Z j B R I j n , 1 ",
"9 b 0 5 5 j 0 9 A 1 q 0 5 M D 9 , 0 1 9 q 1 n w Y 9 n q n 1 Z A 1 , S 5 Y U 9 9 w q 1 9 j q 5 b M S A B M q U b w S J b 5 b 5 , 1 D j w . I n w M 9 U R > 9 0 D M 1 1 Q J fXq A w > w 1 > % b b 5 1 , 1 , 5 I w 9 b w w 9 b q % T NXb > 9 1 w Q ;Xb 1 , b 9 b S , 5 q 9 M M w M *XU D q 1 9 9 1 w M % , , q 1 Q 1XA , w n S n j 9 w b M > 1 I =X, j M q 0 w b q 5 0 1 q 9 1 D M A M S 9 B j J ZXU O J U O ^ M w b > j 9 + , 1 9 1 j b B w 9 0 B S 5 M J 0 0 A B M I n Z w 0 A 1 w 0 w , w 1 1 w , U q 5 5 0 0 n Z % 1 9 1 w 1 j 1 w 1 b M > n A T 0 9 S w 1 w 0 n 5 9 j w 0 M 9 Z M j Y 9 5 , 0 0 j Y Y 1 , 9 b 1 M I 0 1 9 M >X-XY *X5 q , w w 0 9 q B + 9 1 O q n 9 w b B b A >X=XP ~ M 0 , 1 Y Y , M 0 S w J D , 1 0 S q 9 > 1 > I M > 1 q 1 O U w 1 w % + , > 0 R M j B 5 Y S 1 5 , O ! M 1 9 , 0 0 q w j 9 S Z 5 , 1 w 1 b 0 , 9 =X~ , 1 1 j b 9 1 1 1 , j b w n 1 , w M % 2 D w 1 % > 1 1 9 1 w 5 1 Y ;XR W U 9 >XP b <X*X1 1 ",
"1 Z j w J n w 9 w b 1 1 O B 0 M b 1 5 1 B Z Z 0 M w ^ n , M ^ T *XZ S 5 O > 1 q 0 O 1 1 A Z 1 w 0 n 1 U S > o 1 0 b b 0 q j 0 5 , 1 , I >X5 n D Q n &XI > , 1 Y *XY O q A w , A 5 w 1 1 > , 9 q 0 0 , % 5 ~ >XC A 0 n 0 D >X9 0 A qX+XO w 5 , 1 9 9 1 0 D 1 Z 7X9 j M Z q 1 D T S B 1 n w q > w , , D 9 b *X> M 8XS , 9 , 1 q 9 j 0 1 1 , S j 1 9 n j M n w M b 9 , Z U b 9 j A 5 M B 1 U Z 1 Q M q 1 5 0 M b b 9 w ,XD 3 1 0 0 q j z b 0 , 9 n n O 1 0 b w S 1 w n w M D 9 Z b , 1 1 , , 1 1 0 9 9 M q n n 1 j 9 q > Z D 1 b 0 q w n w > w Z > Y U O O , , q b Z M 9 0 q , n Y Z 9 , > O 1 > 9 0 1 Z w 9 0 , 1 q n +X1 n 9 M j M + Z ^ S > , 0 0 > Z M > 9 , 5 O 1 n 0 w B j M A Z A Z A 9 1 9 hXT 9 Z 0 j 9 B wX0 , M w 5 5 , 1 B w % , 5 5 0 Q =X0 Y 9 0 I 1 o o 9 j 5 1 5 ^ M , 5 5 9 ~ 6X1 1 1 1 5 , 0 9 , w 0 > b M 1 5 0 5 5 J ^ I O , 9 0 0 w 5 1 0 1 w 5XD 9 9 w q 1 B 1 w 5 > , M q 0 b 9 9 q + wX8X5 b S 5 M w M ~ U > 1 ",
"> 1 0 1 A U S w 1 1 1 9 5 , , 9 q 0 S 1 9 b A I S 9 , b 9 9 Q j w 9 X O Z Q I 5 w 0 I w b M 9 j D 9 9 0 +Xb w n b 0 1 w w 9 1 5 9 9 O ^ *Xq A D j w q b 5XY 1 U ,XM w B M 5 5 > o 1 1 , 9 9 j w n w 1 9 Z Q A n U q 5 M ! I U n Q M 5 n w b 0 5 , M 9 1 1 O S Z , 1 j n j q > 1 , 1 j 9 j 9 q 5 0 b 1 q J S 1 b &Xn 1 9 b b 9 0 Z n 0 S M w 1 n +XZ 5 q 9 w M A S , 9 w b q b 0 j 1 1 9 ! U *XU o 9 w M 9 0 9 1 w O w , O A S w 9 B B j S >X*XD S b , 9 j S Y > 0 M Z n I > n 1 w b 1 1 1 , w ~ w 1 j j > 1 n 9 , , % , b 1 U I j D n 0 w b 1 1 , 5 0 > 9 O w 9 B b w M M n Z D , 1 9 1 0 9 % M ! M 1 , 9 9 1 9 5 5 > 9 1 5 M 1 O O J M % 0 9 9 1 > % , 1 1 9 9 , S b J U ,X1 ~ *XS A Y M n 1 M A M 0Xn b j , -X7Xq > 1 , 1 r R b A =X> 5 w , w 0 D 1 ,XM , Z 1 M S q , S b +XT A Q S 0 9 q 9 w 5 q 5 Z Z n P q > 9 9 0 Y w > 0 q w b q 1 > 1 1 9 1 b j 1 0 1 % 5 1 O n b 9 9 0 1 9 q 1 9 , 1 b w Z 1 9 0 Y 9 O j w , 1 1 1 1 , Q *X",
"w > 9 0 9 U Z 5 1 n S 1 &X*X% b b Z j b U T =Xq j q b 1 1 1 1 0 w , U M 0 *X6X> 1 0 M M n , q 0 9 > w M ~ 9 9 M b w M D n 5 9 9 D M 1 1 I M q U q A ~ O >X&X0 % M > Z D w A 1 U Q % 1 , 0 0 b q B w 1 % 0 S + , n b b A 0 w A 9 n Z 0 I 0 0 9 0 > > 1 > b 1 n b 0 b 9 1 M M j 1 b M 9 9 w 9 5 q b n 1 I w U S % 1 , , 0 0 b 0 9 9 w 0 j n A b 9 0 > , 1 , 9 n R D 1 9 9 0 1 A &X1 M w A ^ ^ b Q T J > 5 0 w , J M O w , , 1 0 w n w M M M Q S I Y M 0 1 9 sXq 0 M j A 1 Y &XO , S b 0 0 O 0 > 9 1 O 9 1 0 U &X0 b 5 1 5 + O O Z j 5 5 n *Xb % 1 , M wXA , 9 0 1 1 9 b 1 w R 1 1 0 w 9 w 9 9 1 Y =XM , 9 1 M Z 1 > 5 9 9 Y Y j n 1 w 1 1 9 w F > > 1 w 0 q 1 9 n 1 M lX~ 0 Y j A Q , >X1XU M , 1 X 1 U b b 0 1 b S q A T 1 5 J 0X5 O 1 > 9 n > A 0 b w b 0 1 b J &XZ 9 1 w Y Y b M B 1 Z b w w M 9 w 9 w <X=Xz > n B 0 0 , q 1 1 5 1 1 , 1 1 , 0 w w 9 w 0 5 9 w M 9 9 M j 0 9 5 M j 1 5 1 1 1 M n 1 9 w S 0 5 1 > w w + O 9 0 > zX3X",
"1 q 0 0 , O 9 j 5 5 , , ! Z , j M Z , j j 0 b 0 w b 9 0 0 9 , b b 0 T M O *X*X1 1 9 1 5 1 b M q w b M w X n Y q b M 0 w n M 1 9 Z b w n 0 q 1 b 1 b I q I o n q b 9 j 0 5 1 1 B A 1 0 S 0 0 M M j n n U A b w 1 1 j w I 1 9 M M M A , M j , 0 9 1 1 1 1 A n , M b 9 n 0 q 1 > o b S 1 S n j S M 9 X n w , w j > % , , w w M Z w A Z > I ~ 9 , 9 , 1 9 % j S 0 9 > 0 5 > 1 q 0 b 9 1 0 b % 1 . I Q 0 9 , 9 5 1 0 1 1 1 1 9 1 A w 0 I R j R U S M j Z 1 1 D 7XA &Xb 9 q 5 <X8X0 > w > 9 9 n 0 >XJ % 0 0 9 w ! n n =XO J Y , 5 b 9 w M 0 I S 0 Z 0 0 q S S 1 9 w 0 n % 0 b % > 9 5 I B % 0 0 0 b S A , O 1 9 , , n 0 0 9 > M ! % , 9 w 0 n 0 1 9 , , w w 1 n A 5 0 O R 3XO 5 M 1 > 0 9 A b n M 0 j 9 , 5 9 w 0 1 9 q Z D M w 9 M j b w M b O M 5 O O X , > 1 O b 3XA j n 9 1 0 0 1 5 > % w q w 0 b q 1 1 w 1 0 5 < 1 b w w 5 > 5 n w > Q Y > j Y &Xq 1 j n 1 9 9 1 ! b 1 w 1 *XZ n w 1 , b w 5 0 9 w 0 b 1 A D , 1 0 1 , 1 1 O , 9 W U ",
"b S 9 q 0 w , q > 1 q 9 T 0 1 9 0 0 Z w 1 1 0 5 0 9 j 9 9 , J w 9 A A I % M n 9 9 1 M q 9 w w 0 n n 0 I , Y n 1 , 1 1 M A ~ 0 1 1 n 0 9 Y n 0 1 b &X8XA 3X0 b 9 w 0 0 w 0 Z % 5 1 O 9 B 0 j w B B S 1X>XZ T M 0 1 1 ^ Y , M w S w U I , 5 j D 0 9 , 1 , D b > 1 j 1 1 R b 0 w O % , > q I n n b b ! M , , , w +X0 1 1 w 9 w 0 n 0 b Y 9 q , q 9 b b 1 > D ,XM 5 1 9 n n , 1 9 1 q M j n j > 9 n , , n b 1 1 % 1 1 0 , q w 1 S ,XQ J ! 1 2X~ 9 ;X>XS b > 0 . A <Xb b w 1 &XU 5 q q 1 5 I 0X1 w w % 0 w , n 5 Z n U 9 > 0 n Q Y 1 1 J U -Xj R Y w b 9 b 5 w 0 w 0 Q <XI M 9 q q 1 0 M 0 % w 9 0 , , , , , 0 n 0 n w 9 9 1 1 o 1 0 T > 1 1 w w 9 w , 1 , n w n 9 5 j C , 1 1 9 b 1 > > 1 1 1 ~ b *XB Z Q J 9 9 q n n w 9 w q 0 0 9 Y S M B , > 9 5 w b O 9 q q % 0 w 0 Z 1 5 0 , n T 0 , M > 9 , + O % M b Y U , B b 1 > 5 w 1 1 1 A 9 w b 1 0 U W M 0 9 q % % 9 > 1 O b 9 Z B 0 R M M n >Xw w 0 0 9 n 9 5 j S w 1 q 9 9 w j w , 1 0 S ",
"9 S 0 , 9 1 % 1 , 9 w 5 5 n q B w 9 q 9 q % U Z 0 n w j n M 1 + Z q 1 ~ 0 > > % 9 b M M b 9 B 5 1 Y A 0 , 1 + 1 5 , 0 1 q M 1 w 5 , q 5 +Xw 0 b M 0 M O w ~ ^ 1 + 9 0 1 w A > 1 > w > 9 b n n A n M S U M j B 9 9 9 wX! 9 M 0 b 1 J uXw > b 5 > w , 1 D w O 1 3 1 b *XY n &X9 b S > O X w n 9 1 Z Q 9 1 w , 0 5X-X, 1 1 3 1 1 w 9 1 q 1 5 B b 1 9 9 w w Q Y q + 1 1 w 9 w 1 0 w > ~ -X9 9 1 n 1 M 5 5 0 , > q n 1 n w w b + *XfX1 0 M q z n M &XT B w 5 , > 9 1 w n q 1 9 n J U A 9 5 &XS , 1 b , w M > b O 1 1 + 9 q A <XA , q 9 w J 0 w 1 > 5 A w w b n w 1 5 1 S A 9 O Z n b 9 > 0 9 0 O 0 I q 1 b J B 9 0 w j 1 q 9 S T 5 b 0 n D 0 0 D , 1 j , 5 w Z 1 q 0 C A q 1 9 , 9 O > , w > B B > n O M Q ! w 9 9 9 1 M w w w 1 0 1 I B 9 M 1 > w , *X&Xw + Z Y n 5 > 1 O w n C + Y sX1 5 0 M w 1 Y ~ 0 1 1 Q R < j b b w 9 5 1 > D A 9 > , 9 w , 1X<Xj > 1 > 0 0 5 1 1 D % 5 9 1 , w D b A w w 9 w 5 O 9 j 1 1 9 > 0 5 9 0 > Z =X=XB M ",
"> Z , n n 1 1 , , M Q 1 1 n 0 O 1 A 1 1 > + w 1 0 ! B M I w w n n > 9 % M 1 > 5 , w 0 M w B M A M S 0 1 w 9 q 0 % 9 &XJ q 1 1 j 9 9 5 w O 1 9 1 w w > + Z A X w n w 1 + , 1 1 1 0 9 1 Z A D J 1Xq T +XI A Q Z B , n M M 0XZ b w 1 *X<Xw > , 1 w 0 ~ q U Q , w w 1 9 0 D 9 >Xj 9 A 9 Z R 9 0 U M 1XD J ^ n 9 w 0 0 w 9 w 0 T A M S 0 1 5 1 M D 1 1 w 5 b 0 0 % , 1 9 0 9 n 0 0 9 , , , , 9 D 1 9 0 0 9 j 1 1 1 , b q Z > 9 9 Y j > 1 b 9 2 1 > 9 1 b R j ~ j w I q 1 0 w b w b j n q 0 9 0 Q M B 0 , 0 5 > , O , 9 , X M T 9 J M 1 1 , 1 w q > 9 n 5 9 , 1 > 0 M M n 0 1 n 1 1 9 q 1 , 5 Z b 9 &X0 0 M 3Xn 9 9 n 5 , , > w b 1 9 9 T A D Z 0 , U S q 9 9 1 n j 9 9 I Z O j 5 9 0 z 9 . 1 A D , > , 9 <X1XZ 9 > 5 1 D 3Xw 0 9 w 1 b b j 1 > 0 0 1 B ;XS > 1 , B b b 9 5 9 b z 1 1 q o , 1 b j , >XxXZ 0 9 I n > , 1 b 0 Z 1 w , &XW S ~ 0 0 5 1 5 > 0 9 1 0 M w 9 w 1 n M 9 9 0 0 9 0 0 5 w S M > 9 M w Z 0 9 0 0 5 w 9 w w 0 ~ 5XI n ",
"! + 9 J w 9 0 > 9 1 9 , > 9 0 n *XI b M 9 1 9 O X 1 Z 0 9 1 Q Q > , 5 1 ~ 0X0 1 1 1 1 , b 0 > A n 1 j 0 w 0 b 0 , Z *XU , 5 1 n B 9 > 1 w 9 A &Xn w 9 0 0 , w 1 F 1 , 1 w 3 w 1 1 n 1 j zX-Xw I b M +X% >X5XR n 5 , o 1 S q M b 1 w b B D T 0 1 R 8X, o 1 > 9 M > A 9 m 0 0 1 0 w T ~ b 5 5 M R T j B 9 0 Z q n j M 9 w 1 M 5XS w > A n q 9 0 q , w 1 5 0 1 5 > 0 b j q q w 0 5 w A n 9 b A 1 0 1 n M 1 0 r 5 9 M Z q 9 0 Z b 9 9 1 9 b O > 9 z > n D b T 0 A ! I q w 0 w q w > j q 0 < m Z A z Z O 1 0 q ~ n , 1 Y M > > 5 , 5 9 n b > >X,X, 0 5 0 w , j 1 > n b *Xn 0 M b w , q 9 9 , M M , > 1 w 0 J >XJ 1 9 , % 9 5 , o M q j b , w n Y j ~ A j q q 9 9 5 q 0 w w 1 0 q 0 q 9 w T w j 0 1 9 5 > M J Z 1 1 5 n ^ ! 1 n b w 0 1 1 1 0 0 D n > M 3XO 1 w w 1 , 9 7 , w M D Z 7 > M 5 M *X7X> n M , b 0 b Z 0 Z 9 > 9 w w 0 j n 5 B S b q q 0 w M O X 9 b j % 9 1 1 , b 1 M T 9 , q q n S *Xq O 9 M w S 1 n 0 0 n 1 9 1 1 > n n ' 1 ",
"1X1 + 0 O 1 0 b q 1XM > 9 w 1 w Q 1 U &X, Y M > b b 0 M w M ~ n B Z 1 9 b S n , 0 9 b 0 , M w , 1 1 M I 9 , 0 0 q A M 0 O 5 1 9 , b b 9 q 1 , Y 5 O 9 w w j q 1 w 1 , 9 w 1 0 B j 9 > A 3X% , M w > w w w w b A w j j > 0 w w 9 0 q 0 Z Z Z w 5 A 0 B j Z q > M 1 O O X 1 1 , + J 3XM M b 0 9 w 0 5 9 O 5 b 0 0 0 b 0 > q 1 9 0 1 9 5 w b w , 1 w n 1 b >Xw 9 Z ;XM 1 w B 9 9 9 , J S , q , Y Y Z 0 w > n n 0 9 9 n 5 n 0 n S w 1 0 1 1 1 q O > 9 Y M O % + Z 1X&Xw 1 1 9 1 Y R 0 9 9 5 1 S j w 5 , 1 9 w Y *X0 > b b Y 9 w 1 , w B 0 O U J + > Z j 1 j lX7X9 , j T 9 > 1 n a w w 5 1 w 1XM A b 1 q 9 w Q n 0 1 1 b A 9 j 0 M Z 1 9 0 1 1 0 9 9 9 j n 0 1 5 1 M q 1 0 0 , j 5 9 5 b Q sXZ 1 , , , w > 5 > n M + 1 <X1X, q M b 9 1 , , 9 1 9 Z 0 , 5 w w 0 M w M , 9 , > , > Y S 9 q 1 Y Q &Xb 1 1 q M w w 1 0 w 9 b 0 q q 9 0 w w 1 n 9 w 0 0 S ! . b U , 1 1 1 1 9 1 Z <X1 I 1 5 9 w 0 1 w Z 1 M , > q 9 w 0 0 M w 9 w , , , 9 0X1 ",
"M 0 Z 0 0 1 &X>X% b 0 > b 1 w b w b M D > 9 w Y Q A 1 b I Y Y M U Z n w M 9 w 0 q q j <X*Xb b w b w , v w % 0 b w 1 > 9 , O 9 n n w n 5 1 0 9 O 5 9 I 0 1 , 0 b w w 1 , , M n b 1 0 w A 1 1 5 0 M 9 > > j 1 > ^ M -Xn A Y I 1 q b j M 1 , w j q 1 9 Q I b n > , 9 1 Z 0 + 0 w 9 > j w b M 1 9 1 , I Y 1 0 w , 0 > . > 9 b n ! M 1 B w 9 , w b 1 1 b b 5 w 0 9 n ~ D b 0 M , O 9 1 , O b 0 M D 0 S A S 9 <XA j q 9 q w w 0 0 A M > b 9 q 0 n j 0 , n w 1 9 1 9 *X+XB 1 , 0 w T ! 9 b 0 0 5 > 0 w , 9 Z 1 , ^ *X, 0 9 9 0 1 B 1 1 b M Z j > % , 9 > Y S O <XI w 9 b D w 0 q 1 , b n 5 0 b Q w ;XA 0 0 5 9 > , > 0 0 D 9 w 0 1 , w 9 w Z w 9 0 b w M ! Y > O D n B b 0 j 9 q 9 5 w 5 5 0 ~ 1 1 1 T S w > 1 9 Z ,Xj % n 5 1 q 0 0 1 n n M U j > 1 5 , 9 B b , w b &XZ 0 9 0 1 % ;X<XB > O Z <XU Z q 0 w A Q T 1 q M w 1 9 1 b 9 5 5 0 D D 9 0 w 0 j 1 % &XY Z > 0 1 w 0 , 1 B 5 O 0 j b M 5 0 q 9 , B b > 1 q 0 q q w n b 1 0 5 n > ! 1 ",
"M I U D 5 q =Xj 1 5 M > b b , 9 % 3 1 O 9 w ^ =Xq 9 q 1 Z M q 9 > O q v 0 q n 0 9 > 1 9 Z j > 1 Z j n , 1 9 w 1 , J A 1 q D I 9 0 j n 0 w 0 M ~ 9 q 0 j U b 0 A 1 , j 9 9 9 Z q b q n A 0 0 9 1 9 % , , 9 > Z A > w o n ^ ^ b 0 1 1 1 M w w 9 9 5 , A n q A , 1 0 q +X&Xq O A S M , 1 1 > 0 M M + 1X,X> 1 b B 9 j 3X! , 9 v *XZ 1 w n j 9 q , 1 0 Y b 1 5 1 0 5 Z 0XI 1 , > 9 w 0 9 > Z w 1 1 0 1 , B w A w n 0 w 9 , 1 n 0 1 0 1 0 b 1 9 1 M =X*Xb , , , , 1 9 j 9 0 5 9 n wXI 5 b A w 0 0 O , 0 q B Z > B n , 0 n b q w 1 5 , 0 j n B , 0 n q =XsX^ , 1 , 0 M 1 1 0 q b 3 w 9 9 w w q 1 5 5 j b b b 9 +Xw X w w 9 5 , 1 1 0 9 Y n U A , 1 q q j S A , w w , M 0 0 0 0 M j 5 9 5 > 9 w 9 j 5 9 9 , 0 0 9 9 1XA > X 1 q n w w 9 w I w I w I U 1 , 0 0 Q ^ 1 R =X~ , 9 r w 5 M q b 1 > w Y B q 5 j w n M n 1 5 > 9 0 0 1 1 w n q 1 w J b 1 5 q 1 % M S b n > 1 0 0 0 9 0 w % % 9 1 1 9 > ~ Y X n q > 9 5 0 0 0 , 5 9 , 1 9 1 + n 0 , ",
"j 5 w b 9 w 1 M ~ b B 1 1 9 1 , 1 X 5 9 > + S A n A w , 1 1 9 n 0 , n 0 0 5 1 , , n n B M 9 w j , 1 5 n 1 0 w M % T A 1 9 ;XS 1 0 B M > 1 , 1 n > w 0 Z I D U 9 1 A Y 0 q w 5 n b 5 0 A D > 0 0 9 j n j X , M S 1 1 1 1 <X5XA > , 9 9 J 5Xw q 9 q > w b b O 1 0 9 1 A <Xb > 9 1 Z 1 Z > 1 0 j w 9 0 1 + , 1 9 q 1 sX7Xq 1 b I 1 , , v 1 B n 5 5 n 1XM >XM 5 j 9 5 , 1 1 0 w b j q j 5 9 n j q j w w 9 q 9 b D U 1 O B q Z b 9 w w 9 0 9 0 w q J 5X9 1 w Z n 0 % 1 > T I o 9 &XM 9 9 j 0 1 5 b q b 1 1 0 w + 9 Z q 9 M n A 1 9 5 1 + 0 5X*X1 , 1 U Q J B 5 b w M S B 1 M b 9 w 0 j q 0 w n w D j 1 0 0 5 ! , 0 -XB 9 5 1 w 9 q O *XA , 5 0 b w b 9 , w 1 M A O 1 w w w w j M b j 0 1 5 1 1 0 0 1 5 9 0 1 0 9 % , w 1 O w j 1 w q 1 T R % 9 >XdX5 1 9 A b 6XU n A n j j b 9 , 1 b b n A 1 q 0 0 5 b w > 0 0 0 9 q 9 w 9 9 , 0 >XA , , b > , , 9 1 1 + 1 1 1 9 > , , 0 b 0 5 0 I 0 , 9 w 1 S Z 5 9 , b 1 5 Z Z > 1 5 < , S 5 1 n q n w ",
"0 1 O j q 9 9 M A n Z n O 1 1 Z -Xq % j ! w > 1 1 , 0 0 Z , b qXZ , 0 1 b 1 w n , 9 0 S ~ 9 n M j 9 5 w > , b n 0 O 1 q b j ,X=X0 1 1 + 0 9 1 O j Z 1 q , 9 w A Z I I w w 9 w 1 1 j 5 w q 1 0 b q 9 0 w Q A b 1 9 9 1 > b J M 1 1 0 b ! Q 9 n M q j 9 1 1 0 9 A M O I ~ o q b n 9 2 w 5 1 b Z Z M > q q 9 J uXQ O B , w b 0 j b b A , 1 9 5 j 0 w 9 9 B B b w j 9 A 5 X 5 0 M , 1 1 5 1 w q q Y n 1 1 b q M &XD O , n w Z 9 q w w M 9 9 0 1 > 0 w w 1 0 U b 1 q 9 w M wX0 1 > , 0 n 0 w q n n M =X0 0 9 9 , v n S w % Q ;XU 1 q 0 0 9 R M b O O &X>XM b 0 0 D I Q w 9 1 9 e 9 1 1 1 0 1 , b A S w 9 q 0 O , J M U 1 1 0 q b 9 1 1 , o 0 w j j 9 b +X> 9 b w 9 1 5 5 q 9 9 j 0 , 1 9 5 w n 1 n Z 0 1 0 , R Z b 5 , J I 5 5 1 0 1 0 w , 1 w 1 w 1 1 1 w 9 > 5 % q j j n b 5 1 1 > 1 9 9 Y 0 5 n 0 9 <XQ 1 J 9 0 5 9 1 5 0 5 = 1 % , , 1 q n 9 5 , % 0 0 + , b 0 1 w , 5 O + w I &XZ b w , 1 , , 1 j T w 0 , + , n n b eXD ~ ^ Z <Xw 1 ",
"1 ^ T 0 q 9 1 9 I w b 9 1 9 1 b ^ =XO 1 w Z S 9 w 1 > b n 9 1 Q 1 2 > B w > R NXR , 1 Z M , , 9 b 0 M , w 1 Q Q n U 5 1 0 , I b q 5 > q b M w w 9 D 0 w 0 w , 5 q 5 0 n Z b 1 w 1 n M 5 5 0 1 0 9 9 9 w I sXS 1 1 5 0 0 > 0 O Z n O > 7X*X, w b n 1 1 , 1 1 1 1 M 0 > 1 b j w n b n , 0 , % , 1 ~ S 5 w 0 ~ Q R w 1 n q Z q j , n b 0 Z 9 M 5 w j q 9 w w 9 q 0 0 *X1 1 Q B > 0 1 9 1 0 1 3XM M q 0 0 j w 1 0 b 1 A 0 O 0 q j q 0 M n 0 j 9 1 1 1 9 b 1 X 0 9 9 1 0 q M 9 5 % , n b 1 j 1 w Q b , j sX-X> , n b -X7Xw *XQ A 1 w b , 0 0 Z n w j 0 0 b 1 0 A O 1 b 9 1 0 1 9 n 0 1 1 U &X1 , w A > , 9 w 1 , w j w 1 , 9 5 1 b 0 M 1 b 0 9 , 1 9 w 1X1 9 w 9 0 % 0 D w > 5 2 o b w O 0 O B 9 > O 1 9 9 1 A Y T , X R +XO 9 1 1 , Z q , 0 1 j 1 0 q w 9 1 , 9 S M M b n 0 j 0 > n n w Z 3X1Xb , w 0 <XY % n w 1 > J S , n 5 2 1 M S Z Q ,XM 1 1 9 j > M 0 . Z S w 5 w O + D S w I B 9 A Z 9 5 1 9 1 ^ Q n 0 A 9 9 9 n S b n A q Z w , ",
"q ! Y 9 j 0 w 5 1 q 1 1 w M 1 , 1XS > w b w 9 9 w , 0 M n M 0 , 9 1 q j -X5 B =X0 9 w Z D 5 b 9 , 9 b b w 9 U j U Q j j w 0 , , O 1 0 B 0 0 9 9 , 5 b 5 Z n q 1 n b M R &X, O n Z b M 9 q 0 n w 5 0 0 1 9 U w 1 1 Q A q , 1 q M <Xq 5 M , 0 j w 9 q Z M M R 5 1 9 1 1 w n n , w n >XM 0 9 j , 9 <X~ q , + &X;XY Z 0 0 B U Q B 1 M q 9 0 0 9 q 9 1 0 M U n 1 n w 0 w > A ~ U 9 1 9 w q w > w j . 5 q b b 9 M M 9 9 b Z r 1 w w b n 0 M n 1 9 9 q 9 w 1 B j 0 1 q 0 Z w > 1 0 j 0 q 1 0 q w 5 J j 1 q R R , 9 , D 0 U 5 1 0 b n j j 1 > 1 q w A b b q 0 w 5 n W 5 q b 0 w n 9 1 9 0 , 9 M > 1 > o 1 0 9 1 O , > , X 9 9 % > 9 9 w + o &XQ q 1 B 1 1 q 5 9 1 B S 0 1 0 , w 0 j S Y n I n U U b z b w j w % q n 5 w 9 o 9 , > 1 , 0 1 Z w M w 5 w q q 9 9 0 w > Z 5XT 0 % b b w 9 D -X> ^ >X&Xq 1 > 1 , w 9 w n w 1 xX6X> 1 Z Q n 0 n 0 S J > , > O O w O 9 1 1 R w 1 b 5 5 w , > X O % w S b 0 0 1 O 1 U 9 b J -XZ q > M J w 1 > w w 9 ",
"B sXZ 1 M A w q 1 % 1 q 9 A w , Z 9 0 q n a w 1 9 9 O w 0 A M , Z 1 Y 1X7Xn , 5 5 n b 1 1 q M q w q w 9 0 b 5 0 1 w q w n 1 Y Y X 9 M 1 w > 9 , 0 5 U S M U , 1 0 j 9 B M q 5 w o b 0 0 q 9 M M 0 0 0 , 9 5 0 b 1 , 5 1 0 9 9 w =XM O O 9 w b 0 q 0 w S q D w *XS 1 , w w ~ ~ 1 *X=XY 1 b 0 w 0 n j n 5 % Z Z b 9 w n 9 b Z 9 9 1 1 w w 5 1 0 M A 1 5 j I 5 9 0 q , 5 Y w Z 1 , 0 w q 0 9 n % 1 9 0 5 1 1 B >XO 0 n 1 9 1 0 q q > 9 9 + q 5 1 = 5 Z 1 1 9 9 9 1 9 Q S I > O 5XS , 1 9 1 O A O > 9 9 1 5 5 9 0 1 > O 9 b n M n M q w 5 1 1 0 > M -XS 9 B 1 Y dX5 w M 9 1 , M w w 0 , > O n j b Q U j 1 5 0 5 q w > 9 M 0 w w 1 o , J b D *Xb b b 0 1 1 5 1 R T M j q 1 0 b w &X&XM 1Xn +XJ J 1 M 0 M 9 1 , 1 1 j , 0 > , 9 % b I % n 9 Q *X1 0 q 0 q 0 w 0 5 0 <XT % w , 9 0 w 1 0 0 q A 6X0 0 1 9 1 1 1 J ~ B > A Y 0 S 5 A 0 , M 1 w w 9 5 M n > M 9 1 1 O , 9 , > % 1 0 0 > 1 0 9 O 0 b w 1 w 0 ~ S Q A % Y 0 9 O T xX-X1 1 1 1 , ",
"w Q w 9 w w 5 9 w b w M O w 0 5 , M Z 7 b 0 I B q 9 5 , o I 7XI , , w ! Y U w 0 M n S U 9 j M 9 w b 9 n 9 w q j Z Z 1 9 b 1 A n + +XR w 1 9 9 w w > B ! O 5 w b n w 5 9 w 0 9 J 9 , w w n q w M M n 9 5 q 5 , 9 b 0 0 q 5 0 w 0 O 1 n , 1 q b 1 w q , T Z > w 6X6X> 0 0 Z M 3XB M M M w q b 1 1 9 w M Z b 9 b w 9 5 M 9 1 w 0 9 0 b 0 q 0 1 1 S +X1 1 0 5 > , 9 5 1 > > 5 , 0 1 O 1 > q j 1 , Q n 1 , j 5 w I 5 0 1 M n 1 b Z , 9 9 9 1 S j 7 n b A 9 0 > w w 0 > Z I j 1 > Z w > 1 5 9 9 n w w w 1 n 0 q w 9 9 9 1 b T I A 9 9 q b 9 w Q Z B :X7XQ 1 , 9 1 U 0 , w w 1 A sXj O b w A j J M Z =XM 1 1 > 1 5 q 0 , O T J 1 w 5 % b M w % > , b U Z w 1 q , > ^ A 1 U S n 9 9 w w 9 1 9 b n Z 0 0 w % e 1 1 0 9 1 9 > , 9 n 1 &XQ Z > X b B b 1 j w q Z D n 9 1 + % 1 q 0 > 0 M 9 , M 5Xw ! q , M 1 5 w % j Z 9 0 1 + , 1 0 O O J Q 1 q 9 1 Q uX! M U 9 , 9 , > 9 1 5 U Q M J w 9 1 > 1 5 q 5 , , M n J , 0 w > 0 9 Z 1 ^ A % b 9 X A ",
"1 > 1 w n 9 w q A M D ! w b 5 9 1 w M I 5 b &X;XM 9 0 0 9 B S b 1 + 0 1XT n w 0 w S J A 9 5 1 j 9 0 1 1 w 0 9 5 M D M w w w 1 > S J Z M % 0 w j q 9 1 1 > 1 q 9 w 9 9 &X9 9 b j 0 , 0 9 0 q 9 0 9 , 1 0 5 0 B , n b 1 1 w 1 Y n n 1 O Y Y , 0 1 w > n 1 > 1 j > q 5 0 , b = , < 1 b q b M j 9 1 > 5 0 1 n I 0 w M 1 D 0Xw b Z 0 9 9 0 9 w b , > O 1 9 1 9 B w 9 1 1 1 9 1 % 9 b , q 9 1 , + 0 Z &X! w n > 9 > , 9 1 +XM w 1 O , j n n 1XR U ;Xn <XD I 0 A 9 M 1 , 1 % 9 b 1 > , , 1 1 5 w > J 0 Q m 1 q q 0 9 q w 1 > ^ zXM , 5 w j 9 , A Z O J =X&X, 0 1 0 % 1 b Z I 9 M fXD w q D Q O q q 0 M 9 5 > 9 o 5 j > 1 > 9 M > 0 1 , , 5 . > 1 5 O 9 M j 5 0 , B b S Y 0 T U 0 , b 7X*Xn , , n ~ b T n 1 , Y b O > 9 , j w 1 j M ~ Y j Z U > 0 9 w w 2 q n n w M 1 S j w 1 0 b , 9 % 1 w Y q 7X3XS J M M 0 1 , O 5 9 9 , w b 1 0 J J A 1 O , 1 n Z 9 9 5XZ o 1 Z Y 9 0 0 Z A b M U 1 1 9 0 0 w 5 b Y B b 9 0 I U n 0 O j , O , Z S j 5 7X",
"0 > 1 Z w 1 0 5 b ~ 0 , S cXS > , M M 5X=Xn ~ I w 0 n 0 1 0 0 M b b 5 w b 9 9 n b O w q 5 9 9 1 b j 9 1 M *XZ 1 1 A 5 > 1 w w 1 1 j 9 w , , 9 1 j w j 0 j w 9 9 , 0 9 ;X0 , j 1 9 1 b S j 1 9 0 O 5 M % 5 9 M q O > 9 w 5 > B Q A 9 . Q R % 1 0 1 1 A 0 1 j 1 b 0 w w w 1 9 1 0 A M M j w n b 9 1 n q B T 7X&X0 9 9 M 5X0 9 b 0 , w *Xq 0 0 , q q S A A 6XT 9 1 1 b 1 n M % 1 S B 1 j 1 X b I b j A 9 Z U b 9 9 0 , J &XD w Y b 9 0 w S n 9 A j Z n n 1 w w 9 w 1 0 0 0 1 5 1 > 9 j , =XR 5 1 % ^ U 1 w b w j b j n 0 , j , 9 j , 1 b w > > U b S R > w 9 9 0 1 , Q U 9 9 1 , n n , 1 > Y w q w w q ~ 5XM b Z 1 1 , O 1 9 O 1 A B b j 9 9 5 1 1 w q 1 , j Z &XA A + 1 9 , M 1 <XqX1 1 j O q R 5XY O 1 Z M > 1 1 > q 9 b 5 b R w n ~ M I n 0 > B C 5 n A Z 1 9 w b w 9 w b 1 9 n A 1 1 9 T Z M 0 w b w 9 5 q , 5 5 1 0 +X, q S M > 9 w w 5 5 0 j , S w 9 O S U > , > 1 <XA > 9 1 > 5 0 1 w M w D D U 5 Z j O X 0 A O w 0 M +XY , 9 q ",
"w B 0 w 5 w w 0 9 M 1 0 9 R n , 0 0 M 9 D O 1 9 n b n 0 1 , 1 w q M M q 0 b 9 5 U Q 1 n b 0 0 w 0 9 w 1 1 b 1 % 1 O > 0 9 1 > O , , > , b > > 0 1 0 O o D ^ S 1 n 0 > 9 1 9 , n S 5 1 w , 0 b j U *Xn ~ Z ^ U n n n n j b % 9 b 1 w 5 > , 9 > 0 1 9 > A b A j 9 b w q 9 0 9 9 > Q sXU 1 1 b q q 1 R U % ~ >XY 5 1 > 1 , 0 w n Z 1 J GXA O b Z Q , M 0 n Y w , , % X 0 w O 0 > B S , b 9 5 0 9 % o > % 5 M B w 9 9 1 1 Z b j Z Q I b , w U B < 1 5 A ~ w n w , 9 M , > 1 9 > 9 9 j q J ~ U b 5 b o q q 5 b 1 n A B j 0 9 q 1 5 0 w 1 1 b 1 , W ! I 5XZ A J 1 w 9 1 O > 9 5 9 1 > , 5 1 w &XM , 1 1 b *XT 0 Q R O 1 w j w w 0 S >XA M A w 9 1 1 1 j 5 1 q B 1 9 , n Q Z b , b b 1 0 , b M X n &XU b , 1 , w 9 9 , 9 1 , Q q 9 0 b A   R Q 1 1 j 0 w M Z 6X<X> 5 9 , 1 n 1 , 1 Q +X3XM > 1 j > , J b % Z w 1 b M n j b 9 , > Y I w 9 w b n b 1 , < 9 > 1 , % 9 X > 5 > w 8X>X> B lXA 1 b B S S % 9 &X, 0 A 9 q q &XU ,X5X, n Z B % 9 , ",
"O wXn 1 1 0 > 1 D O 5 5 w 1 9 w 9 9 5 > > n n j b b M n 0 1 1 5 w 1 =X&XM w M 9 8X*X> A 0 5 > n n 0 b , > % w B 0 R =XZ 1 1 9 w 1 n 1 O D n q w 1 + > A M M <XM b M q 9 1 9 1 J ! A q b 9 0 w n T =Xw =Xj I S Z 5 M 0 n 9 5 1 , 0 5 , 0 1 , 9 O A R % B 9 &X+X1 q q 0 b 9 0 w 1 w =Xw 1 n 1 9 w 0 > 9 q w ~ =X> w 9 w 1 9 3 ^ ^ 9 0 D n B n j b > n w q n b 0 b U 0 q w 9 5 > O 1 9 % , > 9 w 1 1 0 j > 1 b j 5 1 w U Q Y Y + M q , 5 M lX8X9 7 , w M J 1Xn 9 9 Q b 1 1 > 1 M 1 9 5 U *XS n ;XM Z 0 0 1 Z 0 0 j 0 9 b 5 Y 9 M > n 0 1 > 9 0 9 j b 3XQ U w B M 5 1 q 1 , 9 1 , U M 5 A T w 0 1 1 1 9 , b > A *X, % 0 >XA O 0 % B Y 1 M w o 5 q w 1 q q U Y &XZ , A M 1 1 9 > , 5 5 I -Xq 1 > j 1 Q b , 9 5 9 1 0 n 0 , , > , B S wX9 % 1 9 0 w n 9 , 9 D b 0 w w n *XZ w 1 , I n ~ b % % O 9 9 n 0 j 1 5 1 n b 1 1 1 q q 9 9 n M 0 1 0 0 9 , j , M j O S w O > q 0 5 > =X+X9 A Q 1 % U b S 0 1 M ~ j > 0 0 I Z wXZ 6X~ 0 w w w 5 % M ",
", j 0 1 1 0 w 1 n w b w 9 w w q w 9 0 w 1 j ^ I n 9 w n j 9 n -Xw T >X5XM O 1 > j Z , w b w 5 wX<Xo 9 j S M B B M Y Q 1 , 1 O 1 0 9 5 + M U 9 0 b > w M 0 % % > 9 A A b 9 w 1 O Y S > D +XS n 1 0 b 1 0 1 9 M A M 9 w 1 9 1 1 5 1 9 > O 1 0 b w Q ^ A O , 0 j b 1 n w b A Z M 9 r > , 1 9 0 1 b M 9 , &XQ B ~ 9 w N , 0 9 , e 9 0 9 1 % , 1 1 > 9 >Xb 9 0 1 n 7X5Xb T A % 1 q 1 9 0 , A ;XU M b 9 9 > 1 1 b 1 1 , B 9 M 1 0 q 0 w , S 0 D J > q b X S =X&Xj % , 1 b 1 9 , , 1 b U 9 q 1 1 B 5 T Y 9 1 9 M M M J eXI 1 1 1 1 0 w 9 0 0 +X! +X> 1 m M O q j j 0 Z 1 w n q 0 0 0 b n j D B 0 9 0 n M > 0 w 1 w , 9 , 5 9 X 1 % + >X5Xn X R U 1 j 0 w U 0 5 A M , Z j 1 % 5 >Xj Q n w I Y 1 9 5 0 9 w q , 9 1 1 5 1 , 1 b w w M 1 n T U + , Z 0 w b Z 1 1 1 1 w 9 > Q uXZ b w 9 b 0 q w 0 O 9 0 0 O 9 5 0 q 9 b 9 1 z 9 w M 9 M 0 0 9 9 9 j q j j > n B , sX=X1 , Q Z O M 5 1 9 > , , 1 Y A w 0 T Q n I 0 , 1 1 , q 0 , > w q =Xb O 1 0 ",
"9 , 1 1 1 , w 9 0 A j =Xb 0 b 0 w e w w 1 < ;XeX5 9 w 0 w 0 1 Z 9 1 U eXA 1 1 9 1 1 9 Z T D + &X<X9 M 0 R 0 , n 9 b n 9 , 9 0 O M , 1 , % w 0 5 1 1 O 5 , % 5 q 1 , M w 0 w 5 n I Z R j A ! 1 , 5 0X6Xj > 1 w R j Y n 0 , Y M % % 1 1 q 9 0 w B &XQ j U I 1 w 0 9 b 5 w b w 1 j 1 R 0 w 1 b 0 1 1 , 1 M Z A eX*XT Z A M , 1 O > 5 9 1 1 Z q 1 M I A n O % 9 9 w b % ~ >XX , 0 ^ Z 5 9 b S n 0 Y b , 9 9 j w 9 0 U I Z q 1 I I n w > 1 1 9 > Z U w > 0 M 9 J 9 1 9 w , 1 0 n 5 , n > q M &X^ . I 9 5 0 q 9 9 9 B *XM 1 b 0 j M M 1 > j ! U =X9 O 1 1 1 j D 1 9 b , 1 w M q w 0 q , 0 S B j 1 j 0 M 9 1 , 1 0 > 1 1 > O > q 1 1 Z 5XI 9 wX~ , q I M Z % , Q ~ X M 1 M U 1X*XW CXj w w Z 1 0 B I > 5 0 1 > n A , w w 1 M 0 Z J > J D *X> w Z 0 > b b , j I M z 2 w n S Z , w 0 n q 1 0 M % b A M % n I 0 1 O , w w 5 n 9 , 5 M 9 > 1 5 5 0 Q 0 9 j , q Z Y b w 0 Q U O 1 0 0 > 1 % Z , q +X% , b 1 q Q w b 9 D S , 1 0 0 9 , I I , 9 b ",
", 1 1 w q 0 >XT 0 , 1 ^ Z 9 0 j b z M b n 9 1 5 , w 0 > 0 n 0 > q ;X0 ^ 0 1 w 1 9 9 > M ^ 0 q 1 O 1 M 5 , , M U 1 j b 0 T 7XQ w A 5 1 1 , , 9 , > A S M Z 1 5 1 , 1 0 q 5 > w w &XB q > 1 1 9 M 9 ! wX0 0 w % w ^ 5XQ , 9 n Z 9 0 > % q 9 M 0 j A 5 M ! j U w 0 1 M Z 0 A Y D 0 5 w 9 0 9 j 0 0 n S Z 1 , q I 0 n 1 n w n 1 q q 1 9 5 1 A D 1 Z A 0 , b j w 9 5 n 9 9 b 9 1 1 Y 1 > , X *X=X9 % 0 9 0 w 5 9 Z j M J ~ 5 M M >   1 T > n j b ! Q 1 1 , w 0 T 9 1 w 9 5 9 0 0 1 5 5 5 9 0 Z >X,   9 n 0 j Z j , 1 9 5 n w 9 5X7XM b 9 0 A j S 1 , % 5 M 9 5 9 w 9 q q n , 9 0 0 n n 9 9 b w 0 , j , 5 q q w Y , Z 0X9 , 9 I + q M M n 9 w > % b J q S , Q D M 9 > , n = U Y j n 0 w M M , 1 j 0 q w 1 q w A Z B I q w 9 5 , > j 9 q % > > Z n 0 q , , b Q b M n 9 9 n Q 1 Z w w j 9 1 % , , A S > , I n + Y B 9 w 9 5 q , , q 1 , j b , q , O M ,Xb , w S 9 1 0 q M b O , 9 j 9 9 9 j M 0 1 , w , , 1 0 1 9 <XA O A D , > b M , 9 > 9 ",
"> 9 5 w n I Y Y 0 n b > 0 w 0 j 9 M A b b 9 M b 5 9 9 j 1 w 1 1 5 *Xb <X1XA I n 0 b 5 > O 9 5 0 1 1 1 1 5 j I U , > , 1 U R w n ,X0 O w M Z 9 9 n ^ S M J M j 1 1 1 b 0 1 n Z 5 5 5 n R B M , 0 n O 1 9 M B O w Q D Z > 1 1 w 5 9 , 0 1 1 Y 1 0 w n I . R Z 1 1 w 1 b b Z 0X! > 0 0 5 q b 1 , 0 2X^ 1X1 % w q > 0 I 5 1 M , 0 M n w b 0 9 , w Q n j 5 b q B 9 5 1 , 9 O 1 O 1 + o 9 r > *X>XZ , sX*X> w D n J 1 % ! Z % S 1 b M +X! &XfX0 w M Z 1 w M M > 0 9 , 1 9 0 1 , 9 0 Z w Y A 1 J Y Q + Z b 9 , M n 1 w w M 5 9 0 T I 0 w b 9 M 9 1 M w , j b , > M w w , w 0 b q q b 0 9 j A 1 1 9 5 1 J S 0 1 1 9 B A ,Xw 0 b 1X> w 9 9 > 1 o w n , ;Xb O Z A M Q J w 9 9 n 0 O 9 , 9 1 Q ^ , > 1 5 b 0 9 , j 5 D =X% 9 9 n j b q > Q D X w j 9 w w 1 j b > q 9 > b Z w 0 0 1 M I n w 1 w 1 0 > w 5 9 1 + > + <X3X0 n n 9 9 1 9 w 9 1 1 0 O w Z 9 Z 7Xj , b j > % 5 % D <Xb . ^ *X1 0 w b Y n > 9 1 , 1 j 9 O M ,XX w M M 0 1 , 5 w , 9 , ",
"1 M > b 1 U Y b J ! M A w 9 9 B 0 9 n b 0 w 9 S 0 w 5 b 5 1 1 n 1 j 1 J >XI Z q D w , 0 q 9 5 1 1 w &X% n Q M , 0 1 5 9 O w 0 , Q w , O Q Q , 1 > 0 &Xw 0 b X 1 j q 1 j 0 I D ~ U 1 A n 5 % n , , q 0 S =Xb 1 , 9 9 I M > 5 9 0 9 w b 9 > , , , 0 Y wX> O , 1 w q n 0 1 0 n 9 j n j T 5XZ w 9 9 S n Y 9 , O , b 0 j 0 w 1 1 0 M 9 9 5 9 b j 1 0 M b 9 9 j 9 1 0 9 0 Z O M U , , 9 M > 1 n *Xn j R 9 1 M J n M + M Y J O 9 1 A n eXU Q >X0 w 0 j 9 9 n M 5 0 5 0 1 Y M n J 0 5 9 1 5 5 w 0 b M O w B 0 5 b > , I I M j w q 0 Y Z , b 0 b w 1 1 , , M Y 0 9 D Q , , 9 9 q 9 9 j > 5 1 w 9 > j 0 5 w 0 1 S A 5 0 Z b 1 b j S q > O j X 0 1 w b > Z q > 9 1 o 0 0 b , T =X5 w Z 0 1 0 0 n j 1 5 q 5 9 q b j q &XS I 5 0 9 9 9 w 9 1 > 0 A q w 0 9 5 0 b 9 , 1 > 1 w b w 5 9 0 1 1 j 9 w 1 B 0 0 D M + 0 , 9 + M 9 0 j 0 > 1 n 9 0 9 D Q I n -X1 9 w w , ! ~ A > 0 > ^ U A O 9 0 9 q 9 j 9 0 1 9 q 9 1 0 M w 1 > + 1 Z A M 1 , w ~ T , 1 ",
"1 , M T , j 9 1 n 0 &Xn 5 9 w n n A Q wXM , 9 1 , j q 5 w B &X*XD > 1 A 5 , j n 1 M n 1 w q b 0 w 9 q 5 J D b 5 w b M 0 9 w 5 w , 1 1 1 1 + , 1 + J wXY o Y 5Xq 0 0 n S Z > Z U O Z n 1 1 1 >Xn ;XM w A S 9 0 9 q 0 w 0 1 0 1 1 9 > 1 9 n q A U , B T U X n D 9 9 M Z w 1 9 0 j 5 9 ~ ,Xn w w 0 M q 0 n 5 , j w , > 9 > M 0 9 w 0 b w b w b w M 1 0 0 1 0 w n b 9 9 Z 5 R dXw 1 b =X+ b 0 > 9 , , 1 9 w &X0 q M Q B U M 5 1 9 9 9 7 , O 0 0 -XJ o 1 1 9 b w , 0 q 9 A D 9 w M b w 0 0 0 T w . 9 1 n w w 5 j 1 q B 9 n A j 9 w M 5 I B M 0 0 1 1 9 % j 0 , > , O Z sXA q M 0 9 q 1 0 0 , 1 n % 1 M 1 5 <X;X> 1 b 1 > , 5 > ^ A O 1 >Xq 0 9 5 Y Z 1 1 5 9 5 5 0 , 1 =XI + n U 9 5 , Z 1 X 1 n 0 9 q , 0 9 1 Z q w q Q Q b 9 n q 0 1 5 B n , 9 j 5 9 M J 1 9 n M > , 1 9 , w n 1 9 1 M 0 A n O w q 1 1 1 S q % 5 q 0 1 1 9 w A b J S > n D 1Xq 1 % % 0 B J j , 0 1 *XQ 1 9 1 > 9 A M , 5 q w > Z 0X=X, b D 1 9 w D 5 n B 1 , A M % > 1 ",
"n , 1 0 > n w 8XU X B , 1 j w w 1 5 I Q 5 9 n 0 Z I w 0 % S S ^ T O > , 1 1 A n 0 0 1 1 j M 0 1 w 0 9 1 w D n 9 0 w w w 1 1 5 w 9 1 w , , O 9 9 5 9 8X! 1 *X=X, 9 U j D + 1 J -X+ w 0 B S *X>XI CXn q 0 Z 9 b B U > w w 9 > A J , Z w 9 n 0 M Z 1 D A ~ > n B b % M 0 , Z I M q 5 j b J b , M 0 b b 5 w j > B I 0 5 J U 5 , , 1 w w 9 q 5 1 w n 1 1 1 5 , S B 5 M 1 1 B M B 1 n M &X> , 1 w > 1 , Z b , R n % j 9 1 D M M 5 S R 1 w w 0 1 5 B S 0 , 5 0 0 9 0 5 q 0 =XR j 9 1 w w q w , A 1 j A n 9 b 0 1 j w O 1 > 1 w B j 0 1 5 M n 0 w 9 q 0 q 0 w D 0 1 > 1 O Y Y 5 M M 1 1 5 n w 9 5 j I 1 J n w D J , j J I , 1 1 B &XU 5 1 ^ w 9 5 w Z n 1 1 0 1 % 9 b w 0 B , 9 M b M 9 1 % B Q 9 > O j 1 9 1 1 9 1 1 n ;X0 n Y 0 1 n j 9 S j S 0 9 9 M w 0 1 , q -XwXY , j I j > q 0 1 M R D 1 0 9 1 5 9 1 , B A w j M M w 1 q 9 0 1 b M U 0 > 9 9 , > , 5 > n w 1 O w Z 5 b b , 9 n w 1 , 0 w 1 9 A eXU O 1 >Xw *XQ Y 9 1 1 q 9 1 w + w 0 ",
"1 0 9 0 w 1 0 U ~ > X b j w n M j , 1 1 w n w b sX&XB 0 1 n w b a 1 O > w n > 9 9 9 b 9 n 0 , j w b n w j 0 q 0 1 9 w , q w 9 S n 1 sXI 1 > &X1 , n w j 9 9 , > 5 ~ 0 S 1 ^ U n b 1 > q 1 n A 9 0 9 0 Z I > > q 9 v q 9 0 0 Z A M A w n 9 9 , 5 b q q O > , M v j 9 9 , z U j M Z 0 q M I 1 B b b q 5 1 , 5 1 Z b , 9 Z > q >Xj q w w 0 1 % 9 0 , 1 Z 5 1 9 % , *XQ 1 1 B w , 0 9 w U 0 + 1 M j 0 1 0 A j 1 , q 9 , , 0 , 1 =XT = M T 1 , 0 M , > 0 n 5 w 0 5 n 1 b ! w b 0 Y b 0 9 B 9 > , w M 9 9 9 w 1 w A B 5 5 1 5 > 1 0 9 0 0 1 5 1 1 9 9 U 1 5 I w 1 1 0 n + 1 0 0 1 1 1 w q M 9 Q Z U b <XY , > > > D Y Y 1 w O B ~ D 5 , % , n D 9 1 5 w 1 0 Y ~ 5 M B 1 > > , n b Y 5 , w U w j U n 1 0 1 9 1 9 j 0 b 0 1 A w n 1 9 1 w w 0 9 9 , 1 w b M X q 1 , 9 M 1 0 j 0 5 1 , , M M % w w + j U j 5 9 , q % b M n j b w M b b 1 *XT 1 9 9 j 1 1 b A Z n Z , n 0 X 1 &X0 , 1 9 9 9 9 w w 1 1 0 M j 1 0 0 9 Z =XR U 1 w 1 n 9 1 O 9 5 ",
"0 b A w Q n 0 Q ! T % Z n 1 , Z 0 9 n n n 1 1 n Y S > j w w n 0 1 n 1 w M 0 > j Z 0 0 > 1 0 n w q 9 9 9 B 0 1 1 5 1 n Q b 0 1 > M B &XZ 0 w -Xb , 9 9 1 O 1 9 D O Y U X j Z 9 U Y 0 q 0 Z b % 9 9 5 1 S *X1 O , 5 w w 5 1 b 5 T ^ , 1 0 M M w 0 > Q b O b b 0 q 0 1 j j , 9 , , M Z 0 9 5 1 Z D M 5 w 9 9 q 1 b 9 0 1 X 1 9 0XQ q M n 1 9 9 b q 9 1 w 1 1 Z b j *X~ O w M w % 5 9 5 <XU O j 6X0 0 w b T Z , 1 9 5 , b q 1 w -X, 0 n n n 9 , , M 9 > , 9 9 , 9 , 9 > q q A Q B ~ M q 0 n w b b I n 1 0 w n 5 b w > B <X-Xw , b n 1 0 B 1 1 Z Q b j 5 , 1 9 1 > n I j 9 w Z j 1 9 q M w q A 9 w 9 M b 1 5 > , % M w 9 > 1 S R 1 w 9 1 w n M , 1 M w 5 w 5XuXw O S I b U Q b 1 9 q 9 5 Z > O ! lXU 1 , 1 0 b M B j b Q eXj M 9 9 9 w q 9 b w 9 , w w > 0 1 9 Y j , 1 5 9 , 1 9 , > O X q 7X>X9 , ;XS , 0 1 1 0 O b 5 1 B n ;XqXQ 1 5 I J 0 w , 1 , b w A n 9 w Q M 1 O 0 9 1 , 9 , 0 j w 1 0 w b % b 9 > ! Q X I =Xb > , w , , w 9 9 1 ",
"q 9 1 5 1 5 b 0 q 9 % q J 1 q 0 1 , +XB A n 0 j 0 &Xw w b 0 n q 1 1 1 , A Y , 1 U A o v w 9 0 1 w 0 , 5 j 1 1 w w 1 9 1 , A ! 0 5 M A 1 j w B Z 0 X 9 1 0 5 0 w 9 b M 1 5 1 % 1 9 b % S =X9 0 S q 1 1 q 0 j 9 0 w 0 w 0 n 9 j *XZ S w j 5 0 0 n 9 > , n Z q 9 w j 5 n b 1 5 1 1 1 9 j 5 9 j 0 , 0 j 9 w 5 Z 9 9 U 0 , 9 9 1 % j 1 b q , 1 0 j j 1 Z I ;X0 *XI 5 1 9 , S *X^ , 9 + A U U 1 , 5 , b 0 0 5 1 9 9 j w w , M Z 5 > + , A n Z 5 5 9 I U Z 0 1 9 9 9 1 1 0 1 + Z M % 9 T 9 , w 9 w q b b 9 1 9 w M 9 O 0 0 M =XZ > j J q , 1 1 5 U Z 1 % j 9 j b 5 w > 0 q 0 B M B w 0 w 0 9 9 n 6Xj , 1 w 1 , 1 M M 5 J Z o 0 9 X Z Y > , w j 1 9 1 b 5 0 0 &XA 1 1 Z w M <XQ I 0 0 1 q w 1 O j 5XBXU O 0 1 S A b w 1 9 D > M ^ , M 9 , 5 w U q , &XQ 9 5 b 0 1 n B , 9 w 5 1 I A O n Y 0 B D 7XJ 1 . > 1 1 9 1 5 1 9 R Z j b I +XM , n 5 0 9 b 9 w 9 > 1 0 O M 9 I M > > > > 1 0 w w q 8X*X5 n qXwXq , 5 9 S j 1 1 > O 9 1 T 5 % D zXS J ",
"0 M M w j j q ^ 1 + w 5 q w w 1 b 1 0 M , q Z w 0 w q q U M M 1 9 9 9 9 1 q 9 5 % , O 1X6X0 n M 9 0 9 9 w 9 1 0 0 + M M 1 A wX0 1 n w > , 9 > T -X1 o =XI 0 q 5 D T 1 1 5 9 1 0 j > > *XQ . w S j 9 1 b 5 > O b 9 0 9 1 1 0 1 B w w M ~ R M 0 j w w 9 q Z M , 0 q 9 q Z S 1 b U D , , q 1 1 j M 9 , w S w S 1 , q 5 1 1 w I 0 1 0 j 0 9 1 j n B b Q 7 0 b $XI 5 > O , 0 I b 1 9 1 D ,Xn 1 0 1 9 M A 1 0 q n % b 8X0X9 9 Z b b n Z w 0 B q > b D % 1 =X+Xw 0 > 5 9 w A Z n 5 Y &X1 B 1 9 0 b w 0 1 q , 9 q 0 1 , 1 n b > 1 9 b > 9 1 1 > , j X M ;Xb X I >X0 1 9 , 1 9 5 M , b n D *X~ b b M Y j w 1 5 , q b S S B % A I 5 , w A > 5 1 5 5 w w w 0 , 1 O j w > 0 Y 5 B 0XI 0 1 1 1 9 9 %   D A > 5 5 w n I 0 9 A 9 % > 0 I % M 5 , q 9 1 n 9 I J 1 5 % , , Z M 9 1 A 0 , J M O Z U B > > 1 Q M Z q 1 0 1 9 , n D S M 9 w 1 % 1 % T *XO b M , 1 9 0 5 , O 0 q I D I M 1 1 1 M w , = R 3XM m ~ B 0 w 9 1 + A b 9 9 1 9 A M n 5 > *X1 n ",
"9 , 0 w q 9 5 b > M A w w n 1 9 B 1 > , , 1 b n b 1 0 w w w b 0 w 9 w q 0 n J > 1 > 1 > U q j M 0 , 5 j b 9 0 q U Z q ^ 1 w A 0 5 U ~ n 1 1 w -XQ Z X D b w 0 0 w M 1 , 0 0 % 9 j Z 0 q 9 O D M A q 9 > A -Xz > > w 1 1 1 1 5 , > w ~ q w U b , M 0 0 M M M q 1 9 M n 1 1 1 j =X0XS O n Y j , w 9 1 I Y j O 0 9 w b 1 w 1 D n w M M Z 1 0 q q , 9 n Q Z , , 9 5 1 > 9 r 1 M b X 3 n 1 w A 2 5 b n 5 , 1 n 1 q q <X! , > Y M I <XQ M 0 1 b w 1 q o b ,XLXS > 0 , B b w w 1 M *XA A J , b 5 0 1 M D 0 5 I M 0 5 B 1 9 Y q 9 1 5 5 5 Z 0 , q 1 9 T 7X6X, 1 0 5 , 9 0 5 5 > M b w w Y 5XqX5 q 1 S 9 b q 9 0 > 1 M , q b M *X% + O > > 0 , b 9 Y I 9 , Q 5XS > 1 1 I ,X1 1 A 1 t > A M o b *XU o O M A w b 5 1 j 1 w , 1 5 Q 5 9 > 1 j j A n 5 0 w M 9 n B q > 5 9 , 5 % q 1 5 9 5 B w % b 5 X j b Q q q M A 9 j 0 9 1 1 n 9 0 9 w 1 9 b O 1 , 9 0 0 0 5 0 1 q n n M w b Q 1 1 w q , 0 , + w 9 9 1 9 w , q w 1 + j b O 0 +X0 1 S M > b U ",
"b ~ M 5 b n 5 1 1 n b 1 9 q w 0 b J n 0 0 0 , 1 1 2 w w w 1 0 , b 9 n Z % n A , 1 9 B w % 1 0 5 9 5 9 w Z b M ! b m Y <X0 1 X > w Y U b 1 9 1 &XQ , , 1 > w D b 9 1 n 9 1 U 5Xw 0 A q 5 > 5 b 0 Y w 1 q T 9 w Y I 1 w 1 5 0 0 M b b 1 , Q q w 1 9 1 j w q 9 0 9 9 9 w n O 0 1 > 1 0 9 9 9 0 1 1 1 1 M 1 1 A 0 O D Q 0 1 1 1 9 , q n b b n b I D q M ~ j q w 5 0 1 0 B S Z S 9 n M 2 , J P % , 9 9 1 q w q 0 5 5 b 0 w 1 1 b 9 ~ ;XU 9 w , 0 v 1 X 1 5X&X> , w 9 J D j q M 1 ,   A Z 1 I > 5 0 9 j 0 0 1XA 9 5 , 1 q J b , q B 9 9 +X5 > ! +Xw w 1 Q S w > 9 5 9 w 1 1 j S Q M w 9 0 , 5 1 ^ 0 , B w 1 9 9 1 9 % , j 1 A j U , > 9 w n 0 O I uX-X1 1X6XD 1 0 5 1 0 Z 0 , O 9 9 D n 5 . 5XbXM % > ! &Xb 5 w U 3X1 5 > 1 n b 1 j 5 9 b 0 b q 1 w 9 S M U 9 M D 9 w M 0 1 M 1 9 0 ! D Z b ! ^ 5 % M 9 , Z 0 n 9 9 9 B q q 5 q 0 9 1 1 > Z b b 0 0 j 9 9 > 1 w % , , B &X> 1 , 5 > 0 w j 1 n Z , 9 0 w 1 b >XA Q 9 , O 1 U S j + X 0 w q ",
"Q b T Z w 1 A 1 n n S j 9 1 b b 0 j 1 , I eX&X5 1 A M O n w , w T Y w w 1 1 0 0 0 1 Z A b q M Z q , 9 j b 1 A n B 0 9 b 0 1 , 1 , , n w > , w ^ 0 b 9 5 w Z 0 1 , n 9 9 5 ~ qXn o A +Xj &XQ Z 5 1 w 0 1 b 2 O ^ NX~ , 1 1 b w M b b q -X3Xb B 1 9 0 q 9 w M w 9 w j w , j 1 b Q 0 5 , 9 5 1 b 5 > 1 + X U uX=X+ M ^ w > 9 2 1 0 > b > 0 n Y 6XqXb 0 0 &X9 q 9 1 , 0 9 n w w 0 I ^ > > > 7 > 7 2 9 0 A b 1 0 M P 1 w 0 > Y <X> w ~ w 1 + M 1 > b n O X > n b 5 w q n 9 5 J 1 9 0 B 1 1 , 9 0 b M w j 5 M n 1 9 q > , w 5 5 , q 9 , n , w w , > 5 X 1 S U I 9 j B j 1 9 A 9 9 9 q 0 9 9 0 > ~ b O 0 1 9 9 b 1 9 > 5 I w Q A w A M O b n 1 1 , M 9 7 q 1 1 q q > 1 9 9 > Z 1 > T D 1 M n , M q w 5 > A 0 5 9 M T O 1 1 Z 1 M > > , , + , b T b + > 1 w 1 > 5 n M <X<XD 0 A 0 0 M w , 0 9 9 ;XD 1 9 0 > M n , Z n 1 M b 5 0 0 9 M Z Z w b 9 b 9 1 9 1 0 0 . j % w M b Q , w 9 , 9 q 9 0 w w w 0 0 9 w 5 , M M n % , 9 % &X;X, , 5 1 S 5 ",
"1 0 j A 1 5 0 9 w w n w 0 , q 9 D > 1 w 1 j R 1 5 b B , 5 , 0 b I 1 1 0 1 9 Z q 0 1 , n 1 b M M b q b b j w 9 &XY , , 9 b > 5 0 B n M A , 5 0 + 9 ~ 5 > 1 j 5 9 1 j 0 0 , S A 1 1 w n 9 -XR T b 0 q 0 b 1 , 1 1XcXM 1 w 9 A S n q 5 0 n X M Y > A 1 1 9 j S 0 1 =XY 0 9 j 9 1 M M O w b 0 , Q j % I =Xn n Z <Xb , . > 9 1 w , , 5 A ~ B 0 M S A 1 0 Z 1 1 M q 0 9 1 1 9 , 5 q 0 S 1 w + > 9 q b w , *X7XR 1 5XdXJ % 1 5 b M 9 5 % o w 9 T n % w bX0X1 > b ~ U w 9 5 Q I > 5 o w Y 1 9 w 1 M n A j O 1 b n M Z Y q M n 1 0 w O w 9 1 9 n ~ n B T U 9 + w S > B Z j n w 1 q j b 0 0 w 9 0 9 % 9 w w 9 b 0 0 9 9 , q 1 1 , w J U 0 > 0 , 1 0 w % 5 B 0 9 w w 0 9 Q M B M 1 , > A A 0 1 w , 1 5 0 9 M q 9 w 9 , 1 % B 0 0 M Z w , S w 1 , U w A *Xn O O > , w 0 9 Z &X1 w 9 1 b w 0 5 , 9 0 j 9 5 9 0 9 j 0 Z B j b 0 j w 9 5 9 , n Z Z 1 q w B D 1 1 0 , M 5XM > B b S 0 , 9 > Y U b 1 0 j M b , 1 b Z 1 5 J n , 9 5 1 j 1 + , S T Z , ",
"0 <X=X1 M 9 9 0 M 0 w 9 0 1 1 b 0 9 1 1 D M + 1 5 w O 0 5 1 , % > O -X>X1 , =XQ , 5 0 > 9 1 b 0 9 M b &X5XR 9 b T S q 9 , 1 1 b n J n , n Y 9 5 > M % 9 1 9 1 b n 0 q 0 w > 1 n > 9 ~ w 1 6XQ 9 O 1 1 1 q 1   0 n 1 5 1 w q D 9 9 J 0 , , w M , j 1 1 q 0 9 B 9 I Z 1 9 > % 1 A 9 b , M 9 1 Y 1 1 M A 9 > X w Y A U 1 w q 9 9 1 A Z M w b 0 1 , 5 1 >Xn , M 1 1 9 q 1 9 O , A n ~ Z Z n 0 , w M 1 , w -XB 1 I B 1 0 1 1 O 0 n 1 w 1 , I B 0 n > J =Xw 9 O S S 0 0 5 ~ =XX 1 w 9 1 b > 1 , 1 > , b Q 1 X 1 9 M 0 + A M S ^ Y b w S 1 j n n b b 0 ! >X9 5 j , 0 b 9 w b 5 n A 9 9 9 0 w M 5 b 9 B 0 n 1 j 9 1 b O > , , M , ~ Z > 0 , 9 1 5 q q z m 0 1 w w 9 , M Z S n O w O S <XA > X 1 Z 1 5 j ~ w 5 w >XI 5 S b 9 O 9 n Y O A w , , I Z ^ ,Xn . , B , 9 > w 1 > 9 9 X 9 D > 1 , n w 0 , 1 1 q 0 5 0 j U 0 j 0 0 j M M , 1 5 j > j 0 w 9 b ! >Xw , , M &XS 9 0 0 I n 9 1 1 M *Xw , q w I j , I M 5 > 9 0 0 > I b &X0   n w > S b q ",
"A Y 0 Y S > n , 5 > S J 1 n ~ b 1 b b 1 q S 9 1 9 1 w b J , 1 A q n R wXQ > > 1 , 5 9 9 0 1 9 D n w M ~ 6XS , w w w 5 n 9 w , 1 b 0 , Z 9 ! 0 O , O 1 9 0 w 1 D =XD O U qX&X> , 9 b ~ 5 % w 1 , 1 M Z O 5 <X6X, o M I Z b 0 9 M n 0 1 9 1 R 0 1 5 1 j M D n > 5 n Z q b A w 1 9 1 1 9 % 9 5 1 5 w T 1 w Z 5 O 5 M I 1 M I M w q 9 9 1 n 0 0 0 0 w 1 5 9 1 1 1 q w w 9 0 , w 1 0 q w w Q b , w 5 1 0 5 > 1 n 5 5 0 w 9 0 A b > 0 w > > Q M , B M , , 0 w 0 1 j w w 5 q , > b w n M M X 5 n , 1 9 D n n n 1 > > > , 0 9 M 5X;Xb M n 1 b Z , 5 1 0 9 J 1 5 b 0 9 M b M I w b 0 0 b 1 w 1 M D I 0 0 q j b 9 1 9 0 , M ~ X A b J q 1 w 1 w D b 0 j 0 j n q 1 1 w 5 0 M D O , 5 1 q Y 1 1 M n A Y 0 , , w > q qX1Xb b 0 q 9 w M 9 5 b j 1 T wXR M X B n U I , 0 0 > 9 1 w 9 , M q > 5 > > 0 q 1 1 > D I , 1 n b n 9 w B w D B , 1 , b 1 9 1 q 1 0 =X5X1 O % j w , n 1 w 0 0 n > 1 > I B b b w M 9 9 *Xn , w 1 > , % w =Xb Z I Z >X5 + 5 0 ",
"> > + I b 9 M , 1 w 0 q w n =Xw 9 > 5 , q J 5 1 M M , n Y o n ^ U 9 1 1 ~ n w 0 0 9 1 w > q B R A b w 9 , 1 , Y Y > n M , 9 9 0 1 > % j , D n R w , 9 e n 1 , 0 8X>X5 ~ ;XS 5 0 5 1 , S 5 1 > 0 w D M 9 X Q zXZ , > I &Xn 9 w I 5X, 1 O 9 j w 0 q 1 9 0 5 M n 0 5 , Z B D > S I b Z U 9 0 M 1 0 n R B M j &X^ 1 5 n 1 0 b 0 0 w 5 n S 9 9 w 0 w q 9 1 q Z j M 9 q w 1 0 > 1 1 > 5 9 =Xb , 5 0 1 5 9 n 5 0 D 5 5 w b 1 , Q Z ^ n > 1 1 J ! n X X 0 w 9 0 A =X0 1 n B 9 5 n n , 1 q Z D 1 I , 1 > R q =X6X5 X 1 0 1 1 1 0 5 9 1 9 X n M , 9 0 0 1 j 1 5 5 9 1 w j n M 9 n 9 b M w 9 1 1 1 w w w 9 0 q S Y Z 1 9 1 Q &X9 , M B Y 5 < < q *XB 1 9 q B B , 5 n v 5 1 Z Z , B 9 M I   % , , I *XeXS w w 0 0 1 , 9 % % 9 O ! q 9 0 b n 1 9 j J b , 9 I Z &Xn X 9 q w , 0 1 1 B +X0 9 > 1 1 0 w 0 Z 0 , 1 , 0 B b , M 0 w 0 1 5 w 9 , M A q 0 9 5 0 9 S % 9 5 0 > , , > 1 9 > 9 w b 5 , 1 U M b 1 > q Z n q 1 , 1 1 0 j w 9 q S n 0 0 *XM b ",
"1 0 j Z 9 > , 0 j b A 9 b 0 M w 0 b q % 1 0 0 5 % j 1 0 0 , b j > 1 9 . 0 M ~ n 5 B B 0 q 9 b 1 9 b 9 0 0 w 1 j D + 1 , 5 0 b 9 q 9 % M M I B w n Q X w w 0 , 1 7 5 9 0 5 7 0 q > 0 5 > > Z 9 + I D 1 M A , w 7 w 1 > M 0 q 1 n Z O 9 0 J 9 A + > 9 > > 9 b D 0 > 1 > 0 , , w n Z wX<XM b M 1 w B 5 > q 9 q &Xq 9 0 0 5 m q 0 I 0 q b 0 j 1 q 9 I Z A 1 q w w 9 0 > 9 q O 9 B % J q P w 0 j % 0 b j 9 b M 0 B q 0 1 9 1 3 b b , , 0 O S 6X0 1 w , D w , 5 n w > D NX-XM I w 0 > 0 D w > Z 0 1 R =XP J 0 0 % B A > 9 1 1 0 9 b , > B 9 1 , 1 w j > , 5 1 S M , 0 Z S w 9 M j M U b 1 > j 5 w 1 j w 0 n qXQ > > , A 9 S w 5 w n b 5 , 9 B +X, 0 q B J O S R > 1 0 , > 1 1 &XQ A j 0 ~ b X w > q A M S Z M q 9 b D , 5 1 9 9 9 0 5 1 1 9 9 1 q 0 b B M 5 0 1 w M 9 9 1 5 0 ! *X, M n % 0 1 M b 1 q 5 9 , M M 0 I -X9 1 w b j 0 9 n M A 9 1 w , 9 w , 1 w 5 1 1 9 9 > 1 A Q 0 0 , , 0 ^ D w w 0 j M M M 5 1 5 9 9 j q 5 , > 5 B , S M 7 ",
", > 0 I > b 0 5 b b M 0 % j 9 M M A S 9 S j 9 b w O b 9 1 9 T ! M M Q T 9 > M w < A b n n 9 0 M b w 0 0 w 9 0 > > M q w b q w 9 5 1 5 0 , % 0 S R 9 , 1 9 1 9 b 5 5 M w 9 q b b , ^ Y S S 1 1 O A I n , 1 1 9 1 0 b Y n 9 b q , > , B w 1 B M M , I 9 1 , I w R ,XM O > 1 , q 5 0 b S 1 j , 9 Z 9 0 9 , 9 b 0 , 1 0 5 q w n A q j w w M 0 9 5 1 , M n b 5 w j U Z 0 1 9 0 -X*XO b B D A 1 9 , B &Xn 1 q 0 C M 1 1 0 B 1 b A S O w , b M % + > b I =X6Xw q 5 w 1 0 S n 1 , 1 9 U 0 w 9 b M 0 1 Y -XM , w T I 1X9 > j w > 1 9 0 0 S D 7 5 < 5 > w 1 n q 1 n 9 O n n w 0 b w n w w 1 9 1 1 B 9 0 5 9 0 0 Q A + , 1 9 O > 1 j n , 1 w 0 5 0 q J J n w > 0 Z J 9 0 9 , 1 9 , I w b R J Z q B q b w M 5 M T A b > T ~ Q 0 1 w , 9 9 0 0 , , , b Z 1 1 ~ D , w q w n 9 0 1 1 > n ~ J ! b Q M w M O 0 0 1 9 0 Y 1 Z &XJ j > M Q S 5 1 , 9 j 0 b n 1 , 9 9 9 1 > 1 9 X + 1 B sX*X9 b M w B &XA 9 q b Z Z , 0 b 0 q 0 j 0 9 5 , 1 A Q 0 1 O I ",
"1 b j 0 b , 1 , > > 9 A U O O 5 9 M , , Z q Q >XU b M n 1 B b 9 0 w , ,XR 9 w 0 > M b 9 w M , A j 1 w 9 9 B w n 0 n q M 0 1 w , n 1 . 9 > Z 0 D Q > w 5 , 9 w w q q n n , n w w 1 0 U M n O 1 1 b ,XI O > , M 0 9 9 Y b , j 6X&Xj U b 0 % 5 B T O Z q 1 w Q I ! ^ 0 . 9 Z , 5 > w q , w % O M M % 1 5 n q 5 , 9 9 n q 9 w n D q w q b M I w 5 , n 5 1 1 0 q 9 Z 8XU > 1 > R M Z 1 5 Z S b , , j P Y > 0 j Z Z % S S > 0 , 0 1 , A S =XS . w A > w J U Z b M n b 0 1 1 5 q r 1 M q 0 j j 0 1 0 0 9 5 5 b n M b 9 1 > b n 5 9 9 1 U ~ n % q 1 > b 5 M b 9 1 1 9 , Z 0 0 J Z 0 1 0 n Z 1 n D J M 5 0 0 , B 0 1 0 q 1 1 9 w > > 9 b b w q > > M T n 9 5 1 j b M w , 1 > 9 M b 5 1 5 1 b > &XY R w w j > 1 q b 9 0 b &Xq Z w 0 0 M T 0 M b O ^ J > A b 0 j j 9 w 1 1 q b 0 1 1 > n < O M 1 5 9 9 Q 9 q 5 9 1 1 0 n n 1 5 M ^ Y O 9 1 0 ~ D Z 5 0 1 1 9 1 0 j , B S M % n sX! 0 T U > I 6Xb 5 , 0 0 w 5 o 1 w 1 w , 5 1 M 9 5 1 j , w O Z ",
"M q b D b % q M , 5 w I 9 U J 1 , O > 0 9 0 M 1XA w n 0 0 n q 1 1 1 n b b , 1 j 0 j b b Z M 0 9 j b 0 q 9 1 B S D 1 j 0 M b 5 1 0 , M <X9 0 B Z A 0 0 9 1 Y M 0 9 q b B j 1 1 M w 0 j I , 1 1 1 9 D , O B S U <X0 0 1 0 5 0 5X+Xb 9 9 j M 0 M , 0 M q , Y 0XT w % Z M *XA % b q O 0 1 9 0 w A 1 5 1 > % w 0 0 9 , S M O n n b w 0 b B n M 0 , , 0 q 5 9 0 9 9 M 5XS % + 9 b O 9 0 q b > w q < > M A A M b b 0 1 I I 1 w 9 > , 9 , ;XM M Y M ~ b 5 1 o M Z q S I I j 1 +XQ w 1 > 1 , 9 , 5 0 % 5 5 q n 9 b +Xb w w j M b q w , 1 1 ~ -Xn -X0 U 1 w n O 1 w 5 1 b S 1 R >XI 1 1 S T w 1 5 1 b 5 1 0 b % 5 9 5 0 5 1 1 % > > w Q 5XT + B 1 q &XQ w 0 b M D w b M 0 q w w 9 w 9 1 5 0 ^ M % -X^ b b M b A S n w 0 0 9 9 n w M 5Xb 1 j S M , 9 1 0 ~ =Xb n eXj 1 1 9 7 1 9 , , 5 Z n Z + U A j 0 q , 9 w 0 1 , 9 w q 1 q 9 1 , j ^ b w J Z A 1 1 w 0 , w q D 1 . A U 1 , w U U Z B o Y Y X 5 9 > j 9 5 w O 9 1 0 , 1 w b 1 n w w 9 1 , > ",
"w , 9 1 J M 1 J 1 > w U Z 6X&XO X w 0 , 9 9 w , w 5 > + U 9 1 1 j b 9 9 9 9 w w , j w I 0 b w q M M j , 0 , b 1 n 9 q 0 Z R T j 1 1 I +XI O b w Q q 9 % 0 Q T 5 5 j n U 1 5 J b 9 1 v M 1 n b A ^   + b % B -X<XU j j w q , , , O 1 0 > R 0 9 q n b 1 5 0 b 5 9 b A Z ^ 0 > 1 w w > 0 5 1 S +Xq 1 > 9 1 b 1 n M w 1 , 1 b M 9 0 Z w q 1 5 0 n 1 w S D b 0 5 0 1 M b % q w > 9 , 1 , 9 1 1 q M 0 , % D I M 9 1 0 n n w 0 > 1 1 9 b 0 9 0 Z w 0 , =XM ! 9 j , , M 0 w 1 M Q *X9 A q 1 9 A Z 1 w 0 1 ~ M > b S 0 , w 0 q 1 9 j w 1 1 q w S 5 0 Q 1 w > n S 9 0 1 b 0 9 S M 9 9 5 Y *Xn > 1 1 D I M B 9 1 > w 9 1 1 > w M 1 1 , wX0Xw M Y n 1 T ! 0 1 0 w M 1 % , w w 9 9 w , 0 9 9 5 S w 9 M Z w n j w A 9 1 w 0 9 n 0 9 ~ T 6X~ , q 5 9 9 1 j =XS A Z 0 ! 5 1 1 5 1 O n n w 9 5 w 1 , 5X-X9 1 1 B b 1 9 0 n &Xn 9 5 1 0 1 9 M J ! b n 5 A > , 1 j 1 1 0 Q 0 1 9 1 0 0 9 w Z w I 0 > 1 1 O 5 1 , O > > 1 w 0 5 9 9 1 1 > , w ~ Q % A w ",
"b 0 5 q A 1 0 M 9 1 <X,XS w 1 b 9 Q j , q , 1 w 9 j , 5 n , 9 , 1 0 w 1 1 , b U 0 , w Z n 5 q Z n S J 1 1 1 n 9 0 5 b 9 9 *X7X5 O > b 0 b M 1 M w q w 1 5 1 Q w q j M A , n &X, 1 0 5 O 5 O ^ Q M Z n *XJ X , o 5 I b S S I M 9 A I 1 5 > 1 9 1 1 9 1 1 q 0 1 j 0 j U n 0 b 0 B A 0 q 9 9 0 ~ *X1 Q w 1 9 w S 1 1 w 9 5 9 I 9 A *XQ 1 5 M A b 1 b q B j , b j > j 5 1 w 5 9 9 1 w > 9 B *XA , q 1 w ~ U w b 0 j A j B j 9 0 0 9 q n w , 1 9 T 9 n =XU 0 B B 0 M A n q 5 9 M 0 A 9 A Y b Z w I w % J 1 w &XS 0 Y R 5 w 1 9 0 w 5 , O 0 n q 0 o b b q n b % w j , 1 , 9 M 5 0 0 5 Z 1 A n 1 n *XM w 1 w 0 9 , M n Z 1 w =X0 , q ~ R A J 0 w 0XB % 0 > 9 M 1 b + 5 5 q 1 > 9 n w q 0 0 0 9 1 5 S b 1 9 9 B U w 1 9 M A o B Z S >Xw 5 w 0 9 > I zX&Xo 1 , 5 % 9 1 , , 0 M 9 0 9 0 1 9 5 q Z 1 , 5 1 M n 9 + Q 0XS 0 1 9 1 b S 0 Z O 0 O 9 1 1 1 5 9 9 1 A Y j n 0 1 5 w w q b 0 M 0 5 1 9 q 9 > > n +Xn 5 b M 9 1 > > 5 1 1 > U T 1 M b ",
"1 b Y 0 0 5 Z b 5 9 S U 0 1 Z U ! +XO 1 w j , 1 1 9 w Q Z 9 1 1 , 9 q 0 M 0 1 0 > 9 Z 0 5 M w j 0 9 > q 0 > n B 9 q 9 1 w M R o 1 1 1 5 > > 9 w 9 1 w q 0 9 9 b I B w , 0 n S q w 1 , , 0 9 A 0 w S J n 1 T B S w j 1 w U M q , I U -X9 j j 1 5 w w w 1 1 , J S , 1 ~ b 1 w 0 n q 9 w 1 1 > A J J U 9 &X9 j 0 , n q 5 1 B M , Q Y n 9 , U ^ Z , 1 5 M 0 n M j , 1 9 9 > 5 > 9 2   1 9 uX0Xb 9 U w j U T b > n j A 1 , b b w 9 w q , 0 1 > b ~ 0 1 U S j M b n S n 0 9 j 0 w 1 b I ^ qXn , M w w 1 1 q R I Q q R ;X, 1 1 0 , O j 9 0 0 0 B , n wXS b , j 0 9 w 9 0 n n 0 0 1 q 0 O , T &XS n 0 M M > 1 0 0 1 1 Z Z X > w q 0 5 1 I M S 0 5 0 O , , 0 , 1 , 1 % 5 w 9 9 1 w 0 1 , 9 Z J 9 , 0 S 9 0 1 , D b 1 1 b B , 1 O B Q q j 9 0 w b 9 w ~ b , n 9 1 b 9 n 9 J 9 M q 9 5 , A 9 5 9 J M > , n b 9 0 9 n b , 9 1 j 1 b % , S 1 > O J ^ q 9 5 w 9 5 5 X 5 0 9 1 9 j b 9 1 T 0 9 9 1 n n r 9 5 T Z j n M 0 5 1 % 1 1 1 1 > % , n , > ",
", 0 q 9 9 w 9 0 1 0 w 1 1 q q M M w 9 9 9 B b 0 q 9 9 T &Xw 1 Z O 9 9 w M w 9 1 9 1 j S 5 M ~ q 0 0 b M 0 q M S T 9 5 b , 9 q 1 9 j 9 1 1 b > > w A D q 0 0 , q W S b w 1 n b M w > 9 5 1 n b j 1 1 > M 1 Z Q R q w n 9 5 n n 9 0 j Y 0 S q n M B A w M M % Y n > R B 0 M Z w 0 , 1 w M q 1 > 9 n O 9 1 9 q 5 n S , w 5 9 , 9 0 M 5 9 9 M Q 0 0 9 5 B =XM q 1 j 7 7 9 z M w 7 D &X0 % ~ 5XD I U q q wXA , 0 , j b 5 5 o 9 0 w , 5 9 n w q 9 q 5 w 1 1 M b 0 9 b 0 M w 9 w S q 5 ! M *X~ 1 w 0 9 9 , *XeXB , q 1 q % w 1 , 0 w Z 0 0 w 9 , , 1 Y M , , 5 b M , 9 1 1X8Xb 0 1 9 1 D M Z Z b 1 > w 9 5 1 0 0 1 j ! R 9 n 0 < j j q Z 0 M J > 1 9 5 0 , 1 O w b 1 0 b w 9 9 O 1 1 9 1 B 8X0 0 n , 0 b J > 1 , w w 1 > 5 U 9 , 1 , 9 0 n 5 q , M A 1 9 1 j 0 9 O Q A <X, Q Y 1 q j Z 5 M b D 0 1 > Z J *Xb 0 9 1 1 5 U j 9 , 1 D 7Xn , , M A n J   S w , > 9 n U b 5 1 9 w 1 % b b 9 B S b > 1 w n M % Z 0 9 9 w b 0 q 9 > 0 9 , =XJ b M ",
"Z 1 1 5 , 1 5 9 5 > 5 1 Z w , Z &X1 w b b J 0 q 9 1 > 0 -XY Y S S S , M 9 > 0 9 9 1 Y 5 n *XU b , n ~ S 9 5 9 0 w 5 w n 1 > w 9 9 1 > 9 > o % 9 U qXQ , M b n U &XM 9 n b Z n 1 n M w j w w w 9 , 1 0 R D + ^ &Xj n B n A B M 0 w w 1 9 b M S uXn , j S q , w 1 M ~ &Xn A 8X5 9 1 9 9 O 9 , 1 9 M Z 0 0 >XS n 9 w 9 w 0 0 1 5 q w w 5 n , , , R T b Z D Z b > 0 0 7 1 w z M X , S w 5 , b U M Z , j I > , 9 , 1 0 5 w , 1 9 9 1 1 q w 1 9 w M n 1 , M Q 1 5 , 5 Y M 1 , n Z 0 O % U U U w 1 w j 0 1 Z 6Xb , w 5 5 0 , 1 5 w q n 1 9 , w w 0 0 0 Z 5 , 9 n n w 5 9 Y B 0 0 9 9 1 D > 0 5 O 1 1 A w 1 5 , 5 9 w 0 1 0 w 7 5 q n j 1 n b 5 0 q , A 0 0 > M *XT M b n 5 % , 1 5 1 1 % 1 1 M 9 n 1 1 I S 9 w w Z I w w *XM w D 5 5 1 n w > b B , M wXZ 0 n 5 0 n b 5Xw &X6Xb z w 0 , , w 0 9 9 1 n <XD Y j q 9 w 1 9 M 9 9 0 9 q M w 1 , 1 0 o , w , 1 1 0 =XA 1 M U w 9 w 5 w 9 1 b U n q 5 1 9 n n q w 9 9 5 9 1 5 M 9 5 9 w 9 M 1 Y ;X",
"$X0 Z z 0 w S B 0 n 5 w =X, z m b 0 9 w 0 9 , 0 b M 1 9 > b b O n n 0 9 > U M 0 1 9 5 0 9 M B 5 1 n &XY > 1 9 0 ! I A 0 9 9 1 9 9 0 0 , Z Z 1 % R lXI n Y A % Q ,X9 , 9 5 b 9 > > q q 9 9 9 9 0 0 0 1 b 0 9 q q 0 M q w M 0 1 w 0 0 B j 9 ^ A <X&X5 b 0 0 9 1 S 7XB q w b I > 9 9 9 1 1 S M e 9 5 5 > w 6XD 1 1 0 Z j , 0 9 &X>X0 0 , 9 q j q M I D j , j 0 , 1 q w 5 1 ~ T 0 9 , 1 0 j 9 D w S A > 1 5 1 1 9 9 O 5 , 1 w M 0 9 9 > 1 1 1 1 Q ,X, 0 9 1 w w w 1 9 1 w q q > , A % w b > n w 0 b n , U n O 0 j j 0 9 q Q T ;XO U b 1 9 b A 2 w n I 9 O 9 B Z B 0 q 0 > 1 0 M w 9 , > ! =X> 1 > =XB I 0 j Z 1 1 O 1 B M 5 1 9 b w > n D 0 9 j b b 5 9 b M w 9 n q 0 0 b 1 r 0 , 9 0 O b I 0 1 , b M 5 ~ <X5 n M 5 w , O q M + 1 q > 1 > Q w 0 M *XM 1 0 1 M A , I b Q D 9 0 9 1 , % 0 w 0 , 9 M S w 0 1 R ! 1 1 1 > 0 b 1 1 9 U M > O M M j q BX<X> 1 w sXqXo q A q 1 w 0 q Z j 0 1 > 5 0 , > > b w O 1 9 0 1 + n A ~ U 1 5 1 > > Y w ",
"0 q Z 0 Y &X1 j M J 1 1 n > M 2XA 5 >XQ 1 9 , 0 9 0 > , > M 0 Z > j Z M b n 1 1 b 9 1 1 5 n w 5 j 5 9 1 j T 0 0 I A b 9 9 q 9 > n j D 1 % Y S > 5 B W U U j = 1XZ > 5 , 1 n 1 n > > 1 1 0 > 9 M 9 w b q 0 5 9 0 Q 0 5 1 1 D I 0 , w D M X w Z S ~ 0 1 w j 0 1 I dXY O 0 , 5 1 9 , , 1 n M 1 0 9 9 9 b 9 b b , 1 1 j M b 1 , >X1Xq j 9 9 1 S 9 B 9 % % 5 n 9 1 1 1 9 1 M D q 0 b 9 1 n n w w q b w 9 9 1 n 5 5 % 0 ~ U b b M 9 1 > 1 9 , 9 + j Z w 0 M 1 > I A > 1 w n M , q &XM w 0 0 , 5 b w + 0 9 j I *X7 q j , 0 5 A -Xq Q *Xn n w b , w B 0 b w , A &X! +Xw 1 9 5 1 B S > 5 0 0 I Z 5 w 1 9 > 0 O + 0 5 , M I M w A n w w w 9 O 5 9 A Q A 5 , 1 B b n B n 1 5 w b 0 w 0 , 5 q 9 A S O 0 Z 9 9 0 S T 9 > > 1 , 9 9 9 0 0 % 1 n 9 1 1 1 , S U 0 , n S > > n . 9 j 1 9 0 w 1 1 S 1 1 5 9 j Z n 1 0 w 0 Y , 0 0 1 q n 0 w Z q > 0 D 1 M j X <X-X> w 1 I Q , 1 , > M 0 w 0 , n 0 0 j 9 , 0 5 , 1 5 , 9 5 b n 1 q b U b 1 , 5 1 0 1 0 ",
"b 9 A U &XwXb 9 j w q 0 1 U ~ A Y 0 Q S O 1 0 5 > 1 A 0 0 0 w w X &X6X0 5 , M n 1 9 9 M U n 9 9 5 0 0 1 M Q ~ M b 5 S , > 7 w 1 > n U 5 > 0 9 w q 1 A M Z A 1 1 1 > 1 9 1 , , > 1 1 n 5 w w 5 1 5 1 9 Z ~ w > 0 M 0 w 9 5 w 0 0 w w b + 0 O M U 1 M q 9 n M 1 b Y 1 5 b q 5 n 0 I M ~ 1 Z q 0 1 j S % 9 b Q j o 1 Z w b j q w , 1 0 b w 0 9 X A T O 1 , -XB M 1 w n 0 1 X , q w 9 5 9 b w O Z B 9 5 0 w B 0 q 9 S Z w n M b 0 1 > 5 9 , 9 1 > 0 Z 0 9 1 M B 0 Q I w A J 9 j b o S w 1 5 9 9 0 1 &X0 0 S 8X1 b 0 1 S M B *Xn 7XZ 0 q 1 , > > 9 w 5 1 5 ! Y j 9 0 ! b 5 > 1 > 0 b 5 9 5 U 1 1 5 M 9 , R 6X0 1 , ~ fXq > S D w 9 9 0 Z b 0 j > 1 j w , 1 5 b % , 5 0 9 > 5 S S T w 0 1 9 % , 9 Y 9 , > 1 5 b 1 9 9 w 0 % w M , 9 5 w 1 w 1 w 1 > > 1 5 n &X1 + % b I b > 5 > w + 1 =XM 1 9 M M O 5 w 1 1 w j 5 % 0 % w 1 1 > > > , n T 9 1 j b 9 5 0 b w 1 O q 9 0 0 q 0 0 w j q b 5 Z 0 9 M 9 1 9 , 1 5 0 w 5 n Y O 9 > 1 X , , 1 q b ",
"S q 1 I n ,XY 1 w w 0 , 9 6XdX9 , 0 , , 5 9 , O q Z j 9 0 0 , 1 9 j U 5 9 1 1 n M 9 % S eX^ 0 0 1 0 q Y 0 A % 0 > 0 5 9 9 2 0 0 0 S ^ b q 0 , w b b b n 9 A 9 1 1 w 1 1 1 > M S 1 w M b 9 1 O 1 1 1 > M <Xj 9 M > 9 b Y % , w w w 9 > Z U 1 5 5 , 1 j b 1 1 1 B A J 9 9 j 9 , , I ^ Y w -XD 0 j b q 5 M M M 0 9 0 Y ! Q j 0 0 9 1 n Y 5 5 1 0 1X~ 1 9 5 A 9 S , , M 1 1 w n S M b 5 0 b q 1 , j 0 n Y A , > 9 n B 9 M n 1 q q M q q q 1 1 j , Y D , 1 0 1 b 0 &XQ 1 1 , 0 1 , 9 1 q , 1 9 1 > 1 b , j Q A w , b j 5 9 1 % q 0 0 w 0 w , 9 , w 9 1 5 n B 9 1 q 0 ! J > j 1 9 M 9 9 n Z j > 1 9 B I 1 Z KXM % 9 n wXI X q > 0 0 w 9 1 0 b 1 0 5 > 1 9 , 1 0 > 9 5 0 b 1 > M Y *X1 1 5 , 9 q S n > w M Z 5 1 b b 0 j M I b % b 9 1 , w *XQ 1 1 w 1 1 9 , 1 1 0 Y ^ S + 1 9 , % j w 1 9 0 1 , 5 q 5 Z , 1 , 1 n > 1 n 0 > X w <XI 1 z 0 w b Q 1 1 j 9 w w q S n 0 5 5 O 1 0 0 ;XZ o 1 S S 1 T A S I n > A I > 1 9 A % w n 9 S q q X j 1 ",
"Z % , O ~ D M j 0 9 j j 1 J +X, 0 0 0 5 q 0 b M b j j w 9 , n n 9 9 M A % > q n q q 9 b M 1 0 0 j 9 w 1 % B , , % D S 0 1 5 9 5 9 1 % 9 0 5 9 9 b n 1 w D 1 0 w 9 M w 0 9 w ~ A w Z b 0 , % 1 0 1 9 , 1 o w 0 q , 0 U b b A 0 Z I q b ! 5 n S > 0 1 b q > T A 1 B uXZ j b 1 n A M <X0 7XR q b w 9 O 9 9 5 b 9 1 ^ *Xw Z 5 M q 9 > q 9 1 w 0 5 9 M , 5 5 b 5 X B D > 9 1 R 5X1 1 S I 9 0 0 0 b 9 1 I q 0 n 1 5 j q w 1 1 0 9 5 5 1 A b w q 9 1 b > , j Y 1 9 , b 0 q 9 1 9 0 9 1 b n , 5 w n 0 1 w 9 1 M 9 0 1 R U . 1 9 5 A q , 1 1 9 + D &X1 0 9 A 5 w 0 5 1 1 n Z , 0 , 1 q 9 9 9 > O 1 D M , q 0 w n w q b 9 1 > q 1 1 w M 9 q 5 q n 0 n n 9 9 w 1 1 > 1 1 , n q 9 A w > > 1 o > 9 1 5 M A % % 9 B 1 w w q 0 1 ^ >XS > 9 1 , o M R Y , 0 w 9 1 , , 5 X 9 T S > > U B > w M M b > 1 , 1 j n w X 1 , 0 Y j q 9 Z 9 b q ~ 5X~ X 9 q , n &Xw 1 q 5 1 5 R +X5 5 w 1 j 9 5 b A Q M , U U > 1 Z &XS 0 9 9 5 j w 1 9 1 , O A Q 9 j 9 M 9 ",
"O w A % 9 7 = b w w q w > R 0 7 5 0 j 9 , Z S 5XB n +Xq 0 0 J w j M Z M 1 > b D ^ n j 0 5 1 9 A n 9 , 1 B 7Xb , % S U M A + I 9 1 > 5 b S n > 9 q w 1 1 n w 9 Z B 9 9 , n M 0 1 B 0 0 0 M w 0 w , 9 j > Z *X9 1 1 j b b Y -X9 0 b 0 9 > O b w % , w 1 , 1 D > j U Q w , 0 0 Z w 1 Z n Z j b q 9 5 , > w j 1 , b M w 0 w j &XD > 9 1 1 M 0 0 w M S , , 1 Z B 5 ~ KXb , 1 U NXJ o n q 5 q 0 9 w j q 1 , > 9 5 1 % 9 b 1 1 w 9 b O 9 D +X;X1 0 1 1 , q M Z 1 0 0 9 9 w j q w n q 0 0 w w 1 q > n ~ b q 5 1 O 9 1 1 n 1 9 n &Xb > > 0 , > 1 , n 0 1 1 q 0 + b M > 9 9 9 1 > 9 , 9 % + q Y 9 b b j 0 Z Z > 5 0 q w 0 j M w 9 0 % 5 0 5 D Q , 9 b D 0 B S 0 A w 9 1 J 0 5 5 S 5 9 n , w 1 w > X b *XI B ! 0 J 0 1 0 , M Z O > b , 0 w Z 9 A n j 1 0 1 1 0 , 1 w b O 1 > w b j + 9 >XS , , > 1 > 5 1 1 b B j 5 5 Z A , D w 0 A U =XU > 9 % X q w P 2 w 0 b 9 S n 9 1 0 > w J Z 5 U S 9 n ~ w M % 1 ;XJ 1 b w R ^ 1 0 1 b Z n 1 > > > 0 5 q ",
"S *X0 A w w > 7 M 0 % B 9 9 =X>X1 M 0 1 n 0 $XY n 7XU b n q q O q w w 0 9 0 =XY ! A 0 5 0 5 1 D 9 9 w b q M j 5 9 , , X 1 1 > 7 1 b &XB 0 Z S q 0 b w 9 9 5 B Q M 0 0 5 b n M 9 n , 0 9 0 1 0 b 5 1 j 1 B Z O 0 D 1 5 0 j Z 9 1 , 9 1 w w 9 w 0 , 1 b j > 9 1 , U M w 5 I I . 1 n X n M 1 1 0 b % n T 1 1 9 n w M w 1 0 1 n Z , w 9 , M q 0 q w > , S M 1 n , j &Xn 0 w 0 D 5 1 1 > j n w w 1 w b 9 B j > 9 b > 5 + 9 1 1 w b 9 w 9 M 0 1 1 5 1 w q J 9 O q n A 9 5 n w w 9 ~ 1Xn O 0 1 > o J ~ I , 0 b 1 , 5 1 > O M *XS , , S 1 1 j A j 5 1 9 , 5 q b 5 1 1 % b A j 9 j M 5 > b *XwXw > q B 1 Y Y , j 9 5 0 w Q A 1 q 1 1 1 5 7 A ~ Z 5 M &Xq > D S *XM j 1 n , 9 > 9 1 O 9 w *Xb n 9 , S U Z I U n M 1 9 1 9 % 9 0 Q Y , > M wXw + + 1 > > , , > w w I +Xn 9 w 0 0 1 , ~ T j O M b O b q , b n U m 1 1 D Z 9 j 0 , b n I b > 1 B Q M , b C M 0 1 0 w + % 1 , 1 > 9 w 5 w 1 O 0 J O n A 9 R j q Z A *XD 9 1 , 1 M S R 1 , , 0 1 Z ",
"w , + S q + w 7 1 1 n ! 1 n R &X1 w 0 b I 0 A S S &Xj q q 1 , > 9 j 0 , 5 n T b w , U *X0 > 1 > 9 b 5 0 1 U b , O B B 0 M NXQ > , n zX>XX n D w 9 w 9 M n b w > % q 0 , 1 > M 1 % 0 0 j > > S A ^ q 9 1 1 + w 9 Q 9 , , 1 9 w w w w 0 0 > 0 n 9 w 0 q 0 S q j 5 % % 1 9 0 Y , , > U U , > 9 , 1 o w Q 9 w 0 n 0 O 9 M > 0 w w , > 1 1 w > , O w 1 w A M 1 n M 0 1 9 w b 0 1 w b 9 0 1 0 5 j n n w 9 b M 9 M M 9 b 0 1 1 n w 9 q Y 5 9 w 5 O 1 5 O O n *Xw 5 n 9 n 9 0 w 1 A T 0 0 1 1 q 1 5 q I A 9 9 9 1 0 5 > > 0 1 0 5 , n T w + n ~ B 1 > , % , 0 9 1 0 M 9 M Z B 0 0 B w S I Q ,Xb % q % , S I 0 1 w q 9 n R A 1 w 5 9 A S 9 M I R % R A Z , , I =X, 0 9 9 &XM w 9 w Z 0 9 b , , b , n U M M 5 1 1 w , w Y w 1 U M 0 0 9 b Q I O , j 0 9 1 9 ! b 5 Z 1 Z n M 0 0 1 9 U n , w Z 0 0 w 9 w w n w 9 0 w 9 9 5 , b 9 z q 5 1 1 1 +XeXA 7 , qXqX0 1 b % M >Xb > 1 1 0 9 b 0 5 M n X O b M 0 w w 5 b 9 9 B 1 % w q q &XZ , q 9 9 0 b ",
"1 5 0 1 0 1 , 0 w 1 1 0 > j &Xn w 1 A 0 > 0 9 + n 0 9 w b 0 > n 1 0 1 9 0 B M , 9 b q ^ 0 w w 1 z n 1 z B b , 9 n 9 A b X wX&X1 w 9 ^ Q > 1 1 9 M 9 w 0 9 n 1 q w 5 , 0 1 1 5 1 0 5 9 n j , M Z Q 5 , 5 9 9 w U Z + j n D 9 9 n b w 0 M &XM > v 1 1 O n <X~ 1 1 n 9 1 9 1 > % M =XR q > q 9 , , A 1 > 0 1 9 , w w 0 0 , , > n b > n M 1 , 1 ~ eX0 q 0 M 9 Y D % j q 5 j 0 T M 5 w 9 > 1 9 9 U +X1 9 n ! 9 w U S ^ Z 5 0 S , 1 , n 1 , M 9 Q n n , O Y Q M *XI D B 1 1 5 > 1 9 O I B , % Y 1X> 1 , 9 > 1 , 1 O w n Y Q 1 1 1 b > 1 9 &X&Xw O j , 9 n , 5 w D ! 0 , 1 Q n j S % w Z S Y 5 1 0 1 b 1 n j 9 9 b 9 b 0 O 1 , , , 9 J 9 b n > O Q b 5 m % U J 1 S q &XR M , , 9 B Z S 1 , > 1 9 1 9 1 w q 9 9 w > M n q 9 % > w j U A Y 0 > 9 b w 0 1 % w 0 > , 1 w B 1 > 9 5 ^ wXZ , B w w 0 1 9 9 w M 9 n 9 a 1 9 3 1 > 0 b j 0 0 U 0 q q 1 1 0 Z A O 0 b 1 b =X, 1 9 w > 5 b q > n n U w n w 0 O , 9 5 9 A 0 w Z , w , D B w 0 > , 9 5 ",
"5 0 , n w 5 5 w w 0 0 0 q , , 9 9 1 ~ Z X , 1 D A , 0 , 3 1 X &XI 1 0 j A % 0 9 5 , w n 0 + 5 > q 9 1 O > > > z Y 1 9 w M 0 0 0 n 0 1 1 q 0 5 9 n 0 q 0 b w w w A 5 w M 1 5 1 1 1 5 j j 0 T M , > 1 , O 1 1 1 0 A 9 o 0 w 0 w q b 5 w ~ I Z O 0 q > O M ^ R 1 w 0 5 9 , 1 > , % A B O 0 ~ b > w D B j > , % 0 b w , , w 1 D D M 0 w b n n S *X5Xb X q 1 > U Q 5 9 q 9 1 M &XZ > w 9 w b b 9 n I R , S U w % w Q &X1 0 0 5 A w 0 1 j 5 > Z R , 0 n , A D S M w 9 9 w 5 b S 1 w Q U w q > D =XM o 1 5 1 > 1 w J 9 A J n b A b w w 9 9 U 0 1 w I , w w q 9 S b M 1 9 0 q 9 0 1 b 1 n 5 q , 1 0 uX<Xn o U wXY o j 9 1 n Z > 1 1 9 5 9 0 9 0 0 1 1 % J j C A 5 b j n Z n 1 1 9 j S U 9 1 5 n , , 1 1 1 1 1 Z A 5 U 0 0 1 w 9 q , S q n n , 9 n U 1 1 z D X 1 9 1 A S w 1 j A &Xn B 5 w Z Z w 1 w 1 , S A 0 1 9 1 1 1 , w 9 q M j 0 B w 9 , b > ~ -Xb O j b 5 5 5 9 9 9 9 1 5 , o b M q b I ! b w 1 1 9 b , U n =XD > 0 9 j w > 1 , 0 0 1 ",
"0 M A 1 1 j 0 9 % I =XM 5 1 w > 9 1 , 0 , A I ^ > > 1 9 > 1 w , 0 9 1 , w w 1 Z 9 % 1 , n , 1 j w O # 9 -XS 1 n q w n T 1 , b 5 w w n D b w 9 , > 9 q M &X5 1 9 Y M 9 Y n S M w 1 I n 1 1 B b , M 1 M n b > X B &XA J -Xw U 1 , 5 , 0 w . 9 Z % 1 n Y 9 b 9 q 1 5 > 0 , 9 9 Z I > , 1 w 9 1 , S >XM , 5 1 1 1 1 5 9 B S 1 9 , Q j w U > M A Y &Xw 9 9 . 1 9 A w 9 0 n 0 M q 1 5 1 , 1 n Q 1 I Z 5 , -Xw n 9 % Y Y 1 n 9 Q *Xw 1 1 q J A 0 > 1 > 9 > b w q n j 1 9 0 > M A 9 9 0 5 q b M M S w > q M w 5 5 9 U , 9 9 , j b 1 9 9 1 +X1X1 9 B q b 0 5 0 5 n q 9 M B 5 w 1 1 1 w 0 q j 1 n M 9 U j 0 1 w *XM , M w , >X~ o 1 9 9 1 w b 9 9 U w q 0 w q O 1 1 9 9 0 j 1 0 1 w 1 Z I 1 q , 1 1 0 1 w > 1 9 Z 0 b 1 M 5 0 b 5 M 1 > 1 > 0 9 w w b O R Q Z o n D > w S *X1 5 1 9 q 1 , 9 M A A 9 M , w 1 , O , 1 w b 1 0 w S n n M Z 9 , b Y 1 9 q Q M 1 0 I n > 0 0 0 , > , 9 % 9 J 5Xw M w B 1 > 9 1 5 M , 1 0 1 > 9 1 0 w 9 0 O M , z w ",
"b =X*X9 , q , > O U Q A + n q 1 9 > 1 , O D Q 0 % M I , 0 M M n , 1 9 1 q n n X , q , Y n w 1 M 5 b 0 Q 6X&XX 0 M 1 M &XM > 0 0 0 1 Y Q , w q 1 b w 9 j Q Q 0 9 +XZ X M D *XM 0 0 1 q q 0 1 9 > , 0 ~ M q j , S S D A A w w 1 0 w M , 5 Z Q A w % Z 3Xn + O 1 , 1 > , w w B Y R M b 0 q 9 9 , &Xn 1 1 I 5 9 j j 1 M b D 1 1 1 B w 9 5 0 > Z 0 m , > q =X&X0 , D ~ M 1 9 0 > , w 1 1 , 5 9 w w 0 , 1 n 0 > U w S Z 1 A n T J n , 1 9 n B Q 0 , 1 0 w > 1 1 5 0 1 Z M 0 T 1 w 9 1 9 9 n R b M 9 1 1 M J 1 > w 1 > > , 0 U j 1 1 n U &XR w q b M b 1 1 j , n S B n > 9 9 w 1 , 9 w m n 9 M D 9 1 0 1 j *XM , , 0 w 1 w 9 5 0 q w 1 9 , 1 0 9 M T S S M w 1 9 n 1 S Z n ,X1 0 q 9 n 1 1 1 1 9 5 5 w 1 > O 7XZ X 9 5 1 9 n 9 n D b 1 1 9 9 O > 1 w B S o 9 1 > 1 n w w % 0 9 , 1 9 9 1 1 0 9 q 0 j 5 9 > M Z b b j 0 0 , 0 A b 0 Z 1 A D S 9 0 b Y 0 9 n n Z 1 9 q 0 1 1 , > > Q A 9 O A U 1 % 0 n w > A q 9 , > 0 , 1 > > 5 0 5 S w 0 w ",
"Z M . b 9 9 w b n q J j w 9 1 1 e , 1 % B > 1 , 5 b M , + ! ^ 1 1 , + > 1 1 1 n S n 1 M b A 9 Z n w Z S =XY , 1 , X j Z Z 1 b w b w S M 0 1 1 1 b T j b J J , Y Y n j O M >Xq j 0 A ~ Z 5 0 w Z M 9 0 > , 9 9 5 M w Z w 9 1 0 1 0 T b , I q 0 b q n Q A O 5 Z j 5 9 w *X0 9 w , n Z b 9 0 5 U ! w 9 M M 0 w 1 0 9 M b 0 0 M j 0 9 9 5 B 9 b 0 1 0 0 0 <XI 0 > D uXU O M 0 > <X^ + 1 5 0 0 w q 9 b A > + 0 b 9 1 w 1 0 5 5 j 5 1 1 j 9 ! Z , 0 9 q > 9 0 9 > 1 w 9 9 w b n q 1 w 0 n > 1 1 9 q 0 j U 0 , A ! J . D w 9 n T Z 5 0 q n 5 0 1 b D I w w q 1 1 q 1 , , 0 9 1 1 b b B b C n b , 0 M w 9 w S U q 1 I n 9 1 5 w 1 1 1 1 1 % 1 ,XI j M S n 1 1 9 , n 9 1 w n j , 1 9 b w 5 , 1 1 1 9 w 5 w 1 n > 5 n j 1 5 w j 0 M b , 0 1 9 1 A ~ M 1 o % w 1 > 1 n w 0 , 0 9 0 1 5 w 1 M 0 M A I 0 0 9 1 1 T b w 1 0 1 0 w n M R Z B 1 Z B + 0 M n 0 , 9 n b 9 1 1 1 0 w w 1 0 , 0 1 O S S 0 n 0 n I 0 5 w 9 9 , 0 ~ J S n w 1 , n > > , 7 ",
"O 0 0 +Xb , O *X*X, % O 1 + 1 , > 9 w J ^ U 1 w 9 n % , S =XM 1 0 n , w j 9 0 M Y Z 1 , b Q 1 M j O n M I b > 1 n I M 1 n n b w w 9 j O , 9 1 , , 0 b w j , X M Z + M 9 Z Q 1 S j ~ R S 1 1 , j B Q M > , 9 0 , , 0 0 0 1 b M % A q q 1 1 1 0 b Q S I 0 1 0 b B 0 1 > 1 , > 1 9 M n , > 0 M 6X>Xq w M q w 1 1 9 9 b Z q M 1 w 9 w , , 1 b n b q C J 1 9 9 5 9 I n > > b w 1 S n 1 9 0 1 1 q 0 9 9 0 S A B B n 1 1 0 0 9 J M n ^ 1 j 5 0 A 9 5 , 1 1 5 0 M 1 , 0 7X0 > q 9 1 9 M 0 M n 9 0 5 9 w 9 1 w w >XZ O 1 j 9 9 n A n + 9 9 , b 5 5 9 0 n 9 j q 9 9 1 1 w b w M b 0 5 j I n n A B 0 w ^ M 1 w U ~ 1 q q J w 5 n w 1 > , , + M U I n Z Z w 5 > 1 w , w B 1 5 % > , 9 O 5 0 q 9 b Z > 1 q 0 , 1 Z > M J n 9 0 w b 0 w A 9 b w w 1 6X<XD j 1 9 0 1 1 1 n S w 5 % 1 , 1 , 5 1 B U 0 0 1 1 n n Q B M > 9 0 M 9 5 < w M S M , 9 I w A b n n 9 , 1 9 w , % 5 b w 0 1 , M 0 1 1 , 8XQ , Q S , w , , q Z 1XA % M M Z 9 Z 9 , b 0 A 7 7 ",
"5 0 Y b b w 1 D ~ q + 0 n 0 0 , D U % A w M n A 5 0 w 1 S Z 0 1 A M 5 w 0 q 0 A 0 M 0 w 0 9 9 > b w b j 9 , 1 1 &XwXA , 1 sX5X1 , n > A >X9 > 1 5 q w q 5 w A 1 > O A n w n 1 9 q w n M , , j w S T 9 1 0 0 1 , 1 9 + 1 9 b n w A n 0 w 0 9 w , n 1 0 w 9 0 A D > 9 J Q X 0 q 5 A A n 0 b B S q b 1 n J I b 9 b , 1 Z M 9 0 9 5 9 1 b q w M B z j q j 9 q 0 b +XI 0 1 A w 1 > 9 q 1 9 9 0 1 + , Q Z 0 D T M j 0 1 1 M 1 b w S J % 0 w b w > 1 > > 5 w 0 1 0 1 9 B 9 0 0 1 9 j w 0 S M 1 1 1 0 , 0 M 0 , X 0 q 1 > , w 9 1 1 9 0 0 1 5 9 9 0 1 M Z A 9 w 1 1 0 Y n q w 1 1 0 0 q J q Z n 0 Q j 1 w j b 1 1 q Z b 0 , 9 9 0 w 9 1 1 q M 1 o b I M , 1 Q n 1 b w 1 9 , A A j M 5 1 , n w 9 > 1 9 q 9 > O B I b w 1 Q &Xq 0 =XwXn 0 5 , O ~ >XY > > M ,XZ Q Y 0 > , q , 1 +Xn , 9 1 n I j , 7 D I n Z M 1 1 > j n q q 9 j 9 , , 9 1 9 b 9 1 1 > 0 b 0 0 1 M 5 1 0 9 , 1 n n 0 , O 0 , n =XA n 9 5 9 0 0 9 Y U ~ S w M w b 5 9 9 B 0XD D ",
"9 9 , 9 0 D A I Z 9 1 b b 0 5 1 2 M > , 1 9 M 0 , 1 1 D 7X+X> M q j w 5 1 5 q M 9 M j b 0 1 9 , 1 w q b j w U 9 j j 5 9 5 A A O j j 1 B ;X> 1 0 9 1 9 w j > D M J 5 M q 5 O 9 w 5 b Z , A 0 w 5 w U 0 w 5 > 1 0 1 n 1 1 5 ~ n 0 9 M 1 1 M 9 n 9 1 5 5 1 j q w w 1 >XT 1 O M b 1 b Q T > 9 5 9 0 9 1 0 j A j b w 9 9 1 % > 9 j M 0 9 9 j U b S B B 1 1 ! M 5 j D ~ 9 5 M J 0 5 w q 5 % 1 1 1 w D =XA Z M w 0 > 1 w > B q , 9 % % 9 5 > q b j , M w 9 1 j 1 , 0 Z + b B Z 1 , q w w q 9 5 M 0 9 j 0X-XM 9 5 5 1 1 > 0 A I 0 5 1 1 , 1 9 1 w Q M w n j 1 9 B n B M , 9 9 b 1 0 0 M A +Xn 1 M B 1 B j M b , 9 9 0 0 O 1 5 w w q 1 q 9 1 , O A 0XO 9 ~ 1 M 1 9 1 b I S O A I ~ b A b > n q 1 1 , 1 5 w B 9 0 Q 9 1 0 q Y 9 w ^ Y T Y &X^ + A >X9 O > Q D R U Y n 0 1 1 + D 7XM 9 q 9 J S < 7 0 A A 0 O 1 9 9 A w w M B j n 1 > 9 > j 9 1 % > O 1 b > 0 J % n b , 5 0 1 0 +XM w 9 n > 1 > b w 1 9 M q w A M , M 7Xq U A 0 B 0 9 w 9 9 n Z ",
"q 0 0 9 9 b S 9 M 9 1 0 T M , , U 1 O , , M T w 9 w M ^ I M q 9 A A w 1 w q O A S w 1 0 1 5 9 1 q 9 n Z M 0 A w 0 5 j 1 &X! b % n j 9 9 , q 1 w 9 9 1 , > n 0 0 S Q Y n w 5 1 j 0 n T M ,X5 5 w 0 n 5 1 1 1 1 0 0 w w , > +XM O 9 > 5 w j w Z A q 9 1 9 1 > , 9 0 w q 5 9 > > 9 b 5 5 , 5 w , 5 0 9 5 0 w w j 0 n 1 1 0 S A w j q 9 q 9 0 D 1 n n 0 ~ Z 9 q b A M 1 w M n w 1 1 0 9 9 1 > , Z U , + 9 Y n + 9 B n % B w 9 1 1 w 0 1 0 1 9 9 w M q > 1 q j 1 1 1 n W n b 1 Q S 0 0 <X&Xw w 5 O w <XQ U , , B I w I Z 9 9 0 9 1 1 Z , 1 9 9 n J 1 , 9 M U M ~ b 1 1 1 Z j 0 9 1 0 w 1 5 1 9 A q m 1 j , 0 5 9 9 9 3 O j w 0 , 1 b n 9 O 1 n b ! I Y 1 1 5 0 1 n Q ;Xb A 1 0 b j j 1 5 1 ,X&X1 w 9 S +X, 0 *XI % 5 0 O o % ~ +XM ~ Y J % > O + q 1 n M n Q 7XA 1 9 0 1 ~ -X1 5 0 -X0 O 1 0 9 Y D q j 9 5 j A M w M D Z 1 , M A 1 1 0 9 A S 1 9 , M b 9 0 w , 1 5 > 5 1 0 B Z 0 q 1 0 w , w 0 0 5 0 B D A A A Q Y Z > 9 5 9 9 1 b Y q S ",
"5 0 j 9 b % 1 1 5 9 n b A 1 w +XU 0 > Y 1 9 n >Xb 1 9 9 j w 1 1 n Z Y 9 M 1 9 1 1 > 5 1 b 9 9 9 0 S M M A A 1 1 n I 1 q w ~ M , b Y 9 , w w 0 > > 1 9 , 1 &X*XM m b n , 1 0 1 b w > 5 w 1 1 0 > j q q 1 1 q 1 0 j 5 5 9 Z o 9 M M 0 1 q w 9 j 0 1 q 0 1 5 *X<XM 1 % 1 0 > , 1 Z M 9 5 9 9 5 0 9 9 0 J q M D Z 1 9 q 5 M U 1 9 5 0 9 5 j M I &Xn 0 j Z 5 w n Z M > 1 9 a w > 1 0 0 b j 1 0 1 , 1 O A >X1 j I 1 U 9 0 1 w b j > Q T ~ Z n 9 > A , % , 1 1 0 9 0 > M B 9 0 9 I &X1 A *XQ D M U M + ,X>X0 o 1 Q Y R ! A 0 1 1 1 % ^ 3X5 q w 1 ~ n 7 9 j Z J 9 > j 5 0 M w M b j 0 w > 1 9 9 q > 0 X , O w n 1 Z 9 9 Z 1 5 0 1 1 M U 9 5 0 1 , O B A j 9 j b 0 M 0 5 1 7X*XM Q q B b 9 9 b B M 1 0 > +X<X% M U M 9 5 5 9 0 1 O , 5 9 q M w 9 % Q *X, , 9 , b I Z 9 > 9 1 1 B M 1 R I j &XD X B 9 j B 1 w b b 0 0 w w Q S n , =XI 1 1 1 n M Y 5 , 1 A j 1 0 , 1 j , B R w , M j w 5 0 9 1 j b 9 1 0 9 B J , j n j Y Y > M b 9 9 1 5 b b A ",
"5 w M 1 J n b 5 1 0 , > % w w Y 1 , 1 5 , w q n 1 , 0 0 , 0 v 1 9 0 b 9 q w q 1 1 w M M j M 9 9 0 q Z M w A 5 M I S 1 w b Q 1 q b b A 1 0 w 0 1 1 > > 0 Q M 9 , U A , , 0 M 1 9 A 5 0 % 1 1 , , , 0 q 1 n Z 1 1 q b 1 1 b 9 Y Z j 5 B M b 0 U ~ 0 n 0 , 5 6X&XS 0 1 0 M 9 0 b 9 M w 0 1 O j > 1 9 0 M Y 5 1 O j S A ! M w > 0 n n < 0 , w n b 1 , M S w I 9 M 5 0 1 9 w 3 > > w q q 1 , n n 0 > > I ! n I I 1 1 5 1 5 A =X*X> j 9 j w B j 5 1 w -XM 9 0 b Z ~ , n >Xw % 9 1 1 o b <XY B -XQ J X 9 9 X 5 j U n D ~ 5Xq 5 w , 9 5X*X> w b ^ 1 % q 5 M T M q 0 9 1 M A b n C J w 9 > 0 9 > w 9 9 j w , M > 9 0 w 1 1 1 1 5 0 5 w D Z 9 n , 1 w 5 1 w 5 q w 0 J Z S Z *XA n v 1 0 0 5 1 0 b Z , > Z Q A 9 0 > , 9 ;XS + 1 X b w > 1 9 % w , % 1 n 1 , 9 9 + j D 0 w X 1 > 0 A M 9 9 O I B X M n 9 5 1 1 1 9 1 0 Z b 5 9 q 9 5 9 0 n w ~ 5 w n 1 >   1 1 9 M A Q b J 3XZ q q 5 w w 0 b 1 9 0 0 j q 1 5 , 0 T > , I O S J b w , 5 9 , 1 9 ",
"5 b 9 n M 9 1 9 9 1 w Y U 9 , X q w 5 > 9 n q > 0 9 9 w 1 9 5 b n 0 M J b 0 9 1 1 S A 9 1 9 5 9 w n n T B Z 0 A Z , n n M 9 1 9 n M 1 1 9 1 b w 9 9 0 > w 1 % I Z M n 1 I M 0 w 0 9 9 > I ^ Z Z b 5 , w 0 , O , 1 1 0 1 O n J 1 w 1 Y >X0 b >X,XA w n b > +X5XD O O I *XS *XZ 0 , 5 9 , A 1Xj 5 0 1 U I 9 9 w Y I w 0 q 1 9 1 n n M j q n 1 1 1 9 1 0 9 > , > 1 M 0 n 0 0 M , 0 0 1 1 n A 0 , > 9 1 O Q J Z 1 q 0 w b 1 1 M 6XQ M D b n 0 9 q q &XS 9 0 > <XQ X S ! B 1 1 9 , 1 O w w b n Z D 1 , % T A , , j 0 *X&X9 9 > j 9 Z Z 5 9 U Q j S w , b n Z b w 0 M M b w B b &Xn , M 5Xw 9 > q 0 &XS % % M R 1 0 v 1 0 1 1 n n O b S j 0 5 w 9 9 w b 9 1 1 n ~ n 1 D M I =X1 1 b 0 0 1 1 n Y 0 M A 9 + , % 0 w 1 Z 0 Z w 9 n I b , 1 b j > 1 M b 1 , b =X&XO q 1 U S , 9 n 9 n M 1 + n 6Xb , 0 1 9 9 O w 0 w T *XA , , , 1 1 0 9 B , M S 1 w j 1 U 0 Q 7XM *X^ &X1XB j % 0 q w 5 5 9 0 + w 0 % > w b 1 9 1 j w Z 1 U j I 0 1 , 1 9 1 w ",
"b w w 0 A b q n w > D fXQ M 1 9 9 1 > 1 w D Z 9 1 , > , 1 5 9 b R b 0 1 1 w M Q Z A > 9 n b w 5 1 0 M D S , 0 T 9 Z b M M 1 1 5 9 w , % 0 j j 9 1 9 M 9 1 , 0 qXn < *Xb 9 1 1 , z T >XO n M A b M M , q 0 n n 1 w 0 Z Z w 5 &XM , 0 , A 1 w Q ~ J ! 1XR X M U X O 0 R w Q D ~ M 0 w 1 % 2X=X1 b b B n 0 9 0 n S S 9 , 9 9 b S q m S M w j O 1 9 , b 1 0 , 5 > n , O Z q 1 9 9 1 w 0 0 A U q 9 M , 1 9 5 9 9 1 n b q A A Z q 1XM M S 0 M q 1 0 0 0 5 , 1 M ;XQ 5 w 1 9 b R w w 9 , 1 > > , 5 % q 5 % U Z > 9 0 o O U B 0 + O , o J J j U , M ,XO > B 0 b 9 , w w > 9 q q w M b 0 b M w 0 5 A B 5 Z w , X , 9 % 1 9 Z M 0 6X;Xw 0 9 j j w w 9 9 w 0 w n 9 9 9 5 Z M > j n , I w 9 1 1 9 1 0 S j w A X , b w 9 A 0 1 -XZ ;X3XO I n O b w 0 w Z b > 9 R R A M 1 b 9 1 + S T b R J n j I dXS 0 9 5 w w S , + w M M 0 9 9 1 9 n w 9 > % 0 J , 5X~ > A M 0X~ + 9 0 m +X^ Z . , 5 , w 1 > 0 b , 1 D b R S 5 > 5 J 1 1 w , 1 9 1 0 j 1 9 9 M ",
"=XI 0 M wX&X0 0 9 % M 1X-XM > , &XQ A ~ n , , 0 w > U U , 1 1 w I n 0 1 n Y Z B Z 1 1 , 0 Z j w 9 0 b > 1 9 0 1 n 5 1 1 , 0 q 0 j , M > 0 9 9 , 0 n M 0 % 1 w % I ~ S b 1 w w 0 w n Q I ~ b q b n b 9 0 5 ;X<X5 0 5 J -XX M *XU 1 > w O % % Q U 9 U A D , > X b n 5 9 n w >X<Xj 9 1 0 q ! T % 0 M +X1 1 n > n A n n w b j n B w B B Y n 1 0 +Xn 1 0 1 w +XM , 1 q Q , 0 n 5 1 5 1 1 0 , z S b 0 9 0 0 w 0 b 0 , 9 j Q n n D A Q *Xo , b w 0 , 0 T Y 1 j U 9 , % 1 1 1 9 ~ j , % > A J 5 1 5 b 0 > 1 0 1 1 > A ~ b 1 1 b I w > 1 9 1 b , > o I S 1 0 0 1 q > 9 0 n b U ~ 9 O 1 1 1 , 9 M M n J q w w 1 w 9 9 ! I Y *XQ Q U J 0 9 b 0 w 5 0 q , 9 w 0 > 1 0 0 1 b 0 > M 0 M A U M 0 5 , 1 w q 1 0 b 1 1 w 9 X U Z % ,X1XS -Xj n B 1 w Z b , Z 1 0 1 ! 0 + 9 O w > > 1 Z 9 5 w , , n b 9 n I b M n 5 1 Z Y 0 S n 5 q , Q *Xq Y b 1 0 1 0 9 B Y > X , S w 1 5 I 0 0 S b b 9 1 Z B q q q 0 0 w j D Y 1 9 n 0 , A Y w 1 9 5 9 Z Z > w 7 w ",
"B I % T Q T J Y &Xn O >XI + > M ^ A Q J Z w 1 0 O 1 7X^ , n 0 B Q 9 5 9 D S M , 5 j 5 A z M M S w b 9 O 0 , w 1 , , , > , M > M Z % M q , w w 1 b +Xb 0 b w , 1 5 n 0 5 0 M 0 A B k % 3X&X9 ~ 0 n M 5 9 w 0 1 1 5 0 &X5X9 w S j w Z w w w , X O , > w q 9 0 , ! +Xo 1 1 > , S S 0 O 1 , X A D 9 T w M <X9 O J , M q 9 9 j 9 w 1 q b Y n 0 Z ~ q 9 , M n M Z 9 % 0 0 q > , 1 n q 9 >XU 1 b b M w 0 b 0 1 b b 0 q 0 j A 9 z A 1 q S 1 S 9 0 , , 9 > M Z M M 9 % , w j w M 1 9 =Xz =XA 9 D , 5 M w , n D b X b D <XT 0 0 n M 0 > S M n Y I b 1 5XfXq w 0 5 w w M + 1 q U A 0 9 1 , w b q > , O A q n -X1 S Y Y wXM 9 n Z &X^ S > + 0 q 9 1 , 1 w 9 1 9 n M Q 9 9 % A n > 0 9 9 w M O 0 1 0 , q q w O 1 w 1 , 1 M S 9 0 S O O > w w > b j 1 1 > 9 w 9 9 9 9 q q o w 9 O O 9 1 B w =XgXj q M U R I % > O b I 1 M Z B b 1 ! A O ^ 1 5 1 5 9 9 , 1 1 M 1 1 , 5 5 9 b 5 > 9 S J q *Xq 0 w 1 M 0 0 M 5 5 1 D I 5 5 j J ~ 9 , 1 I q 0 , w q 9 ",
", > X w 3XS M Q U M o % O , 1 b M M Z 6X=X1 1 w , S >XM , 5 Q R X 1 w 9 T S n w j 5 j J n q B D D 9 O M F 1 1 0 5 S J 5 w , M 0 9 q 0 , 5 9 1 9 1 w S n 0 0 5 w j 1 j 9 w 5 w S S A B W Y Y 0 > 1 q w 1 0 Z U 1 , S T 9 , 1 > 1 1 *XA X % o Z J 1 1 1 r 0 1 O 5 5 9 1 j Z 5 q b 0 n , 1 1 9 b 0 > > X S b , j b 9 9 , 1 9 w 9 U Q 0 > 1 5 , , w n M A Q q n 0 1 + > > B J Y +XR A +XQ 0 0 w 9 b 0 w 0 5 9 j q 5 , q 5 1 J 1 , J % D S S w q 9 9 5 w M , M n > 1 M 1 1 Q 9 q 6XQ *X6X% Y j 1 0 Z 0 w n 9 1 M =X1 1 1 > b + 5 5 ~ 0 M B 5 w q S Z S D 5 n w w j Z w Z n q 5 5 5 Y Z Z n 9 0 1 b 0 Z =XZ . X U Q > 1 M M q Y Q 0 1 1 , 9 b 9 9 q 9 9 B A ^ U 1 5 w 9 0 S M 1 5 9 > b I 9 5 w w w w 0 Q w w % 9 1 w 1 1 9 , 0 1 > % D U n 1 1 0 0 0 0 > b j 9 1 M >XM O 9 n o j n ;X*X5 q Z &XB z q > 1 w J n O M R 5 U w , 1 O > j w 1 , 0 I 0 b b X 0 1 > 1 X % 7 j % A <Xj D 9 > w B 1 1 5 j n 9 1 1 > 1 1 o J eXJ M w B T D , D 9 > ",
"1 q 0 % X 1 5 5 M M 0 1 0 >Xb > 1 9 5 T I q 1 > 0 , b T 1 Z Q b U ! X w b 0 A 9 w M b w w b q U S j , >XI 1 1 , j B ~ 7 > 7 A j 1 w 1 9 q 1 Z Q 9 5 n b b 0 w 0 9 b b 9 5 9 q U D > n q B =Xw w b 5 q 1 1 w S b Z B w > O 0 w 9 0 9 0 ^ j M Z b M > 1 n j 1 9 I n , , M 3X;X1 9 j I j > j S 1 T D w > >XqXw 0 0 1 w 0 w 1 0 b ~ Q j 0 , > 9 w q q 1 O S M 0 U 1 S U A uXA Z A I <XU Z O , j b 0 1 9 0 1 9 1 9 1 j A 9 5 , B q w 0 M 9 Z n > 1 > 9 0 5 b 1 1 1 w , > , D M 5 +XA 1 , 0 j w , n M 0 , w 5 q 9 w , 1 0 1 % 1 1 , , , 1 b 9 Q &X0 9 U A U Z , % , Y n 0 Y q Z 1 w 6X9 M +XO 9 0 5 w , 1 9 j w 1 , 1 1 5 M q > 1 M Z , R U 0 q 0 w w 0 w q M 5 q R n 1 q Y A w 1 , b j q , 9 w q w 0 j ~ Y A % 5 b b X 0 b 7 2 1 1 > n M w I q S q 5 9 1 9 9 w 1 w $X~ % , 0 % T Q U w n w 1 1 + 9 U q w > n T 1 U ^ M 9 Q B , A 1 w M , 1 1 Z 1 Z R b 0 Z 5 > Y q > M q 9 , b b 9 n M T 1 , j Y A 1 1 , > 1 > 1 M Y ;XY Z b w A r 5 1 9 ",
"0 % > O M 9 , 5 1 1 1 1 > M 0 1 1 n > > U 0 n % + , > M A 0 0 % Z S O q M j w 1 1 1 0 1 w M j 9 0 0 9 9 1 9 M q +X5 n B 9 %   9 > 1 M S Q w Y 6XM q w 5 j w j q 5 9 w b j 0 5 9 > A A + n b , Y B w 0 1 q , 9 A 9 w R O 1 b w 1 U w 1 >XY *X6X1 S Z > 9 9 b w Z 9 , b ~ A 9 w > M > 1 > *XM n T b b n Q -XM M 1 b j b b 1 , w M j 5 5 1 n b S j 1 1 , A 0 A wXb > 1 ^ <X, , n 9 M =X&X9 % 1 O 0 0 5 1 w w , A J U Y 1 , 5 b 0 w b , 9 9 1 b D 9 0 0 w b w 0 M q 1 , 1 0 B > 1 5 , 5 1 , 9 Z n q > 1 5 w b 1 0 b w 0 9 B +X1 + n w 9 M U lX^ 0 0 ~ +XY 0 > , > M S 1 % T M j S 1 1 9 1 , M , 9 1 n M 9 n 1 , M O w O X 1 w 0 , 3XA A Z O 9 w 0 q , b n , 5 0 q 1 1 1 % 0XR w 9 S I D 9 b A 9 0 q , w <XZ X n +XJ O 2 1 z > 5 1 q 0 w D w w Q &X0 9 0 1 1 0 0 1 , J O > b % J +X=Xn U 1 n Q 0 > M *XR 1 I 1X> w Z j O Q w j ~ n 0 U I 1 X Z A 0 Z w U b U J ^ +X0 M 1 I b 0 5 > 0 1 <X0Xw w q , 9 n 0 A w 0 9 b S I n M O O 1 M M 2XM ",
"0 Z > n Z A 5 , 0 B 0 > w M 5 , 0 T <XM 1 5 M R 0 , a w 1 A 1 % > 5XD 5 9 9 1 0 1 5 w w S =XS 1 1 1 5 5 0 n n 1 M A 9 b n , Y 0 &X1XM ~ R *X^ B 0 , 0 j n 5 1 w 9 1 j > 1 > n q 0 , j 0 j q n M B S , 5 1 1 0 0 1 w , 0 w 1 , + I A > -X<Xj A 0 n n 1 n Z w 1 b 1 w 1 U , , 1 1 1 , , , 0 > 0 0 1 w U q 9 S Z D S 9 1 , ~ J b T 0 b 9 0 wXB M Q 1 9 5 5 0 1 q w > > q 0 1 1 b J 0 9 w b n 1 I J q w w w 0 w 0 j J 5 0 I b , B *Xb 9 , 0 0 M M , w 0 w 0 w Z &XZ b , 0 9 5 > b j 5 9 5 % > U Z q A 9 M 9 1 1 1 q j q 1 U ,XM % 9 1 , Y M Z 9 b w w w , Z j 0 0 0 R M , <XA A b Y , 0 9 , b 0 1 % Z q 1 A Z O 0 w X w M O q b 5 M b Z b w w T n o 0 n U b > 9 % 1 > , w Q T &Xj B M A n 5 b 0 1 0 n , 1 > 1 ! +XY Z n n b q b n U 1 5 1 > S M 7XM > n 9 1 w n w 1 . 9 0 % j ! > O 5 Y j X U 5Xj 0 n A 1 > D w X O , 1 , , 9 w 1 w U S 1 q 1 % , b 1 0 0 S Q 1 Z 9 Z S A 0 o 0 0 0 M R 1 j 9 9 b M j 1 dXZ O 1 , % , o + =X&Xo A n n 7 ",
"b &XM 5XY O ~ 1 1 0 j 0 M B 0 o A R U M 9 q b 1 1 9 &X0 Q U n n B sX~ j b 5 b j S 0 O 9 M A q 9 5 1 0 M w 5 % > 0 S q 1XY % A M eXQ + 9 q M =XR M . 1 0 , w 1 , w w , b S n *Xj 9 > n M > b 1 1 1 w , b 5 0 9 q q j , 9 b 9 , 1 9 J w > j + > , 9 w w n n O 1 , q 9 0 1 b q w 0 9 A 0 o 9 w 0 M M lX5X0 w Y Q ^ b % % % n Z > 0 M Z 0 Z b % w M O w 0 5 , j w 1 Z 9 1 b > j > O 1 0 1 w ;Xj S A > w 1 n b 1 M w 1 5 n A 5 0 5 0 7XJ 1 5 R M n 1 b M 0 n 9 1 Q <Xb o b ~ Z   9 w 0 , 1 9 w , Z M Z n =XM 1 0 1 5 9 0 9 % J Q X 9 0 1 &X5X>Xn A 9 A n X b Y ~ n , <XU O I Z 0 j >XO A Q 5 n B q % 1 T 9 Y 0 S Y S M A =XB b 0 j j 0 0 1 9 9 A 7XJ 1 S 9 , b 5 1 0 9 9 0 M <XS ! 9 O , q w 1 9 w 0 n 0 1 0 *X! +XT n 9 ;X^ Q 0 Z R 1 0 1 1 n J Q q 1 9 q , , B A J q M M 1 j w 9 , j j 7 B +XI A j w 9 , , 1 w T M 1 n , 9 M D w b o X U *X0 M 9 1 w , Y ^ ! q 1 0 5 0 M , w 9 0 1 0 9 Q 1 1 0 1 w 0 , b M , 5 , q q , w 8XD O , 1 % P ",
"q 0X~ I ^ 5 A j 9 n B , M q 0 , M T o 1 , 9 1 , 1 w M , q 9 , b m b M Y M b B 9 1 n Q q I M 9 q , U >X0 Q w 9 w 5 0 0 A U % X 0 J 1 9 j J w j D M w , 0 A n b w j 5 0 b w Y J 1 w M 1 w Y A 1 9 w , n J 0 1 b w q q b &XM 0 > 9 5 0 , 0 0 5 q 5 > o Y A b b 9 q q 9 0 1 j b w , I <Xn > 0 5 > A j U n q q B A 9 n 9 1 5 n S n 1 *XZ Z A b 9 1 O 1 A 1 5 > A b 9 M j + 1 1 O 1 5 , w b , ~ A J n 5 9 Y 1 X 5 q A w 1 5 % 1 , > n ,XT I w b A I 0 M b q 5 0 0 > Z > 1 ^ Q B Z w 9 0 9 0 b M w 1 1 , A J 7X1 9 b 1 9 M 0 5 X % 5 9 % Z Z 9 > Z U % j =XJ , M U S , M Q O 1 9 % 1 9 w A n 9 A =Xj , 1 w o M n q 1 0 ! b U M 0 I A Q > 1 9 1 w W *Xq j 0 9 w b > *X;X+ 1 q > 9 > O 9 Q , w Q 1 1 9 0 S n , 0 , S Y w ~ U S D q n 9 , 9 9 0 9 9 0 j 1 w 0 1 9 9 > b B n *X0 > 1 + , w j J 7 U eXA 0 0 q 1 M Z 1 , S 0XU , b M S M , w 0 w <XM 9 w 0 9 b O M Y U I j , , 1 A Y w w q 1 > M &XM > 5 w , 5 b > O w 9 0 9 j 9 9 > w 1 q M 9 ! ",
", Z w > + 1 w j , M 0 1 % 0 0 w 9 1 w 9 w 1 5 w > > 1 1 w M U dXJ 0 b Y A +X> % % 9 S 9 b A M n 0 Y A + &X5 9 9 0 0 5 1 1 w M 1 q , w , 0 w > 1 w I b A -X5 0 9 5 Z 5 j j 9 5 q Q n 1 0 j Y I , , Z M w 1 1 b w j w 1 Y -XA , 1 D D   1 0 w , 1 , 0 9 M B I q Q n 1 9 1 1 0 0 0 5 Q +Xo , q , -X-X=Xq Z q b 9 o n Y D q 1 ~ J > +XI j 9 <X% B I , M 9 w , 1 A 9 Q n M I U 1 I ~ 1 j j 0 1 5 q 5 0 b A ~ q 1 I M 1 5 0 , 1 , 0 q D -XR T B O j b 1 w q 0 b n 0 O w ! &X! Y > M +XI U 1 Q S > 9 1 9 U Q *X1 9 w 9 , 9 J D j 9 q 0 9 Z j % 9 w A 5 b Q ~ A j 0 9 1 , 9 b w O q 0 % 0 b 0 9 q > 1 Q b 0 0 , 0 > b Q *XZ , 5 w w M 9 1 , 0 9 b j b j 1 1 b w b , M ! , 1 , 1 q , > &XwX1 , , 9 , 1 5 Q D b 9 , 0 U Q 1 D I T Q j w 9 9 9 1 1 j M b w 9 w 5 9 , 5 U 1 M <XO , 0 1 , q n b 1 0 5 n 0 q 0 w &XM % q , n +Xb w , I b > q M b w 9 q 9 9 1 5 5 % 9 M w q w 9 9 J >Xw w w 9 1 n B 5 , 9 q 0 0 9 9 q 0 0 0 9 M 9 1 9 0 9 1 1 A M ",
"1 5 1 1 b , O 1 T M 0 1 1 0 q b 1 0 n w 9 w &X! , > M , b n Q ,Xb z b &XU b 0 > 9 0 J A > 0 =X1 I w 1 1 + 1 w q , 1 q J 9 w j + 0 1 , 1 o % 0 j o R +Xn Z 1 1 M M , 5 0 n 0 5 9 , > 9 1 O 7X&XA w n U Y 5 n Z 0 9 0 w > Q Z   Z &XA 0 w 1 q 1 0 9 b w w j 1 n S >X0 9 9 1 0 j b 1 + 1 , 1 1 1 J S M n Q o B *Xj 1 M +XD 1 T ~ % w 0 , 9 M 1 I S 1 D >Xn % 1 Z , M b M 0 q T D &XZ q M S Y 1 0 1 5 1 R eXZ q w , 0 B 5 ! J 1 5 j 9 M 9 9 , b + B S 1 1 w 0 M 0 1 b w &XI 0 *Xw >XJ z M w w 0 0 0 0 q M n 1 9 q 1 0 1 q w Z M Y , 5 O 1 9 9 M M 9 7X<XM j w q 1 0 w 5 q 7X! 0 5 M M ^ w 9 5 o T ,Xn j A , b 9 1 Q J B B 1 5 > b S M n 0 w , , +XQ % 0 0 5 5 q 1 % 5 w 9 j w b 0 b 1 1 , M n 9 0 b 1 > n 9 1 w I 0 Q b , *Xw , 0 1 0 b n 1 M B b w w 9 q 9 1 1 , , n w 0 , 1 1 9 1 0 1 5 M j > 9 w 9 > 0 B A w M > Y n q 9 A n 1 9 , 9 0 0 9 b b , 9 9 1 1 O 5 0 > w 9 M M % B j n w 0 M , 1 , 0 5 9 0 9 0XR + w 0 b 9 1 9 1 9 9 1 0 9 ",
"X w w 5 1 9 , 1 M M M J w I 1 5 1 1 5 b w , I ;Xn X w O Z +XY B j M 9 9 O 1 U M n 1 w *X> D ~ M w Y A % S 5 0 j 1 1 1 M , A Y w b A 9 , Q 9 0 B 1 1 1 b b w w B Q , 9 n Y M > 9 1 , , 1 w M &X;XS A 1 M n 1 0 b w 0 M 5 O > S ~ &X^ M w U D S 0 I R O 1 1 5 A I 5Xb , q 0 > w B n n + b q , Z A > O n I 9 O Q ,Xb j b w 1 O M 0 O O 9 9 + 1 5 0 9 n M 9 S b > , 9 0 , j S ~ b 1 9 0 Z Z 0 > , 0 5 M Z 9 5 0 9 n n M O &X&XX 9 > 1 1 > o >XwXO 0 b , 1 1 q =Xb b , 1 b Q Z M J M C S m 1 1 0 9 1 1 w 0 w q 9 j 1 0 1 9 U O I Q X 1 5 O 9 b A M 9 q I b 0 0 0 n *X1 1 1 w =XI 5 M w Z > 5 M M I M w w 1 5 9 1 1 > J P B q 7 9 5 ~ S j 0 0 , w M A 1 , 0 q 5 j 0 1 1 0 j 0 0 n 1 , q 0 1 b w 1 n S > 0 <Xj 1 5 A > Z n O 0 1 0 w , 1 0 S q 1 I n n 1 b 0 7 0 v 9 9 1 % 0 > % A I , 1 9 w 9 9 1 9 1 1 M > M 0 S Z O b J q q M 5 9 0 q 9 M j b w 1 9 1 1 0 , > n 9 , 1 , > 5 5 j 0 5 M S b 1 9 1 , 0 0 0 1 *XM q =XD b 1 0 w 9 9 9 1 0 Z ",
"> 1 9 w > 0 1 M 9 D n 9 A *XJ 1 9 5 5 9 b 0 + Z 9 > 9 , n ~ =XA J b 9 ! n % n ! +X9 M 6X0 9 M q > U n q ~ Z 9 U T 1 X A b b Z n ! n I A ~ ! j Z 9 T w w 1 , q q 0X*X, b 1 , b 0 j S 1 0 j b Q b S , > > 0 S 0 1 0 9 j 1 0 j I ^ *Xj Y M -X;XY 0 Z Z 0 w 5 5 n D S 5 5 9 0 , 1 n n A M Q w 9 9 , 5 9 q b 1 ;X=XZ M b b 1 1 0 1 b 3XS 0 q 0 n ^ n j 1 . n ;XA b Z , w 9 w &XQ A 0 9 0 > Z n z b q q , 1 ;XS O 9 9 0 9 9 > 0 1 0 9 q b 0 q U n , 1 0 b 1 1 0 b 5 b , 5 w J w B Z n <X0 1 q 1 w j 0 1 S M B w 9 0 w > , 1 9 , I M 1 1 1 1 9 9 w 1 5 b , 1 b b > w n M 0 M 1 n Y 0 9 b U 0 9 9 1 1 9 0 0 B 0 9 0 1 5 , > 9 9 0 b q ! w q B M j 9 J 0 > > w w 9 9 9 I >X1 5 5 w q 1 9 9 5 1 , 1 9 , Z M w A % 1 q 5 I J w % 9 1 9 Z b j 9 0 Z 1 n 1 1 I J A -XA 0 9 0 J 1 0 9 1 n M % b M 0 w 1 0 1 A U 5 q B b 1 1 B M j b w 5 > n n 9 0 n w q 0 q w 0 9 n 1 q A q > 0 j 1 q 9 Z 0 1 M A 1 1 , , 9 0 0 0 1 1 , q q 5 n q 1 9 q , 1 A b :X",
"M b M j b 0 S B , > 1 w B +X<X% 0 0 , 0 M w w X , j 1 9 Y 0 + , U A % b >XS q B Z w , b b O + , 1 , > b j 1 q I S 9 b , , % Z , 1 j ! J 0 n 1 S D Z 0 O 0 0 0 I U 1 q 9 b b b 2 I wX> 1 1 % > , X q 0X9 9 S , 1 9 w ! J 9 5 O A U Z U I A q Z M , , 0 0 0 5 w 9 b 1 w w 1 0 0 > D 9 I &XO , > O 1 b A A 9 J ^ b 0 q 9 j ~ 0 1 > S <XI O A b Z > 1 n b Y I 0 0 9 5 9 1 , M T T S 5 1 9 9 +XZ b q 5 , b D D , 1 b 5 5 M 0 > , q j 9 b q 9 O 9 0 9 B M 1 A A + q ~ 5 , q A , Q % % b , w 0 > 1 n J 1 q A b w 9 n 0 0 j 9 9 9 > 1 1 O > A b , 1 q 9 w 9 5 1 1 b 1 5 I 9 ~ 0 9 U n w n M 5 5 b 9 w b 0 n 9 1 0 1 0 9 > 1 q 1 , 9 , 9 , w n 1 M Z b 5 5 1 1 1 0 0 1 ! 5XO J Q w 0 9 w 0 w w 1 w 1 1 9 0 5 1 9 j > b =X^ <Xn . , 1 D M 1 0 1 w 5 w 9 b n ~ R I >X5 5 5 0 5 b 9 9 O 1 > n qXM U 9 0 n n +Xb D T A 9 w Y R w 5 1 T 7XI b b 0 9 b 9 M j 1 0 5 0 9 0 1 1 0 5 9 1 1 1 5 D I Q I O 5 1 1 , 1 b n , 9 0 > 1 j 9 1 n w Z A > T J R ",
"w M 3X&XS 9 Q M 9 0 1 w A Q S 1 9 w 1 % 0 B Z n n S 1 w q w , 0 q b 9 =XS T z n 9 1 1 1 1 Q I 1 b 1 9 A S 0 b o X U &X0 M 0 > 9 5 Y ^ U 9 , q 9 w B 1 0 0 w 1 9 M ^ 1 , 0 1 b 1 , A 5 9 1 w b 0 1 Q -X, 1 , w 5 , 1 S M j % 9 5 J Z j B I >XT 0 b 0 w 0 9 , D Z n M 5 0 w > , 9 n % J U > 0 9 5 5 j j 0 1 9 9 5 j b 9 j I 9 0 n , M Y q w 9 Q 1 1 q 0 0 1 0 0 n 9 5 q 5 O 9 0 9 0 w j n *XM 0 n b q 5 D 0 > 1 0 q q > w Z J 1 9 9 b j , 9 0 1 1 1 w , q A 0 Z Y % 9 w b j D b % j 9 0 q w q 0 b w j B 1 j n b M Y w M , n n 1 0 5 , Q n , n 0 b 1 5 1 5 Z q 0 1 M 5 M 5 j 9 Z q w 1 0 w j 1 n M b j j 0 0 9 w q % Z Z 1 1 0 1 9 0 b n 9 w M M 1 9 1 1 9 j 0 1 5 9 9 I n M n 1 9 w , 1 M b M n 5 1 w 5 Z I o j S S >Xb 1 9 , 9 M 9 > > 9 q w n 1 Z Y *XO Q w 9 9 b 1 1 w M w 9 X w wXj 0 1 M w j b B b 1 w , w 5 5 b A Q >XqXj > M b 1 j b Z Z A 0 0 w 0 0 , 1 q w , 9 1 5 1 J >X^ T 5 w w 0 b 1 1 > , o 5 9 0 0 0 , Z Y q 1 , Q I Z ",
"<XB R j A n 5 5 w w 9 0 1 n 5 0 q 0 1 w 1 0 M 9 T Z o 1 O % q w T b n 8XQ w q b 0 M Z 9 1 M 0XI 1 b M A n 9 0 0 M <XM w j 5 9 b > M Y I S n , 1 9 S S n j q 5 1 A ^ 9 5 w 0 1 w 0 % , 0 0 j w M 5 w > w 1 A A w 0 S % , Z M > 0 Z 1 Q w o Z 1 1 w > 1 n S 9 j n M 0 0 j b 9 9 9 1 9 9 1 0 > , q b 1 1 0 0 n 1 0 9 5 q 5 1 Q b J 0 5 ~ w 0 b M 5 0 b 9 0 b 0 j w 5 9 1 9 9 > > w 1 1 9 1 n > b M q n b b 0 1 1 1 0 5 w 5 >X6XO M Z q 0 9 0 9 0 0 1 0 1 , b 0 9 1 1 0 > n >XY Y , + > q Q n 9 1 n w 9 1 5 j T +XD >XA , 9 q j q w 0 1 > 9 O ! R Z M 1 j b Y &X> R S b 1 1 ,Xn w O 9 A Q A b q w j 5 0 j q 1 0 w 0 9 b 5 0 , n w 1 1 0 b b B U 1 , , 1 1 9 9 M 9 1 1 5 > 1 0 9 9 q w S O n A Q ^ 5 1 0 Z 9 1 O 0 J . O 1 0 9 9 w 9 9 ^ w 9 0 , j 0 A q 9 9 + j 0 9 q 0 w 9 1 , , 1 1 1 X 9 U ~ w 1 , O 1 1 9 1 1 1 w n j U 9 9 , % 1 0 1 , M B 5 M , 0 1 9 q 5 0 1 9 9 w D B , B J b b A b 9 b 0 5 , 9 5 b 0 1 =X&X9 5 1 n -X7X9 > b A ",
"5 R S -XZ b w 9 0 1 , 9 B b M w 9 0 9 1 > q M > *Xb > 9 , 1 5 M M 5 0 > q 9 n 0 9 R A > 0 1 q ^ M w 9 D M > j n w j 5 q 0 w 1 5 1 O 1 M b w w j 9 Q &X0 n w 9 9 D M 1 > 9 0 9 w 0 9 n 0 w w w b 1 5 0 9 1 1 9 1 j M q q ,X5 , 0 n 5 n n > q 9 9 q 0 0 5 n j 9 R j w j j q B n n 0 w w 1 9 1 O &XZ > w 9 b 1 1 1 1 0 q w , b 0 I 9 1 w A w b 0 9 w 0 5 j B q n j 9 9 5 q q > n Z > , 1 1 1 9 M 0 1 M D M , 0 1 9 9 b 9 1 M B 1 ~ S Z 0 9 q 0 1 0 j 0 0 9 1 5 w 9 A J X Z S *X6Xw , , , w M , , 1 5 w b w 0 b >XZ n -X1 9 9 9 1 0 n b 9 % X +XqX0 M 5 n 0 Z Z Z M w w 5 w b w b S J NX8X1 1 A 1 j w I S n 9 b 5 q 0 , 1 0 q > 1 1 1 1 q 5XS >X9 1 0 w 1 5 w 5 5 O 5 b , 0 w 1 b U b w X ^ J *XY 5 0 U ~ n 9 0 1 1 > 1 1 5 , > 1 0 b U m , b 0 9 5 1 1 > 0 5 1 w 0 1 0 M ^ U O A M > 1 ;X0 % 1 1 , M w , > 0 M 1 1 0 9 M 9 > % + S j 1 B A n M 1 w w 5 9 9 j 9 5 0 Z 1 9 ~ ~ 1 n M w b n n q n 1 9 1 5 > M J 9 n Q 5 M 9 U 1XM 0 n M U ",
"Q > j R > 1 9 1 a M n 1 A w M 1 0 n w > 0 1 , 9 n 9 1 > , 9 9 1 w 1 z n 1 w q w > 0 M D 0 D , I Z 1 n Z n 1 w 1 9 0 0 w n w 9 w 9 9 1 O 5 1 1 b 9 Z w 9 Z b b j n q , 1 5 w 0 1 9 I uX9 1 n b q 9 1 w 9 9 5 w 9 > b B 9 j > , 0 9 &XY M 1 , 1 0 T n 0 0 0 M 9 1 1 9 Y Q J 1XA 1 9 q B 1 b 5 5 > w % S Z M M 0 9 0 Y Q > U U b , 1 *Xb w 1 9 0 M Z M 0 0 w 0 0 w j 0 0 q q 1 A w 9 1 M 1 0 5 b n 9 j S 1 1 1 1 1 q 0 j 1 9 > , 1 1 b w 1 5 j j O A Z +XU 1 5 w w b 1 O Z B , 9 1 w 9 1 b 0 w M 1 w j 1 n q A n j 1 9 q w b b 5 0 , 1 0 5 > M b X b T Q , 0 , 0 1 9 , 9 5 9 q w S I D w 1 % w 0 1 9 D 1 I w 9 9 5 q 0 1 0 9 q 0 w n 5 9 S A B M n 9 0 w w , 1 > 9 1 > n ~ q 9 , D B *Xj , w B 7 1 , ! 6Xn 0 9 1 1 1 q U 7XT 0 b D 9 Z n 0 D Z 9 > O 1 q 1 M b T &X5 j w b A b S I > O -X*XD > , 5 >Xj > B b q 1 > j 0 9 q w M M M b 5 b j > , j 0 M 5 9 w n w 5 1 M S 1 O 1 1 , w w b Z j 9 w 9 1 , 1 1 S 5 5 X % b 0 0 , B O 9 Z w A ",
"T 1 , q 5 j 5 9 , n A 2 M S n w w w 5 b n j w 0 > 1 1 , w Q 9 1 1 z 9 1 9 1 9 1 n 1 w w J D > 0 S n w n 0 5 q q 9 Z b n b 9 9 5 1 0 1 > n w , 1 , 1 1 0 b 0 q n A 0 1 0 1 , w 0 1 n -X1 U -Xj b 5 j w 1 w 0 w 1 , 5 1 5 9 M A , q Y ~ sXZ X , 1 b n 1 0 1 1 5 n w b 0 =XA w ,X1 5 1 5 0 9 n j 1 , X R sXn D , M w M I n J b Z 0 b S n b n M fX0Xw q B 9 q M n S 0 q 0 9 j 9 1 > w 1 1 1 1 0 , b ,XU =X5 , 0 0 1 0 9 b 1 , b 0 , w 9 , M Z M M O Q A &XI 9 0 A U 5 9 > j 0 O , , 1 1 1 9 w D *Xq 1 1 r 9 0 q O 1 9 % j 9 1 1 n B R 9 , n j , 0 n , 9 M 5 1 9 0 O , b 0 1 9 w B w 9 > O 1 b 1 w n b S b 5 n 1 5 9 0 n 5 1 j w , A <Xb 9 U q w n n 0 M b 9 0 5 1 q U M 9 8Xn w w 9 ;X;XA 1 n Q b b > M D , 0 0 9 1 1 0 M T R M 0 Y A M 0 j 5 A > w 9 , 9 > > b ^ 9 B M 0 9 b B R 3XI O A Q 1 0 1 1 9 U 0 M b % b U ^ n 0 0 > ~ 5X> 0 b 9 O n S w O % 1 9 q 1 , M b n S , 1 > Z B 9 , w 0 5 0 , w w 5 , w 0 > > 0 1 q > % C ~ B I m > n ",
"A w > 9 1 M Z j b 1 n w 0 9 , b U Z Q &X, b 9 Z w a b , 1 Z 1 1 S q n 2 q 1 z Y 0 5 D M 1 1 B J q q q , 0 n n 0 0 n 0 q 0 w q 0 0 n > B D 9 1 b w 9 1 j b 0 1 B M , 1 1 , b 1 w 9 , 1 1 n 9 w M 0 5 q q O b M S Y 1 1 q 1 M M % 0 S w B 0 9 0 , 0 q 0 9 > q b 9 j q B I U 1 n 0 w b b 1 9 5 0 0 1 O M Q X q n U 1 j 0 j 5 0 1 1 0 0 q q Q T +XZ > 1 n 9 0 1 A 9 Y w w 0 9 j 9 1 9 w 0 w 9 0 5 0 ! S Y j n 0 0 b 0 > , 1 > + 1 w Z 0 9 9 T n S > j Z J 5 1 b =X*XB 0 9 1 1 , b Y Q b 1 b n , D 0 j U n 5 % > 9 9 0 b w ~ A , j b U A q U M . D 0XD 0 o + A =XO 1 q n b % 0 9 1 b w 0 w 0 Y 1 w A j 1 9 w 0 b 9 w j w 9 > b S 9 , 0 w > 0 j q S M j w 0 5 > 1 , q n M > , 9 b q 0 Y 1 O B Q I 0 w 9 , 9 w + 0 5 ~ 6Xb 9 O > Q 9 > , 1 n A 1 q q j j j S M > , U 9 S =X$X7 7 q U >XJ % Y U w , 0 0 n j 9 C b 1 M J 9 n S 9 n b j o b > n 0 1 I + 1 1 , I M 1 j 0 0 M w , , 9 B 1 , 1 ^ S 5 q w 1 1 1 , j +XA 5 > U Q B 9 $X>X~ J j ! q ",
"=X<X1 o > n J j 1 , w 1 w w w j D =Xb =XA % 1 0 0 0 q w 1 % , O wXY U b 5 M j ~ A M U Z w 1 D ^ j 0 5 U sXU w B q w w w A b 1 w w 0 9 0 , 9 9 5 0 5 9 9 , Q S ^ n , 1 0 1 w 9 n 5 5 0 9 1 w w 1 9 M q I 1 M J Q *Xw 9 b Y 1 , , w n o O , 9 9 9 q q w 1Xb 1 > 1 j q b > 1 9 % b 1 5 0 j M A , , 0 q , % 1 j M U 0 1 O 1 , 9 w 0 , 9 b M j 0 % % 1 1 , w j j S q 9 q 5 1 5 q 0 w 9 w q 9 J =X0 9 T w w Z A 0 M w w 1 0 1 w D 9 A 0X9 q 5 0 -XuXB O q A q 9 O Q &X, w 9 w % 1 b R <XQ 0 I I S Z 5 0 n S > 5 > q 9 O 9 U U M M w w 9 Z B I &X9 + ^ U 0 1 1 w D b w U 1 1 j U J 0 , q , wXA > j 0 1 , j B 9 1 5 1 0 q 9 1 A 1 J w 1 > 1 B q q 9 9 w q 0 0 j 9 1 9 b 1 O , w > % 1 , A B n M Z 0 n 9 1 , n Y % , b >X0X=X+ I n *XM 0 0 , n w 9 5 n 9 n U &XI % 1 O , Y <X+X, > 9 > > , 1 9 I 5 1 Z M &Xq 1 ^ Y q 5 9 w 5 q 5 1 > 5 n Z , n A . D Y z 0 b 9 A S 9 0 1 , 1 0 1 > 1 5 j 0 M M Q n b w q 9 9 > Y Q 5 9 0 b % 1 9 q Z 1 M &XD ",
"T Y 9 5 1 % q n 1 O 1 0 n w 9 w n *X0 b I 1 q j 9 5 9 n 0 9 % O 8XJ 5 0 B M 9 b n w 0 9 1 9 w w 0 M ^ =X0Xb , b n 9 5 Z J S M 5 w 9 j 0 , 5 q 0 1 0 9 1 0 Y Q ~ M 9 9 j 0 9 1 1 1 O > 5 1 b 0 9 1 Q Z q o A S Y S 5 9 Q &XZ j 1 , 0 > 9 n Z 1 O 5 j 9 M n 9 T j , , 1 1 w w b , U Z % j M ~ D 9 I n X Z 0Xq , o > w -X9 > 1 j n , 0 5 9 w w 5 , 1 Q , b I b q q 9 M w 1 b 0 n > , Z M 1 w S n 1 w j b Z M q n 9 , , 1 O b Z n O n q M j j +X5 , B &XY 0 n 1 9 > 1 1 0 5 Q I 1 5 . q M 1 0 w 1 Z n 1 j 9 Z w 1 Z 1 O M &X, Z ^ A 0 w Z +X6X0 q ;Xn 5 5 9 O 0 M 0 z 5 1 ! I B Z q w 0 ! 1 1 w 1 n O I 0 O , % 9 B 1 9 q w b S > , 1 b A 1 1 M J 1 0 9 9 5 , , 1 J A 1 0 w Q B , U >X+XQ n R 1XwXZ 1 > 9 9 1 1 Y 3Xn w 0 w 1 M q 0 M 9 j 0 M j 9 q D 1 R M > , O w 1 M *X. M Z b , > 1 M j 5 O 9 0 , > > A *XM 9 w 0 q 1 9 q > > ! =Xb 7 , j 5 0 j 1 M ^ b 9 1 5 9 1 1 O 9 0 , 1 0 0 O , 5 5 j j j 1 5 9 % o 5 I M 5 1 + S ~ 1 , 1 M Z ",
". O 1 j 9 9 b 5 A ^ 9 0 > 9 b b M 1 9 > 9 j 5 b 9 z w 9 , , 9 5 1 > > M Q D 9 , > 1 1 0 5 9 1 0 Z q A w 5 1 > > q 9 0 B M 5 B 1 0 1 9 j 9 q 1 w q n U B % S M b B A q w n w 0 1 1 w M 5 n 6XD 5 5 0 S wXT , % M 5 w o I <Xw w 9 b 9 1 j Y wXQ M n Y M A 9 0 n B 5 % > 0 0 > n D ~ A Z b 9 0 B b Z Q , % Q Q n 5 % Z R 0 9 Y 1 5 , M Z 0 1 b 1 <XZ 9 w 9 0 1 9 b 0 1 b 9 0 b 0 0 n , T n 1 + 1 w 9 b 0 b w w 0 w w 1 1 9 n 9 O 1 1 0 5 1 1 B j q M M 1 0 5 1 % I A O , n wXfXA 9 Z B =X0 1 , 5 M j w 5 Z , J U *Xb 1 , 9 1 <X3XS , o 0 0 B 5 9 n A , 5 n I ! O b &XZ 1 0 5 q 0 b 9 0 O 0 b q % Y > 1 Q n b w b I S b 0 9 0 0 5 0 , 5 , 5 9 B A Y I q q j 1 9 1 S ;XM 1 w Q q 5 M n U Z 0 b 1 0 1 w 0 w 1 9 1 0 n , > w 1 , S > q B 9 0 , B D w 1 q > O , &X;XS 1 1 % o > b I T O > O 5 b 0 > 1 0 1 S U 5 M w q 9 9 0 0 M M % n 0 A 1 0 A w 0 n U w w dX*Xb 9 D q M B J 1XZ 1 1 9 5 9 9 q o 9 q 9 j 0 5 q M ;XU 9 9 , > Q S w , 1 j D ",
"% w 9 9 , , 0 w M T 1 w M 0 1 1 9 1 1 0 1 w M 1 5 M J =X1 b I 9 + *XU + , , , M A > O 0 D 1 9 q 9 j j 1 1 O D M 1 A D w n 0 j b 1 0 w b 9 1 b D 1 5 +XI , M n w M Z q n b 9 1 1 1 0 I S , S M w n w -XY w 0 Q ~ b Z w 0 9 O > 0 0 q M , 0 > b n 9 j n 0 j n 9 n 1 B w > q 1 O n ~ > Z I M b b b *X<XZ > -XM , 0 1 + 9 U 9 b 9 1 Y Q S B w q 5 <Xn 1 w q 0 + Q w O 1 O 1 w 1 > 0 B j J > % 9 b I 1 1 q M 1 9 w 1 9 , 1 0 A 0 1 9 w n 0 , S <XW R j ~ =X6Xj 1 % w j , 1 *X;XA A 9 M w A n q M 1 n 0 0 w j q Z n *X1 > , , j 9 Q Y X I 9 > + , w Z B X 0 w 5 w , , ^ Q 0 9 b 9 9 1 9 1 o M <XS q 1 9 5 n 0 q 9 n 9 b 9 1 5 1 1 1 % 1 9 , 9 j , , b b j n b w 1 1 > 9 > j M 1 1 O 1 D b 1 , 0 1 Z A B b 0 Z 5 1 5 1 1 q 9 9 0 M 9 w 9 n , S q 1 1 1 9 1 n X S 7X;Xo % % , 0 A n > 0 1 0 Z n 5 5 9 > 1 ~ ^ % 5 1 w 1 , M n > 9 5 Z ~ 1 b w B Q B > j M w J 5 , n Q D Q Z I R 0 b j n 9 O , 1 0 1 1 , > 0 M S M 0 q % 1 n b M O 5 5 1 1 1 ",
"5 M =X,XZ 0 S M q S 1 M D b , % > q 0 w n Z &XM q j w M A b U n . S <XT 1 > 1 ;XZ , Z M q 9 , b w 9 q w Z I b q 1 j 0 5 0 b 1 b 0 9 n b 9 9 5 M B 1 o 1 1 9 q q M Z w w 0 0 , 1 , w n > 1 , 5 w 9 , M 9 > b U q 9 0 5 > b Z > 1 5 =XsXU 5 b w =Xq > , 1 j n 9 1 q w b B +Xb , 9 j 5 +X7XQ , > w M R 0 0 B I 5 1 B Z T > w ! b , M 9 9 M n 9 j 1 % w q + U O 0 A 9 9 w n Q M n 0 1 j w 1 0 , w 1 1 1 I ! D M 0 w 9 9 , 1 ~ *Xw > n ~ b 9 I Y ~ m M M Z D 1 w 9 0 , 9 5 A Z 1 , n O 0 M % M M 0 0 9 S Z w 0 n O q 9 Q I 1 w 1 0 1 > b ! M O O 1 q j 5 O 0 0 9 n 0 D S n w 9 w q 0 A 9 5 w U A 7 0 M 9 9 D n , 1XqXS 1 b 9 5 b q Z Q 9 > , 0 0 1 9 + 1 0 w 0 j 5 0 1 S -XM 0 q X S =Xw 5 , O U *XZ 1 > j 0 0 9 9 9 1 w 0 0 w 9 0 0 S b 1 M n , O 1 Z R M O X 0 , O b 0 > Z S 1 b q 1 1 1 1 , > 0 > 1 1 , > b 9 1 0 o % , j 9 5 0 ,X9 0 b , n % j n , 1 1 b 9 w 5 0 Z 1 , % b Z 0 ~ 8XD O j 9 q w 9 1 j M % O O A D 0 Q T j 1 j 0 > 9 w ",
"9 0 M M I 5 b Z S 1 q 0 n 0 1 n , 1 9 O , &XZ q A n j j n S >X*X, j *X1 0 9 > % I n j n % b Q ! B w 5 > Q <XX w b w > b Z 1 > % 1 9 w 1 1 A w Z n O 0 1 J n 5 9 q 1 0 w 1 w 0 2 9 b w > 1 q 9 9 > 5 R I J J Y R Q n 9 % 1 D , > S 5X! Q , I b J n b b 1 M 0 5 b n 0 A M <XM > , 1 1 M +XQ o n 5 + + 5 9 b B > 0 w b D , 0 +XT w 9 j j 1 1 1 , > b ! A 0 j 0 > T M w j b 1 M w 1 9 9 > 5 5 , 1 9 j w 0 0 S A w b n 9 0 , 1 B 1 w b 1 , > 1 M q 1 q w > 9 M B 0 0 M 9 > 9 1 9 1 0 5 w A 9 w q q 1 j w 0 5 w 0 % 1 1 5XqX^ o > > , j I n , 5 0 1 S b 0 1 , , j 5XU % 1 5 w 1 1 M 0 q % M Y w 5 M q Y Z n b A b Z S n , R I U J I <XU w b M 5 , > 1 0 1 , 9 1 j w Z U Z A 1 O 1 9 b w 1 1 9 o A R 9 Z w O 9 1 1 % 1 w n b q D A w b 1 > 9 5 , 1 , > A 1 1 n 5 > , R +XO 9 % +XQ , , 9 1 1 , 5 5 , , w Z Z M q 9 9 9 S I 0 Z T > 1 w 1 0 9 0 , q &Xw 1 9 w w w Z j 1 9 Z S 9 0 ~ B M >XT O n -Xb 9 > M S 1 o 1 9 S U A A S q > 0 n 9 5 9 ",
",X5 w % B Y , > 1 1 Z w 9 q b w M Z R , O M A 9 *X2XM 1 1 A T &X% Z I n 1 w w Z M , B Z w q S 9 b S , M 0 w % M o Z j , A > 1 5 1 I M 5 n 9 5 S 0 1 1 w n O 1 b ~ M n 9 0 0 1 , , A *Xb 1 0 *XR 9 I ^ *XY n D &X5XM , 1 w O 1 1 J &X0 1 j O 5 Z 9 0 B w 1 w M M q 0 A > M w M q 1 w 1 0 n X b S A O O , w 0 1 > 9 5 , 1 1 U R b w 0 9 q 0 A w , 0 &XJ 9 , M 9 1 Z b , =X8Xn , w 9 9 0 w 1 I 1 % 1 q > 1 9 o 0 j w 9 0 0 9 % M ^ M w w X U &Xj 1 , O T &Xb 0 1 n 9 9 0 5 9 1 n 1 0 0 9 5 w A j 5 Y 0 O 1 1 n U w X , S , o w O 1 A n > B w > 9 9 0 + 0 9 % 1 9 , 1 q 5 5 1 O j 9 5 w , ~ ~ 1 M 9 b n O 0 0 9 9 w 9 0 w 9 A M 1 1 , Z 9 j +XD 1 9 9 w q 1 , > M w 1 X 9 J > Z A Z 9 1 M > 0 9 O A eXS b 1 5 w M O U R n 1 w > M n B n ~ w 9 w 5 > O + 1 0 0 A 1 w 1 , % > -XQ > w , > 0 A A 1 w 1 1 U 0 9 9 1 5 1 D eX-X, n 9 w , > 1 n n 1 j B 0 9 0 0 w Z , , M w Q Q b 5 U b b A ^ M X S 9 0 0 S J j 1 M 1 1 + I Z v 5 , X I J 5Xw ",
"8XA b A A Q b w 9 0 Z 0 9 0 M 9 J T *X5 0 , , j +X;Xb > 1 , O % 0 9 S b + n v Q A % U +Xb 1 q b 5 0 9 5 % 1 I T 1 B A X D U n 0 b 1 Z Z 1 q 1 1 1 q , , 1 w j w b D ^ q b j w 9 1 9 Y M 5 w j 1 1 , w M b 9 B O + b A w 1 b 0 1 1 , 5 , b 9 , S 1 j q q 0 1 w M 0 0 9 , > 1 <XqX~ + , > o 9 D A 9 > 5 , A w b , 1 9 0 5XY % 5 0 w , 9 b 0 n 1 q D 1 0 b n R n b D J 0 U &XZ 5 Q Z A I U 7XT w j j 9 9 1 9 9 > 9 9 w w 9 n J +XR > 1 1 , Z M 5 5 1 O ~ Y q w 1 > 9 9 , , 1 w w b q S M n b w % 9 1 , 1 % 9 Y 0 9 0 , O , Y U O 9 j Q w , , w 1 1 1 1 , > 1 w n b w b 9 w 0 n 1 , Y w > w n , 0 9 1 1 D Y 1 1 1 q M B q 0 1 n M M , Z A Z =XwXw 1 Y B q 1 w U 9 + % , n +XB I D M 1 , n 1 , 1 1 w ! S w 1 w T &X0 +XD , 1 0 0 ;XU 9 S Q j 0 q 0 1 w 1 1 1 M I j > 1 1 0 9 , n 5 1 > , n 1Xb o M A 5 % > 5 0 w > D Q Q B 1 > 0 > 9 , > > Q ~ O 5 w 0 % + T Q 5 j 9 M 0 D n 9 1 1 , Y NX<X, X > Z D M Z 0 M 6X9 , 9 A *X5 w S w Z U <X! ",
"9 j 0 , w M 9 M n 9 w q C b 9 M M w U , 0 > 1 n = ^ 2 1 Z B 9 % = q n w + 9 5 > > % j ;XA q 9 w w w j j 1 O R >Xw 9 > w 7 q b 7 A =XI 5 1 9 1 9 9 O j b > 1 9 0 > 1 1 1 M q 0 5 5 5 O > A U w w O 0 &XD > , > b ^ I w 9 w b 9 9 1 0 1 n , j 0 9 0 7 B n 5 Y M > > 7 7 M M + 9 $XM . 1 , 1 Z D , j 9 5 1 b 0 , 0 5 > 0 D 5 , w 5 1 5 , Z 9 5 1 1 Q &X1 M 9 S I > , b 0 M q 1 , A n U M 0 w 5 Z 0 B J 1 > 1 9 b 9 1 O % B M j X q b % M Z B 1 0 0 9 9 q , S 1Xb q 9 1 9 9 , Y P j 9 M 1 M n j q T 9 q 0 1 O + O 0 b 0 z 1 P 1 7 + 1 5XM 9 9 > , 1 M b 1 0 1 Z Q 9 n 1 1 2 M ;X7XC Z w 7 9 1 > j B 9 O T n 1 5 M 5 w 1 1 9 n Z R A 1 A I M n A C X B ! O 0 1 S n 9 7 q 5 5 M S q n > % j A b Z 1 O 0 I % M b 0 1 M q 9 A qXS n ~ Y 0 9 A w M M 1 1 w O 5 b 0 O > j 0 Z ~ > > 9 q w M n % 1 > + D ,X1 9 0 9 9 j J Z U 5 w , > , j 1 + M I C 5 = > 1 , 0 1 b M ! , A I , 0 1 1 0 n Z , P S w 1 B 0 O 9 q b w M Y 1 , 0 0 O b z 9 7 1 +X>X",
"2 1 q > q S O Z 0 w 9 9 A n w w w o , B 8X>Xj , , > O j Z R , > 1 1 Z w 9 % j 5 Z -X0 j q n 9 1 w 9 n B , J 0 n 0 q S n b B J 0 Z eX^ w b S q A M Q <Xb 5 q 0 9 1 5 1 > 0 9 9 M q 0 n U >Xw 1 1 > b Q 9 9 9 . U -Xn 1 , 1 1 9 9 1 1 2 b b 1 Z n w n M 0 , 1 7 , , , Q D 0 1 , > % M U % 5 B ! q w 1 5 5 1 1 , 1 1 O 9 1 j 9 b 5 j 9 + O 1 Z j > A D 1 w w 1 , b T 1 > 1 w b n 0 1 0 q w 9 , S n B wX0X1 w A w q 0 0 A w o O , A &XM S U b 9 5 b O 1 1 1 A *XZ b 1 0 Q Q 9 =XD 9 > , 0 ^ M B Q T 0 q q 9 1 w 1 , 1 J T 9 > > > 7 q M b 5 1 1 1 Y ,Xw 1 M 5 1 , , 5 w 5 > S Z >X0 > 0 9 2 2 , 1 b *Xb 1 w b 1 O 9 Q 0 w w M b S Z w 9 7 1 B 0XsXn o . 5 I b Q q j =XJ o 0 1 -XM w M w 9 Q A R 9 , n 5 1 b 0 j Y 1 q j 3XZXI 9 % 1 j O n *Xj w 0 w 9 > 1 > 1 , A D 1 1 B 1 O 5 j 9 S 0 > , 1 + 1 b 9 9 j 1 5 b 0 + A &X1 1 > 0 A b , q D 0 , 0 S 1 , ^ S > > 1 9 U 6X> 9 b 9 q 0 Y 9 % 0 A 9 . > > 1 n B 1 5 T M b O , 5 j % M 5 0 5 j ",
"0 w 5 9 w M 0 9 n 0 0 I , , 1 0 > M 1 2 +X6Xb o , > 0 M A > j 9 5 b Z 9 2 0 > > A &X> 7 1 7 1 , n Z 2 2 5 D ;X9 M w n Y n , b b b M 1 , M A I Y n S A b b n B 5 % > 0 w 1 1 1 % w D A 1 w 0 O b b Z 1 1 9 0 1 w b 0 *XA 9 w 1 1 > , Z D n q Z n M z 9 > A w q 0 1 O > O 9 M 1 0 , ! M < = 1 5XS 1 1 1 > 1 1 z 5 2 9 M ! n n 7 9 1 n -X<Xw T w 1 9 % 9 9 n 9 O Q n 9 7 n 0 q n j q 1 S I Z O R Y M B A 0 X ^ ! > , q Z b , > w w b S Z w 0 > O M b 5 0 1 > j A > n M n n A Z , B -Xw T >XT , A n q M w , 9 1 > 0 b 0 2 = 9 w T J + 1 q q 9 9 w q n + + >XQ 1 5 0 9 w b A ! A w 0 % > 2 7 % 1 b Z T w X 1 , 2 , 0 M Y b 1 M w 0 w 1 7 9 M 9 T 1XM > q A 1 7 5 9 M U -Xq 1 7 A 2 9 b n 1 z 2 = B 1 , 9 S A n w b 0 k q q n M M 5 0 w 1 X 0 + , b w > b j > 0 0 0X5 + 1 % B Z % , Z 1 A 5 > 1 9 0 , 1 B j > 5 O 0 A =XC q j 7 0 n S > 1 , o > U Q 0 + U *X2 b z z J M 0 q y w 7 q n b A M 7 2 M 7 > w 0 9 9 1 A R b , 0 > b n n 9 1 7 0 ",
"1 b 0 w b 1 w C Z 1 0 M 9 1 > w Q Z 1 O O 1 O z b % b D j 1 b 1 7 1 2 1 , 9 O 1 1 , 2 b e 1 w O + # w y 9 0 *X7 0 b 1 w O n n , 5 1 n n 0 1 0 w 9 0 > M M 0 =XeXB 1 b 5 w j 1 b j 1 O O 1 Q n Z ^ A w 1 n > 3 1 + M 7XI M 9 1 M U 2 ! Y w > 2 O S Z Z P &Xq 0 w 9 1 1 , 1 , M Y 5 1 % 1 > 7 I Z 1 e 2 1 D =Xb 2 b 1 1 q % 9 q 1 % M Z 0Xn 1 w w 7 1 > 0 w Y 9 w w b 3 1 > ^ 1 1 w C z T D 9 n w 0 A 8X<X1 > , 5 J n ~ b 0 ~ q O 1 q Q M w w , n Q T Q > , B 1 9 M 1 n Z , w B uXGXb 1 9 n 9 , Y I M e 0 9 1 > 1 1 1 , M A 5 M M X > q w w I 2 + , > + I B , w 5 9 0 n 0 > D Z , 1 > M A % 0 Z U O 1 3 n > M T 9 9 9 j 1 >XZ > 0 9 q q T j 1 > n M > # O 3 e M 9 > P Z M = O > b 3 9 e 3 0 n 1 2 9 1 &XS 5 ! n 1 j 9 w 1 0 1 , 1 9 0 M M , 0 Z 0 9 0XR 1 j 1 Q J 0 S 9 > *XM % 0 w b 5 , 1 5 w 0 0 T 9 A q q , +XwX, 2 0 5 n n q , 1 b 1 > R 7XJ = , 0 2 R 9 5 w 1 9 > 9 9 0 1 M -Xw 1 > 1 I 9 Z 6XJ 1 1 , , M j 1 , O M 6XS D 1 9 1 ",
"M n n b S B M 0 % 5 n 1 0 5 O 9 9 , n y 3 , n ,X0 , % M >X9 9 1 1 3 2 9 9 , 1 b J U w z 0 b 1 R &XB n R = 9 w 9 0 w b 1 M &X9 9 0 j 0 j M 0 1 b T U , Z Q S M ! n + Z -X9 5 , A M , O 0 w Z D J n I % , w n > 1 1 0 n Y 0 , A I D n T j 9 D M S 5XR 1 B A b n M 1 0 w , q b w 0 1 1 9 M A 1 > w b 1 1 q n T 2 + &XI 9 1 0 0 z j n >XR n 9 1 1 1 1 1 , 1 b &Xw > 1 7 1 O n I T b 0 q j w b 0 q 9 j 0 2XwXw o 1 Z b 1 w j Z *X! > 9 q Q 1 q B B 0 M 9 5 Z 1 1 w M n n j A 0 w j S T A n > w n o > M + q z w , 7 1 > 9 Z 6XO % > 1 C 5 1 7 b 9 z 1 , , 9 , > 0 B 9 , 1 5 5 A <Xn w 0 9 9 I j , 1 % % b $Xb = b 3XS X 7 b M ^ C 5 b M z 9 B w n M b 5 1 9 > > 7 n q 7 M I D 7 w 2 9 7 Z M 2 R J 2 1 , > , > D A 1 b z 5 &XD , n 9 9 w > n j 1 0 1 > I Q 5 5 9 q 9 1 , w > M ! b n O > 1 1 0 w w b 1 9 1 1 T q 1 b , Q Y q >XC 5 2 , 9 j q 0 w ;XqX9 2 , > > X w z w 0 9 0 1 9 w 1 2 1 > 1 Z q O 0 q S T T 1 1 9 j &XZ O + + 5 ,X3Xq 1 > ",
"&XD 9 % 1 , M M B S S % w 1 , @ + . , > Z b + 1 X % X j ~ > > 1 X , J I , 0 0 X n , , 1 O o 1 A ;X>X% 9 1 1 O X > q n 5 9 j 9 5 5 1 M M , 0 Z n Q D b 0 M q n Q 1X0 % Z O Z 0 ! j 9 n A O 1 1 ~ B j w O 1 Y D T 1 X 9 Z X n 9 X 0 9 1 5 =XCXS , j 0 1 % B A 0 0 1 1 O o % 5 > + 9 Z > M D X X 1 0 > U 0   X X . J Z O 5 , , , n b % b 9 1 X O 9 M . , D I + % + 1 X w M , > b 0 , &Xj O , > 1 9 J 5 > 5 q w 9 9 X 9 b B 0 > Q M w % > > n 0 1 0 1 0 q 0 > 5 w ,XM 0 R 0 9 q 9 0 1 q > 0 1 0 0 w 5 > w M % 0 6XM 1 + 9 ^ 0 9 b O B Y o > j w 9 > , 1 9 0 % B A 5 0 5 , 1 qXS X 1 > w 0 B 1 X 9 1 O 9 T ! , X n 5 M A . w 5 1 O 5 < 9 > , +XQ 1 < X n I % Q I 9 % % % j q , > , > >XD 0 , , > O 1 b 1 1 O 1 1 9 w b 0 U A > 0 w + , 1 , 9 + % , > b +X1 , 9 q 9 % b ,XM M A X w 1 9 q 9 w , 1 0 > O + o % 5 7 9 A 5 > , 0 0 5 % 1 , m % 0 U O % O O > + M U X M , 1 1 = z 0 < , , 1 , O 1 9 1 o 0 q O 9 1 1 1 > 0 0 ~ &Xb o n b w 5 w ",
"dX0XdXfXuXfXNXlXfXzX8X<X<X<X>X3X=X*X1X;X1X3X=X+X>X1X7X>X3X5X>X$X1X1XwX8X$X3X7X<X! =X1X<X5X>X1XwXwX3X+X+X&X-X1X=X>X1XdXqX! +X=XY O 1 I I 0 b 0 b w B w 9 w 1 w ! cX~ O . b A b M 0 j ^ >X, 9 5 *XZ 1 B I 1 S 0 w M 0 1 1 >X5X5X<XuX&X>X=XeXzX6X3X=X3X5X$X*XwX&X6X6X6X<X1X<X+X<X6XuX5X*X*X;X;X&X;X>X3X6X1X<X3X<X;X&X=X1X5X5X>X<X1X<X5XfXeX,X<X1X<X8X5X>X;X5X=X,XeXwX+X;XdX<X=X=X>X3XxX5X1X1X6X>X1X8X1X;X;X<X*XX , , > 0 w w 9 Z U A 1 9 1 0 > S w 9 U B , 1 1 1 9 5 S Y 0 q 0 b Q q 0 b > j 0 1 S q 1 j *XR qXuX+X$X>X&X3X&X*X1X! *XsX>X! I R ! Q ! Q ~ ,XY =X*X;XwX&X;X^ ;XqX^ =X3X+X+X$X+X>X<X1X~ >XxXfX+X*XY ! ^ ~ 2X>X=X*X>X&X~ -X;X&X+XY ~ *X2X+X3X*XuXsX;X,X$X$X-X6X7X$X! Q &XiXfX<X&X1XT O M % 0 9 w 0 I 1 n 5 , 1 q 9 w &X*X, w 9 , 9 9 , S ~ o > 0 w 0 1 m Y n b q Z C ! n % ! >X~ =X>X=X>X*X$X-X*X&X2X5X1X+X&X5X,X=X$X1X<X3X;XwX7X:X;X>X1XeX,X0XhX*XaX=X<X5X1X=X1X;X2X=X=X>X;X+XR <X2X7X<X7X6X=X>X3X3X=X<XqX3X>X~ =X<X&XaXhX",
"AXKXKXKXHXAXVXHXAXHXNXDXCXxXlXbXjXlXVXAXgXjXlXVXbXZXKXAXAXCXKXGXKXGXsXxXfXNXHXZXxXZXCXAXGXCXbXBXGXxXzXCXzXJXVXfXmXGXcXlXzXhXkX7Xw 9 0 Z I > A S , w 1 1 0 A j 9 Z M j 9 n > > 5 j b 0 T I , 1 5 > 9 j 9 9 9 9 1 M 1 > w KXHXbXGXNXbXVXbXfXjXcXjXnXhXHXAXVXkXnXCXKXKXHXKXKXAXAXAXJXAXJXnXNXNXKXVXCXKXKXKXKXAXJXCXJXZXAXKXKXHXCXBXKXKXAXAXNXDXDXnXNXAXZXBXxXxXBXZXCXZXeXcXGXGXmXdXbXxXAXxXlXNXbXxXCXHXAXlXZX7XA A 1 I D w 1 1 0 S b 5 5 1 q -XM 9 , n 9 > 5 0 1 > > 0 1 5 M M 0 -XM 1 j 1 + % , 1 0 O , 5XuXhXqXqXfXlXsXuXeXzXZXzXNXwXqXwX6XgXeXaXfXwXqXgXsX7XwXdXgXzXhXbXuXeXlX6XaXfXsXsXuXsXxXfXlXcX9XsXjXuXqXfXxXfXfXbXsXbXbXzXNXbXgXdX7XqXdXaXxXZXhXzXzXxXZXzXcXBXcXuXNXbXmXNXsXhXbXbXHXbX,X> , j w A 9 1 9 9 R ~ 0 n q 0 w D I I > , 5 wX! A <X1 9 1 , 0 w 9 Z j 9 , Y 6Xn R b O <XAXzXkXgXbXPXCXZXxXcXdXgXiXdXAXhXNXCXHXHXZXAXhXCXbXbXVXZXgXNXKXxXfXgXAXgXbXAXKXAXlXcXmXCXVXhXuXzXKXCXAXAXkXBXCXZXxXbXLXKXCXVXZXBXzXzXiXhXfXHXHX",
"NXbXNXAXZXAXNXAXAXNXjXmXaXlXxXcXcXzXzXhXlXNXbXbXlXsXfXbXlXxXnXNXNXbXhXzXnXgXiXgXlXzXzXxXlXxXzXVXAXNXVXbXgXnXBXxXwXdXmXgXdXNXxX6X$XI = O w 9 R =X1 0 n b w b M 1 1 w A , X > % 9 Z w 1 M I S 5 , 1 9 1 w Z 1 B S 1 1 9 9 qXaXcXAXbXlXcXNXGXCXxXZXbXAXBXAXGXJXVXNXAXAXHXGXVXHXbXgXGXAXZXZXAXZXKXCXNXBXzXGXAXNXAXZXAXVXGXAXCXGXAXGXcXhXGXVXVXKXCXCXlXhXaXNXsXfXmXHXAXlXwXeXgXaXaXhXsXhXuXhXkXhXbXfXlXcXhXzXJXuX1 b 0 -X>Xj 0 > 1 9 D b + O o I *X*Xq , 0 1 9 A 1 1 1 9 n b 0 0 , w 5 9 0 j Q Z , 0 9 O 5 dXuXNXlX0XwXuXiXsXwXiXjXfXfXwXsXkXuX0XqXgXwXgXzXlXkXdXhXsXdXfXzXgXhX0XeXwXqXwX5X5X0X0XfXlXNXcXdX0XzXgXlXqXDXlXdXbXhXhXhXuXlXlXwXwXuXwXwXgX9XcXhXsXCXNXNXdXcXZXbXhXbXNXxXnXxXdXbXhXcXbX<X1 w 9 9 w O % > e 0 e w 9 O 1 D 1 1 Z b % 1 U 9 n D 0 A b 5 0 b w M n M 9 n S O , S 1 0XCXcXmXBXhXbXGXhXcXnXbXlXhXkXhXhXVXNXbXbXcXzXbXNXhXcXZXVXhXiXgXlXNXzXxXmXbXcXxXNXDXGXAXbXxXlXhXbXmXCXmXZXkXlXzXhXbXzXNXNXxXsXaXgXxXzXqXdXuXGXGX",
"AXVXcXzXnXcXcXbXAXhXwXwXqXbXZXNXxXAXnXcXzXZXbXxXNXkXjXZXVXgXNXAXAXCXNXnXzXbXbXjXCXbXlXnXfXbXKXKXxXzXBXNXZXzXVXDXBXcXzXcXBXAXAX>XS Q 2 S 1 w Z n 5 w j w 0 w Z S Z Z O w A 9 q b 0 w 9 w A A 1 w 0 , U Z q , A M > 9 , 9 zXBXZXBXbXHXHXmXVXKXGXZXbXAXzXmXzXBXbXuXlXbXAXHXVXAXHXGXAXZXCXKXHXBXAXAXGXCXGXzXNXGXCXKXGXNXcXAXKXAXCXVXKXVXbXHXbXBXKXNXAXhXNXGXGXAXxXsXgXfXdXsXcXhXcXNXZXCXAXAXVXNXbXVXbXhXBXbXzXdX> 2 0 q 0 U 0 1 0 1 U Q j n 0 + P ;Xw j 1 0 , , q b D 1 0 w w ! Z 9 j b 5 0 Q ~ b 1 > z 3XzXcXbXlXzXeXuXdXhXgXdXqXgXhXGXHXAXCXqXzXcXfXfXxXdXCXAXAXZXdXjXdXuXeXuXuXwXuXsXuXeXwXuXjXmXxXdXwXuXsXzXbXwXfXhXdXzXmXbXmXfXqXhXdXfXhXdXkXxXnXjXCXxXCXCXAXVXxXGXmXbXbXGXCXbXVXlXkXzXcXCX3X% 1 > 9 0 1 > 9 9 0 O 3 I M w , w n n 0 1 n 9 > % , 5 j B b B 1 0 I Z M 0 1 > 9 I D O sXGXCXHXBXmXuXgXzXmXCXVXZXNXAXZXbXZXCXlXlXnXNXBXGXBXCXCXbXHXlXjXnXGXzXuXAXCXAXCXBXbXZXHXCXHXCXmXbXVXAXGXlXAXAXnXlXxXbXwXnXAXKXCXCXAXCXzXhXcXAXGX",
"AXGXKXBXVXbXnXcXJXAXVXxXcXzXVXBXZXHXBXZXsXlXAXCXVXGXCXGXHXxXAXmXAXKXGXmXNXAXAXbXDXDXCXAXGXZXhXGXHXxXAXAXAXZXVXcXnXbXuXBXHXHXHXqXO , 9 A 9 b 9 0 9 , 1 w 9 > U +X1 1 1 9 A 1 ! <Xb 1 > > 0 n j > , O Q ,XQ M + 5 0 % I 9 ZXBXAXAXGXAXHXVXhXzXAXAXGXCXCXBXmXbXVXCXCXAXGXHXGXNXZXbXAXNXbXNXCXAXlXCXGXCXNXCXCXcXHXKXHXCXVXbXVXJXGXKXAXGXmXxXmXNXVXnXhXAXcXGXmXAXAXhXzXZXmXVXzXKXmXVXHXbXGXBXcXGXCXbXmXCXnXcXfX>Xw 7 q Z 5 M 9 n q q , 0 ^ *XM 5 0 M q n 5 j 0 w 0 w 9 > 1 > 0 D B w 0 1 w J , b M 9 % w =XsXbXBXZXAXlXfXxXNXZXCXAXZXzXbXZXZXVXCXGXBXzXZXxXcXhXKXAXbXcXhXdXdXuXsXgXuXuXfXhXcXhXuXcXzXfXbXxXxXwXfXeXhXcXNXbXNXBXzXmXZXGXGXcXxXxXfXzXbXnXbXbXbXzXNXNXnXlXZXAXCXsXdXhXbXGXxXsXVXAXKX6XO 9 1 1 0 1 M b 9 > 9 9 R ! b 9 +XM 1 B Z S Y 5 > 9 j , , 9 D M 1 M b , q 9 1 M R b + *XAXcXBXJXKXDXCXGXCXHXGXAXAXVXHXJXBXGXKXKXGXVXKXDXNXCXHXHXAXKXGXxXbXHXHXAXNXnXAXcXuXlXcXwXgXcXbXNXVXnXmXKXHXHXKXbXbXAXxXGXcXcXAXHXbXCXAXZXAXmXNX",
"GXVXKXGXAXCXAXHXlXCXnXcXnXiXjXnXCXAXNXGXGXHXHXNXAXGXAXGXAXJXGXCXnXmXCXGXDXGXGXbXZXAXGXCXxXNXZXlXAXAXCXHXGXAXCXZXDXAXAXAXhXmXCXuXO % 1 O q 0 w q 9 b q w w 5 > , , 0 B 1 O 0 5 n U b 9 9 , D ^ w O 5 X b qXS 0 9 1 , , z NXDXnXHXKXVXGXCXdXzXGXVXBXJXKXJXHXKXAXGXLXHXHXHXAXfXcXHXZXAXnXbXzXAXKXKXJXKXfXZXHXzXlXAXAXJXKXKXHXVXZXZXAXhXNXnXnXAXGXVXlXZXzXcXAXGXlXVXhXmXJXAXkXcXZXbXbXDXZXAXbXgXbXNXZXVXcXgXVXwX1 j M Y ;X>X9 9 w 5 w b q q b 9 5 M % , 1 j 1 , 1 5 1 , % 5 9 1 , w M , 0 1 , q b 9 2 n > hXzXzXbXbXCXZXcXZXAXHXDXAXzXqXxXAXZXCXBXKXbXJXCXAXlXhXdXlXbXAXVXNXbXmXBXxXfXlXwXsXzXhXCXbXzXbXmXZXxXwXsXAXZXlXbXNXCXCXcXzXGXHXCXAXAXxXxXNXNXAXlXbXNXlXkXfXfXqXhXNXHXGXxXVXZXAXNXVXgXmX5XX S 1 , 5 b 9 0 M 1 9 1 1 w 9 1 5 B 1 w q 1 1 1 1 Z M 1 1 0 1 1 0 5 M 0 U 9 A 9 9 9 0 wXAXNXKXBXcXNXAXbXJXmXZXNXKXAXCXHXHXHXZXCXLXbXgXjXAXHXKXAXNXbXAXGXsXbXCXHXbXcXAXbXAXAXAXHXmXNXhXxXlXnXkXxXAXGXCXAXGXKXfXNXGXmXZXAXGXAXNXGXAXGXCX",
"HXZXNXDXAXDXAXAXNXZXcXbXnXlXBXVXKXZXNXbXZXVXAXbXDXAXAXbXhXNXNXAXVXCXCXDXHXHXDXZXbXZXDXHXGXHXKXVXnXAXbXAXCXNXGXVXVXHXHXGXbXuXGXdX1 9 R ^ O Y 5 7 q 1 A q 5 0 9 w 9 , 1 5 0 > Z 1 1 q q w w 1 w S 3XS 0 5 Z b M 0 0 b % B ZXKXVXVXKXBXCXKXJXHXJXVXVXKXZXJXKXbXCXKXCXGXKXGXHXbXxXAXJXCXHXKXAXCXVXJXGXGXHXKXGXGXAXNXbXAXKXKXHXVXAXVXlXnXZXVXnXAXGXKXKXAXZXCXVXxXGXHXBXdXAXbXNXZXHXAXbXCXZXDXHXAXAXAXBXVXlXcXKXsXO A S b M D 1 > ~ ! I O % 1 n 1 , 1 % 9 Z 9 1 9 > 9 w 9 n M 9 , 1 b &X! 0 b &Xb 0 b A &XU qXiXjXzXhXlXHXJXGXzXGXNXNXGXAXAXAXKXBXhXhXCXBXDXHXCXcXVXNXZXGXZXHXCXGXZXNXbXBXAXAXCXAXKXCXzXbXNXAXGXAXcXmXAXJXJXNXNXfXVXsXqXhXzXjXnXAXVXAXGXAXBXGXGXCXzXkXNXzXCXxXzXAXCXxXZXHXVXAXHXZX=XO b 1 9 S A w 0 J 1 5 O w Z 1 n J 5 9 1 9 9 1 , 1 M 0 b w 1 > 9 M n n 9 b 0 ~ b , M R uXKXGXZXcXhXbXCXAXAXcXNXAXAXGXZXVXGXCXAXGXLXbXgXlXGXbXZXAXAXAXAXAXGXNXcXJXKXGXZXKXKXCXKXAXCXHXCXAXKXKXHXuXVXVXVXKXAXCXDXNXbXlXbXfXjXbXcXNXzXGXCX",
"CXxXuXBXAXNXAXKXHXDXAXGXNXJXHXGXGXGXZXdXAXAXBXAXzXlXZXAXKXKXGXnXjXAXCXnXAXGXGXKXKXAXAXZXGXGXNXNXBXhXVXDXVXhXNXAXmXCXKXCXxXhXVXgX*XA R &X1 I 1 n b 1 1 9 5 9 1 w 1 1 1 > n b W ~ 3XM 1 j 9 w w S M w w 1 Z 9 > 1 b 9 1 q fXJXlXhXdXKXJXCXKXGXmXZXKXHXZXbXGXCXJXZXHXAXGXAXJXHXVXCXAXGXHXJXHXxXuXjXGXNXZXHXKXVXAXHXAXxXzXlXxXDXHXAXVXVXCXZXZXJXAXcXbXAXAXKXAXVXCXZXKXBXwXhXKXAXjXbXGXHXHXNXCXKXKXKXHXHXAXBXHXqX% n S 5 9 0 1 > Z &Xb w n 1 1 0 9 5 9 , 5 9 1 n 1 1 5 j w 9 b , 9 1 w j 9 , w q > Z w 0 b bXnXMXAXhXAXCXhXbXcXgXAXbXHXAXJXHXbXcXGXNXzXVXHXDXAXGXAXGXHXCXbXNXNXAXGXJXGXKXGXDXAXhXzXcXAXGXGXZXbXVXKXlXfXmXAXZXgXcXzXbXbXNXVXlXcXMXjXcXfXhXhXCXAXKXVXAXGXzXcXJXbXZXGXHXZXNXGXHXAXGX0X1 , j 9 M 0 9 0 O b qXB > 1 5 w I *XZ 9 > , 1 5 0 1 1 0 5 5 I 1 0 M U I S > , j 1 5 T <XgXhXNXbXAXKXKXKXBXKXKXVXbXGXGXNXAXAXVXNXKXKXGXNXAXZXNXVXlXnXAXKXDXGXbXAXAXVXHXCXHXHXGXGXGXHXKXxXKXDXGXVXVXVXDXkXAXhXjXNXAXAXGXKXGXAXbXVXAXGXHX",
"AXHXAXJXHXVXAXAXAXKXGXZXGXKXZXJXJXAXAXzXBXDXGXAXKXAXCXAXKXHXKXGXGXGXAXAXZXcXNXJXKXKXGXZXNXfXcXbXGXkXNXmXKXKXVXAXxXGXVXCXAXZXcXsXM 9 S q B 0 9 , 0 w 9 0 M q j 1 1 w b 5 0 M n Y Q j > J A U 0 > 1 n j 1 9 % 9 n n , 1 9 bXVXzXAXBXmXNXGXHXGXJXGXGXJXKXHXZXHXHXHXnXjXzXAXbXxXCXKXVXAXHXAXnXHXCXVXZXKXGXgXnXAXCXGXHXZXlXBXAXVXJXAXKXCXKXGXVXBXAXAXAXVXDXKXHXCXAXAXHXHXHXAXVXKXAXNXAXVXCXHXhXaXVXcXnXAXGXBXKXzXb , M S w , > 9 1 > , I B , w Z 0 9 b 9 , 1 , Z , 0 S Z , A I , 1 O j M 1 M S 9 0 , e 1 9 jXAXAXDXJXCXmXAXZXKXJXDXHXAXHXKXJXCXJXKXKXKXGXAXkXlXcXbXZXcXlXAXAXJXBXZXGXVXZXNXHXAXjXnXNXCXBXAXGXVXAXNXAXbXcXAXAXAXNXCXKXHXHXKXHXHXGXZXKXKXDXkXkXAXbXVXJXAXJXmXmXzXcXhXgXBXNXAXcXhXHXcXA B w q w 0 ~ q 5 M sX6X+ 9 1 9 9 S 9 5 9 M n 1 5XI O b w Z 0 b ~ T *X1 w 0 9 > > 1 O 6XKXGXHXGXMXGXGXAXCXhXAXKXKXKXAXNXcXgXNXHXkXbXZXHXAXAXAXAXDXAXlXmXHXHXHXNXCXHXHXCXHXGXGXHXAXHXKXlXqXhXVXKXAXKXNXZXKXKXNXlXAXVXZXGXAXJXAXnXAXDXGX",
"DXDXKXVXNXAXKXDXnXVXAXAXZXAXGXKXHXAXJXGXZXAXHXGXGXKXAXlXfXVXAXCXDXKXGXNXAXGXVXnXCXzXZXGXHXVXBXbXNXVXGXKXNXbXAXVXKXLXNXAXGXDXFX6X+ 9 % % M M 9 w 9 w ~ -XS Z A 9 1 n 1 > 9 ! 0 j b w O B wXY 0 9 1 1 , 1 > 5 9 0 b 1 9 0 zXVXNXBXKXKXxXzXAXJXGXCXnXaXnXCXKXZXNXCXAXnXnXAXnXVXGXbXGXcXuXAXZXAXAXJXLXZXzXmXbXbXcXGXHXKXKXHXHXHXGXBXAXAXCXHXGXKXKXHXKXGXZXZXAXCXKXJXDXCXAXAXlXkXAXGXNXlXbXNXbXbXnXVXdXcXBXAXZXwX9 b ~ +XfXb 1 1 b w > , , w j > 0 1 q w > 9 9 > q 0 A q 5 9 , n *X1 0 0 , w D S b 9 1 % r nXnXnXcXlXCXKXHXHXxXLXKXLXKXNXZXGXAXcXSXcXsXbXnXcXHXKXKXHXHXKXDXlXBXJXZXBXKXAXZXVXKXHXCXCXHXxXAXmXcXNXJXKXJXbXnXKXCXCXAXJXGXGXGXGXHXKXGXAXKXKXNXbXVXAXmXcXcXhXBXVXbXVXJXVXBXmXmXVXBXHXaXj U q 9 9 ^ *XU n I I M , b w 9 , + j b > 0 X n Q w 1 n b b 1 9 9 1 0 0 j 0 0 5 w 0 % 3XKXGXKXbXjXLXKXDXKXAXbXVXZXCXHXZXZXKXAXbXhXCXHXGXGXKXZXAXAXKXAXbXxXbXCXAXCXnXNXbXCXKXKXGXJXAXNXGXGXKXZXGXGXHXGXdXfXcXGXKXKXJXZXHXAXVXAXAXGXHXAX",
"GXHXCXKXDXAXAXKXKXZXCXHXJXAXNXjXlXBXbXbXJXJXVXGXKXbXBXNXlXNXGXGXbXzXDXAXGXAXDXhXhXbXCXAXHXGXGXGXHXGXNXCXZXNXAXZXHXKXZXAXCXCXKXfX, j Z n S j Z n 9 , S &XY U D 9 1 5 0 w 1 9 M 9 1 > , , 5 0 B Y 0 9 B j 9 b , > 9 O A z nXKXKXBXNXJXAXxXzXAXHXAXAXBXxXdXbXNXbXAXVXNXAXJXKXAXbXbXNXKXGXDXCXDXGXKXHXAXAXKXKXKXKXGXzXjXhXZXZXCXzXAXHXKXZXCXHXCXVXNXKXHXhXiXNXAXAXGXVXAXAXAXVXzXbXAXDXGXVXCXKXKXHXKXHXHXDXmXHXhXj > M M =X> R 0 > 1 1 1 > w q 5 9 , , % b &Xn M w w 1 0 U 0 > I CXR o 9 9 1 S Q w 1 1 A n AXAXZXAXAXAXGXCXKXAXVXCXAXAXAXVXAXVXlXnXAXCXNXKXZXZXJXKXZXZXZXKXKXGXGXAXcXlXlXCXBXAXCXGXAXVXAXmXDXBXmXcXHXGXGXCXbXHXHXAXAXKXZXLXCXKXKXAXuXlXNXHXHXVXVXNXGXKXcXjXcXGXbXJXGXJXAXNXAXAXVX1X% D w 0 b M 5 U j M n 9 S b q 9 0 > 1 5 > w 1 b S , 5 1 0 5 U 0 1 1 w 9 1 1 0 , 0 1 z 0XGXSXHXKXgXuXzXbXGXAXAXAXxXlXNXKXAXcXCXJXVXhXlXNXbXxXZXAXKXKXAXcXjXlXGXbXDXKXxXzXxXAXJXHXGXAXZXJXBXAXGXAXJXHXJXjXzXbXnXhXnXAXAXHXJXGXKXKXHXNXNX",
"lXNXKXAXHXAXlXcXAXHXHXZXAXGXbXcXAXBXnXCXAXAXCXdXbXZXAXGXGXGXAXCXbXfXnXlXCXHXKXKXHXKXHXHXAXAXCXAXGXAXGXHXKXKXGXDXJXCXHXCXHXHXKXzX0 9 D &X<XM O 0 Z > 1 1 , 1 9 1 9 w 5 M w J ^ <XI > , M b % 9 0 , q , w 0 5 n 1 1 9 > j lXZXZXHXcXuXxXKXNXfXzXbXnXBXAXGXHXZXnXjXzXBXCXnXzXZXHXKXAXVXKXKXKXKXVXVXJXAXNXAXmXcXNXnXbXGXKXHXHXAXAXAXxXCXHXVXVXHXGXAXGXHXCXkXbXVXcXAXAXnXAXAXKXKXcXBXKXAXAXHXJXGXGXGXGXHXHXAXKXBX+X% b Z > 1 w > b , 1 > 1 0 0 0 9 1 % M >X~ Z S 9 9 w Q =XM q I ~ S O j 0 1 > + j 9 5 w 9 NXKXGXJXKXGXAXDXZXAXNXxXJXJXJXZXAXJXcXjXAXHXKXGXhXVXKXDXHXAXbXxXGXAXJXmXbXVXJXGXlXsXGXHXGXJXJXCXBXHXHXnXmXAXGXAXJXxXZXAXAXKXKXKXBXJXZXGXbXAXAXAXGXGXGXzXNXNXGXKXKXKXCXAXAXAXVXNXGXZXAX5XX 1 w q S w > n 5 b A n 9 I , , 1 > 1 1 1 1 w , 9 q 0 Z 1 9 w 5 1 , Y b 0 n 9 b q n X ;XKXVXAXNXbXlXlXcXGXAXHXKXAXNXZXAXAXGXCXcXVXVXbXbXKXAXKXxXfXlXzXHXAXcXGXJXhXxXHXAXHXAXuXlXhXAXAXlXzXhXVXHXAXNXCXAXkXnXAXcXAXAXGXDXHXAXAXHXAXAXGX",
"CXgXZXKXHXAXbXNXzXxXNXzXNXbXAXVXVXKXAXAXZXlXAXHXZXBXVXGXJXJXGXBXAXKXHXAXKXDXfXkXVXbXAXbXbXVXKXAXZXGXAXGXNXGXKXbXsXkXAXJXKXVXCXdX0 , > 0 0 5 > j A 9 J q Y -X1 1 , A U 9 O S Z 7XM n M % 1 9 + % 0 j 5 1 , 1 , , Y M 9 B BXNXAXAXGXAXGXKXKXhXbXAXAXlXVXGXKXmXGXGXGXCXbXZXZXAXDXAXJXAXGXDXHXZXAXZXNXGXhXbXVXlXVXAXNXNXKXKXZXBXKXKXGXAXGXGXxXlXZXnXCXGXHXAXHXmXVXBXVXbXnXZXHXAXGXNXNXDXHXAXDXGXDXHXAXKXKXNXzXsXO I A 9 B 1 0 9 > > , 9 1 j w n j 5 9 w I 9 q I 5 w n A b T q S w 1 U 1 b 9 9 1 0 1 > j 5 zXCXlXcXnXKXCXHXKXZXJXVXbXDXGXAXcXlXVXGXNXZXDXKXVXiXnXNXAXHXAXAXBXxXzXJXKXBXNXAXJXnXbXcXNXbXBXVXKXKXKXNXcXdXDXmXDXJXHXhXhXAXJXKXHXKXVXAXGXKXJXGXGXHXJXlXlXxXlXmXnXAXCXDXLXCXKXJXKXJXKX7X1 1 0 w ! 0 b 9 D b Z Z 1 0 1 Z w 1 > 1 + J Y > 0 w 5   n M 1 , , O w 0 5 Y Z b A 0 q eXBXVXZXhXCXKXGXZXhXxXgXAXKXGXJXKXGXhXhXCXbXbXAXDXKXbXKXKXAXbXKXGXNXVXAXAXbXbXDXCXHXGXAXbXNXAXDXAXKXKXAXbXNXzXbXnXNXbXNXVXbXVXAXJXKXHXHXKXJXKXKX",
"NXHXlXbXZXzXAXNXxXAXVXVXbXzXcXAXAXmXmXCXJXJXAXAXJXKXJXAXAXGXHXNXGXAXCXCXNXlXmXCXBXAXVXVXAXAXZXGXNXBXHXAXAXAXHXGXbXbXHXlXCXAXAXgX1 1 1 9 > Z qXb w D ! b Q M j 1 9 B *XY 0 o D 5 > n , j 0 1 > 1 5 0 0 q 0 > 1 T ,XI J M NXGXGXKXGXAXCXJXbXNXAXSXnXjXsXDXAXAXcXVXHXKXKXJXKXVXAXGXAXGXxXxXKXJXHXAXAXAXcXjXAXKXHXKXVXVXKXAXDXZXfXZXHXGXJXVXbXbXbXJXkXjXBXHXGXKXGXAXAXAXGXkXAXAXAXHXAXBXCXVXAXKXKXGXDXHXCXDXhXqX, b j q 0 1 &XQ , 9 9 9 w B 0 j j % , b M , > 9 b 0 A 9 1 n 0 b D 9 Z n 1 , 9 O 1 , , 1 M NXZXAXDXmXbXGXVXbXbXCXKXJXAXAXZXbXAXAXbXAXKXSXAXGXhXaXgXnXAXAXAXHXbXxXAXVXAXGXVXNXVXcXlXAXCXCXZXzXxXkXBXAXbXhXKXlXbXAXAXCXHXbXkXlXzXGXNXhXfXmXDXAXAXHXVXlXNXAXlXlXAXGXHXGXCXAXJXCXNXKXwX9 0 , ,X,Xo A 0 M w q 5XM > b S 1 q > , q 1 , > > 1 0 A 6XM B M , w , o o 1 b , 0 1 T hXCXVXCXAXKXJXCXAXNXCXNXhXAXVXCXNXzXnXHXHXVXHXAXZXAXGXKXHXAXAXAXNXKXJXNXcXNXAXAXHXJXDXAXHXKXGXKXAXhXhXnXhXxXHXKXHXbXKXJXAXGXKXBXZXBXHXKXCXGXgXjX",
"HXKXNXqXBXmXNXAXKXHXHXcXNXVXAXbXcXlXbXGXGXGXHXVXKXAXAXGXNXZXJXbXhXVXhXzXNXAXzXKXKXKXDXHXKXGXbXHXJXNXnXDXmXZXHXKXHXGXAXAXBXAXnXwX1 0 1 9 , b ^ Z D D M 0 M 5 6X0X9 0 >XM w Y 9 j 9 1 1 > , , 1 1 0 w q b 0 5 j Y Z 0 U C cXGXKXHXHXHXCXbXcXAXNXKXGXKXNXnXCXzXNXNXmXJXcXhXCXJXDXGXGXVXHXGXbXGXHXAXbXNXAXVXNXCXAXKXbXiXAXAXHXJXAXAXAXzXBXGXGXDXVXSXGXnXAXmXZXmXZXZXJXKXKXCXgXuXAXCXGXAXAXcXzXAXKXKXKXKXmXAXKXxX5 q 9 , 9 > 5 w + w Y 9 9 b M w m =X<XA Z b 1 1 w B T 1 0 w A w U 9 w 9 5 w 9 5 , 1 1 Q D fXKXKXbXAXGXKXNXgXhXcXcXAXKXAXHXKXKXAXbXNXSXAXzXjXAXHXGXnXbXcXVXHXJXGXGXKXNXlXhXNXlXAXAXKXAXCXKXHXgXmXKXVXbXVXGXAXhXVXVXGXJXAXkXzXNXHXNXGXHXHXGXCXNXhXNXZXxXNXAXZXbXAXAXKXKXAXJXHXKXKX0X1 1 n Q U -XJ 9 0 1 S fXZ = > 1 1 1 b q M ,X0 % q 1 5 n Y > -XQ > Q b , M q 1 Z j S U 3XHXJXAXNXHXGXJXHXAXNXKXGXAXKXNXlXCXBXxXHXHXZXKXbXHXCXdXcXNXnXAXcXcXVXJXVXAXAXlXaXbXcXVXBXVXJXbXNXnXAXAXKXGXVXVXAXJXHXJXkXCXcXdXVXzXgXZXHXNXBXMX",
"CXHXCXVXDXBXxXqXdXHXAXVXAXAXKXKXFXKXJXAXAXAXGXHXlXZXGXGXAXAXAXVXhXcXKXJXHXHXnXGXLXCXCXzXbXGXKXGXGXzXnXlXAXVXsXnXDXHXAXHXAXBXKXdX, 1 S J w 1 M B w A b 0 ! 1 M ^ j > b 1 w Z M j 9 D ;X0 1 , 9 1 M w n w 1 1 , A 5 % 0 b ZXKXKXNXZXAXCXbXKXJXKXNXNXGXAXlXNXZXdXAXHXZXmXAXxXBXDXGXHXHXAXGXBXCXBXAXmXlXAXZXZXHXZXJXKXgXuXdXnXAXGXGXAXnXhXNXAXBXCXGXAXbXhXzXNXVXZXAXlXKXNXZXbXzXbXJXlXAXJXmXNXAXNXNXbXVXAXNXbX0X, 9 1 M I O 0 1 , 1 1 b j j n n n ~ T M S B 0 9 > 3XR % A w D 9 Z =X1 O n Z 1 5 , , 1 , j dXAXZXAXVXHXnXGXKXNXNXuXlXcXHXKXDXZXHXKXDXnXAXNXHXHXAXCXZXcXNXgXAXHXAXAXAXlXlXJXGXVXGXAXAXAXGXKXAXKXHXNXJXKXGXlXbXAXAXHXGXHXGXHXKXHXGXKXAXNXbXfXjXAXDXHXNXGXAXKXVXKXKXGXAXKXKXHXAXKXHXuXB 1 1 O + *XS b j 9 q T q j P 1 0 9 0XJ + q > 5 n > Z 0 M b S b , 5 q Y U b 1 0 Y Q B 5XKXCXGXKXHXAXDXGXKXAXnXAXKXAXAXHXJXGXBXbXAXbXbXGXAXDXzXjXGXcXNXGXAXAXHXHXVXNXAXcXbXCXBXGXhXgXcXGXKXAXAXxXZXbXBXxXGXlXCXAXNXcXbXAXAXGXNXZXZXAXAX",
"DXNXcXNXNXJXDXAXNXAXNXxXBXnXHXAXMXbXKXGXAXKXNXNXAXZXAXJXGXAXVXAXNXNXCXGXKXAXsXNXJXHXHXHXAXAXbXmXGXAXAXGXDXBXcXAXGXVXAXGXAXAXHXbXw , q b w 0 5 0 1 9 1 5 ~ q =X, 9 9 j 9 9 q 5 1 , 9 n , 1 I n 1 q m n q S *XI M b 5 = Z xXKXAXBXAXKXCXAXCXcXZXbXKXAXbXKXNXGXHXGXNXGXKXZXJXAXGXAXgXfXhXAXKXKXJXCXKXKXCXcXNXGXAXnXdXAXAXAXbXNXNXAXKXGXHXGXGXAXcXlXnXlXGXZXHXGXCXKXVXdXzXHXZXcXBXHXVXlXZXGXHXJXbXdXkXbXKXbXHXwX, 9 , 9 0 , 9 O w % Z n 1 D Q j B U T M j n 9 , M 1XU Q n 9 9 0 Y fXb > 0 1 1 1 w 5 ^ R 9 ZXbXGXHXGXHXAXKXAXAXKXGXVXCXVXNXVXGXHXGXAXCXJXBXGXHXKXAXHXNXAXKXbXAXHXbXdXCXbXZXKXNXJXZXzXGXBXmXAXkXSXVXkXCXCXAXAXVXAXhXVXVXnXBXHXKXGXAXlXkXVXAXGXAXDXGXKXAXKXbXbXKXjXbXAXuXxXGXCXNXKXwXj 9 1 , > , , b w 1 1 0 M S Y b , Z R 5 5 w M O M 1 0 1 O 1 % % , q =XR j 1 w 1 n n 1 3XCXkXcXbXDXZXDXKXDXZXDXdXhXxXlXsXcXKXGXxXxXDXBXJXxXGXKXAXAXJXGXJXHXCXGXJXVXAXAXKXKXCXxXmXKXGXHXAXzXcXCXxXZXAXAXAXAXJXAXKXGXSXAXGXBXNXlXSXAXHXGX",
"NXnXKXKXVXAXAXKXbXkXBXkXxXGXbXbXNXcXzXAXAXAXKXAXHXBXZXVXZXbXcXnXAXAXAXCXDXKXAXiXsXhXGXAXVXAXVXcXbXHXAXZXAXGXAXhXjXbXCXbXCXbXKXBXj 9 5 0 0 , &XS 1 0 j S <XZ Y A S 1 0 9 9 0 1 Y 1 1 0 > , q 1 w j n n m Q $XA ~ S n , q CXJXgXVXZXHXAXCXKXHXxXHXZXAXJXVXVXAXgXxXnXAXHXAXNXHXAXNXJXlXhXgXhXbXHXKXGXHXCXHXCXbXAXNXAXHXDXGXbXcXnXsXZXJXCXHXJXzXlXAXGXNXGXDXAXAXGXKXJXDXHXBXKXJXAXzXNXnXAXDXAXKXHXJXJXGXHXGXGXlX0 , + 1 1 9 , 0 9 1 M =X>XB *X9 Y -Xq Q 7XD A , 9 O q 5XZ b w , Y Q 0 1 j 1 9 b 6Xw 0 M 1 bXKXNXAXVXGXKXbXVXjXgXAXKXKXAXbXAXGXGXJXHXKXCXKXCXKXZXGXJXJXNXZXKXHXCXAXKXKXAXbXVXGXzXHXCXAXnXuXVXmXzXSXSXCXDXAXGXSXbXnXhXbXAXAXcXdXzXNXJXKXGXVXGXnXAXxXCXZXVXnXNXiXnXbXAXVXbXNXcXlXKX3XU D Q S M S I 1 1 0 b j b 1 0 0 w 0 > U R j M , , 9 > , 1 o 9 1 , % D n 0 D r 5 1 1 O eXJXqXbXNXNXbXfXdXbXKXCXHXGXAXAXZXhXlXNXmXBXZXGXKXAXkXVXVXAXAXGXbXHXHXGXZXJXVXnXbXVXHXAXJXAXGXKXAXbXVXHXKXAXSXGXDXKXCXCXHXGXMXcXAXMXNXAXDXjXAXPX",
"CXHXNXZXZXVXKXNXAXAXCXAXAXAXAXKXAXHXCXZXHXkXiXjXZXKXJXJXZXGXLXKXmXzXHXJXAXcXnXmXSXnXBXSXDXKXHXBXAXGXZXGXbXcXcXVXMXBXKXAXHXHXhX4X> w 9 % 0 9 M j 5 9 0 w 1 > O &XU 1 > 1 3 1 2 M > 9 > 9 O 0 n 0 q S n n A S D w J w 1 n AXAXAXKXDXmXDXHXJXKXHXnXxXmXGXAXAXGXKXbXZXxXZXKXKXHXZXLXAXmXJXAXcXmXVXAXZXVXHXJXAXCXGXCXAXKXDXGXHXZXDXJXcXHXAXlXgXcXbXAXKXNXHXVXZXGXAXGXAXzXSXVXnXDXAXBXZXAXAXnXFXSXnXCXJXKXAXDXxX8X, > w M > b q 9 0 1 A xXB 1 A j 9 S w +XU S 9 5 , % , 9 1 M w 1 1 q S I I w , Q ~ > > b b zXKXAXnXlXaXnXVXVXVXHXHXJXGXHXHXcXCXZXAXZXbXVXmXDXGXCXHXKXVXGXkXjXcXAXlXcXGXGXGXlXAXlXNXAXCXKXKXAXVXHXHXKXDXAXKXAXNXGXHXKXJXbXlXHXAXNXGXDXcXAXZXfXGXNXCXCXPXZXHXKXAXAXHXAXAXNXlXAXJXAX1XD 1 S 9 j I ^ M 0 w 9 9 j 1 1 b 1 5 1 S A w I 0 O 9 1 I *X0 O n ! w O 1 , , 0 j A > B ZXKXAXbXHXBXzXlXxXhXlXGXAXKXHXZXKXAXbXsXhXVXlXNXGXKXzXNXHXGXLXLXHXKXJXAXVXcXDXHXbXAXKXAXcXhXNXjXbXAXAXCXNXAXBXCXcXqXbXVXzXcXVXbXAXCXGXDXHXHXJXAX",
"AXAXHXNXBXHXCXHXGXNXAXbXcXBXBXKXDXbXCXDXxXZXbXlXuXhXmXGXJXGXKXBXAXHXnXmXVXzXVXHXAXVXlXcXdXzXHXDXCXHXGXgXhXAXNXNXGXHXDXBXDXLXJXdX, 0 w 0 1 9 > 1 w 0 j n , , w B + 1 M 9 1 O + 3 1 q , w 1 q J +XD >XD n ,XA A *XS Z 9 w gXHXKXLXJXDXAXHXJXBXVXcXxXGXCXHXHXzXlXmXCXHXZXGXDXKXHXDXSXlXdXAXHXHXFXnXCXGXGXAXJXKXAXKXDXJXHXAXKXGXmXAXKXAXGXVXJXKXAXbXGXAXmXKXAXAXcXwXNXnXMXBXlXVXAXDXDXAXNXlXuXnXVXAXzXcXxXbXJXhX9 1 , > j w B 0 w , J M % 1 w 0 1 , > 1 5 9 +XM U B 0 A B 1 1 w w q q w w 0 9 q 1 Y D b B sXNXAXnXMXMXSXVXAXVXlXDXVXHXGXZXJXAXZXVXJXnXzXVXNXAXbXbXbXAXHXAXAXBXAXFXcXlXCXbXNXVXCXHXHXdXbXkXbXZXAXBXZXCXCXZXNXZXBXlXbXGXVXDXAXKXJXKXzXZXDXKXHXBXAXHXKXGXKXAXKXHXbXAXVXbXCXVXnXaXKXwXJ , O O 1 *X3XA 9 O 1 , b >Xn 5 9 w , 0 Z j 0 > 9 1 1 Z +XQ + 9 5 A I 1 j 1 , w b 2 > 3XzXzXxXfXNXhXxXKXVXkXbXGXCXxXlXhXNXGXZXcXlXCXHXAXAXKXDXNXbXfXAXNXBXAXbXNXGXKXbXHXCXVXAXxXJXVXbXbXAXbXhXNXKXJXNXbXbXNXBXxXZXNXxXZXbXNXZXAXKXDXAX",
"DXDXKXKXGXNXlXVXAXCXGXJXmXzXbXkXZXHXHXNXxXKXNXAXGXjXkXxXVXGXZXCXKXHXAXbXVXAXGXJXBXCXNXmXAXbXVXAXNXhXfXbXCXJXAXAXGXzXAXJXHXHXAXaX, w 0 q , > q 0 w 3XS w 9 0 b , n 1 b 9 + , a 0 q w 5 w w > hX>X5 M B 9 Y 1 ~ ;XU A 1 1 zXhXzXLXCXGXbXzXZXVXHXAXBXGXZXHXCXzXhXZXBXJXAXNXnXsXNXcXbXbXAXAXKXJXDXmXxXGXVXGXAXAXDXmXHXGXNXKXKXAXGXkXxXCXZXnXnXJXAXAXhXAXbXZXAXZXKXAXAXNXBXJXHXGXGXHXGXxXGXJXKXJXcXnXHXkXbXAXKXqX, 5 5 , n Z j 9 1 M Z 1 9 1 5 n , O 1 w > 9 S b Y w Z Y Y w q 0 w b w o 0 w 9 1 0 S S w R NXcXnXMXKXHXAXCXKXKXHXxXGXKXZXNXHXKXbXKXKXJXbXAXGXZXlXhXlXhXCXHXKXKXAXGXDXmXlXhXNXBXgXCXVXzXeXkXxXAXAXCXVXNXHXBXhXnXBXxXzXDXHXVXxXZXmXZXAXGXHXCXAXVXAXHXcXbXAXNXnXZXVXAXAXAXHXKXDXbXAX1X1 9 0 1 > M ~ U 5 1 9 j Z *Xn w q 9 9 1 , w 1 9 n n > 9 7Xj > w 9 5 O 0 0 , 0 Z M Z 1 ~ hXdXhXqXNXbXaXhXwXdXuXhXCXmXlXhXsXlXlXZXnXnXhXwXdXnXAXAXCXAXNXbXsXqXxXBXZXNXNXAXgXwXVXCXAXKXJXAXNXVXGXJXHXbXgXhXCXNXBXxXNXxXZXbXNXAXNXCXmXVXAX",
"KXKXHXHXNXlXNXAXVXKXmXbXBXbXGXCXcXbXNXHXZXAXzXaXhXzXAXGXbXbXGXAXAXCXVXmXAXZXZXGXAXZXCXkXbXAXzXKXVXBXAXGXzXAXJXNXKXAXAXZXsXdXHX9X, 1 9 w n 0 0 , O j 0 O b 0 9 0 j 1 5 0 , 9 9 1 j M n , , b $X, % n 9 1 , , 0 w 0 S b D CXbXfXAXZXNXAXCXAXAXAXHXAXbXNXVXNXAXNXGXnXbXJXnXhXNXVXNXGXAXbXHXAXAXJXGXAXZXZXNXHXhXfXcXxXGXZXbXAXAXAXAXzXbXbXcXjXlXHXNXbXAXKXHXJXlXGXAXZXZXHXVXGXAXHXZXDXGXVXnXGXAXCXNXAXKXJXDXnX0X0 M 9 5 1 j 0 w 9 w D n % 0 5 1 , 9 1 O , S D + > o j ;X-Xn 1 , , , A Q 0 1 9 1 1 M b q B lXJXKXlXMXKXAXcXsXjXNXGXAXAXAXGXNXCXlXqXxXAXbXNXNXCXkXJXKXCXNXHXHXAXNXzXDXAXVXlXsXmXNXVXxXcXhXdXaXhXbXVXbXAXNXlXxXVXbXNXVXVXHXnXcXCXlXhXNXVXgXhXCXKXGXAXZXAXHXAXAXAXVXGXAXZXZXZXDXKXKX5XO , , > 9 , w 1 0 j O 9 ^ qX1 0 b M 0 9 1 + 9 0 1 D 0 , n 1 9 5 n w b , 0 1 > j 9 D b &XVXlXNXAXAXhXwXwXsXlXcXuXsXmXxXxXNXlXhXzXgXlXhXgXqXfXlXAXAXCXAXHXkXfXCXbXzXzXnXZXhXCXZXKXbXGXVXNXZXZXlXgXcXjXxXjXqXsXxXzXbXZXcXCXNXxXNXnXhXCXGX",
"ZXNXZXGXAXZXAXHXGXHXnXwXwXlXBXVXjXnXuXdXdXsXcXiXdXVXGXbXCXhXNXZXbXzXzXxXdXBXNXBXlXbXzXlXdXjXNXmXmXhXGXAXbXxXBXmXkXVXAXGXVXbXGX5X1 j w 0 w 0 5 9 q b 0 5 D M > 5 1 n b 9 0 1 , w b M 1 w w A 5 9 5 1 b 0 O , w 1 % D M Q hXhXZXHXAXzXHXAXxXbXbXNXZXcXbXcXCXAXbXAXVXfXzXNXHXGXBXNXDXKXmXfXAXHXAXbXHXKXZXKXJXAXzXAXBXNXbXjXsXzXVXBXKXAXbXVXAXkXlXhXZXVXzXAXHXbXlXBXAXCXKXZXAXAXHXZXxXZXNXnXcXGXHXAXbXZXGXmXGXsX+XQ 0 q 9 9 q w w 5 Z M 1 0 0 w 0 w w q % w w 5 5 9 = ~ ;XA > 1 9 9 A >Xq q q 0 1 1 w 0 9 lXGXKXbXbXKXmXcXBXBXzXNXAXxXAXnXzXcXCXdX6XjXkXaXuXAXcXZXnXlXbXdXCXGXNXnXlXnXcXCXzXhXxXlXsXbXZXxXlXlXlXxXwXdXhXzXxXNXbXAXAXsXhXGXGXKXHXDXnXzXzXAXKXDXbXBXKXJXGXKXAXbXbXcXbXNXbXhXbXbXKX7X> 5 A S 0 , , 1 b -Xj X J M 9 9 q 0 , w q b n 0 , w 0 1 , j b , M 9 ^ n 9 1 1 > X Y 0XuXgXdXxXZXbXzXzXcXxXNXNXbXzXfXNXzXzXxXbXbXbXhXfXxXBXNXuXgXbXbXbXdXgXbXZXbXhXzXfXlXhXbXuXcXNXdXZXNXAXAXnXnXzXbXzXNXlXuXhXAXNXzXzXCXCXCXAXcXNXGXGX",
"CXAXVXAXKXKXAXAXHXAXCXxXbXcXsXnXhXwXuX7XsXjXgXjXVXCXxXzXDXbXdXfXdXfXdXeXsXuXdXgXqXsXgXdXfX0XwXiXdX0XwXlXNXuXfXVXCXAXxXZXKXbXNXxX^ j 1 q M 1 9 0 5 +Xn 1 w 1 +XM j j w O m 1 9 1 j 0 w 0 w Z n 1 9 5 1 > , 5 % , j Q + 9 3XuXBXHXHXgXcXzXuXzXGXfXhXzXzXsXfXsXdXdXfXlXNXqXxXKXZXjXsXaXNXGXNXCXbXxXxXCXlXhXAXNXbXnXAXNXNXGXKXNXdXxXCXbXzXxXbXHXBXdXjXCXxXCXbXNXbXBXcXhXbXAXCXVXzXzXzXAXzXnXbXCXJXkXhXAXfXaXxXaXM w q q 0 9 > > q 0 1 0 1 1 q 9 9 5 9 ~ <XS O , 1 > 1 , M 1 0 1 , w 1X&X1 j M w w 5 , o B VXlXGXVXdXdXbXbXAXGXJXGXAXCXCXAXAXGXVXnXNXbXlXNXHXDXlXaX9XhXxXsXaXgXNXkXhXcXiXjXlXxXxXuXsXqXdXzXzXxXkXZXCXaXkXhXsXzXzXZXVXNXAXKXZXZXKXmXlXZXAXbXxXmXlXzXfXhXNXBXmXlXhXxXzXaXsXfXdXdXmX<X1 1 w n 1 5 1 w 1 1X~ o , > 9 b b 5 9 w Z M I J q B 5 , 0 0 J J 1 n =XQ q 1 5 0 , Z M 1XkXsXdXNXzXzXgXfX0XgXNXlXuXwX7XzXdXdXcXsXcXlXkXgXxXNXxXlXcXjX8X6XzXBXhXdXqXzXNXbXcXfXlXhXuXhXVXNXcXbXNXAXJXnXlXNXCXAXbXbXzXCXCXlXNXVXnXbXVXGXAX",
"KXKXAXNXGXHXHXAXCXAXAXNXxXhXwX5XuXsXfXuXuXqXhXjXqXuXdXBXdXzXbXwXwXlXhXqX8XzXqX0X5X5X3XqXwXdXlXuXhXbX0X7XwXuXcXdXlXCXAXwXdXxXhXsXY b 0 0 j > > , > 9 > 0 0 Z A q Q n b M ;Xb 0 9 9 q n 9 5 M P 1 1 0 9 q q w 1 % 9 S 0 5 7X3XuXCXzXzXsXdXZXNXxXfXfXdXqXeX0XqXqX5XeXhXzXjXsXbXfXiXuXeXeXhXlXaXzXfX7XwXlX0X6XqXwXwX0XVXdXhXSXgXdXsXxXlXlXiXgXfXkXZXhXcXNXbXgXnXDXhXdXgXqXwX6X0XuXcXzXlXcXcXhXwXjXbXAXJXAXAXAXqX9 n Z U 9 O M M n n 0 1 w 1 0 0 0 5 w n 7Xb 9 5 Z M 0 > 1 > S U > > &XT 1 0 w 0 , 1 9 0 b lXdXsXVXgXcXCXCXCXZXxXAXdXqXdXfXhXdXNXGXzXlXuXzXxXAXhXuXcXsXhXlXfXqXzXbXlXlXlXhXxXgXVXZXxXbXhX0XxXzXNXZXsXhXxXxXdXcXhXlXcXCXdXkXHXgXzXnXCXHXxXsXsXNXbXfXxXqXqXlXxXzXfXuXhXuX0XuXaXkXdX&X1 q O , 9 9 1 , 1 9 9 9 > > 9 Z 1 0 0 1 A ~ , 1 &XzX0 5 1 A B 8X~ n Q I 0 5 b 0 1 0 5 1XaXdXfXuXfXsXhXbXdX1XdXfXqXuXhX0XzXzXqX7XdXbXbXfXdXmXkXuXsXdXwXaXsXuXsXkXBXdXqXgXbXBXcXhXhXbXmXZXxXxXcXjXNXzXbXNXzXhXlXBXZXZXgXgXhXuXlXnXnXZXAX",
"GXlXcXHXKXbXzXKXAXNXfXdXlXhXuXuXhXqXNXzXwX9XsXhXlXsXzXxXfXNXVXzX9XZXlXqXwXgXzX0XwXNXuX1XqXxXNXgXdXhXzXfXuXeXcXkXcXNXxXdXfXzXNX5X^ 6Xn , 1 > 9 q 5 , 1 Z 1 9 1 1 1 w A b S 9 b 0 j , % w 0 9 9 9 1 w 0 1 0 1 Y ! A 1 1 9 >X3X7XfXqXsXsXuXfXxXNXdXdXdXdXfXaXuXwXhXlXiXjXsXwXjXgXjXlXZXkXfXlXzXzXfXhXsXuXsXdXaXwXlXAXGXgXwX9XwXzXhXuXfXfXhXgXqXeXuXcXlXhXeXiXuXdXkXhXzXfXhXdX9XwXfXzXaXqXzXlXzXAXHXbXGXKXDXAXhX0 M R U > , w w M b 9 q 0 n b 5 5 9 , 1 b w w , S B 1 9 > b w eXS O 5 > 9 w j 1 w n M b &XnXlXlXgXdXlXCXKXbXlXGXAXAXbXhXhXsXwXbXbXbXhXwXxXCXzXlXgXuXuXzXlXfXfXdXzXnXuXjXjXbXCXlXNXbXZXNXbXAXAXfX5X0XxXxXzXuXzXlXxXxXNXbXwXiXqXjXBXVXVXNXhXZXsXqXuXxXhXqXkXhXdXhXqXdXhXgXsXkXzXZX5XO n D 0 1 9 1 B A 1 , 1 q Z 5 q 1 0 0 0 0 b , q q I 0 5 1 q w 0 n % 1 9 b j j 9 1 1 . <XxXzXbXdXdXhXbXxXcXnXwXmXhXdXzXsXzXdXuXkXeX0XwXqXhXwXsXzXmXbXqX7XdXhXsXlXNXxXqXaXwXdXxXfXbXKXKXKXHXAXhXuXjXAXAXVXHXVXnXhXzXlXAXAXBXbXHXGXKXbXHX",
"uXcXGXZXZXbXBXcXbXqXS U W Z S ^ U D 2X8XU Z S Z Y T &XS U Q R R D Z M Z A D J I U ZX5XI A ~ &XI S T Q I ~ U Y Q 3XwX*XuXW U R Z 9 1 w 9 , w b b 0 w 5 b n 9 9 0 9 w 1 w 9 n Z n 1 9 j b B 9 0 n 1 9 0 0 5 j n 7X^ 1 1 0 T U Z S D R >XS m =X<XU Y Q ~ U D S Y I I n U T D M +X! T =XQ ;XA U A S Z M 6X7XQ A S ~ =X>X+XU Q ! ^ *X&XZ Q R U Q Y Q Y J ! ^ Q Q ! A Q I T >XQ Z 7X*XD I S R S ^ R 0X5XY Q Q -X^ w 1 , M q 0 n X 9 9 0 0 0 q M 0 j 0 > 1 1 , w 1 X 1 1 0 1 1 0 Z w 1 O 1 w n 1 9 9 1 T B 9 Q zXfXY A Y *X>XbX=X5X7X;XR ^ ~ U R &X&X>X! Y S Q Y U U ~ M M +XY Y R I Q Q ! Y Y ,XwX+XS R -XR Y Y Q U I T Y Y I S Q Q T +X! =XY A Y U U M Q T 5XT Z Q Y S Z I ~ R J Z J B P ! A J U U j > 1 1 9 5 , M U Y 5 . S 5X, 1 , 9 O M n X 1 1 9 1 1 w 0 5 5 % > b n b q w j 0 0 1 1 A &XI 0XwX*XT ~ Y wXqXS *X! U U Q &XQ +XT U A J *XR 1XdX<XQ Q I ~ Y &X^ D ~ =X*XQ Q J S ~ <X~ 6X8X+XQ ~ U T U ~ Q uX3X=X^ $XU Q ^ ~ 5X1X&X8XzXAX",
"5 n B ~ T w Z M n z = , > 1 9 M 9 @ Q U o 5 q 9 1 > 5 O X b S M b + 9 , 9 A 0Xb = S 1 5 0 9 b 1 n 0 O > 5 9 1 , w 1 0 S w 9 0 1 0 n O o 0 n b % 5 1 , 5 w 5 A S 9 1 0 w M S =X9 + 0 S b A , b 1 w b , 0 0 1 > S 9 9 % I I 1 > > 7 1 1XR . q = , 1 0 O 1 j n n R A % 9 , , 0 w n , % 9 +XS 9 1 1 1 O Q Y M O . M 7XU b 1 O n A U Z > 1 q 1 > 1 O 1 1 % > w Z M 1 1 5 5 1 X w R I j + 1 1 9 1 o % j . > 1 1 b 0 0 n 0 5 w M w > 9 0 q w w n b 5 0 0 0 9 9 1 M n 9 9 5 1 B w + , w q 0 9 j 0 w w 1 n Z > 9 Z +X+ 1 % n 1 J b O 9 1 w 1 q % > X 1 1 B m 1 9 1 5 > 1 D 0 > q 1 , 0 1 , , = % , A % O < X X 1 > % X o X % X % 1 o o O , w X   D R 1 o w 1 O B 1 1 1 5 B , 1 b > , 9 1 5 C q j j m A b 9 9 9 0 b 5 5 U w 0 5 > j > , 9 1 0 1 n w q 5 0 q 9 0 w 9 0 1 , Z Q S b 1 0 b w 1 Z ^ 1 A &X;Xj X > O 5 M X 9 5 1 + >X7XX X w n B 1 b M Z *X, O O O , > 5 O X > S q O q + O w w > + o % q B w , , > o 1 R q < R Z q 1 > 0 1 1 , 0 A ",
"b X 1 8X~ , w b 0 9 > , 1 9 1 w B , , 5 q 0 b M j j 1 0 1 , , w Q B 1 9 w &X=XR 9 > q q B 1 w 9 n 9 w M 0 j 1 n q w 9 n j w j 9 Z &XX w S 1 1 1 1 1 9 1 Z <X9 R 1 9 5 w 5 0 j b 1 Z % 1 b 9 w 0 0 M w 9 w , 1 1 9 q q > > 1 0 5 1 1 I D 1 O , 0 Z 9 q 0 1 I A j w Q 3X0 > q n U 5XM T =X^ 5 9 j 1 9 0 q M 0 , w Z j 0 1 M 0 0 Z q 9 5 > 9 w 9 1 1 M I 0 1 0 J 0 5 0 q 0 , J b n 5 1 9 0 0 0 0 n 1 > 1 0 9 > 9 0 <X1 , j 0 , 1 9 w j 1 1 5 > 5 9 1 , 9 A 9 1 q 1 5 5 , I A I 1 . +X*X% 1 1 5 X Z 1 + , q 5 1 5 0 0 1 1 O > b b n b M b 9 w , 1 9 7 9 =XI 0 B 0 M sXA 0 A 9 9 1 w w w j 1 % O 0 n 1 S Y B 0 9 9 0 q 0 , 5 n 0 0 w 1 > O M B I ;XB b w 9 1 1 1 1 S Y b w 1 O 0 q n R 7Xn 5XB R ~ A b B M M b O 1 % , b , 1 > 1 1 , 1 M % M b M =X1 9 q 0 0 0 0 0 9 0 7X3XO 9 0 0 0 9 1 Z 1 1 U eXA 1 , 9 9 1 0 M U S > ^ 7Xw M w Q Z o n 1 z n w , 1 1 X M 0 9 9 O j n , j , , 9 1 O > 9 5 > 0 B j 9 q 1 A n U P 5 Q J 0 + Z 0X+X0 M O ",
"<X9 9 n > 0 0 9 1 0 b A M Y 1 0 5 9 5 b Z j , w J +Xn 1 0 9 O w <X=X5 , , +X*XI n 9 w A U ~ w 9 M q 9 0 5 q 0 9 9 0 Z D 0 9 w 0 w w X Q ~ Z , 5 , b w 1 , J 1 O 0 w M j 9 b 9 5 1 D j > 5 0 w b j b B q 5 0 0 9 1 0 w b 5 0 9 5 b n X O w 9 1 w n 1 0 w 0 M Q = 9 Y 0X0 9 1 Z w ~ U 1 b 0 b w n 9 , , 0 q M D 1 w j 9 9 w M , 9 w 5 w w 1 q 9 5 , M ~ w , 0 , O 1 1 9 , > + 1 , 9 0 % , , 0 b 1 O S I 1 1 w 5 9 U 9 9 9 5 M 1 w S 1 5 0 9 1 M B 5 n b B q , , 9 9 0 , j Y b 5 + n B % 9 1 5 0 q b 9 j 1 w w 0 b 0 0 9 1 0 A I Z w 1 w b 0 1 S S b Q 5X=X0 + 0 > U M % w q 1 w eXS O w q M q S A A ;XR 0 1 > 1 1 5 M , X S I 5 9 w o 9 I n 1 9 > b U A w 1 0 1 > +XQ 1 Z Y 0 w 1 q j < b 0 9 b j 0 w 9 1 , b O q 5 5 > 1 % 9 w , Z >XM 1 o n Y b 1 9 q q n n b q 1 > 1 , 0 5 1 1 M 5 O w &Xw ^ b > n , 1 1 , w &Xb 9 > % , M 0 , % 9 Y 5 9 0 1 M >X=Xj Z q 1 , > O 1 9 O 0 J M B 0 5 5 , 1 5 q 0 1 1 n A +XM j O 1 , 9 M 9 eX6X, A 9 ",
"=XM O + , b n 1 w 5 j A q M n Q Z 1 > b w *XQ , ;X2XD 1 0 w 1 w b j M O 1 I Z j 5 9 b n M D 5 1 , 5 0 w 1 , 9 M n , w M M 9 9 w 9 > n D b Z > 1 q 0 0 5 9 0 % > 1 0 1 0 > &XS O b 0 1 0 O 0 0 9 , 5 1 , 1 1 9 > n w 1 n w 1 5 > S U S q X Z 1X1 1 , w % b w % , 5 1 5 1 5 1 0 1 O , 9 j j b n b 0 9 , 1 1 5 1 &Xb 0 b w b wXY 1 A 0 1 1 j 9 w w , + O 1 9 , b D b 9 , 1 1 1 9 O 1 M 1 0 0 1 O O q Z R -Xn n 9 , 1 , 1 1 I S 0 1 > O j j q ~ 1Xn 3Xb &XR J q A j Z w % , , 1 w 1 > 1 > , 1 , w O A 9 I S 1 9 q 9 9 5 0 q > S zXR , 0 0 j q 1 b I X S +X;X9 1 > 9 , 1 w M J j 5 lX&X1 n M =X> 0 q 9 Z q O , O O > b O 9 , 1 Z , 0 9 1 1 5 O X , 1 % 1 A 0 0 w 1 9 n M Z M J ;Xb 5 , *X~ j , , q ~ B M b 1 1 j n + > 0 1 , w 1 0 0 Q U D 0 A , > 0 1 q 0 5 A A b 9 , B j 9 1 0 0 1 n , 9 , >Xw ,X;XM I Z w 9 9 > o 1 9 5 1 > 9 > , 5 D Q 5 , > 1 C *XS 1 ,XD X 9 w j q 9 5 Y ~ b S D 0 5 5 , 9 w 1 1 w b > 5 1 Z I n j > M w , 9 1 0 0 ",
"X , w 1 % e w 1 w w > Y Z > w 0X<X% 1 q A D 8Xb M M M w b q 1 1 5 M M B w 1 j w 1 9 M > , w 9 5 0 9 0 w 5 , 9 Q Y , , j 1 O 1 9 5 1 O , 1 > 9 , > 1 1 b j 5 1 U 1 , 5 0 1 U M , 0 1 M , 9 D q , 5 9 > 5 A > 9 q b n , > , q 9 1 w Q S 5 O w ^ O 1 1 1 9 0 n 1 j 0 0 q 0 w 0 1 1 1 9 S S b w 0 j w 9 1 A S 0 S 6X1Xw , w 1 -XB > w w , 0 &XA > j 5 j q B S A ,X-Xw , 1 9 1 1 M 1 o U A 1 0 9 X 9 I n 9 J 1 w U n q 1 q , n ;XI 5 Z A 9 9 q M A 5 D 0 n M w 1 b 5 9 1 1 1 1 w , , 1 , 1 q O Y *X9 w O T ! q 5 w w w j b w 9 1 M 9 1 w , 1 0 n > O Z B n -X, 9 q , 9 1 > I ~ j 1 1 0 b M , 9 , B b 5 w w 9 I =XJ 5 Z 0 1 , O > 1 > % w w b w 1 9 9 2 9 9 b 9 1 9 M <XS I % , b % q 1 >XNXn , q , q A ,X^ , 1 D T 1 1 , % w 9 1 w j R J b ^ T M B 0 1 w M 1 0 j q 0 0 b A 0 0 1 b , < , n , q 1 Y +XJ M q B w 1 0 5 , 5 1 1 9 &X9 0 I A 1 1 1 1 5 , , j X Y S , O M >X9 , 1 + I A 1 M , o w w 5 9 q 0 T S *Xb 1 Z j 1 1 5 , , 9 5 S 9 z ",
"M , > Q J 1 1 1 1 , b 1 % 5 9 1 w 5 9 , w O > > 1 9 w j M q 1 1 , 1 5 w M A 0 w M , U 6X> Z w w 1 0 w 5 n 9 > O % , 2 % 0 M 9 0 1 O 0 1 + 1 0 9 , 0 1 9 > o b Q ~ M n w % 1 , 1 5 b Q 0 9 % > 0 n w A 5XM -XD U =XZ M n n w M O 1 9 > M 5 > O 5 % 0 O w > n j B D , 9 j 9 w 0 0 5 , Z qX&X9 5 0 q q 5 Z ^ O S =X;X0 1 > 1 > 1 w M M w 9 NX=X, 9 Z &X1 w w 0 A n > , , X , b + 9 > w A 5 q 0 5 5 1 > X O , 1 w A 0 9 w > 1 M b b A ! ~ n > 0 R A 0 > 9 n Q Z w b , 1 w 0 + , 1 1 > 0 0 b w ~ Q B 1 b , 9 9 0 b 9 b A S b 0 1 0 5 1 9 w , 9 n 9 , A *XM >XZ n I 0 5 9 1 % % 1 9 9 , % > 1 , 1 ! J > 9 , 0 &X=Xj J ! 1 1 9 w 9 q 1 M ~ J Z S j 9 , 1 1 0 0 > 5 n 9 0 5 9 U M 9 1 j M , Z , 9 n O 5 =X-XI O , 1 9 9 5 1 1 1 > Y M , j > b 9 b *X1 1 1 n b b A &XeX9 9 , 5 , 0 9 5 9 A ;X-XA > 1 n 9 O n 0 1 b M > n b w 9 w 9 w 1 A S j 1 9 b n 0 9 9 5 0 1 > 9 > 0 1 X 1 > 1 0X-Xw % >XD 1 w b j I q 9 U M > I 7 , X n +Xb Q w j I M ^ ",
"A 9   &XT + , 9 9 > Z 1 9 0 1 q 5 0 w 0 1 9 1 w D Z w 0 w j q 1 9 n b j U 6XT 1 w 1 U 6X, w w 1 1 b Y 1 b 9 1 0 j J Z I 3XS 9 5 1 b , Z 9 + b D b 9 w % X S D 0 U B 0 S M w 9 1 0 w *XY B M M 1 9 w M ^ 9 T B M I n 0 5 0 j 0 9 , 9 1 j , 0 , 1 0 , b ~ 9 q < J <Xq 0 0 q q q w w 0 1 J Z > q 1 1 w 0 > > w n M <X1 9 1 9 1 5 , I *Xb , b b j D 1 n > q n 9 w j 9 w Q M 3 M 9 , > O , 1 , > , 5 b 9 > 9 9 1 1 w q 0 1 0 Z &XJ T O j B , 9 1 wXfXb 1 , 3 M n >XA 9 1 Q D , , 1 > n 1 1 0 n +XT b &XI b n 0 1 n q 5 w 0 1 b 1 I n w > w q 1 , % 9 0 n 1 <XQ T n A M 5 5 5 , 5 , 1 , Z S , n T n 9 , , 1 5 1 z 5 j 5X1 , , +XT , 9 1 b J w n Z o 1 w 9 9 0 9 J T T J 1 B I n q 1 O 1 1 % n +XM 1 > n 0 Z Z + 9 9 1 1 1 j j , 1 5 > n M sX1 9 j 1 1 b 9 j > w Y U 5 9 q 9 B M w , , A B Q S + > , 1 1 B n 1 w 5 , j n j 1 q 1 5 , q D j 9 0 q 0 n > 1 > 1 w > 1 1 , + , 9 1 > Q <Xw M sXA > M I M M O 1 1XS % M 1 Z I 6XI ,XzX5 w w Y D ",
"1 q 1 > , 1 , 5 , 1 5 B 9 Z 9 9 w 0 w 9 0 w 1 5 -X7XS , 5 b j 0 1 ~ Z 0 ;X>XU > > , > 0 1 j b M % <XNX9 % M Y S 1 M q S U > 1 > O > 0 9 5 > 1 T j 9 w 5 9 j 1 % X % 1 j J M 5 0 1 + w I 5 M I Y M 0 1 M Z 9 1 1 n T Z 0 b 1 1 0 1 1 1 1 5 % 9 5 b 0 R R A < , < 9 b 1 j 9 w A S M 0 1 7 = 9 1 q 1 5 M 1 5 M ,Xb >XZ 0 A 0 1 1 1 9 5 9 1 1 O , , 1 O > ! J 1 9 1 0 >X7XM D T , , 9 0 , w > b *XU Z S 5 1 1 1 1 q 0 , 1 w 0 b 5 9 M 9 0 1 M M 0 Q > 9 M X b >X=XI O 5 1 b 5 0 > , 1 0 I w 0 q % b b M Y 9 9 1 n Z n Z 1X~ 1 9 , 9 9 0 0 9 9 R $X! 5 , 5 S > 0 q 9 5 Z 9 9 M q 1 w 9 w M 9 S M w 1 j n j 9 9 q 9 0 9 0 1 > n 9 O , X Y eXM o n S 9 9 9 5 A M 9 n S 9 q Z , + . ~ m M M 9 J ~ w > 9 1 0 b j , 5 1 , 1 1 5 1 5 0 1 q 1 q R U X X M 0 w M M 0 > 5 > w w 1 B zXR n w 1 n q n w 1 > , 0 n O w 9 0 0 5 n b > 9 5 9 b 9 9 9 b q 1 1 n > 1 j 5 M A X >X1X> , B I X n M M j 0 0 % % J M M b 9 ^ B M 1 O 1 b , ! Z b w j 9 n q 5 ",
"9 0 , , , 1 0 O S J + M 1 >XQ , q j 0 0 w 1 j , M ,X1 9 0 1 9 q 1 1 1 9 9 >X! , w 1 q , 1 b Q T , 0 R n J 5 M b > M > b M 0 9 q A > b w 1 1 O > 5 , , 1 % 0 0 > 0 0 5 , 0 w 0 0 0 j Q A =XM 1 Y 9 5 > >XzXI , 1 > U M ^ T 0 , I Q > O 9 > w b > j j ;X&Xn S ~ q j 0 5 b j 1 w j 1 w 7 P M w 9 7 j 1 , O 1 1 J 0 5X=XQ A n Z 0 1 , 1 , 9 0 , n M , b I Z w 1 % , 1 0 b > j <X2 > 1 R U 1 0 q n A 0 A Z > 1 0 w 9 q 1 I J Z M 9 M I n n % 1 1 , > n Y M > 5 M w Z w O 1 9 5 9 5 b 9 > M 1 5 b I 3XX M b , 1 0 5 0 9 n =XU > 0 b 1 M b 1 , 5 ! U >X0 > , 1 1 5 I 5 1 b 1 1 M b 9 q 0 9 1 1 S A b 1 b w b w 1 , > 9 , , > , > X 9 9 1 w 0XQ > 6X0X, 1 U M D 5 o D *X. A 9 0 S ! 5XM AXD 0 w Z q w n S 5 5 9 1 > r n > 9 9 9 n B M ! 1 Z U *Xq 5 S 0 1 9 A 1 0 M n 0 1 1 M Y A , b w 0 w 9 5 A , 9 n 0 1 w M 9 9 , 1 0 0 0 j b 1 1 B j 1 1 1 9 1 Y M 9 1 % n b Q &X5 , Y ! O 9 5 1 > % % n q 9 >X, , Z S q *XM j 5 0 b > O 1 1 5 0 &X1 , ",
"1 1 1 1 1 9 w b ^ Y b % , 9 n w 5 w q n S Z n 1 5 O , 1 0 9 , n n , 1 *XA I U 1 M w 1 9 1 , M 9 9 5 > > , 9 , + b =X0 1 9 5 S sX=Xj Y q > 9 5 > 0 1 5 I ^ B Z 0 1 9 % , 9 w 9 > 1 n n Z 9 5 9 1 1 b M 0 1Xj > n 1 O ~ *X-XO 1 9 b 9 0 , O 1 0 A n 5 Z O 9 T 0 ! b 5 1 n A 0 A Q $X9 9 , j 9 0 0 0 9 n Y I 5 , 9 I 0 q 0 0 e M 0 0 0 0 9 5 1 n I 1 A Z w , 0 b w 5 9 w w 5 w q 1 % S w , % X S 6Xn > b w 1 q , 5 M n n M ! b w A 1 . X U 9 w n w I &X5 1 , 5 q S q , q 1 1 1 0 9 , 9 1 1 5 9 M <Xn   % M 0 w M q 1 > q 1 b 0 1 Q qXS n 0 1 S 0 S 0 , % 1 n 0 1 0 0 9 9 9 M 1 1 1 1 b w 9 5 q n 9 , w 0 1 9 w 9 Y 5 9 3Xw > , U 1 1 j I Z 0 B 1 % 9 ! 0 ^ O I A Z 1 > 1 M 5 J =Xn Q w b 9 B > 5 b M 5 9 9 0 9 Z Q 0 Y w 0 9 1 1 > 9 9 0 j > , b S 1 w 9 , 1 *XM S w 0 0 n ^ 1 n 0 0 b 9 1 , > 1 B R 1 9 R D o w 0 1 9 5 0 9 , 5 w 9 > 9 j 1 9 0 , 9 Q n > M A w 5 q n A 9 > , 0 > w > b q 9 M 0 1 9 > O j 0 b 1 +X~ , n Z 5 1 9 0 1 1 ",
"% 5 , w w 1 0 Z =X^ q Y S 0 9 0 1 n 1 w b w 1 w 0 R 0 w 1 q 5 9 % 9 % U M I 0XY S J M w 9 1 O , 1 1 0 , B 1 9 B S B w , O 1 q M w , 3XD O % A U w 5 0 A I b M U 9 1 9 9 9 q , b Y M b 9 5 ~ I M , > 0 , , 9 S Z 1 > S M j n > 1 0 1 1 1 q j , M j 1 M M ;X. M I , , w 5 0 w M =X=X% 1 q 1 1 n 1 , 1 R Y ;XM > 1 q 1 > U w , Z 1 1 b M q j j 1 > , Y A w 9 w 0 M w , 1 > 0 > , > 1 , . 1 5 , Z 7XI > 0XeX1 9 S M D w X Y Y X S 0 w M I ,XS NXn w M Z 9 q b M 1 1 1 1 % 9 0 1 , 9 0 M q S ^ % S I &X> M S , 5 q A 5 w 0 w 9 1 9 U ! n , n 0 j 0 1 b b > j q 5 X n 0 w 9 1 w q 0 w b 0 w 9 S 1 1 1 0 , b D 1 1 > 9 b M wXS , 9 <Xw 1 b , 1 > O 1 w 1 ^ Z % b T M U Y 9 5 1 0 9 = 1 O 5 , I >X, > 1 1 w w 1 1 w 0 n ~ 1 5 w b 0 0 w 5 A Q X > 9 5 w 0 w 1 w 1 M j , M Z w , M 9 w Y n q , 0 > 1 5 1 0 > 1 O 1 . ;X7Xw b b 9 5 9 1 5 9 , 1 b + 0 M 5 b 0XA % 9 j , % 1 , 5 >Xq o n *X9 q 5 0 Q w > , 0 1 1 1 w O w <Xj > n S 9 , 9 n > 0 ",
"9 , > 0 9 M 0 b A 5 M Q b U w 9 5 M M q Z R M q 1 b 0 0 9 w 9 9 M A w 1 , n I q n , n j b , n 0 1 9 1 1 ^ q 0 A Z 5 5 0 w 5 9 0 M , A j w O M Q % , O 1 3XS O w 1 , 0 q , 0 M n I Q Y , B j O . M w , b 9 A =XZ > 1 , w Z I O 9 9 9 , 5 n 9 , 1 , > b b 8XM . % 0 w 0 B w , , n 5 q n 9 S 0XS n 0 , Z 0 Y w O % O j j 0 1 w 1 1 1 M 0 , 1 5 w b 5 1 w n 9 1 b 0 1 9 0 1 U 1 9 *X5 > 1 M 1 5 j &XZ 5 D b > 0 R w U X D D T , 1 1 D q &X-XZ 5Xw b 5 M 1 0 M D 9 5 w 5 9 D T 5 S q 9 9 9 9 1 5 w n D > 9 Z M > b , , n Q M M 0 j 0 J S , b 1 w j 5 1 9 > b I M 5 M +X0 X 9 , 0 0 5 j 1 1 9 q 1 , 5 w 1 j b 1 M Z 1 0 M Z 1 b 0 Q n 1 + n > , 1 5 M + M J > 5 9 O w n b 9 w -XM 5 b w , 5 0 n M , , 0 0 9 0 j w 9 Q &XZ 9 1 > q 9 0 > w 9 > D M w 5 0 , 0 n , % , 1 1 n j q 1 5 0 j 1 j q q 1 b 5 w M A > 1 , 1 > ! w 9 M j > 1 0 j 0 1 w Z A 1 T w j I B > Z T U + 1 > R -XJ O n Q 9 9 5 q B b 1 5 9 , , 5 b 9 1 J > 9 Z j b 1 > > 0 n ",
"9 > w 1 9 U 1 0 0 Z J   ~ b 1 1 w 9 q M Z wXJ > 5 0 , 0 q 1 , b ;X! *X> + j w O n Z 1 9 Z > 0 B b 0 j 0 5 > M Y n 1 w j b n , 9 > 1 1 O , % 1 X , 9 % w 6X=X1 B fXM 1 b M Z D O 9 ^ % w Z % n b =XA 8XQ 9 M S b 1 0 n 1 5 9 1 1 1 9 , 1 > 5 b M b R > M S *X1 1 D 9 9 q S 1 0 1 0 9 0 > U <Xb w b 5 b w 0 q b , w 0 9 O w 1 9 e 1 w 0 0 q q 0 w 9 Z 9 1 9 1 1 b B w 1 , j w B fXA 1 9 3X1 1 b , 1 1 > 1 5 1 *Xw 0 w ~ M S S 1 , 1 5 5 , 1 O 9 1 Q &X+ , 1 1 q w 1 1 q 0 A I 0 0 j w 0 9 9 w A M . , , b j w 9 w 1 0 A 0 q I q 0 9 S 1 Z S q w 0 1 > 9 > w 1 1 % 1 , 9 wXU 9 b 0 9 1 1 , 0 1 1 M 9 % w 1 5 +X<X1 , n 0 , > 0 , A D O + U Z 5 1 5 Z M 1 1 1 9 , 1 0 1 > Q -XO q U b 1 , M 0 O % n 0 1 b , e w 2 Y M q 9 S T b 1 M j , , 5 M b > q j 9 9 n U 9 9 9 9 % 9 1 , 5 0 b 5 0 , j 5 M D O q S > 1 1 n 0 O 1 9 5 1 1 9 0 b b q *Xb S b 0Xn , + , 1 J Y I > w + I +XZ , > X 9 M M 1 1 5 q % b R Q % Z j 9 % % 0 n n S 1 1 w 1 w ",
"1 w j 1 > 1 O 1 b Y 7XO > O 0 9 0 n 0 % j M 0 w b 1 &X*Xn q 9 w B B R > > + 1 b 0 b 1 w , 5 q M , 1 1 0 q q , w M j 1 q 0 0 1 w 1 n q > S n O > w w 1 , Y +X0 S ~ , , Y b T , , M ~ 9 , 0 b A ^ wXb uXS 0 5 b 7 5 b I 0 5 9 0 1 j Q , D j 5 0 q 9 j 9 b B Q 1 1 M b , b 0 > b Q Z A 1 q n M T O B 5 j j 9 1 j > 0 I B > S Q w X , , 9 9 5 b 5 , 0 b 9 1 1 w % M C 1 M b 1 w B A 9 j w +Xq 1 + n > , > 0 Z O J S X 0 1 , A B n 0 M ~ b 1 q j , 1 b S w 1 > 9 w 9 w 9 w 9 ~ Q b 1 , 0 0 q w O S 9 1 B j 9 0 0 1 j b % , 9 % j B w 0 , , b M 0 q 9 0 0 w 9 b j q 1 1 > % U *X1 M M 1 1 1 b 0 1 , 0 A 1 B B 0 U ~ 5 9 A Z 1 1 , 1 *X^ w X ,XM 9 1 w M J 5 , 9 , > 1 b 9 1 T M + M M n 9 5 X j U 1 > > 9 > 1 w > 9 2 0 5 ! S M Y 0 0 0 Z > D 0 D 9 1 1 n 0 9 b 9 9 ^ eXY > 9 I 9 % M b , 9 I I 0 0 1 5 1 9 1 > M Z q 5 b n w 1 5 b q 0 C j q 0 9 b j , > > 1 1 Z 5 1 1 9 Y U 1 q 1 w w M w > 9 w 0 9 b eXeX> > Q A Z I Q 9 , 9 0 1 9 1 7 ",
"1 > 1 0 j w A A > M R I O M M 1 0 M M 9 , 5 5 w 5 9 ,X*Xn w 0 0 z q j w 1 1 j b > 9 1 9 b 9 j w 9 b w j j 9 n j 5 0 1 9 0 q 0 w 1 q Z 1 7X<X1 > T I + M 1 1 9 , , , 1 T B M 0 U Y Z J 1 > 1 1 9 m 1 > 1 9 Z +X1 , 1 5 0 b 5 1 w j z P Z q j j 9 1 1 w n M + O 1 b n 0 9 1 1 5 Y w b Z q 9 q Y 1 M M n w 0 1 % 1 > j M > , w 1 1 3XS 9 b 0 9 5 1 1 w > , b 0 , 0 1 > Q <X> 1 n n > 5 9 1 S M X , Z b 0 r 9 Z b 1 1 9 w % 1 5 5 % Q +X% w T 0 1 1 M 1 > , n 0 5 w 1 n 5 9 ~ w Z , Y B 9 9 n 0 > , w M w 1 9 w , q B M 9 5 1 , > 9 1 5 0 w 1 9 q 1 j > D 0 % S b % 1 9 j O , 9 9 0 1 1 9 q b 0 A T Y B Q *X1 , > , b Q ! b 1 1 9 Q A w 1 X , 9 Z w , 1 0 1 0 Z U w 0 S 1 % + O z z R q 1 1 U S M M w 1 1 9 , 9 1 9 1 1 M % w b M , 9 0 9 q w 0 9 5 1 w 0 A O 1 0 1 D T 1 1 M A 1 > 1 5 b I 1 , 9 1 9 B 0 1 9 , j 0 w M Z n 0 0 w 9 1 1 U &X, % 1 q 9 , 5 n n 9 U 0 O 9 , X Y Z % 1 w 0 1 1 1 n 1 0 0 &XM , 5 M 9 D 5XQ S 9 9 w w 9 1 2 ",
", M 0 1 n 0 n M , A S ~ O n Z 0 > M 9 1 Z Z Z 9 9 b w J 9 9 b 9 j w 1 M 9 , Z D , q T Z 1 X 1 1 w 0 9 b > 5 b q , 1 1 5 1 T w 9 w , 0 B D M 0 0 U U O , q 0 O , > J > b ! O 5 n 1 n Q q n 0 I Z > 9 w 5 , w Q M > , 1 9 w 1 9 9 q B >Xb 5 < 0 n w w > Z A > b b 5 0 0 1 w b > , 1 O q A j q 1 1 w S w b 1 w 1 w 5 w b w 1 O > O &X=X9 M B 9 1 1 w w 1 5 1 z > B B 9 U 1X1 1 Z n > 1 1 < >X*X5 > 3XC 9 9 w B U 1 5 1 1 , 9 w 1 1 +XM O M M j 0 , 1 w n % 1 , w 1 1 , 9 1 0 0 0 Y U I S 5 9 n n 5 n Z A , 0 0 b r b M , j ;X-Xb > b n , 0 A 0 , j R b n 9 > 1 5 9 > 9 U b 9 9 M 0 5 9 9 j M 0 U 5 1 0 A Z 1 1 O , > n M % 5 1 n &Xn 1 9 5 9 n M 0 1 q b 1 1 &XxXA O M U 0 Z I Z , w w 1 1 I 9 X U qXY 1 1 > 0 j j Z b b M sXZ 0 q 1 1 0 w 0 9 5 5 1 9 w 5 , 1 1 A q X 1 0 5 , 1 1 1 % , 1 o -X*X1 > ,XY , 1 1 > 1 > q q 1 Z w Y =XY 1 M A R 0 w 1 1 > n b J Z 0 , J n 1 1 n b > , 1 1 1 0 0 b 1 1 , O b q O w U > I 7XD 1 1 , 1 9 S S ",
"A B 0 q 5 1 , 1 j w 0 X , > Z b 0 9 1 > M I b D M 0 0 S A , M w b w 9 O , 1 0 A 9 1 w Z + J Q 9 w w 1 9 , 5 9 5 > 5 Z 1 9 1 , b >XM > 0 A 5 > q q M Z + % 9 w 0 9 1 w M w , 1 q > > 1 0 % b <Xj 5 I M > , M q , 1 0 w 1 w 0 n w , Q J B 1 m M 7 1 n 0 1 > 1 M w 5 q w 1 0 j M 1 9 , 1 5 5 9 9 0 0 > 1 w 1 w , A w , Y D o 5 1 q O 9 1 1 0 1 1 0 w n , M Y Q M Y &X, 9 , 1 M Y &Xn 1 , q R S n o , , w n q 9 1 9 , q n n , n M 5 % > o A j Y 1 1 1 I U B 0 , 9 1 0 1 5 1 1 O w M 1 > D n > 0 9 9 b 0 b w 1 1 0 n q O 0 1 n =XI > 5 R b > 1 5 1 D I 1 o 9 5 b 0 5 9 1 0 j 9 M M B 9 w j 9 1 9 0 ;XS , O q 1 1 , 9 B > M Z % , w O 0 R , 1 9 b 9 1 > b 1 0 9 ~ &X5 > A I n 5XT I 9 1 9 b 9 1 > 1 +XZX6XX 5 1 M A j w 1 1 Y D M Q 1 0 w 1 5 1 U B , B Q 0 , b q 1 Z A 5 5 1 9 1 j Z > 1 b , n ~ wXY O 9 5 , , 0 1 1 , , Z 0 0 q ^ 0X*X> b q A 9 n 9 0 5 > 0 b , M b I T X + > , , 5 1 0 1 ~ A 1 1 ~ 5Xw 1 5 1 Q ~ % 9 Z % 1 O I j o B b ",
"Q , 0 9 j n 0 9 1 Q j , M 0 9 w 9 5 j w > 0 > 1 Z M 0 1 1 1 S S n 1 w 1 0 9 1 q 0 1 , + O M sXM w A j 1 1 0 b 9 5 1 0 > 9 D w n 7XA , j n > , 1 > B >XM . ^ =X1 9 0 M Q q , 1 1 1 5 b 1 1 I ~ . b M n q 1 1 5 w O 9 1 9 9 , 1 9 1 0 n 5 S U Y T 9 b 9 b 1 b n A 1 9 0 q 0 w S 9 w U ^ 9 1 9 j 1 0 n 0 1 1 S n M w , 5 9 , 1 1 Z b 1 1 b 0 1 9 9 b M q Y w 1 w S Y 0 % % > 1 Z A > 0 9 w ,XM 1 9 5 1 b B 5 1 9 n 9 1 ~ lXb 1 B A 0 b S b 1 M q 1 0 J , O ~ <Xb 0 % 1 q 0 M B w 0 b 5X9 w 1 5 , w w 9 1 5 1 1 w 0 w O , b b % 1 , w 1 1 9 > 1 % j % 0 *XM X n 1Xn , 5 , 1 1 9 b 9 n b n Y Y j w I A M j 1 1 1 1 M B U A 1 0 U 0 , w Y 1 , 1 9 1 0 w q w 1 O 5 0 z , 1 n 0 b 3X^ B 1 9 > q 9 ,   I ;X1 > 0 1 q T b 0 M q , X , Q > B 0 > 5 0 9 M 1 S &X9 1 , 5 , b D 1 > Z b > J U X M *XT 0 1 9 Q b w , , w , q > w M Y U w 0 9 , , , M Q O 0 M 1 9 9 1 1 , + 1 9 0 M Z A > 1 1 n w 9 O &XuXI 9 7X<Xn , 5 5 , q n 1 + 1 , w S j , Y 5 ",
"Z A , b 9 5 j b 1 > > b n q 9 q q > M j 9 , 9 > 9 0 0 0 5 q 9 > 0 w 9 w 9 M 9 0 Y , 1 1 9 O 0 j 9 j w 1 1 0 q w , S Q Q 0 1X9 w 9 w > R &XI > 5 % R S J X 0 1 w b 5 9 0 5 , w j 0 1 9 A w 1 O O M b A q > , b ~ A 0 O 9 0 1 9 1 9 1 O w Q 9 1 A M % w q 1 Z w B q , 9 b b b % 1 9 S 8X^ , j Y n % 1 0 1 B I b > 1 0 9 w 0 0 1 j M 9 M Z M 0 5 w 0 1 5 q Q I > > w 5 , , 5 w 1 n Z + O j 1 9 D 1 , w M 1 1 , b 1 0 9 &X;X5 > P Q b 5XY S 1 1 9 w 5 9 > 1 &XKX&X% 9 , M B w w 1 w -XI B I , w 0 0 9 w J w 1 A B 0 , M 9 , Y b , 5 1 1 1 j b + 9 1 O Z eXwX9 , b 0 > 9 5 , 5 O b 0 9 w S <XsXS > 9 D q w 0 9 0 , 5 M w 0 M b =X0 O O 1 O 9 + b 5 Z A 9 % B &XA , w , j 0Xn + I M , O j M O 5 I M X + 0 A 9 j q 0 9 > n 0 9 5 M b 5 , , 9 q M M 9 j w M 0 0 q 9 X 1 0 , 9 O b % 0 w , w w O 1 % X j B &XM 0 w M 0 5 w b 5 1 n 9 0 5 0 1 0 ! 1 , 1 1 9 9 9 0 9 > w S B U b q Y 9 1 j w 1 1 1 M 1 1 w , , q 5 % 1 9 , , M > , ~ w 1 A ~ 0 ",
"q w M R Q b 9 b q 0 9 w U j 1 9 9 0 0 D Z 1 n U n > 5 0 1 , j M 1 1 q A 0 S , 1 w 1 > , b Z < , 9 q 1 1 0 q M n B R , n n ;Xb 1 > O 1 Z A w > 0 1 ! Q 9 1 9 , 0 J M 1 5 n 0 O I wXQ , M n 0 w w M 1 Z b 5 1 T q > J ;XM 9 1 5 1 0 q S q M > =Xb w 0 1 9 w 0 q 1 1 5 , 9 w b % 1 0 9 , 9 > q 1 5 1 , , > j w O Y M + j =Xb 1 1 , 5 1 0 b j n M q I J w 9 ~ A w 0 0 9 1 1 B Z A B , w b 1 > M T , 1 1 1 9 5 q j q 1 1 w 0 q , 5 j w Z >XR j 9 1 1 w 1 O O &X<X1 , w 1 M S n w b 9 1   w U O A 5 O 9 5 M q 1 *XQ 9 1 9 1 1 B B 1 5 Z 0 > ^ M X U ;XM w , R J q + % 9 5 0 5 , 9 A *XZ w w w 9 1 1 I 0 > b b 1 w 1 1 1 , O w % S w Z 1 , 1 9 M 9 1 M wX<X, ~ uX*X, 1 w 5 w b 0 > O 1 9 M D 1 o *XHXS O 1 I -Xn 1 1 B >X9 > , O M Z O b 9 0 M b M 1 > j 9 A B I n b I 9 1 w 5 > b 1 1 1 U I n A Y S 1 > M n 1 D n w b 9 1 b 0 b 5 9 0 0 , 1 O 0 j 0 0 w 9 9 5 1 1 9 , , 9 b U B 5 , 0 1 1 0 9 > 9 M , 9 0 9 1 q ~ n B q 0 O > I Z 9 9 n 1 ",
", Z +X5 0 Y b > M 1 n M M B 9 5 0 b b , 1 1 b <X8XM , M T 1 1 w 5 9 U U 0 > 5 5 0 w 0 1 0 Z b j n Z j 9 5 0 0 , 0 Z U 9 , 1 9 1 1 , 0 % w n 9 X 0 M 1 M b , 0 n w 1 % 9 q 1 9 U 7XA O w ~ 0 >XQ U 9 9 1 j 1 9 9 O S lXqX> 1 > w M 0 n 0 9 ^ =XA S 0 0 9 9 0 9 A b 1 j A 9 1 w 0 , R B 1 1 1 9 1 w b O 1 , X M 0XeX9 1 U n > 5 9 , 9 % v 9 1 n A 3XfXA 5 1 Q Z b 0 > 0 1 0 n M w n n =X0 , X 1 > 1 1 0 1 B M 9 < b U w 5 0 , M 5X9 , ^ A 1 + w 0 + 0 M , X > b 0 1 w 0 n 0 O I 0 1 0 n w , , 9 5 q b w w 9 B B 1 0 1 1 O j 1 0 O 9 w > Z 1 1 n 5 , , + o U A ^ 9 w M q 5 9 A j 9 9 0 w 1 1 0 O Q T > 1 9 1 1 0 9 9 , % S n R Z A w Z > 0 M 1 1 , P M 1 n q 1 9 w , > 9 n % n 0 > n I 1 M q 1 I M 1 5 > I n 1 q j >X5 1 O S , b 7 1 1 > , % 0 I n O O 5 b n > , J w Q =XT 1 U b 1 b n 0 j 9 w >XU > 9 9 > n j 9 9 b 1 Z M 5 9 w 9 j n w 9 q n w j , q , 0 w X , > 0 j 0 =X5 1 1 1 > 1 5 w 5 q b 9 1 0 w 9 , I A T r > 0 % U <Xn + , , ",
"q M , w T j j 5 1 1 w j 9 9 5 5 1 9 b b O 5 1 > 1 0 , 0 w 9 , O 1 1 J % q A 5 , U J 1 0 > 9 , 9 b j n n q Z n b 9 T ! 0 0 0 0 1 > b B S M Z 1 n w > 1 Q M O , 0 9 1 9 w 9 5 , w M q , 0 0 9 D 3XQ M , w 1 j 9 > + ! sXI % 0 0 n U M 0 w 1 0 X 1 -X> S 0 > 9 0 M w , ~ *X0 1 9 9 1 b S % 9 M 0 , U D O A =XM B w ~ D 9 X > 5 1 0 0 , 1 n ~ A 9 b B B 5 1 D 1 , b b 0 0 , , 0 > , b , J 1 b 9 O 9 0 w w 1 S wX*X= *XfX&X% 5 9 0 n 9 0 % o 1 9 B S > , 7XNX0 , 9 ! Q b 9 , D Q 1 , 1 O U w 1 0 1 b M B n > 1 j M B b Y w w b 1 > M O 5 0 > 1 0 Y M j J A q > 5 J 5 n S M j w 9 1 0 b w 1 w 9 9 9 > > 0 0 1 q 0 w 5 1 > q 5 0 > q B U M o 0 1 1 9 9 % % n 9 0 1 9 9 , I Z 0 b w 1 X D S 0 9 M 1 > 1 0 9 9 0 0 w , 1 , + j z q n P 5 O b w > 1 M n b S n O > o , 0 0 w J 8XM M M 0 0 n b , , 9 0 w b , 1 0 1 0 b w D M 0 q 0 b 5 9 0 5 Z Z S w 0 j w n 1 , 0 1 , Y S , J b D 0 1 0 , M S j 9 q w j M 9 1 9 q 1 9 Z n % , 5 > M Q , 1 n 9 ",
"n 9 n &X>Xj M 5 0 0 q 1 b n 0 5 q b 9 1 j 1 b T 9 , 1 w > 9 0 1 > , . O Q fXT . P ! 9 O 9 , 9 1 1 j O b n ^ uX>X1 w b ^ 0 w 1 1 , q q B n j 0 +XS % % 9 , , 1 1 1 0 M 9 1 9 Z w > n , 1 ;XY . ^ Q 9 > 1 0 1 1 w + X 9 , j , w w M 0 , M j , 5 9 M , 5 9 1 0 b 9 n j j A 1 9 1 > O b w 9 1 w j > Z 0 O n n w O % + Y Z Q w 9 0 0 9 5 Z n b w j 0 5 , q % ~ Y > w 5 1 1 q 5 9 , o Z n R Z S w b > w M 1 , 1 ^ J 5 J M 9 0 q , O 1 A > b 5 1 n S w b , n ,Xn 1 O n Q w 9 0 S 5X> , , M , b 9 9 , 1 , 1 M I w + > b M n O M I n Q Q M 1 S 9 9 n M w B 7 U 5Xq , j < , w 9 9 0 0 9 J 0 9 9 9 w M 5 w 9 S 0 M 1 w 9 , w , > , % w 9 I Q + 9 1 1 5 1 0 q q z q , 0 b b > Z Q S I O 1 > b =XI , . > b 1 9 5 ^ M , 9 J A 1 n M 9 > q 0 Q , Z B , O n D J wXR X O j , 5 1 9 1 , 5 1 > O T 1 1 1 q 9 0 1 1 5 1 1 1 w 0 D q j w w j w b 1 , 1 0 9 b 0 9 w n I I q 1 1 w <XU > 0 b R A 1 , 1 S ~ 0 1 0 9 Z n O 0 M n , w A M > n > T A   , , n w ",
"0 5 9 w X A I > D 1 , 1 b D 0 1 ,XS 0 1 b 1 1 D j > w q 1 5 ~ 9 , ! ^ b M U =X0 > @ > 9 1 0 , 1 , R U w w Z I Z > b w , , M 0 q 1 , 9 0 o b 1 Z M > 5 O 5 1 w q 0 w 5X=X9 Z sX7X5 > 0 9 I w , 1 O % , b U , > ~ xXZ o 9 I U M 0 , n J 0 > 1 > U M > 9 1 j n Z B > % n n n A D n 1 b 9 > 0 O 5 9 , 5 9 Y Z 9 D M 1 > 0 U 0 w U n w b 1 9 1 j j 5 0 0 0 1 > , , 5 1 q 9 w 1 9 1 9 0 w 9 b w D S O w 9 1 0 0 > = j 1 9 5 0 9 1 D b , w b , O J A , w D 5 , 1 w w > b 9 q 1 0 1 o b w M n Z O , j 1 , 7 M b j b 0 O 1 + > 0 w j 1X6Xw B M 1 9 A 5 1 1 0 5 S 0 , 5 q 9 n b b I w w 0 0 n , w 5 M A J b 9 0 0 n w > 9 0 , 5 R , n b A M 1 q 1 5 m n q 0 0 w M w 5 1 0 5 5 b S , > 1 5 1 -Xn O w n b U 1 1 9 q 1 1 qXsXM Z b b , 5 M M , q n > n 6X~ I q q 9 9 I 5 5 0 % 9 1 j w O 9 n > 5 > 1 w b % 1 > b U w > w D M q 9 n j M U 9 , , M 1 9 1 q 5 5 U wXM % % 1 D 0 D 1 0 M w w , 1 , A I > 9 q M M + R D % 9 1 > , 1 0 *XQ M q j ~ n B ",
"0 S 9 1 , 0 n , b , 1 b 0 9 M 9 J M 1 1 > > 1 Z 0 1 1 A 1 0 J % 1 S D > ,   B J J B 1 q 9 w > q A B M 0 w 9 , 1 1 b <X9 5 b 1 9 9 0 0 1 o w M Z T A B 1 1 1 n 0 > > Q ,X0 n R B 1 w 0 , O A 0 9 1 1 0 J w b , 9 6XQ , , 0 ~ n 1 q j wXq > > q > j 9 9 1 1 1 9 9 A b O % n n A 1 n J w D S n 1 J 1 9 0 J M M n Q 3Xq , 0 1 1 M 0 0 0 q 0 S 9 9 9 w 0 w 5 9 , S w z 9 0 0 1 q O 1 1 > q 0 Y R o r , 1 1 9 w 9 q M w , w b q > Y ~ R D O 1 + Z ^ A > . , n 9 1 q *Xb , j M w 1 q M 9 , 0 n U > S w 1 O A B Q eXZ X > 0 > q , 0 , q 1 9 O 9 J , 5 9 9 9 9 9 1 9 9 1 5 q 0 D 0 w 0 q b w 9 1 , 1 0 b M , 0 0 A Y Z 1 5 1 Q >Xb O B n I q , , 1 &XJ 9 5 0 b M 1 1 w M 0 1 w U 9 j w 0 S . o , 1 A &XuXU q w 1 0 1 w j 5 O 1 O T M 9 1 w b 9 5 w ~ J 1 & B D >XY X 9 q w > 9 , 9 b Q w 5 , 5 % 9 9 1 n 5 9 w 1 1 A 0 5 b 0 b w 0 w 1 9 > 0 b 1 9 5 0 5 w =X0 > O w 1 O X 1 b 0 , 1 0 5 1 n 0 U A j 1 , 0 A Z 1 n 9 > > 5 < ! 0 q R B A q M ",
"j 9 1 1 5 ~ 1 9 > 1 b b J j + 0 n B q M B 9 5 9 , 5 , % 5 1 1 9 j I 1 j n 1 > 9 S D 2 S T 0 j 0 9 , 1 M 9 0 9 0 9 , q , , 1 5 9 j q 1 9 , q w 0 b j j ~ 1 1 0 0 1 1 1 > 9 0 1 1 0 0 , w n , , n 0 o M Q , 9 A 0 , 9 0 b + b 0 0 1 w q + w 9 n j Z 1 O 0 1 , % M Z M 5 1 O , > > 1 j b >XqXS n D 0 5 A 9 % 0 0 1 T b 1 9 w 1 M M 0 S w 0 q w j 5 j , Z M S b 9 9 z 7 w > 9 w > > J > A w A n 1 q 5 1 w b 0 0 b q n w q 1 w 1 , n n 1 , 1 1 9 5Xn O 0 0 n M 1 1 b j 1 q fX7XM S q n > 1 B Z > Z j > Z <XU S n 9 % 9 D 1 , 1 1 0 > n > > w b , 1 > 0 b 9 O 1 , B A 1 5 b T j q 0 j j I B 1 , j 9 1 0 0 q 1 w 6X;X1 % O A Z n b 0 9 M b 0 > 9 0 ;X5 1 q b U , b ~ , , 5 1 > , 1 R U I 1 , T n % n w n M M Z j w 9 9 1 M w > b 5 9 0 q 0 5 1 9 w 1 1 9 M q q 9 5 , 5 n 9 5 5 , 1 ~ Q 9 , b O 9 5 0 b w 5 1 > 5 0 M 1 m R w , 9 9 n b 1 n M Y w 5 9 5 1 j 1 , q 5 , 1 e 9 % 1 b n 9 w 1 > O B S b 5 1 9 b b n 1 > 5 , 1 w 5 9 1 9 1 n M 7 ",
"7XO 1 , 5 w n 1 0 , 0 5 9 M M 1 1 1 M A Z > I S w A D 1 q Z > 0 M U b B Z >XU > 5 n O w w 0 q 0 1 B Z 0 1 w 9 w 0 1 1 n B q b 9 w 1 9 , , 1 , 1 9 b *X1 , 1 9 > 1 w 9 5 M b , 0 q n > Z ~ Z Q > 1 O b T D , o O n 1 0 9 Q A , 0 j 0 % 9 n 0 , n n S > J b , O D A S 0XU + > 1 > w , 0 1 A 1 w > < D 1 q 5 1 5 w 0 5 1 w 5 1 w w S b q 0 9 b q 9 , 9 > b b B 9 q q D D j 1 9 1 Q 6X9 O Z Z U 9 1 1 9 ;XZ 1 9 5 m Z 1 1 w Z 0 9 n U % w 9 0 M O O % 0 Y *XqXM w 9 5 1 9 S Z 1 1 5 , U 0 b , 0 M 9 , A ,XA 9 > S S <Xm % w w % , 9 9 0 M U 1 1 , 1 > 0 9 0 b > M w > j M 0 0 b j b b w 9 0 , , n 0 1 5 9 9 w Q Q O > , 9 % > 1 9 j 1 9 9 9 < 9 M B J q q 1 5 M ~ 0 0 9 > 1 0 O A S 0 T Y I J 5 w 1 , A 0 n Q J n 5 A ~ B 0 , 1 1 , 1 1 q , > 1 1 M q % W R & n 5 k B q 0 5 1 5 0 =XZ +XS D A 5 B 0 O 1 0 5 1 Y n w +X&XM 1 q D M 0 , 5 1 M 9 1 b 9 % 9 1 9 0 > 1 1 O > > q =X<Xb 1 n 9 Z &XS w 0 w M I 0 M w 1 5 0 9 0 0 9 > , w ~ T w ",
"M O 0 0 M j B o > 9 , , 1 n A 0 % > 1 1 , > b 0 I wX>XM M M , b n 1 1 w 1 n ~ 1 1 0 9 9 M 1 n A 1 n w q q 9 0 w I M M 9 b 9 q 9 9 > 9 0 o q , q M z U 2 0 9 , 9 n 0 q j w n q 0 0 9 9 > n w j % 9 9 > ,X! > 5 , b n , 1 M n 0 , 8XqXM I M q > 1 n S , 9 M > w ^ U Y I 0 + O J 1 1 1 1 w > q 1 % 9 B > 1 , b j w O 5 , n M 9 1 b R w M 0 n n A B 1 , w j 5 0 9 w 9 b >X&X0 > O T D S q 0 b A q 1 > 0 M ! , 1 n n U > b R , 1 1 9 1 , w S Y R > 1 J 9 1 Z S D n b M j 5 , 1 , w 0 1 M 0 0 0 w w , w j 1 9 1 j j n B q = , 0 b , 0 5 , Z *XM 1 1 0 , 0 0 0 n 0 1 , 1 1 n b 1 B M w 1 9 0 M 5 9 S D M 0 5 w 1 w n % 1 w 1 1 1 9 , , 5 q j k z < = 9 I M 0 > 1 j n n w , , 1 1 n b 1 9 9 0 q o U T R M 0 9 1 9 0 j 1 q b =XA q n 1 1 w J 9 w b % J ! 1 q n n 9 1 9 0 9 , 9 q 0 > 0 1 M M O B Z 1 9 O T n 5 9 0 w 5 0 M M 0 1 w *X^ 1 , > w T D A w 5 1 1 0 1 > 0 % w n 1 1 9 xX;X5 B Q 9 0 +XI 5 , 0 w b > + 5 j 9 9 9 9 1 0 9 1 9 Y n 1 ",
"% 1 M 0 1 M M n 9 I , 9 > U q ~ <Xj o > O 5 w 1 1 Z B 0 w % b b 0 0 1 > w w 0 , 1 w 1 w q b B j b 1 w n 5 9 1 1 0 b A 0 0 9 n U w 1 w 1 b ,XT X D M S j 1 9 > R U j 5 0 w A b 1 , n j 9 b R 9 > w 1 n 0 > O % J D 8XA 1 9 0 1 1 U Y b 1 1 1 M M w 1 9 M w 1 M 6XQ w o S Z =XY O q q 1 , 5 9 9 0 Z 0 1 9 , % 9 9 9 0 , M M > w M q 9 w w M 0 M q 1 , > b 1 9 9 5 5 9 &X>X+ % , q , , 1 1 Z 1 9 q 5 , 0 A M Z q q w , A Y 0 9 j O , 9 o Q A w U Z ~ I , 9 X 9 A w A R U M 1 U R b 5 O 5 % 1 5 , 0 > 1 9 1 M 9 1 ! Z 9 b 0 b Z 9 9 , 5 > I ,Xj ;Xb M 0 q A , , w 1 5 w T 1 A *X>X1 > M Z M 1 0 1 w w 1 0 n , 1 1 9 w 0 > 9 O , 2 9 m >X+X= n 1 5 P =Xn w w b A n M n 9 9 9 9 9 q w > 1 , J Z > &X&Xn w B q b A M 0 9 0 b 1 n b 0 &XA 9 n M S O q n + E *Xj q ;XB 5 1 , 0 1 q > , > Z 5 M + 5 M b 0 b 1 1 0 5 1 > 1 q n 1 9 9 q w , I 5 0 B Y n 0 1 w 9 1 9 n B b , I ! 1 1 B ;XP U D O S 0X9 > 9 , b b 9 0 > 1 0 w > , 9 Z 5 0 1 0 , 9 ",
"b I j 9 > 1 B I o A w > j ! J +XQ > . w Z % 1 1 0 > 9 w > O Z b > 1 1 b j 1 , 9 5 b 9 1 1 J A 0 0 0 b M D 1 9 1 M , 0 , w 9 9 Q 3Xj % > q Q Z w 7 0 D C 0 % 9 j ~ b O b b I 0 1 R 9 9 , 1 w 1 1 I B =X5 X M w 1 U Q Q n j b b 5 > 5 > 5 9 O J j 9 w b b 1 1 j 0 1 5 0 A n A 7 > , q b 1 1 9 1 M =Xn 7 O 0 > w 1 j M 0 > O 1 5 M b 9 Z b 0 1 1 1 n 0 9 A I n 9 9 7 9 w w O 1 w 5 1 1 5 , > 9 1 0 q b > > w I A 9 > , n M j b > , 1 1 j b 1 9 n q 9 + ! S Q q w 5 > j w j > M D 1Xq M j 1 1 b Z 5 9 0 , Q S > 0 A w 1 1 9 w 9 5 q q , , w j A M + &X0 1 9 1 J 0 0 1 q w 1 B A 0 0 1 A ,XA > > 1 M I n B 0 1 , 5 9 , 1 , 1 b , O O >XdXn 9 U j 9 B ^ n , q 0 Z 9 + 5 b w 0 w 9 5 1 9 1 , Y b 9 M Q n q n q S w 0 5 q 0 0 0 0 Y S 7X;XO w 0 w , 0 , U U I J 9 3Xj > 1 1 0 + 9 j 1 5 0 M n X <X6Xq 5 1 w b 1 9 0 9 S n 5 1 9 j > % b Y ^ n Z 5 J 0 > 1 w 1 , 1 S b X 1 w 0 1 5 0 A n S 9 9 9 O 1 1 1 , 9 > 9 % 0 0 1 1 5 0 9 1 1 0 Z &XqX",
"q 5 9 1 M 0 M , 0 Z 9 1 +XwXU 9 > I M >Xb 1 0 9 > 5 1 9 w b Z > 5 > 1 > j 1 0 1 5 J b > M 0 b q w M n M A 5 9 > w 5 7 9 9 9 5 P eX0 % O w q % j 1 0 j 5 q 5 1 , S Z M w j b 5 w *Xq 5 5 5 > 1 % A ;Xq S A I Q + > > o J b A U I Z 0 M +XM 5 % 1 1 1 1 , 0 1 , 5 7 j q 9 Y C 9 j 9 n M 0 w , 1 , J 1Xq Q A w w 9 B 0 O j 1 0 5 U q j ~ *X1 9 b Z n 1 w 9 M Z 1 1 j , 5 0 1 0 9 1 1 , 9 > 0 w >XY > 0 1 9 I +Xn 0 w w S n M w 1 0 9 9 w w q , , , J w 9 &XQ w b M w w Z M 0 0 0 n 5 Z q b ^ M n M A n + Z j > Q I w M ^ q 9 1 1 7 w q 1 O 1 M 1 w X 0 w w w Z > 9 q 9 1 1 9 b 9 5 0 0 A 0 j n 1 b Q D q 1 0 0 9 1 b b D , w *XM > q ;XW J D B o 0X~ % 1 1 1 B 1 w > , 0 9 1 O 1 M q 9 q 9 9 1 5 > b n 0 1 9 w Z n 5 5 M S > n I A 3Xn , w q 9 , M dX;X> 5 , q , 5 5 5 > 1 M b w 9 0 , % 5 b U > 1 , 9 n q 0 > A wX=X9 9 , 1 0 S w S q q > 1 0 , 5 1 w 1 1 M =XD w w 9 , b 9 q A 5 S M > 1 1 5 1 1 , O b j > w n 0 5 , , , 1 5 , S ! >X",
"+ 9 1 1 I 5 9 w n w 1 1 w q 5 1 b A B U 7 O 1 b 9 1 5 1 , Q R q 1 > 1 5 w 1 n w 1 , 1 1 b n 1 b M q 0 1 1 w j > b A n w w 1 0 , A 1 1 1 w > 1 , 9 > 0 1 1 w b 1 , 1 Y M b > , j M b w 1 , , 1 0 j w 9 n Z w , J U D M w 1 1 n b w , n J >XM w n 5 1 q Z w 1 q % B Y 1 1 S M 1 5 9 w w 5 j 9 1 , w M S I , *XM q 0 1 Z 9 9 1 j B 1 M I b w 1 S =XS , > 1 b n M Z w , > 0 5 , 1 O 1 w X > > >XfXB 9 I b w S Q n > j w B 9 O 0 b q w w w 1 1 1 9 5 Q M 1 I Q j b b j S b w 1 j 0 9 5 w Y I dXJ % j b w , 9 , I I R n n 0X5 1 , 0 1 + 0 9 1 9 w M w 1 eXQ b , 9 j 0 9 9 0 5 M 0 0 1 w 1 > O I R U n M n S , 1 9 w > 5 b M > X w w 9 1 , D A A w > Z > , 1 9 > 9 1 5 , , w 1 1 5 0 w 9 > q n Z 9 , 5 Y b 1 9 > B J 1 1 9 Z j , O n ^ D n 9 0 w w 0 9 *X! O 0 0 > 0 0 1 , 0 9 b q 7 1 1 j w 0 , B M > > w M w 9 , M U q 9 1 9 5 j n X j > > % n A 9 1 1 1 1 9 q 1 1 1 5 1 9 0 b w , M 0 1 0 9 9 n 9 5 O D *XD n n M , , > , 1 , 1 O 9 , , ",
"U I 9 > , q 5 9 , 1 0 1 9 5 1 b 9 j Y 0 0 q 0 n b 1 0 9 1 9 =XY , ~ 1 w 1 b M % 9 0 1 9 q I 1 I ;XJ > 9 B n j 1 j 0 Z n > M , 1 0 1 1 b 1 1 > 9 9 , 1 J ~ 0 5 5 9 q &XZ w q 0 n Z b Z , 1 0 5 0 n 0 1 1 % M B 5 +X! n q B 0 1 Z n b 1 9 Z b n b 5 S n B M M S O A A o Q U w q Y w 0 1 , 9 b b , , > M > q > , 9 w 0 J 1 0 9 5 1 5 1 b n 5 9 0 I b 1 j 5 5 *XA n , q 9 1 1 w b Z , M &Xz > A wXU A Y M + 0X~ % 1 1 9 M , 0 % 9 1 0 1 , 1 n w 9 9 9 9 9 9 5 w n 5 0 w w b n 9 5 Z A O U Z Y >X9 9 9 0 9 1 U wXY 1 9 9 b > 9 0 1 9 5 M w 0 9 w > > 1 ! I , 1 1 b w 9 9 > *XeXM 9 1 1 9 b M M I Z 5 O 9 w O 9 1 w 1 1 U ~ 0 b 0 , 0 q 9 n q w S 1 > 9 5 1 > 5 % 1 q , 9 w q w , , , 9 5 , b 0Xn 1 j 1 1 0 B 1 1 1 9 q 5 1 X M 9 > n > 0 w w 9 j , q Q , , 0 q b 1 O Y B 7Xb j D 1 0 0 Z w , n J Z > , 0 B Y q b 9 1 > , M b q > O w 7XS > O n -Xb R > A M , , + 0 B n 1 1 5 0 9 % A M 5 1 M b j > 0 q B 9 w b q w 0 j 1 1 5 , 9 9 O 1 b ",
"S Y -X9 q 0 , 1 j n 9 5 , 1 U M > 0 +Xw > 0 1 M w 9 b , 1 , C D Q D n &X1 n 5 0 M 1 9 , D w 0 ! I b 5 0 Q R w , , j M 0 n M 0 > 5 1 0 1 % , 9 O X 1 Z fX*X5 n A w B Q B 1 w 0 M n , 0 b w 0 9 0 9 9 , , 1 I J , M Q Z q B w S B n 5 w 0 5 1 0 A Z wXQ O q n w , , > M Q +XD b 0X0 > 5 9 9 O 1 1 , 5 b n M % ,XY n 1 1 5 w 0 9 5 1 n 9 9 9 0 5 % O J Q A n Z j A , 5 0 0 > 0 q A O X Z b 5 , 7 J S S 9 1 U 1 , 1 1 , 0 1 w > 1 0 5 1 1 9 j 9 5 j n j 5 > w Y 0 1 1 , I D 5 1 w A w % > D T I j 9 w w 9 1 M 6XU % q 2 9 0 5 , , 1 w M 9 9 1 9 0 0 9 1 Z 9 > 1 w M 0 0 1 U Q 0 q 9 9 1 M 9 1 0 . 1 > M 0 1 1 1 1 9 w j 5 0 w 0 1 9 b b 5 b b 0 5 0 1 b b 1 , 9 &XQ n w Z 9 , 1 > 5 , 1 % 5 b n , M 1 1 M Y 9 > 5 b Z b , ^ R 9 A , 9 > q n 1 1 A 1 b =XT , 0 9 1 9 0 &XJ b ,XI 0 q q q > b 0 w 5 9 , +XU *XU 5 , 0 1 1 J M 1 9 9 q Q b 9 1 1 0 > 0 X > 5 1 5 Z Z b n A 0 0 w 5 , , 0 1 Y U M % , 9 M n 0 M w , r w j 0 b 9 , 1 0 0 , 0 ",
"9 b U 0 D 9 n M M A w A w > Q j 1 ! M 0 Z B 5 w % 1 0 M 5 9 % q n % 1 > 5 9 , A M 5 5 1 9 , 1 w b 1 1 9 A ! 1 9 1 9 I ! n 5 9 0 1 1 9 w n 0 q Y T % 9 8X*Xj U Y + Y 6Xw 1 1 9 M 9 1 O 1 0 5 1 1 1 0 b 0 1 w q 1 b 1 9 n q 1 b w 9 M 9 9 n Z , I R R 5Xw 9 9 0 0 1 M 0XQ 5 j , Z , 1 9 1 1 1 M n w 9 0 , > > *XR , 1 1 b w 1 9 9 Y 8XA 9 , 1 q 0 M M J D 9 1 9 n > > 1 j 5 % I *X9 q 9 1 j w 5 Z j n I 1 > 9 , 1 1 1 > , 0 > 9 j 0 9 1 1 1 , 1 1 S 7X9 9 0 5 w 0 j 1 9 1 q 5 0 5 o M > 0 n , 0 w w w n % Z Y % , b j 9 w 9 Q D <X> B m 1 9 9 S , 0 q ! q > > M n B 9 w 9 1 > 9 w w 9 1 o J <X1 , O *XT D j 1 J 1 1 O % w Z 5 , 9 9 w , q I 0 9 9 q M 0 9 q n A , w b 0 9 0 , 1 9 1 5 1 , , Z M 1 , q D 0 D *Xb j I 0 9 w > 9 T % 1 0 5 9 % T J 1 b ,X&X1 0 1 0 S 0 Q S Q ~ 5 w 9 1 % % 5 w 9 9 , b *XM n 1 B Q 9 1 > , > w 0 9 > A M > O 0 B 9 1 3X-X1 , 5 eXqXO 0 U M 0 9 9 b M 9 q n > 1 q 5 1 1 0 q O 1 9 9 1 > 1 U B I 1 w 1 0 b ",
"j 5 1 1 b M I wX0 1 j M w > 9 1 M -X+X0 Q <X1 1 9 5 , , 1 % , j b D , n ,XD j 1 0 1 w 9 9 1 0 q w 9 w 9 , % 5 Q Z j S Z A 0 , j 9 , 9 w B 0 . q J 9 , 1 S J B M > I B O 1 , 1 0 9 9 0 > 9 0 0 % 1 b j 1 w 0 M 9 , 1 ! M , 1 , A Q w , 0 Z A O O M Y Q b 5 0 0 9 5 w 6X~ % 9 1 1 5 w 1 % 9 9 D 5 9 1 9 9 9 0 1 Z 9 , 1 1 M b 1 > Y -Xb q 9 0 > Z w 5 j X , , q 9 9 1 5 , 9 w B b 9 9 9 , 0 b v 0 w b q 1 w 1 j q 1 > > -XT w b M 9 5 > > 1 1 1 O 0 D w , M , > B I % , 0 j M 0 1 Q J 0 w 1 1 , 0 n O 9 b 9 M &Xb 5 w 5 1 > B +XS B >XB q q j 5 , j n M 9 9 w +XY *Xb 5 0 5 1 w ! 1 , 9 9 T Q 9 1 1 0 5 5 9   q 1 1 5 S Z n Z j 9 q w 1 , 5 9 q ~ D 1 % , n Z M b D 1 9 w b j 0 w , 1 b > B *X5 1 w 9 5 b n =X9 , , > 9 , 9 9 1 w , , 0 , > 9 9 > D ^ 9 1 9 M 9 , q % , 0 5 5 5 w 1 1 9 1 w , 1 w Z w 1 5 0 M ~ 9 1 0 1 9 Z , 0 A D w , 0 9 Z Z X 6XfX, 5 , Y qX5 > 0 1 5 9 0 0 5 b 0 1 1 1 , 1 1 > 5 b % 1 9 q w > 9 Z ^ +X1 9 1 9 b ",
"9 0 A 0 9 &XI >X+X1 w 0 5 0 , U 6Xn b 9 n A O 9 0 5 , 1 S q 0 5 5 1 % B 7Xb 1 > 0 Z 9 1 9 q >X~ 9 1 1 5 w w w S T B 0 , B 5 , > q 9 , w &XB 5 0 > 0 w 0 0 Z 0 U w 1 1 1 1 , 9 , O , > 1 j 9 0 9 9 , 1 1 , v >XZ , w 5 5 w b 1 0 5 9 0 9 b . w q < I , j q 0 0 n 5 q U , , b q 9 w 1 Y n >Xq b A 5 1 5 I 9 9 0 Y M O > M b n w 0 0 1 O 5 0 b 9 9 + n +X1 , + &XU M w 9 B 1 5 o > w M 1 1 5 0 b > b A 0 9 0 0 M 0 9 w M M 1 0 M j 0 0 > 1 9 9 1 1 O 1 n b 5 , j J 9 I Y 0 B S w 5 B + n S O 9 1 9 9 > Q B 9 n 0XZ 0 w 1 M I w 2Xb 1XU 9 w 0 1 % , 9 0 0 5 , U &Xn n 5 D j 1 > 1 , 9 w 5 9 1 A 1 1 > n 0 > b ,Xw 5 , A sXD X B S b 5 0 9 M b 1 Z 0 , w j > 9 0 b 1 > 9 1 1 1 , n B Z b q 1 0 > > , R M + > 1 9 w 1 < 9 1 w , 0 M 1 9 1 n 0 w , 0 , 1 w 1 1 q >X1 X 7 5 b A , 0 % w 1 > >XZ > 9 b M = j 1 9 1 9 n q > 9 , 9 q j 5 > % O 9 ~ b , 0 w n b 1 j b 1 , , w 1 1 M n 0 5 9 q b 9 M q 5 w 5 > 5 O 1 1 , n 0 0 A , 5 % 9 X , w w ",
"1 0 Z M X w Z I Q 1 5 b 0 9 > R sXM O 1 , 1 9 9 O , 1 n b 1 9 7 9 1 0 1 j b > 5 1 q A w > b >X~ q q 1 9 9 S 5 M o 1 O w 5 0 1 5 1 9 1 M D w n 0 9 5 w n w w b q 9 0 > w w 1 , > B Q M 9 n b 1 1 > , , 5 , 1 I Z , M 1 1 w Q 9 o 9 q B 0 , S ! 0 0 < 1 , q n , , 9 0 Z U M 1 w w 1 > Z Q Q 0 *XI 0 b n j 1 M n b 1 q 5 R R ,XM 9 1 9 , j U w , 5 9 U &X0 5 % j 0 w 9 X n 1 1 1 b M M A 0 9 0 0 1 1 9 9 b Q S , > 5 M B q w S 1 1 0 b 0 j 0 , 1 w % T &X, 1 0 9 q b D *X1 1 1 9 9 % 0 5 0 1 O 9 9 , 1 b > q T U 0 > q b w 1 9 1 5 w 1 q 0 5 1 1 1 9 w 1 O M Z 9 5 9 q U R O w 1 , M 0 9 w B A > 5 1 M Y w 9 KX! + 1 b wX>X+ 0 0 5 5 j 1 q 0 b , 9 , 1 1 1 , , n > 1 9 5 n 9 + A A 5Xw , 1 , , 0 B A 5 0 9 n 1 9 w q 0 b w j w 5 0 5 9 0 > Q ^ 9 9 9 , , 1 1 0 w > n S =XX O , 5 , 5 1 0 b 5 5 1 0 0 O D 9 > w > 9 > , 5 j , O % D D 1 n w b b S 0 > 1 w w q 5 b M q 5 9 , > 9 w I M , 5 M A 1 D n j M 0 > 0 J 1 1 9 U , b M , q , 0 Z ",
"9 b w % j O M I 1 b q 0 0 n , M T > 5 b w 9 w w I A ! , B n 5 5 j B > 9 M Q 1 O 0 Z 0 w j 9 b > 1 9 b 0 9 , O Y B % O B &Xw M , n 0 9 1 X 1 w 0 , 5 w j 0 , I w 9 5 w j n 9 0 9 ^ b M M M w 1 1 > 0 1 , 1 > + j n 0 1 9 S j M Y j j U M 9 I 0 , U , 9 9 5 b > I R > b 7XI 9 b , w S 9 3Xq ;X=X9 0 0 5 % > 9 5 0 1 1 M -Xn J 1 A n 0 > 1 9 , j 9 0 1 S 9 , , n 9 O j Q 5 1 , A qXM O D I w 0 q 0 b w 1 A j > M 0 1 9 0 n , 1 1 0 9 1 , n n w 0 w 1 0 , , 5 Q 9 1 , 0 0 w 1 5 , 1 0 1 q n 9 1 1 M 9 5 1 w > n q 5 1 A &XX > w > M n , 1 , n X b -X5 1 9 M 9 0 b 1 1 5 q S , 9 1 , w w 0 5 1 % , M U 1 0 q 5 Z n 0 j 1 j > 1 5 , 9 B 1 w 1 9 j j 0 n 1 1 w 1 1 O 1 5 > w 0 0 b j 5 1 1 O , 1 9 9 M D X 1 9 S 9 1 q j 0 , S <XR > 9 9 > + 9 ! &X9 , b j > 1 1 1 + , ^ ~ 5 O Z Z > , b B 0 1 9 , , w z b O > 1 O Z M w 1 Z 0 9 , I 7X,XO 1 b n 5 &XM , j 1 5 5 M +Xq , b , , 9 1 w U ^ j , Z ~ 9 1 I T ^ M 0 0 b 1 1 , 0 , % 0 n =Xn 9 9 ",
"w 1 > J U 5 , 5 > 1 n w > 0 1 M B D 1 9 b 1 > 1 U ~ A n +XM q w M 0 0 q Z n 0 1 n I +XQ 0 5 0 1 , J Z 5 2 , b 7XI 1 1 w B w S   n w , 1 q b J M q 5 9 b , , w j 0 B T b > 1 0 Z Z 5 A 1 5 q b j w w 1 > w 1 9 +Xb % 9 1 0 w A 6Xb 1 9 1 9 > O 9 q 1 > 9 1 1 > n q 1 S ! b > w 9 b 9 1 9 0 w w w w 9 1 , O 1 b 1 1 w M j 0 9 9 Q ^ O 9 1 , n w 1 b M T 5 1 1 M S q b KXW % 9 b lX=XX b q 5 9 0 0 j j n 5 , , 1 1 1 , , M 1 , 0 9 j 5 % J T ,X5 9 1 1 > 9 M I 1 1 0 q 9 0 j 5 j q 0 5 9 w w 5 9 9 0 &XB w 5 5 > 1 5 , M 9 , 0 Q I + , 1 1 > 1 1 n b 1 9 9 b + 1 M > 5 w 1 1 O 5 5 w % > = J 9 q n M w j B 1 1 1 w w w 9 n b 9 9 1 9 9 0 n T 1 q 5 I q q I 9 n w 0 , Z b 5 1 U M , n , 1 % 0 > + 1 Y J > U 9 M w 1 5 5 9 T 0 , q 1 q 0 9 1 I J w 9 9 1 1 0 % 1 > j % j > w Z S O % Y I 0 , % > > 9 0 > 0 j b 5 A b B 1 n M q D U &X*X> 1 0 . 9 I A > 0 1 w 1 J I b 1 e 1 j B D 9 S Y J 1 Y n b , 1 *X~ % j > b ~ 0 q 9 b b 0 9 B > j 0 ",
"U w b Q 1 n Z 1 0 1 w 0 > Y M , J sX0 w 0 1 M n A ;Xb 8XS 9 n 0 1 > , 9 w 0 1 , >XT B Z j M 0 1 > q 9 1 9 b 1 j b 1 1 1 b > % U w 1 9 1 >X~ , 0 R B 9 9 j 0 9 1 n T q b 9 1 q w j 0 9 r 9 0 0 , 0 D 0 0 w 9 b w = 1 S b 1 1 9 M w 9 1 1 1 5 q 0 b 0 1 > M q > 9 b > b B 0 5 n -X+ O b % 0 M , 1 1 w O 0 *X1 9 1 M j b n O w 0 9 U 9 0 0 > 0 w 0 0 b > O M I 1 j 1 0 Q B 9 j 5 M 1 1 1 > 0 A 9 w 5 0 b 9 b b 5 1 j , 5 > 1 9 > q w q w n 0 q 9 O , 1 9 w S M X 0 q A 1 1 q n 0 1 S <XJ O q > 1 X b *X=XO 1 M 0 1 1 5 , + w -XY 1 , B q > 5 B w 9 1 9 , 1 w b 9 1 1 > 9 M B 5 9 A 1 1 1 ! dXZ O w b 9 Z Q 9 0 w 1 0 9 I I 1 0 , 1 , 9 1 M ,XA > q ! n > S A Q A w 1 S 5 1 % 9 9 + q 9 T J w 0 + Z +XZ D >Xw T , 9 9 > 5 % 1 j ~ , 1 , <XZ O % 1 1 , 1 , 1 1 q D &XB 1 9 w 9 O , J >XU % 9 M O w 5 1 9 b Y A , > b Q , A j > M m R D , 5 1 w w , B 0 w 9 w 1 M O % 1 , , > n Z 1 M q X 9 ~ 5 w q 1 &XZ 5 n M *XR 0 , 2 9 S Z M % , B j ",
"0 1 0 + > w w > , 0 > , 1 Z % n R Y w , 9 0 b 0 1 b w M w 0 9 9 1 > , n 1 1 1 B M j 1 9 M &X0 1 1 > 1 B 1 9 j J Z O , 0 Z Z % qXzX1 > 5 5XcX> 5 M 5 9 w 9 j w n 9 1 % 1 0 1 > > b 5 % 9 0 q 5 X B D <XI 1 1 5 % 5 q M b 1 5 0 1 w q 0 9 b w , 1 b 5 j 1 q , I n 0 5 , O , 9 1 Z q > , Y Q > > 9 , 2 > , D b 1 1 w b > , A > > n 1 , > , , q , > O n 1 5 M M j q A 0 > 1 w w 0 1 j n 9 9 5 9 5 w j Z 9 0 5 S 9 n S , b 9 1 > M b 9 9 ^ j 5 q 1 1 > 9 % % 1 U M > M 9 b w 9 0 1 j Q w 9 0 , b 1 , w T D w 0 1 , 5 5 > % 1 9 9 b 1 w U n O 9 ^ S 0 > > > > n 5 1 1 w 0 q S M q 0 M n Z D +X-XS X 9 1 % M Q w , 0 9 0 q Q J 5 5 w 9 M M 0 j S ~ 5 M U Z 5 > M 5X0 9 9 > I Z 0 w 5 b 9 1 D 9 , q 1 b S A M q 1 , w 9 1 U q 1 I R 0 w 5 5 ! Q 1 O 1 9 1 1 1 A Z 1 U w D n A 1 w 9 > Z M 1 > D b , w q 9 w Z q j 1 w 9 q 9 , 9 w 9 n < 9 > , I uXR 1 % <X6Xn % j 1 , S b 1 1 1 1 1 0 1 5 0 0 1 % 0 T j Z B 1 M q M S w > 1 9 n J U 1 , 0 9 ",
"1 1 1 9 q 9 b 1 , 1 n 9 > 0 9 , T n 0 , Y D   1 w X b 0 1 1 9 w O S A > 9 r M 9 M 1 9 q 1 M B , w , 1 M 0 0 b 0 > 1 I w q b > S +X1 q 1 b A , 1 1 1 M w 0 5 0 j w 0 b 9 > w 1 , 1 1 5 1 9 j q 9 w 0 S 0 1 > 9 1 q M D + 5 0 S q 5 0 n w 0 n >XT > 0 1 1 O 0 &X~ 1 1 q 0 1 9 5 > > 1 =XQ 0 O n 9 1 , n n 1 1 1 1 1 9 b q 0 , > , b b , 9 A 1 1 1 Y qXZ > 0 n 9 A R > 9 0 9 q 9 S J 1 0 9 % , w 5 Z >Xq , 0 Q M > R J T Z 0 5 U 7 5 > w 5 > n , Y Z M 5 X I ^ B Y =Xb I , 5 , > 1 1 O M U O , b ;X1 1 , 1 1 , 1 , , 1 w J ^ 9 5 , q 5 > 1 Q *Xn O w 0 1 j 1 1 1 n Y j r O U A 9 T , 0 Z J =Xw 5 1 , 1 9 5 M 9 9 q j 0 b % , 1 1 O 9 S q w Z 0 X U Z 9 n O M Q 9 A 9 Q &Xn 1 1 1 M D S 1 O , 1 0 , 0 1 0 w 9 , 9 > 0 D j 9 1 > 9 q A B Y M , , B q 9 9 , M n , 0 1 9 M 0 > 0 > S wXI 1 M b 0 j 9 5 1 9 n 1 w b n 9 9 1 5 1 q q 0 q 9 Z 0 j S 9 1 > M *X5 , Z 1 q 6XB O 1 9 5 9 w b 1 b J w , w 5 j > , , 1 5 9 w , 0 1 0 , Y J 1 b 1 9 ",
"9 b q 0 , q b 0 0 9 0 1 A b w 9 % > , 1 b S 1 > , &XZ O O 0 > 1 O M T 9 w 0 M 5 O w j + n b 1 O , , 0 9 , , , 0 , j S b 1 M n 1 , 0 n q 9 1 n q 1 1 1 0 9 b n 9 j 1 A 0 9 M 5 w 9 1 , 0 b 0 9 Z S O 9 , O , 1 1 > 1 T U o w 0 0 q 5 w 0 5 Q A j 9 , q 9 > 9 S S w 9 w 1 5 9 > > > 5 0 n 1 9 J D + 1 U M b % % , , w 9 0 O w w 0 U w w 0 n 9 M M &X>XJ o 9 5 > D Y b , w 9 1 n Q U , q 5 0 M q 0 b J ! 1 A Y M > 9 A >X9 0 w % J n w 9 0 9 1 9 Q 5 5 n , Z A A M w 9 1 q 5 0 I 5 1 T Q b q % n =XS o , 1 9 , > 5 S w j Q b M M B 9 q 9 > U w 1 9 U 0 5 j 0 0 M n Z b 1 1 0 q 1 > n , M 9 z 1 > 1 <X5XM > M 6X! 1 1 w , w M 1 , 1 1 1 9 9 9 1 9 5 q + A b M D 1 M M M D J 1 1 0 0 n Y Z O 5 9 w > , 1 , 5 > Z I 1 D n 5 9 1 9 w 5 I Z n n , 9 0 T j % 1 n > O , , M I 5 1 z w ,XQ S , b b n 9 > w 9 1 Z S n 5 5 9 9 0 , 1 1 w b z 1 I M 1 > j , J *Xj % 5 0 9 1 n 9 1 w q 1 5 1 5 1 0 5 A I T B Z 1 1 1 q > Q M D &X, w 5 9 j 5 1 0 0 ",
"q q 9 J &Xb O 0 1 1 o S <XT O 5 b 9 1 1 , > O D -XU 1 , w 1 2 , Z 1 1 5 1 1 5 j q b 5 1 > 1 b q > M n % > 0 ;X>X% w q M 0 Q 0 1 n 0 5 w b Y q 5 0 1 > 9 0 w =XU > 1 I S , S D Y U M % A M , , 1 b % b w M A w 0 X w &XJ A 1Xw Y 5 1 5 > 1 w , > T > 1 w ;Xn 1 9 0 , , , 1 , 1 q Z Q 1 , 5 w w , 1 A 5XS o 9 9 O 0 1 1 1 Z ! b 1 , U S 1 U 0 0 Z Z -XM > w O 1 1 M n 0 9 w 0 j M 1 , 5 1 , 9 U w M A 9 O ^ D w j O J *X5 A 9 ! ~ M 1 1 w M Z M , > O 9 1 1 w 1 B q 0 , 0 > w S q 1 w 1 9 M b Z Y M > 0 B 9 1 9 1 Y w 1 0 , b n 9 5 5 , Q ,Xj 1 M j w 0 9 5 5 q q 9 0 j n 0 9 5 1 0 0 9 0 1 j b 1 U J 0 > 1 >X^ % n b O ^ >X1 > 1 0 5 9 M 1 1 I j 1 , b 9 1 1 5 1 1 9 0 0 , 1 9 9 M R 9 w 9 1 , 1 1 q , , 5 b 0 j 9 Z 0 1 b 9 w 1 > , , w 5 w b S + B J Q 1 5 I , n M ~ w 1 0 j q 9 1 1 A J U 0 n 9 , 1 n + 9 5 5 9 5 1 b b n j M B 0 1 r Z 9 1 n T I , 0 U q 1 , 0 0 > , , 0 1 X b <XA 5 B J w 1 9 5 , n 1 9 w A w , 1 5 q q 1 2 j 9 ",
"q 1 M R J n , 9 0 > + M I A , 0 w 1 , 1 > , > 1 Z w , j ! 0 O b Z Z 9 > , % w w 0 > 1 q > U A b 1 w b n b Q -X,X> % 0 , 1 ~ U O 9 9 0 9 I ^ w 1 w 1 w w 9 9 S ! B 1 T A 1 1 0 ;XA , 5 0 0 B 1 q 9 9 , , ~ D % M 1 w I A Z n 0 9 9 0 1 Z j O A ~ A w > 5 ,XU , o > 9 > , 1 n j 0 Q Z S j n 0 0 5 % T M 9 > S b 1 n q 9 n Z A b 1 9 n w 0 > q > M j z 5 = 1 =X3XC + b &XU 0 1 w 1 , n 9 > 1 > , 0 9 1 1 , 5 w X U z M I > S j I Y A , 1 5 w M ~ b % 1 w 9 % 1 9 1 0 , Z D % R w 0 9 1 5 w w ~ M M w 1 , b I 9 > 5 9 , % , > S M , 1 b M 1X! n 9 b w n 9 1 w 1 0 I b Z 1 9 1 w 9 > 1 0 M j b w Q 9 1 9 w 1 ~ A > % 0 w 5 b M > 1 n 9 , 9 1 1 1 0 w ~ B T 0 q > 1 w 9 n Y 9 =Xq 9 w , M 0 9 1 1 1 9 , j 5 1 O <X~ > 5 9 , 1 b q w Z 0 0 1 , 1 , % 1 w I &Xo , 5 9 > b M S > , 9 , 5 9 1 , 1 0 n 5 q 9 0 1 O 9 0 0 b n 1 q 9 b I b b A w 9 M +X1 q 0 ~ S 1 0 n A 0 1 q 0 1 > , 1 + A T J w J M w > 1 1 9 , Z q 1 1 O > 5 1 , 1 0 q > q 9 ",
"1 , 9 q X j M > 1 Z Q , w 9 9 1 1 , 1 1 5 5 J A > 1 1 j 0 > 1 R <X9 % 0 , 1 1 1 1 1 S D 1 9 5 Q 5 Z A , S M &XQ , 9 , . 9 5 Z 5 w 9 b 9 Z 9 9 1 1 O 9 S D 5 P Z > M Q 0 n > w &XM w q M +XU 1 9 1 Z D M 1 % > , 1 1 B 9 M 0 9 , 0 1 , U M 1 w 9 9 w n j I A > 1 M 0 5 0 , R M 1 q 1 b n w 9 5 1 A 1Xb , M M q w 5 0 1 j n 9 w b b 1 e 1 1 0 9 q 0 5 9 j , ~ R 0 , 9 8X=X+ j b > ^ <XO 1 1 0 9 q b 9 9 U w > 1 b 9 5 1 5 1 0 5 0 0 > 1 q 5 J W 7 j 9 1 , 1 1 0 , > 0 0 9 j q M 9 9 w 9 q , , , 5 w 5 w I D X A U &XX b n 9 n J I 1 w w M 0 0 1 0 S D M 9 n , 1 j j , 1 9 9 1 1 w z z b n b b 9 9 b 0 0 9 Z Q n > Z Z 1 , , w 9 1 1 1 0 O X ~ Q 0 0 Y S 1 9 0 > j 0 1 n B S 1 1 9 w q 0 , > 1 1 9 b 1 0 > w w 5 9 0 1 1 w q 0 b B 9 1 5 5 1 9 D n 1 X % 0 9 , , 0 0 1 > 9 1 0 1 1 w 1 q 1 0 M D b 0 w > , D S j 9 0 1 0 0 0 M I 0 Z 1 M Q , 1 b b w 1 , n M w 1 5 5 9 9 w 1 , 1 w b > O M T j , 0 U b > M 9 , 1 , A j b b 1 9 = M , 1 ",
"w M > 9 S ^ B w + S <Xn o + 1 , , > 1 w q A Q U n b q q 9 , 0 &Xw 5 w U O 0 b 0 9 D j A 1 9 0 M w 5 1 0 1 Z q n > O Z 1XY , 1 Y Y q 1 9 5 , 1 0 1 1 > , 9 w 9 1 > 1 S X M A q I 9 w B Z Y S 9 , 1 9 M S U , 1 1 q , 1 , 1 0 0 q A > S b 9 0 1 1 0 5 Q A A q , 9 q D q , 1 > , > > , M A , , 0 b =X>XZ 9 M 9 j 9 , 0 5 9 J q Z 1 0 5 w 1 > 1 w z n 0 n Q 0 > 5 9 1 S A 1 + w q , M M , 5 j 9 , 9 0 5 1 9 M ~ b Z b 0 1 1 w 1 A I 1 *X5 0 9 1 A 0 9 , 1 , 9 1 M 1 , , 7XD > 9 w 1 1 Z 5 M b 9 5 1 1 9 1 1 5 9 &XQ X , w w 1 b S J O 1 0 > j 1 5 1 5 j w 1 b 9 9 , % 5 w 0 M b 9 9 9 I B j M J 9 9 U Y , q B =X0 9 0 S w 1 w w 5 > > 1 > 1 S U T w A w 9 1 > 0 1 w B 1 1 1 o > w % 1 0 5 5 9 I , 9 w 9 , 1 Z 1 1 S n w 1 9 j w 0 b 9 w w q > &XdXJ b , 9 , 9 > > j D Z 1 1 1 1 > 1 1 1 B Q q j b 9 9 q A j I 1 9 1 q 0 1 1 n n Q ^ 1 9 Z w b n b D 0 1 9 9 w 9 O 1 9 b 0 0 1 j 1 1 , X =X<XX A Y 1 Z , 9 1 b U n O Y U ~ n M w > B 0 0 ",
"9 Y q , M 1 0 j w M Q Z o w M 1 9 5 w +X1 0 5 1 n A 5 q , 5 +XY 0 9 Z w q 0 1 9 9 b w q w B 9 w 1 1 0 b w q 5 5 0 1 B <XZ 5 + =X0XM , B , w 7XM + 1 0 9 0 j 9 5 B M O + b w 0 9 9 9 9 9 1 b , 1 9 q M ! b 1 5 0 5 1 > 9 , , 9 w r b 0 M w 0 0 5 j 5 9 5 > M 1 w Z U O j Z =XO 9 B , M Z I 1 b w U 1 w , 0 S I B 9 M , , M n , 1 5 9 1 1 w w w j B n j 9 5 q q 0 9 Q Q b , Z M 1 1 1 q 5 1 1 1 1 > X &XJ 0 0 Q I 9 0 1 1 n 9 9 B Z T , 9 1 w q 1 1 , > 9 9 0 1 1 1 5 j w 1 0 1 1 j 9 w Z B 5 1 , 5 , 1 M w 9 o 1 q 9 O > 9 0 1 % 9 9 0 , , 0 5 0 , b n A 9 0 5 , 5 U Z 0 0 w , w 0 w A w b n , R B 5 1 j n w , w M b j 1 9 0 1 9 1 1 , w S 1 X 1 A S 1 > Z S 1 0 n > 0 > b D , w 9 9 , j 0 w 1 > 5 0 9 1 1 9 ! Z 9 1 D *Xb 1 T qXn w 9 O > ! >X+Xw O 0 ! M n Y 0 5 1 9 1 O B b , 5 , 0 S M , , n A A Z D 0 , > 0 Z q 0 1 9 b 5 > 1 , n Z q n w 9 , w 1 1 0 0 > 3 w 0 9 , 5 M n 1 O 9 M B ! U A > 1 1 1 w b =XQ M n , 1 9 M 0 1 9 > 0 ",
"S 0 0 5 , 1 w j Q B I 9 9 9 n Z 1 , , , , 1 1 1 Z j > 1 w U 5X;X5 b b w w 1 1 0 9 M M j b 1 w 1 0 1 , 0 q b n 7 I M 1 1 9 , n D q o 1 n 1 0 Q 1 5 0 q 1 5 j 5 , b q T w Z b w > 1 1 9 9 Y 9 I M 5 q , A b 9 1 > 1 5 1 B 0 1 % &XR 1 , n 1 5 n q w M 1 9 5 , 0 9 0 9 5 Q ! % > q M O b b Y > , 9 % w w 1 5 9 B n 5 n 5 0 , > , 0 0 n w 9 5 w J M n M S 9 5 I U , q n -Xq 9 w I q 1 0 j 5 % , , , 1 Z Q I b D q w > 1 9 1 q j , 1 > o 1 9 > 1 q 9 , w M 1 9 j 1 9 , I + w Z A 5 1 0 j 9 w q 1 j w 1 5 8X3XZ 9 , 9 1 1 1 > Z B j 9 1 0 , 1 9 9 1 I A n n n 9 1 M n n J 1 1 9 0 9 1 5 B M ~ M 9 j A 5 M j j B 1 5 5 9 n O 1 1 0 w w 1 9 0 1 , % 0 qXq > Q 1 A 0 1 1 9 M A O M Q Q A M M > 0 b % , 1 1 > j 0 9 1 R 0 5 0 b ~ n 9 Q Q R M U Q > n eXA + + S ^ Y Q I b q > 9 > 9 6XU , 0 1 M R 9 , 1 A A M % 5 0 1 M 0 q b b 9 b 9 , 1 5 q 1 1 > > O O w w 9 D O n n > 1 5 , 1 I D 5 , w , o > I M q 1 q w w w 5 > n 0XR J Q 0 M w 0 9 , M ",
"M b 9 0 w 0 w > j 1 w 9 5 9 J Z O j I U . n 5 q Z D M 9 w B D 0 q 1 M I A 0 b w , , D 9 0 1 1 9 9 , j 5 w M n q j q 9 w w 9 A &XD , q B 0 1 > 0 5 9 1 , 0 % + M I b q Y Q q 0 5 , q w 9 M w ^ 0 1 9 9 q 0 , 1 1 , 1 w 1 9 1 , M Z > 0 1 1 0 j 0 n D w 1 1 0 , , 0 q 1 O 1 0 5 , % 5 9 9 > 0 , 0 1 1 9 9 1 1 w M A 9 b 1 > 1 U Z j w w , 0 9 1 J 0 j A , R A 9 9 q n j , w B b w > w 1 9 0 1 1 1 9 Y , O O Y A o , M Z 1 0 B 1 9 > w b 1 0 1 1 1 0 q n , , w w 1 1 , 0 R n 0 1 U Y j 1 &X6X0 w 1 % > >X-XQ 5 > b U w n A 1 9 0 9 9 X M 1 , , 9 0 T 9 , , n I Z Q M w > 1 n n 9 0 1 9 w 5 1 5 1 S b M 0 b 1 1 1 1 0 9 5 % w w 9 1 1 9 Z 0 > > b T S S ! w , 1 9 , b Y 0Xn n 0 0 b b n , 9 1 ^ ~ 5 0 w M Y j > ! ^ > 1 9 , , o ^ <Xn R ^ R 1 O 0 X , 2 M M M Q 5XQ 9 1 9 + Q 5Xj 1 0 T M + , 0 5 J S q 9 1 0 , A B 0 M M A 1 1 > w 1 1 w 1 0 w 1 0 w % 9 n 0 w 1 , 1 5 w , Z M B 9 b , 0 5 > 5 9 1 q q 0 B A D Z &XM M j 5 w 0 1 1 w w ",
"5 n , 5 b 1 n 0 1 1 1 9 1 0 9 0 0 1XA 1 > M 0 1 b Q B % 5 1 9 w 9 , w w I 0 w w 1 9 1 > , 1 j n 9 9 w M I q A S n > w ~ 9 9 w Y I 1 9 A M 1 0 q w , > 1 5 > b S >Xb Z w q 1 , 9 5 9 Z , , 9 % > 9 % 5 w w 9 > M 5 9 9 0 5 > A , + Z D w , 9 0 0 q 0 5 q w w , ^ 7XJ q , 1 0 1 , > b I n , > 9 1 1 1 0 , I S w n A 1 9 j n 0 J 1 5 1 9 5 5 0 M M *XD 9 q D 1 w w M B 1 1 5 0 n , , 0 0 q w 1 0 5 1 , > 9 0X0 , Q 1 S w 1 9 9 n n O J ! Q M j q % n 0 % O 1 > 1 0 0 , n D 9 w 5 A -X0 b &X^ I M A J > Y eXM X , Y R Y R A 0 5 , 9 + J 6Xb 5 w > Y I 1 1 w S S b , w 5 9 w w b j j 0 b 1 , 5 5 0 , w o % > O M 0 b 0 1 D 1 1 b 1 , b U 0 1 1 1 5 X Z Y q q 9 w 0 b 0 1 5 +X6XM U n M b 0 9 w S T w 9 > M 7X> b ! D 9 > 1 5 1 , 9 9 q q b Z 0 5 + B *X1 > 0 1 Z +XB 1 , 0 9 q A M , b U Z A A % 9 A b Z 0 0 j B b b j b U U j % +X+X9 , 0 , M -X5 > 1 I Z , w 1 1 0 1 1 q 0 X n A q 1 0 w 1 w w q 9 1 1 M ~ q 9 M S Q >XO 9 q w 9 1 1 w ",
"w > , b w 0 Z M 0 1 , 5 1 , 0 9 1 1 w 9 5 O , 5 w 1 1 1 9 9 , 5 0 1 , 5 q b j 9 n 1 1 w I b 0 j 5 1 0 1 n Z , A 0 M Q M 1 j q D q 1 M n n 9 1 9 0 1 9 , O 5 I Z > + M Y 1 O b Z 0 > D 1 w > 1 j , 1 , 9 1 0 0 Z , > 0 q 1 1 , 1 J U b 1 b R w 9 A 6Xw w 0 1 > +X,XR q > 9 S q 0 S 0 w 9 0 1 % w > 1 1 9 w I 0 > , w U n ~ M 9 , 1 M Z 9 7 1 0 b 7 q , 0 I w D w n 1 5 1 5 9 9 , O w b 9 1 1 q Z w 1 % Z ~ S J ~ 9 , 5 1 1 n Q 6X5 M 1 0 q Z n 5 5 9 ! T 1 0 q Z T 9 5 =XD % 0 1 9 O 5 >X&Xb ! ~ U + , n . , 5 S n A U 5XD 5 1 1 , *X>X1 w j T 9 > 1 9 b A D 9 9 , 5 0 I w b A Z j 5 > 9 w % j 9 5 0 9 , b > 1 1 q 1 0 , 1 1 9 9 0 I n v b 5 > w 1 1 q 1 q j w M Z J b +XQ 0 B 5 0 w 1 1 0 0 j 1 , j &X^ 0 9 9 , 1 Q Q O w > > 1 > , 1 , 9 9 > 9 U 9 , 1 1 X 1 R j 9 X , o 0 U M b M > Q Y   n b 5 q , 9 5 9 1 1 0 7 n b n 0 M M 0 9 , ~ 0 j n 9 > + 0 1 % 9 w Z q M 0XI 1 n 1 n 0 9 q 5 0 5 0 w b 9 0 q 1 D n > b b 5 Y 0 0 1 , > 0 ",
"b 9 1 0 0 0 b w 1 w j 1 9 <X-XM , > 9 1 1 > 1 D B 0 1 1 1 9 1 w 9 w Q 0 M A Z 9 5 b , I A , 1 9 5 q 1 n M Q ! 9 5 M M 1 b w Z n , 9 9 B 9 > 1 1 0 j 0 , 0 1 1 1 O ~ U > D b n D 5 w 0 0 n % b ~ Y R M j > w M O % > , , 0 1 5 0 S 0 9 0 M &XA 9 +X*XT M M Z O J 7XU + > D ~ T *XQ 9 1 1 q > 0 5XA , w , I Q 1 9 5 I S j < q q < w w j n j 9 b , , 1 9 0 , 9 O % > % n 0 M b 1 Z 1 , 1 w O n S w 1 1 1 1 . I Y n 0 9 q 9 j 9 5 j -X-XZ A n n 0 5 0 w ! ^ 5 0 , U 3XX n *XZ 1 > 1 , , % b q 0 j B Z 0 , O S U % 1 q 5 ! >Xn 5 1 9 9 M J 5 1 M R b Z q > w B n M 0 b M n Z w n b Q M 9 1 =XA , 1 , 5 ^ ~ = , 0 ^ 0 1 q 1 w 1 , 9 j > 0 I 0 0 1 0 5 0 0 w 0 , 9 9 I J 9 M D U =Xb + j 1 j 1 1 n +Xb w D M O % , 1 9 1 Z Z 5 9 O j Y b , 1 0 b > > 0 0 1 1 1 Q +X9 , 9 D M 1 5 1 9 0 w > X , *Xq , 0 5 1 9 O 0 w q Z *XR 1 O 1 , > , 9 S 0 Z Z 0 5 0 > w 1 w ~ J Q *XU R Q D 5 w q 0 w 1 w 9 O 0 w 9 O 1 9 1 5 M 1 , J , I Z U w 9 5 Z 9 ",
"j , J Z w 9 Y ~ 0 w 0 1 9 <X~ J 5 > b B , n n 9 m 9 1 , > 0 , , 5 0 B I 1 , 1 v D A T n 1 1 w M b 1 5 , n w b 5 1 D D n D w n , 5 , 0 5 9 > 5 j w 1 1 1 M q 9 > 5 ;XI n R M > 1 9 % j U 5XZ , 9 j n b S 5 1 5 A Q 5 0 0 j R J X ! R , 1 9 9 1 + Q *XD Q >X~ > , B X , , I B D S *XI 1 9 , > Y 7X0 9 w U n 1 9 9 j Y B q 9 , 5 0 I w b M B n 9 , > 9 , w 1 9 , 0 > w 1 O b M > w 1 1 9 9 5 n R b w n 5 1 9 1 1 9 5 q b q Z A D 1 &XU 9 U 1 j j 1 1 0 5 1 5 > n &X&Xw 9 0 9 0 Y B 1 q > > 1 O 1 1 , 9 9 > Z Y , 1 5 = . D Y w , + 1 o M U w A b 5 ,Xn o D 0 b 5 1 9 0 5 1 1 q 9 D b n b S b w , n Y , C q , > > 9 O 1 1 q M 1 ;X<X0 9 0 0 w w w w 5 q w 0 w 0 1 w 9 9 A , 0 S 1 A n 0 1 1 1 , 0 B M b A % > 0 j 5 n 0 , ~ U S >X, Z M X w b 1 0 Z A 1 O S Q =Xb 0 9 n 0 1 0 Q 0 I Q Z 5 A xX+X9 9 1 9 w b 9 O 5 n Q n 5 9 , > b w 1 1 > , U 1 T &XO ~ Z *X0X1 j q M 1XI A . , 0 9 1 1 1 1 0 9 1 0 0 Z J 1 1 % U 0 , w 9 1 M w , 1 B R ",
"w 1 U -X9 m -X;XS j M b > &X5XM O , ^ &XY =XD 0 , , 0 O Y ,X1 9 0 1 Q M 1 , Z U D 1 q 0 1 9 1 b b b 9 j w , , 5 9 , q , = , O 0 M 1 n , M w > 0 9 , 5 Z M 1 = , 0 X j &XZ b , w 9 j 0 , M Y 3XD B M b b 9 9 9 S >Xb 1 , M 8X1 9 Y Y w O 0 > > % w M j Z M U 0 1 X n I , 1 n 9 I <XM 1 , w 1 D T 9 , z *XM w b , 0 J B b w q q A A w b n R Z 5 1 -XD 1 < 5 1 ! I > 1 9 Q 9 9 w 1 5 1 1 , 0 > 5 J n 0 1 0 9 0 w q 0 1 1 0 Q A w n I Q -X9 O w 0 0 1 9 S Q 9 q A M O > > 1 5 % T Z , 1 O B T 0 , 1 0 j > , w 1 5 , q Q S > 9 9 A w > 1 1 0 0 1 > @ B Y , 9 w , q , > 0 9 j D &Xn O 1 1 1 > 5 b Z 0 Y j q 9 7 > 5 1 S R R *XR W ! ! n 9 b 9 q 9 5 w 1 > w 9 0 , 0 9 1 n j O M j 0 U A Z 0 5 9 1 0 n 9 1 Z 1 , 0 w + Z J o +X<XY 8XA j T 1 w b n , A 5 9 , ~ U . 9 > j , > % A I 1 A 0 1 0 w M n S q 0 b j 0 j Z 0 M w 9 5 1 M Y n S b 1 5 5 b 5 Y =X1 X > &XR > w A 0 b *XI , 1 1 > q q 1 9 b , 9 A A Q A > 0 9 9 w Z M > 1 5 1 b Y 5 S ",
"% w > n > 0 ^ I D &X;XQ X b M X % 0 Y j ^ T ~ w 1 w > 1 3XQ 1 w w Z b 1 0 5 M J B 1 1 0 , Z A 0 M D b w 1 O w , 0 w , 5 , 1 1 n + 1 Z 9 9 9 1 1 0 9 w Y D w 0 b O 9 , 1 9 9 w j w b Z S 0 I 1X9 T w b n w 5 w 9 9 5 > 0 T <XB 1 j 5 9 D Z , b , O , O , 5 1 0 9 > M &X1 1 1 > o n S 0 1 + 2 X b U 0 I n 0 <XM . n 0 b b 1 0 j 5 1 9 9 9 T M w w W j 5 > j U 5 Z w , 1 5 w O > 1 q b , *X=Xq w 0 0 b w q 0 0 0 j 9 q 0 w Z w 0 M < j Y , D w 0 1 1 1 , w Z M n M % , 9 j 9 M 0 , ;XZ R U , A w O b j , 9 S n > 1 A =X;Xw 5 b D 0 , n D w R ! q 5 +XNXn 5 5 5 9 0 n > 1 0 J Y 9 0 1 O 0 w w 1 1 % n B 9 +Xn w ~ M eX! 9 Z z ;X;XZ 1 O 9 0 0 1 1 1 9 0 0 , 0 9 Y j , % b Z O 0 q 9 0 A O 5 , 5 1 9 1 q , , w 0 O > j I q w -X1 O 1 w q 1 0 w 0 , 1 1 0 1 0 5 5 1 5 , > , , % > 1 b 0 j 7XZ 1 0 I Z Q j O , w ! 9 Z I 5 M > I 1Xo *XZ 1 5 1 9 1 > 0 , q 5 , > 1 , w S 5 + j M b , -XA 5 b 9 b w 9 w w M , b Y 0 1 M ! M 1 1 > M b j B *X",
"> 1 w O O O D A M A A Z > , X D M , 9 M w -X=X0 1 9 1 j Q S % 5 Z ~ , j 0 % Z Z M q q 0 M n B 0 B A Q q % S ^ 9 , 9 1 M $Xw , 1 Z D > w w 1 1 1 , 9 1 , Z M w 7 9 0 w 5 w 0 1 5 0 M U b A S A +XB + 5 0 w 1 1 M +Xn 1 M U > , , , , 1 S Q > , + w U 0 , 1 0 j 1 > 1 5 1 , 9 U B 1 0 9 B b > , 1 q q , % X j J > 9 w 5 9 , , 9 q 0 A R M + 9 1 1 O 1 n A w U w b w , , O 1 M S I ^ &XA ~ *Xv 0 j 9 q 5 w 0 1 1 w w 9 > 1 1 > B b o A n 0 Q B M w 5 1 5 w M , 0 J > , w 0 o U M % 5X&XY eXq M A , w n w 0 A 5 9 0 =Xj % w % b O 5 > ^ M q D q q q n I S Z 9 j n q j n 0 j M q 9 1 , A A B n 1 1 , j n n <XU . + n ,X5 , b M 9 I ~ n O 1 , 5 b 5 5 w 0 1 M D U ! 0 1 9 w 0 b M 9 1 5 1 1 D n 1 9 q 0 w , S n 9 > 9 1 j q > > , 1 1 > , j A D , 1 1 w w 0 1 9 w 0 9 9 Q S O , n % w q 1XsX9 0 M &XR Z 1 > > > D j , 9 Y 0 A n % , 5 , 9 j 9 , 5 M w q M % 0 9 > 0 . X 0 9 , b 6Xj J q > 1 9 q w , n q 5 1 j 0 9 5 > w fXA 0 1 U S M U +X",
"j A w w j , O O O 1 0 1 0 1 > ~ R O > 1 o , M M q X , 1 + U Z w Q 1 S <XO 1 S 1 Z 9 1 q j , 9 5 9 C A M 9 U U q 1 % S q A b 1 , 0 0 1 , , 5 b 9 B >XB 1 b j n 9 q 9 9 w b w 9 q 5 M M 9 n q 1 I M 0 Z 0 1 > 1 1 0 B M n B O > 1 q 9 n 0 > U A A ~ 9 M q > q M > 9 M J , > D &X5X0 q 1 A n , w A 0 D R q 1 P mXS 9 5 9 0 9 n , 5 w S ^ j 5 1 O 0 w q 1 0 % b M 1 Y b w +Xn 0X&X9 D M ;X*Xn 1 > 9 w 9 , 1 1 0 5 0 1 1 5 J 0 9 , n M 1 9 j q w B O 1 , 9 1 9 9 w > 1 j 9 1 + A B 9 U =X> 1 0 w b , b n 0 1 9 5 0 1 b 1 1 1 1 > % > > 1 > 1 0 5 Z =Xq , D S A Y 9 , + U S 9 U w w j % 3XT , >X1 9 5 9 1 1 % 9 9 0 9 > 1 1 1 I q > > q S 5 B Q 0 j 0 w w w q 0 A w 1 I B 1 5 Q Z b > 5 1 w M , 5 0 q b w 0 ~ Y Z > 1 0 w + 9 b 9 1 9 1 + M U w A b w n , 5 1 1 9 w 1 0 >X! 9 O 9 > M S M j 0 q , 0 1 1 J 5 q 1 w I 1 b 1Xn M M Z > 9 1 1 M > 1 9 S , w Y 0 + n 1 X Z w o w w 1 A j Z w 0 0 R % % 9 M I 9 , , % , O 1 M ! Q ! q b M D 0 n ",
"1 -XB o % . Z U 9 1 5 0 j % , 1 1 9 % b S 0 9 0 j M , , > w 0 9 > % % I b 1 w w , w , 1 0 0 w Q U < > 5 , 1 1 0 Z q U A q j 0 , X , 9 A U Y ;XD I >XS 5 j 9 9 b 9 q 0 , 9 q 0 1 1 0 % b S o b M > Y B M 0 0 1 1 5 B w , S 1 > w M o M A O ^ =XY 0XA b T > 9 w j 9 Z 9 0 , =XA + 9 > n , > > I I 7 I j b q B ! A B 9 0 q w M j 5 j M 0 0 1 5 M B B b 5 1 , j b M 6XT X > M 3Xq , n b 0 ^ ~ q O 9 O 9 b 9 1 j 9 1 M D J ~ 5 1 , j w 0 n 1 1 0 1 0 S w 1 0 w w w 5 B b 5 % 1 5 B 9 O 1 , 1 , , 5 n M M o 1 9 q 0 w , j q 0 9 q &Xj + 0 j , n M dX<X1 q I +XQ b > > % b J 1 1 M I 9 S 9 O 5 q % M 9 1 , w b 0 M w o B O 9 > . 1 q 0 , -XY n I 1 1 5 9 Z , w j , 1 w M 0 5 1 o =X=X9 5 M U A 5 9 M 9 0 0 1 q ,XQ + 9 T ^ X O 1 9 1 , 1 1 0 1 S b b U ~ 9 0 1 1 0 1 q 1 , ~ 1 O j O S *XeXS J w w T , + J U T 9 M 6X1 w Q M % U T > Q Z 9 M n 5 + M A 0 U 0 Q S Y b ! *X9 B , M 1 9 9 1 0 w Y <Xn 9 Z 1 > 0 5 1 0 5 9 q A =XD Y 0 O 1 1 , ",
"w 5 5 +Xb Y Z w M , , M w > w D b O 9 J 7XR 1 5 j D q , M Z 9 R A 5 , 0X8X0 9 5 9 9 9 q 5 0 M ~ U 0 1 % 1 , 0 9 w 9 > I 9 n I + R A R wXb S Z Q 6XZ n + 5 n q 5 1 5 9 > w 1 1 1 B j 5 , 9 Z 1 j 0 Z 9 S 1 1 > 5 5 q 5 b > > w 1 1 O w D 0 M >Xw q 9 0 b 1 0 n b , w 5 q 1 M 5 , 9 , 1 , 1 , 0 > 9 q q 9 *Xn 1 n I B B w 1 + J S 0 U n w b > 3XQ 5 >X9 5 9 , 9 , 9 w 1 1 1 5 , 1 5 D b , w b M > S ~ w 9 j 0 q 0 w 0 S w 1 S Z 1 0 ~ Z 9 , 1 9 n n 5 1 w 0 q 0 0 >XA M , 5 5 0 % 9 b 1 1 1 , + S A w Z 9 q w 5 1 1 w 5 j % A <XI > 1 9 % R M B q q 0 1 b , M M , w 9 J S > &XQ n M A 5 1 5 , j 0 1 > M Z > B Z , 1 w o 9 b % 1 n , M A M Z 9 w Z A   0 0 I B , > > , , , 1 Q Y +Xb M M U M 1 M w 1 9 b , 5 q X J +XY Z M w b 9 0 w S 0 5 0 1 w A ;XY % w 9 1 w n 5 > + , 1 1 , I q % , Y b O U ;Xj 1 A S q 1 Y A % , 1 O w 1 w Z q 0 Y -X1 % 5 w > w q q , n Q w Q w b A S Z 1 1 , 9 5 ~ &Xq q 5 5 b Z % 6XI O 9 q , 9 , , 0 T > 5 j ",
"J b 1 =XR =X0X, S b 1 0 w j w Z 9 1 M -Xb 0 9 1 n o , 1 &X0 I D w w j Q ! M j 9 b j b w , 1 q n 0 5 5 9 n M A 9 > 1 > J 9 -X<X, 5 , <X^ + 9 M 9 J >XU O , , > q 9 1 0 w 1 0 Q M ! M 9 , 0 n 1 j 0 > 0 1 1 M B > 0 j 0 w 5 n m 1 % 9 1 M 0 O 1 % , % 1 1 q b D o 1 O w w 0 , q b 0 0 9 I n X 2 n , M z sXsXw 0 U *XI M > , O 0 I 1 1 n U 9 Z j > , A > w 9 1 1 0 b 9 b j > M > 0 , + 1 9 5 9 *XU M S 1 1 9 0 B 1 M w , 1 b M 0 5 9 > 5X~ 1 1 Z J M 1 0 n 9 q w 1 B 5XZ o 0 Q S . 1 1 q > 1 1 5 5 n n D n ~ S 5 9 1 , w 0 q > Z ~ X 1 M o ~ =X3XZ S 5 A M o 0 R U M + &X~ X U U b > 1X0 0 ! 0 q M 0 , + U q S B B ! S Z M ;Xn 0 n 1 9 1 9 9 9 q w >XR % A Z , 9 9 , 1 1 5 w w 3XQ T n 9 > j 5 9 5 w 9 q w 1 1 ^ ~ =XQ A , ~ &X^ n n ;X1 1 1 1 M A =XA , 0 9 , , b D Z 9 0 B 1 j n w > 5 n b 1 Z ~ Y k j 5 > > , j 0 9 , n , 1 0 n 0 w 9 o b ~ 0 0 1 , 1 , A U ~ j > 5 0 j M 1 , 1 0 1 w b b 0 1 9 b w w > Y Y > , O 1 0 > o 7X5X> , 9 ",
"D Z , &X*X0 j 0 n b , b M 0 , w 1 9 5 A > 1 1 1 < , % 1 1 , q q , A T 9 5 J B S A 1 1 , +Xb M I < b % M wX1 U I , 5 0 , 1 , b , , 1 b 1 1 1 A B 7 9 j M q 1 R m 0 b q 0 0 0 0 A A 1 j D 1 5 R U 9 1 1 9 b A w 1 q 0 j w 9 ~ J Z 5 5 1 0 % 9 M 5 1 0 , o M U q M b 0 w 5 9 1 0 w 0 1 n 1XI , 1 0 O B Z A b 9 0 9 Z 5 w b 1 9 0 A Z O Q +Xn Z M 0 1 O > b 9 1 > M B > M n O 1 5 O 1 0 % 9 b > S A M M 9 0 S M X 0 9 S M , , , % , , 1 >XY ! q n B Y 0 q M 0 1 0 w % M q X Y ~ Z M M 9 w 1 0 w Z w 1 w > n B 3XM , w 1 1 n M > O + 1 1 O w A w 9 q R , 1 ^ U , w J I 1 n Q 9 1 5 % , q < Z A q n =XU O > q > 5 C 9 w , Q S I U 0 A Z ! 9 1 1 1 0 A 5XS z 9 , q j w D ,X, 5 9 0 0 1 9 % M 9 1 Y 9 1 5 9 n m > 0 q I =X0 ! =XZ *Xn b 0 9 w 9 w 1 w q M 1 9 9 0 , 0 1 5 D b &XS > 1 > , 9 w Z 9 M sXJ b 9 q 5 0 q 0 > S 6XZ 0 5 M A Y 1 9 , % ;XQ 0 M b 9 w , M ! T A j 5 1 , A B b q q 9 , 9 <XM > 9 9 1 0 5 % , 9 9 w q w w 9 M 9 , + > ",
"9 Z 5 O 9 % , > 1 9 0 B b O > 1 9 b 0 1 q q q 9 w S 1 o q 5 0 b I xX~ 9 n ~ Y ~ 9 % % > B j % 0 D n j A 0 O b w 1 0 9 1 5 9 0 9 Z , w 0 1 0 o 1 9 1 > T &Xw T 9 , 9 1 Z 9 0 Z 5 1 0 Z n 5 0 > U <X, 1 j T w q 5 n w w j 1 M >XQ % 1 S ^ + % 0 0 1 , 1 9 0 b Z Z n ^ R , 0 1 1 9 0 0 , b >X> > j O R <X7XZ D w j b X 9 Y U B , ^ &XX J U b % ;Xw 0 ~ 9 0 n 5 > , S 9 Y S M Q J n n *Xb w b 0 1 , q 9 5 M n &XZ , S M 1 9 1 , , 1 1 0 M 3XR Y M , 9 n 1 9 0 q 9 M 9 > 1 ! $X-XU b 5 +X! ! 5 Y ! > 5 5 1 S U 3Xj , q 9 , 1 A Z M , q b 1 n Z , > j S q , J ;Xm j q 9 1 % q b 1 > 0 q % 1 w w 0 q 9 , U I 1 9 > 0 , w R +XR , 5 9 j b q , > 0 0 0 M 0 1 0 1 b w b , b <X9 > 1 > 9 > O Z zXb > 0 9 1 7 , Y ! w 0 O q n &X1 B T w ! Z w 1 9 9 5 , 0 q w b 0 q 0 1 9 O A M 5 ,Xj + 0 > > w b Z 9 q w D 9 0 0 5 W Q % 9 > Z >XM 0 w B n O w A n I 9 b 0 5 1 9 1 1 5 U I B 0 1 9 0 <Xn q 9 1 , n Z M , 1 w 9 1 b 9 > > 0 z 5 q z 5 1 j 0 1 = ",
"0 1 , w j 1 0 9 > + T S 0 n 9 0 9 5 1 1 q q 9 > Q ,Xb > 5 1 , Z w A w 0 1 A M 1 M 9 1 0 j J w 1 >Xb I n w % 5 + 9 n > 1 1 Y 1 w A 1 > 9 % O 0 > , n 1 v ^ M D w 5 w S X 1 1 M B 1 1 1 > > , > ~ +XQ b w M T M q S w 5 9 w > n Z   A ~ Q n n 1 w , 9 0 M w 1 w 1 n M 1XU O b 1 1 q n , % % 1 , , 1 Y M w 0 Q 1 1 &XI 1 9 U S 5 n =X5 , 0 1 , b 1 M D q j ~ U O + n 5 1 b M n 1 Y S U U q I M T q 5 1 1 9 A 7XU 9 0 1 9 b 0 I ~ > 1 j 9 n 1 0 % b , 5 Y 9 1 5 w n 9 1 b q ! ! w &XJ ! ~ A z 0 q 0 0 9 1 q M n 1 0 9 9 1 1 q w A b +Xw , 5 % 1 5 w b % $XwXM M 0 b 1 0 q 5 , <X*X9 5 j b Q n 9 9 o w <XA w A 9 0 0 % Y R A q 9 5 1 0 Z w n 0 0 1 1 T =XO 9 9 1 9 0 , > 9 9 9 w 0 w 1 Z n > 1 9 b 5 , q w > 0 w , 1 J b I M j ~ T + w 1 0 w q 9 b J b b 0 9 w 9 1 1 1 > b Y 1 1 , 1 1 9 w 1 1 w w , 0 q j % n q m q B % U M q , A J 1 5 1 5 1 w 1 b M 1 5 9 1 1 , % 0 1 0 j M Q r b M q 0 9 Z 1 > 1 q 0 9 , 9 Q Q > 1 > n 0 , 1 1 5 7 > ",
"I I   , 0 0 O 1 , 9 9 M n D q *Xn 1 9 5 1 9 w 5 , Q Y X 0 0 1 -X5X+Xb M 9 b 1 . J A D 1 w =Xb 1 +XB 0 M &XO U A , Z 1 5 O M b j ^ n I I S 1 ^ I , n 9 q O w 0 1 n n R U > b J q , 5 1 > 5 1 5 j Q -XU I 0 , M 1 1 0 j 9 n q , + A Q *XY Z , Y I I M j &X1 9 1 > B U =XD , 0 0 , , A S M > 9 n 1 M A 1 % 9 A M > J ,XJ j w 1 r + 5 b > O 9 w O 1 0 w 9 w w % D J , 9 , 0 X w T &XS 1 5 5 n n q % % 0 5 j J w , w 1 w b M > A 3X% 1 > > , , X I zX1 9 q 1 , 1 9 -XI 0 , > n S J M D S b U Z 0 1 0 5 1 1 0 0 b q 0 w 5 9 1 , S 1 M =XO 1 1 % 1 b n B 1 0 I B 9 0 9 0 +XM % 5 5 ~ ^ 1 M q M 1 , n Z Z T 0 n 1 9 5 9 , 1 S I S q 1 1 1 Y Q q 0 9 , 9 M S 0 , 5 q 1 j q > > 9 q q 9 M 1 1 9 w 1 n n 0 j U > > ~ J , 1 M > M B X 9 9 5 0 1 1 9 J b , B Z j 0 w 0 5 5 0 0 , 9 O 9 , % q J > 1 1 0 0 w 1 1 9 1 w , A A M U O M I w 9 M w 1 0 q 5 n q w q 5 1 1 1 9 5 + 0 9 , 9 9 , 0 % M 0 0 n n w , 5 , 1 9 9 0 0 3X=X+ U S q > 0 0 0 9 1 O ",
"&XZ n w 5 w 1 q 0 Z 9 w j % A S 1X0 5 0 1 0 n q O O > , 5 > M S B w J Z > D *Xw , S Q b 1 Q J 1 0 0 + j w q Z B 0 S >X1 o 0 B % M 0 Z 5 M Y S ~ 0 j n U Z , 0 , 9 5 <X>Xb q 1 1 j b w &X0 , q 0 j b w > 5 1 , U b 1 9 9 b M 1 9 n A -Xw D Y I <Xn M w w 5 w 0 1 q M Z 1 9 9 w , 1 9 b Z b Q n , 1 > 5 9 w B 1 R 0XB B 9 j 9 1 0 5 1 ,X-X5 9 w b Y Z q 1 X 0 3XI q Z 5 b w 1 R R J q 5 0 % n A 0 w q 0 1 % Q *X> 0 1 1 5 9 > 5 9 9 1 q w w , I B , , 9 n 5 1 1 b 1 b 1 5 9 A w n n M &XZ % w 1 w w w , B B M j 9 0 0 1 1 , 0 > D Z 1 9 5 , 1 9 q 1 5 b , 1 w j 1 1 M n 9 n 0 9 ~ n 0 1 T j 5 9 5 1 1 1 0 b w , 0 5 1 , 1 1 9 9 w 0 ! S 5 n b w 1 Z b > % w 0 5 9 1 n &X0 1 1 0 w 1 9 1 5 1 % 1 , , M Z 9 R 1 , 9 w n Z M > 1 0 , b b 9 0 5 M 0 A 0 9 M B M I I 0 0 5 M 9 9 5 , b Y , 9 w w 0 0 1 , w M 0 9 0 q w w 0 9 w n q 0 , 9 j q 1 Z b b w q 0 9 1 b 5 9 I n % 5 9 9 1 0 M q 1 n Z j 1 9 1 1 0 w 5 , q w 0 Y b A b 1 0 0 , T + ",
"&X! q 0 Q A S 0 Y Y , , 1 1 S J ,X9 1 w 1 > w B Z w 1 b 0 , I M o , j I , 5 -X&Xj n q 5 O , M 1 O O 0 1 > 5 0 9 0 M w 0 J > 1 , 0 5 > B U ~ 1 0 5 n A n 1 > 5 5 5 M B % 0 1 w b B 9 0 6Xn % 1 O 1 , O 1 lXU o n 5 5 , 9 J Q 9 w o b B &Xb U S w S A 0 1 9 1 1 1 9 9 q q 0 0 5 5 w O B b 0 =X, > 1 O % w B S 5 b U J 9 q 0 0 ! M , > w &X! 1 M b A 1 , n n A Y 0 b 1 5 1 w , w S J S 0 0 1 , Q Y q j 5 , 0 Z D 1 , 0 q , b w > > q w 0 9 n 0 1 9 b , n M 5 M S O 1 ^ M > 1 A > S q X 0 1 9 9 % 1 q J 0 5 A n b 9 j 0 9 1 0 9 5 , , 5 > % M M > 1 9 1 b 0 1 1 1 q 0 , I 0 I b , R M 0 0 Z 5 1 w 5 q w q w b 1 9 5 9 1 1 , w 9 % 0 1 9 , 1 M 9 n n n 0 1 5 , 9 9 1 0 Z sX9 b Q j 9 1 0 w 1 w 1 9 0 > 7 n 0 5 9 , 9 1 &X&XY Z o % , I A 9 0 1 n , , 5 1 M ~ Y Y <X1 5 5 M 1 w 0 0 > , 5 1 <XM J 9 9 j w *XZ b R D 1 , Z >Xw 9 1 9 Y U M 0 0 0 0 9 0 0 9 0 0 w 5 q w 5 9 0 b 1 9 1 0 n 9 D U % 1 , , 1 0 0 b 1 9 > 1 X 9 9 9 9 1 b M ^ Y ",
"! b Q Z =X~ B w n n 9 9 1 5 j Z M , 5 9 1 , 1 b n J n &X9 9 , > 9 5 j w 5 5X~ Z j q q 1 1 0 > Z <XM w 9 q A Q 0 w > X Y -Xw M n , b > A &XQ B 1 1 5 > A w w w q 9 , M <X1 , 0 9 0 0 > 1 9 1 1 9 q q , M Y 1 > 1 q 9 1 1 n w 5 9 , 9 A A M B Z ^ +XO w 5 0 w w > n D n n 5 9 0 5 > 1 j % A Q 1 1 1 , 1 5 w 5 1 q 1 , q j 9 1 D w w w w 5 Y w 9 1 Y n , w 9 1 0 9 5 b w , 9 , > 1 1 5 9 w j w ~ S 9 b j w 5 Z q > , 0 0 w 9 , M Y 1 5 1 j b , 5 1 1 1 , 5 , 5 A M q ~ > 1 0 0 q A n + b 5 5 j w 9 0 w b 0 A 0 5 n n M J n j 9 0 M 1 0 5 1 I S % 0 w q 5 1 7 > M j w > b 0 M w w 1 M q M , 1 0 w 9 w Z j b q 0 9 5 5 n > 0 Z 1 % 0 1 1 5 b n 0 5 M I 1 , 5 , 1 w 9 1 1 n 1 T T n M 1 9 w 9 > q M 5 b 1 , 9 1 n Q 1 5 D S eXY O 1 1 1 b 0 % , 1 w j b 9 j I >X> T Z 1 5 5 9 1 w M 0 > + 1 fXQ n 0 q M 9 Z Z Z j w 0 9 q w 9 b A ~ ZXR > n n 1 b w I Z w 0 w 9 j 1 1 1 w 1 , 1 1 1 5 B ,XT ~ 1 9 0 9 9 9 w 0 1 , 0 0 , q 9 1 n U w 0 Q A ",
"I J M U Z n B Z 1 , 5 0 0 1 0 0 0 0 w 5 9 1 , 1 S 1 R ^ X 5 > + 1 b B M 0 S Y w 9 w 9 n ~ , 9 % R >XM 0 A n M % 9 M b ~ b b 0 1 1 5 5 9 n Y U M 1 1 9 M ^ M j 9 > 1 Z S M 1 9 0 1 0 q , > 9 w b 9 n 0 1 O b > B Z 0 9 Y , O U I > , A 9 A I   b w > w , 1 0 I w 5 M M b 0 b w 1 9 0 1 1 9 % w > O w n 1 1 9 0 w w 9 1 9 0 9 > Y w U M , U M 0 q B 0 5 0 5 q j 0 b j 9 1 9 9 1 , , 0 0 O 0 , j 1 9 n q b n q 0 1 , 5 9 9 9 9 U fX, b U q 9 5 9 w 5 0 1 9 0 % q q 7 5 1 1 0 1 *X! Y j X > 0 Y M 0 0 9 n 1 , 9 0 D &XD +XY , 9 0 b 1 j 0 1 % w + D ~ M D 1 0 j D &X, J Y C % , ~ Y 0 , 1 b D I n 9 0 w w 5 w 9 9 0 q q , M 9 q 1 q w 0 1 w n q w U 0 1 , 1 , 9 1 n 9 , 9 > 1 + 1 w 9 9 9 A , 0 M U &X5 9 1 b 0 0 > > U , , O q 5 9 0 0 1 Z j 1 0 1 5 w A M M 9 > 9 0 w M 5 0 1 , , 1 1 > M , > Z Q M 1 , 1 1 5 1 , 1 5 1 b q Q A S , > , M 5 , b M 9 A 1 0 5 1 q 1 1 5 1 q 9 w w , b Y Z A n b 5 q j 5 + , 1 % , 1 D J 9 9 9 Z A ~ M > ",
"Y A B B Z 3XJ , q 9 b 9 5 , S Z M w w 0 0 , > 5 w > Q A , 1 5 1 1 w j 1 9 0 1 9 b q 1 n Z 0 0 M % I A 0 1 n Q > 9 0 q 1 9 9 0 n 1 1 5 > > 9 1 w 1 w 9 I *X5 b b w 1 b A , % 5 w 0 1 0 0 S b 1 1 0 M 1 1 5 9 9 > 1 9 1 M A , +X0 , 9 j 0 n S , 9 w 1 w 0 w 9 q M 9 D q 9 b b w A M w 0 0 b 1 0 5 % D T O 0 0 0 9 1 1 1 q w w , j 0 M w 1 1 Z w b 9 1 9 q 9 j B b n 0 q 5 1 0 b > q S 1 , 9 , 5 , M w 5 1 M A 1 5 1 1 1 j 9 1 0 Z 1 Q U n b 9 w 0 1 1 q j 9 0 1 1 0 1 B I > w S W qXA O 1 1 1 Z 1 > 1 1 w b 0 w 0 $X~ , =X9 1 1 9 5 9 w n 1 1 X B lXn Z 1 n 0 n S D B j q 5 j b q w Z M qXlXq 1 M 0 w w Z I n 0 w 0 5 q , > 0 9 1 , 5 , 1 1 <X! ;Xn , 5 0 1 0 1 w 1 > 1 b > 0 w 1 0 J n n O S Q Y -Xj 1 B Q n , 5 9 w O , 1 , 1 , 1 0 0 ^ J 1 0 1 0 1 0 9 % 9 1 1 0 1 1 9 b A J % 0 b 9 O D q , n q 5 , 0 1 O 0 n 1 O w j b 0 , % % w 0 , q n n A 1 0 q 1 1 0 0 0 0 9 b 9 9 Q >X1 b Y 9 q m b 0 z 9 1 0 5 1 b Y 9 B wX9 0 9 j ;X3X5 1 ",
"J , R 9 X A 1 1 0 > 1 n D 1 j M n w q q w 5 9 1 5 1 1 , 9 % , j 0 > 1 5 9 n 9 9 1 9 0 1 q R j I , M I 0 w n M 1 9 q 5 w b 5 q w 1 9 1 9 , % 5 9 , 9 9 0 w , n j w M b b 1 , 1 9 9 5 0 b fXD > J w b 1 0 w , w 5 1 0 , 1 M 0 9 1 1 1 > ~ &XS b + 1 % T S 9 w 5 B 1 5 , w A +XU &X+X> 9 9 M 9 M 9 9 > 0 % n =Xn A , w j M =X1 A U n > , Q Q 0 1 1 0 S B M q 9 q 0 9 9 0 0 0 9 q , B w 0 1 n 9 0 1 0 q 0 w J w , , , , w 5 n 1 , , , 1 1 9 b 1 5 0 M > j n R ! 1 5 5 0 b 9 > 9 J , 9 1 w 9 1 q 0 1 B 1 0 w 5 q 0 S n Z 1 1 w w q n 1 9 1 5 9 1 % w Z X 1 A ~ 5 1 1 w 5 9 , 5 9 , b j Z Y Z Z > % w q 5 1 I 0 B n 5 0 0 1 j 1 9 1 0 0 1 j w 5 J I J B n 9 0 0 0 > 1 1 , > 1 q Y q 9 < D B I j 5 j A w 1 > U 1XJ 9 9 5 1 > 0 A =XM 0 5 M 9 w B 1 A D 0 > > > q 1 b b S *X1 9 q b J q A D 1 X >X&XM > % O *XS % 9 b n 9 , 9 1 0 n w 5 5 M D , b S 1 1 9 w w w 9 0 w w , , A n 1 1 n 9 , 0 0 n Z b 0 j 9 1 , , O M Z 0 O 5 w j w q Q > 9 2 ",
"b 5 B b , 9 1 9 w q 5 9 n 0 w U w 0 n q b Z w b 9 q 0 5 0 , 5 ~ w > q q 0 1 , 1 1 w 9 w 1 n 0 J 5 , b M q j 1 5 0 0 9 M n b M 9 9 1 9 j 9 > M j O r 1 1 , w b w 1 M I w , 0 1 , w w 9 1 S 0 M &XA j 9 9 q 0 9 9 b 9 0 9 , 0 9 b U 0 1 I I 8XQ X > 1 5 M q % , , 9 j n 9 9 I -X, ,XM , 1 0 0 5 z n 5 , + b cXA A 1 j n q I B Z n n 0 0 M b w n b wXxXn 5 M w 0 w M T n 0 5 q 0 j , , 1 0 1 1 1 5 1 0 =XR =Xj , 0 0 1 9 1 w , , w w , 0 w 1 w S j S O U U Q ! 0 5 A ! 5 9 , 9 j o > 1 1 5 1 1 w b -XZ 1 5 , 0 9 j , > 5 > w 5 1 1 z n I j O w j , 1 Z , 9 B w , 1 1 > , q w > 0 0 n w 0 > % 1 q , 0 b w S Z 1 w 1 1 5 0 9 1 0 w j , M >XS o Y n 0 q B q q j 7 9 7 9 q S n , 0XU 5 q 5 ! eXQ 5 , S q w 1 w ! 9 9 9 w 1 , w b -X*XZ 1 Y Z I w 0 1 M 9 1 , 1 q > , b $XM n S 7 0 q M M &XS > 9 &Xj w 1 1 M Z 0 M B = , j ^ M 5 9 0 A wX9 , w 5 % 9 b M > 0 5 , n q , b M 1 T 0 > % 9 n 9 9 9 9 j 0 1 0 w 1 1 0 b > O 9 1 0 % , 1 Z M 9 1 ",
"1 >XQ A 1 > , 0 Y n 0 9 q n 1 , , b U ^ J 6XM , 1 z n 5 n 5 1 > 9 , R A B b 9 0 w Q S > R S 0 , w >X5 n , 5 b A M j 0 0 q 0 5 9 w 9 9 j 1 0 M 9 1 q w 9 5 9 n w 5 A Z > , 1 > 0 9 j 0 1 1 > 1 > 9 b 0 1 0 b , 9 A D *X0 9 1 w w j > 1 U 0 5 1 9 w 5 1 j , b 9 9 w 5 j 5 A A Z 1 9 w 9 w n , 7 5 7 0 , > 0 Q o 1 B Y 9 0 1 0 5 9 , 1 1 0 9 w Z ^ Y S , > q w 5 1 S w A n 1 w 1 9 0 1 9 w 1 9 9 0 9 1 U Y I n M 9 0 w 0 % , 1 1 + 1 b I 0 1 1 U M S 5 b b S q 1 5 ^ -XA w 1 , > , w D Q q 5 0 M 1 M j 0 Q B , , > 9 0 0 n 5 Y J 1 5 j D U 0 S A X 0 0XI 5 O O 0 >Xq > w j n , , 0 1 n q 1 0 , Y w 1 A A 5 5 0 j j 0 9 j n 1 , 0 D 0 1 j b 1 5 j w A M w j 0 9 1 1 > 9 Z M 1 O 9 q w 5 Y n o j ^ R w M w 1 , 9 > 5 1 Z ~ 0 q X % S j , 1 0 5 S 0 b 0 q B 1 j M % > Q b n R Q q 9 w J <X>XX Q ^ 5 1 1 5 O n b 9 b , w Q A M M w w b R o w 5 w w > T % > > O j w % 0 0 w B Z + 1 , Z M 1 1 A Z % 9 9 1 1 > , 0 U v 1 9 b S M > Y 3XQ 5 1 ",
"b T Y wXM % , , w B 1 , , 1 5 b q j j =XA M >X, 5 2 5 9 0 n 9 1 > . >X0XM M 5 M 0 M S B B b j 5 w A b q b T bX>X9 j b 1 b 0 Z A 0 0 q 5 w 0 , 1 0 1 9 1 9 1 1 U *X! U , 1 w 1 0 1 q w O 9 q , 0 0 1 9 Z n A 5 j Q I +Xj 1 n I b 1 1 1 M > O 1 , , 1 5 w w &XI 1 9 , 0 9 b 1 O 0 > 0 q , 9 w M A b % 9 n 1 > n 1 j D q 1 , 1 1 , j w 1 , w Z 0 j , X 5 9 1 0 q b A M , w 9 1 1 0 w w 9 5 j 9 n ;XS X R b q n Z 0 b w 0 9 9 1 j S w q wXB 0 q , ~ wXR > 5 S j j % M *X, 0 9 w 1 % 0 U ,XQ M n R A J 1 0 w A > 9 > 1 w O 9 D ! M A B 9 9 n j M ^ b . S ~ 9 9 O b I n 1 Y 9 , 1 S T 0 % b , <X~ % 0 9 1 O w b w > 0 1 0 w 1 1 Z 1 B A , O > w j 9 q 0 j w 0 5 n 1 1 5 w q + , 1 5 1 , > n n j z P 5 5 9 > , 9 R > , 9 ~ dX6X> A w &XA 1 9 > b b 0 1 j q w S Q ! % 1 1 > S eX=Xb + > w q n , 5 A B O j M ! Z + Q Y q 1 9 1 9 M 5 0 9 > 9 Z 1 9 U @ n S b 9 n M R M w 0 1 0 9 9 9 , 0 > 5 9 U I U n 0 j 9 0 1 , ! -X0 % n Y 0 9 Z Z Q > D ",
"w S 1 b 1 w 9 , w w 9 b , q j 9 b 0 J D A O 0 9 0 n j , 0 1 9 1 1 + S D X n S A , 0 9 q 9 5 , 1 9 9 w 9 ! U ^ q O 5 M 1 5 0 Z w J 1 0 0 9 0 5 5 1 0 9 0 9 9 1 B ! Y A w w 5 q b 1 1 , , O O 9 Z b 0 , Z D A j 5 M S M 1 , T =XI n 5 1 1 , 1 A Q M , 0 j 9 w A , S M q 1 % 1 0 5 b 9 S Q , 5 b J R 5 S S % > 7XY w O O 1 *Xq > 5 w M , 9 5 1 M j 5 9 > ! w 1 A M 1 1 w n 0 0 w w b 9 > w Z 9 1 Z b 1 9 w w B M q w w 1 , 1 , 0 I n O 0 w w w j +Xj > j &XT w n q 1 , 1 , 0 1 Z Q , 5 X 1 J 9 5 9 9 w B 1 M 9 B b 1 A 5 + 0 +X1 n W J 0 w n R 7XI , =XA , 9 9 O , S 0 9 q 1 S Q A n b w 1 ~ M > w 1 M + A Z + , + 1 b 1 , 1 b 0 Y 9 % 1 0 U 0 1 9 S 9 1 9 5 0 5 , , M A > 9 0 M M 5 b *X~ W I U >X8XU 1 1 1 b 1 % A 8XI Z 5 b 0 A b q n 0 w w 0 0 0 0 A b T R O > O 9 w w <X> 0 Z , % + 1 b Z 5 % w 9 0 1 > b &XA 9 0 w 9 1 5 > > % U =XM 1 9 9 w Z q 9 w j , n , 5 1 1 > , > 9 % 1 n 9 5 1 A j b b j 9 1 1 % q % M 0 1 > O 5 A w O q ",
"0 b O O 1 1 1 9 9 0 M ;Xw 1 , 5 w 1 n + > 0 > b 1 9 5 b b Z , , 0 b O 5 5 0 Z A 1 > % 1 > 9 b 9 > 0 j M j 0 + > 5 1 1 w q M S 1 q 0 1 9 9 q 9 0 0 j 1 w ^ Q % Z S 9 b A j w n 9 5 0 5 , M Z , 3X~ 1 w , A eX*X5 X A q b % w 6Xn 1 1 0 5 > w Z <X>XA 0 Q Z S w 9 0 Z w O , 1 w , 1 Z Q S n M 0 5 b A B ! b X B =XM 9 > q R n 1 J 0 1 5 M S j , w 1 ;X~ > q 9 1 , 0 b 0 , w 1 0 n j > M 1 M B > > > j q 9 0 0 M w 9 0 0 1 1 1 q q + , 5 7 0 1 % b q w b Z 1 5 1 1 > n T o 1 0 =XfX*XO J q ;Xb , 1 , b n 9 , M 9 b D +XD , 1 5 1 *X7X+X, % 5 n M q 1 M D 9 , w M ~ 1 1 ^ A , q 1 9 w M 1 q , , 5 B . J 0 % Y j q 9 b U A n w 5 5 b 1 9 , 0 1 > 1 n Y D I 9 w 9 9 5 % Z >XJ 1 1 +XI 9 n S ! J 0 M b D 0 5 1 n > 9 1 b I 0 % w 1 % M w , S 9 0 1 n I b , w 1 , 0 A Q M 9 9 > 9 + 0 M ~ , % O , w 9 , > b , j M w R n j 1 9 0 0 b S > 0 j ! q 0 w n , 9 A 0 w qX<Xj 9 n 9 0 w b A J 9 , , w % 1 1 O 5 w 9 w 0 9 1 , U &Xb q 9 X U *Xq , 5 ",
"1 1 > 9 J S 0 , 9 b 1 M n 9 I b 1 1 > 9 0 1 b 5 &XB O b n R A j U w X U 6Xb > O O A &X, 1 0 M w > w 1 0 b 9 0 O n U O b U w w 9 w b q 1 q w 0 1 1 A j , b I 1 1 j j b Z b w n 1 1 , , , n D , 5 b w n 1 I Y , 0 Y &XM q w 1 > 1 1 1 1 M ! 1 9 O % A 9 1 q 0 0 A 9 n 9 b b , n q O 1 *Xw q S Y 0 w M U eX~ + *XJ , 1 9 > % J 9 0 w O S Q S n n 0 5 Q D + w 9 n + A B O , O , j 1 > 0 b 0 I 1 > 1 9 U 1 1 0 S , 1 w 1 0 1 , 1 M j > 5 0 M M , M =X+XR M Y ,X8XA , 1 1 b , > Y eXA Z 9 b w A n b b 9 n 9 0 9 9 w I 0 ~ B o , > 0 0 S +XX n w , X , 0 b S O 9 w 0 q , , T ~ w 9 q 0 5 , 1 , O 1 &XT w 1 b , Z b 0 w b 1 j b 1 0 5 > , , 1 , > q n 5 1 w I q b b w 5 9 > q 0 , A 1 % O , b b 1 , b > 1 B M Z , M 0 , , 1 > 9 0 9 1 B w 9 9 0 9 w j 0 9 9 b > 1 O S uX0X> > > > , M S 1 5 9 1 b B w 0 1 1 , T <X5 , 1 q 1 , j n 9 9 , A I 9 q q B ! B q M M j R M b 0 +XA U I Y 3XM w w b 1 1 5 1 1 5 , 0 1 n 0 M I D A % , , 1 M 0 1 1 7 ",
"w , 1 b T 7X+Xb M Y Z S 5 0 w Z , > , 0 0 > w I ! A A q 9 0 Z M S U , > Q Y w , , Z J 5 w U , 1 1 A M 9 5 j j 3X0 5 0 0 9 , 0 n 1 9 0 9 w b 1 q w 0 T 9 % O 0 0 9 0 w n 0 0 9 w 5 1 1 0 M O , 1 1 q , , 0 M 0 w A w 1 5 1 , 0 Y , > 1 Q fX5X> Z w &XJ , 1 , j M 0 1 b w w Y Q Y 1 , 0 , R 6X+X9 O , n Z b , b J 9 1 j Z ^ 0 1 Q S 1 0 9 9 w Z 1 b , 1 0 A . T b O U 0 0 0 q I S q w 9 9 n r 9 , w 1 , 1 M Q S A w w w 1 9 > S ;XB > 9 +XD 1 A I ^ C n Z Z U 9 9 1 b O w 1 n P < > w , , A > q Z 5 0 1 B J b 9 b > 0 9 J I 0 9 0 1 0 O w U I % O > 5 n 5 O 9 0 , b 9 B U j 0 9 9 w 9 B j , w S Y 5 7 b 9 1 n m < U sXQ 9 0 q 1 w j 0 U n > , 1 9 1 0 + , w q 5 9 9 1 > 0 +XI w 0 > 0 <XA 1 1 o M >XU 9 1 9 w 9 5 1 0 1 j 9 1 0 1 5 5 B B , B J > = 1 5 S S > o m M X 1 5 O n J 1 9 Z , 1 9 1 1 % w , > w 0 o q 7 1 0 > 1 b 1 1 9 5 5XZ 5 b 9 B j O j 9 9 w 9 1 1 b 0 S w 1 1 0 Z 1 Y ! w O 5 9 0 0 1 O > Z q 1 o b n > Z A Z , 1 1 w ",
"9 D U % 9 X b n 5 w q 1 M M 0 M 5 B 9 1 n 1 + M ~ , A U M j j B +XwX0 b =X0 , 0 1 X j S 9 0 5 9 R Y A n 9 q w >X, 5 q w 5 1 Y , > > O 0 0 > 1 0 n M M X 5 , S M , 1 B q , 0 1 5 1 9 , n B 1 , 0 b b 1 9 +X;XQ S A +X<XQ , 1 > n 1 > M 6X! S 0 n w Z Z w n 0 0 w 9 1 0 w Z n &XU + , > 1 b Z <XO j M O X > 5 M D 1 > w 5 M 9 % U &Xn 1 b 5 1 5 1 , , 1 *XT q 9 w > A n q w q , j j 5 0 1 > 1 1 > , , j j 5 , b D w b j w 1 1 , n 5 9 M 9 > > > b j 5 , j > 1 n Z n 1 b w 1 1 , 1 9 9 w , S w w 9 0 9 w q 0 0 0 j % , > &XfX1XX , O > 5 S B 9 1 9 1 Z B 0 1 1 5 1 >X*X+ 5 1 q 1 , b 0 w 5 9 Y b 1 n 0 I A B b B n M ^ Z 1 J T S J A 1X! w w n 5 5 1 1 0 , 1 0 1 b 9 M S J Q 1 , 1 , w n 1 5 1 X B -Xj j 0 O 9 9 1 > , 1 b w w M S 0 b 0 5 > 9 , 1 , O A n 9 0 9 O % b =X0 1 1 I Y 1 > 1 9 , , , 1 , , 5 9 b b w 0 9 9 w 9 % j I 1 > A 5 9 w 5 % 1 Q Z , , 1 b j M b 1 5 0 M 9 1 U n J 0X<XO b I w 0 9 n I 1 X > , D *XM Y U w 9 , 9 2 ",
"0 1XlXQ , B b =X9 1 1 9 M j 5 1 n 1 B Y &Xn > 1 w 9 =X6XT > O q M D , 9 M A , 9 M T U . D Q 0 1 b 1 9 D 9 0 9 1 > B 1 , I X A B 5 1 j J U n w q 5 n 0 9 , 9 w > 5 1 Q U A w q w 9 , > n ;XY 1 O R T w q R ! U b n M U n 9 1 9 , 9 1 b U 0 > 0 1 O M 1 , I 9 0 9 n Y w 9 b , 0 9 B U 0 9 w 1 b X 0 D T , > O 9 n 1 , 1 w > 0 0 Z ! b q 1 9 w 5 Z n > 9 U Q 5 5 b 9 , b b , ^ fXQ 1 0 9 5 w w 5 U w > 1 1 1 1 0 O , n 0 1 0 0 1 > z ! I 0 9 + M 2XM 1 1 O B =XI 9 1 w 0 0 1 1 9 1 b 5 9 0 1 5 9 Z b , I M + , 1 0 S Z o O J w X 9 , O D Z , q w 1 1 5 9 > 9 1 > 9 b 1 % q 1 1 1 O b b , 5 , J 3X, b 9 w A 1 , w 9 w 0 9 > b 0 D A 5 9 5 M w w R n 1 > 9 0 5 1 > O n Z w O > M , n S A 7 1 w 1 1 5 1 9 5XR b r 5 1 0 , M Y n 1 w 9 n n q 9 Y b 0 0 9 > O o , n 9 j 1 n D + , O U ,X1 9 1 O 1 q M 9 1 > 9 T A q j , 0 , U >X3X9 I 1 1 0 O 9 w j 1 9 Y 0 5 5 M 1 j 0 5 b 5 T T n , Q A j n M 0 X ~ I , > q S b 1 1 w 0 9 I B q j O , , % ",
"T 3XU S , A w A n q b 1 w w 1 0 w b A n >Xq > , > e b +XT o Z 9 X O 1 0 M n O q w q M , q +XI 0 0 q 9 , 1 , 1 O Z ~ M 9 b 1 0 I w 9 w 0 , B 1 5 1 , > 1 1 > , 9 b 9 0 q I b w j w 0 9 O n M > n 9 1 O > 0 n q , n > , b j Z 1 n w 1 1 9 1 1 1 w % S b w 0 0 0 0 0 0 w , M , , O ~ sX6X1 , O % 1 J S 0 > 5 , M A q 1 , 9 1 =X=X% 1 9 0 1 1 n w j 1 9 R 0 9 b 0 Y B n b B M B ~ Z 9 I I I S D 1X=X9 q n 1 9 , , 5 , , 0 1 n 5 M D P Q 1 , 9 > b M 1 1 1 X T Q j q 1 , 9 1 1 > 1 9 b b 9 D M b 0 w , , 5 , 5 , o Y b 9 0 , % O D ^ , 1 j Q M 1 , 3 1 5 , 1 > , > 0 0 M 0 q q 9 9 9 , O S M > 0 Z 1 w 9 1 > w Q 0 , , 0 n A M 1 1 j 0 M > M S n ~ fXB > S n n 9 1 T n + O , 9 ~ A S Q S j O B , 5 , , 9 >XS A , 9 A -X1 R R w , , , U Q q Z *Xn 5 q 0 , 5 9 1 , w Y n 1 O 9 O w 9 Z 5 1 1 > q =XR O 0 M , , > > 9 0 > 0 Y Y &X, > b 9 1 1 > , S +X> 1 n j > O n ^ > w n M B A B 5 5 5 5 S sX<X> + X w J Z Q q w =X0 O , 0 *Xj b w 5 , > ",
"Z U 1 1 w > > Z > w B 0 9 0 S Z 9 9 M O M 9 S M 1 w > b 5 % n Y M + > 1 9 0 , % j > 1 q 5 ! A b 5 0 9 0 w S 1 5 b =Xb 5 5 b > 9 B 9 9 wX;X0 1 q 5 1 0 9 n S % , 9 9 1 1 > > q b w 9 5 0 > , T Y b 0 1 , &XI 1 , , 0 -XT 0 1 5 n 1 0 , q , w w 1 0 5 9 9 M Z , A I + > 9 1 A Z O O A M o > 9 % M B 1 0 M 1 1 0 9 , 1 w + , Z w % w 9 5 1 O j b > 1 9 S 5X, n w q A 5 > q 9 w j 1 , n 0 I A 5 0 9 B q b Q b > , 9 0 5 9 > % M A w O 1 M o A J A 1 1 9 9 1 9 9 j 6XI 0 0 , 1 5 > D I j 9 M 9 n n b 5 T 0 9 9 , % + o 9 n 0 j > S b > 1 X <XY > 9 1 , 1 w M 5 5 1 b Q n M 9 , 1 j -X5XS M Z > 9 1 > 9 B 9 > S D 1 5 b q 9 9 0 5 0 b ! I , B ^ Z M S M O n >X1 9 > Z M 0 O w 9 9 n Y w A > O 9 D 9 n 9 1 1 Y , 1 M M 0 b B , w *XQ q >XQ n 1 Z w n j 9 1 0 O 9 b q 1 > , w w ~ 5 O 9 9 5 1 b 1 b 5 + b 0Xw 1 0 1 0 0 n J =X0 q 1 1 > 5 1 O 0 b J S 1 > > , , > n J I 0 9 b 9 w w 1 0 q j 9 ;X>X0 + b M 1 1 0 0 Z Q ~ , 1 q I , q B M 1 5 ",
"9 1 1 1 w 9 1 S 9 w 0 w 9 0 0 q 1 0 w > % 1 7XuXQ + O > > 0 Y A 1 , 1 , I j n % 1 1 A 7XM , 1 5 9 > j b 1 b % Z A > j 0 Z T n j B S 5 +XU b w Q Z I I ! 8Xb w 0 0 5 5 1 0 , 1 5 5 j w w A I *Xb > 1 , 1 S 0 5 5 o w <Xb 0 9 > 1 0 1 1 , 7 w j 0 M B 0 n b 1 1 1 , 9 > % U D 0 9 1 O % b ~ 1 , j I n 0 , > 9 1 , 1 , 1 > 9 5 j 0 j 9 0 w 9 1 + D M > w A 1 0 9 1 , 0 ! 0 1 1 9 n M b 9 5 q w M > M D b *XsXn , S w j w 1 D j O O > q Q Z A Q A 5 > b > 1 1 > j 2XS Z 1 9 I ~ O ~ J w , % , R A n R ! q q 0 0 1 9 1 > , M T 0 1 % 1 > 0 j B 1 9 > , B 3XM % b b , 1 % 5 9 5 O M M ;XM > 1 j 1 , , , 0 Q J % q b 5 > > ! M > w M b J A b 1 0 1 w <XlXM + > o S n ~ n 1 T Q o 5 % ~ S 9 b w > Q D ! w O 0 n O b n , D 9 0 0 ~ KX>X9 > 0 9 O b &Xb b 9 9 5 > 1 1 1 , 0 I b 1 J w X 1 j w B B > % > O 5 U q , q 5 1 j M 1 , J b 1 > 1 A n O M Q J + 1 b 0 % D Z , 0 0 1 n 6X1 5 9 5 9 j J 9 % 9 B j > , % 5 n Z 5 , R M b O O > n 1 9 1 9 ",
"9 9 1 b 1 0 9 1 1 0 Z b , R b % > 9 9 J b O 5 Y 0 @ w O 1 Z M O A 9 1 1 j 1 > b , % 0 Z > 1 w 1 , 1 > B 1 1 5 1 >XU 9 n 0 I n O 9 j w M , 1 9 M j T w 1 w 0 B 9 I A O > 1 w 0 5 , + 5 A w 5 + n 1 9 M A q , q 9 1 1 0 1 =XQ 9 0 , 1 1 = M Q n 0 n w j b b 1 A n 5 0 5 O > X > M 9 0 1 Z A , > + ~ ~ 1 9 , > 1 9 n 5 1 9 w ~ M b 9 5 0 5 &X5XT M Z > 9 1 > 0 M 0 O J S 5 1 j j 0 j 0 9 w n ~ Y > A Q M b S n + B =X> 9 O S n 5 O q 9 w B U w Z > > 0 S 9 w 1 , 0 Y , 0 M M q M M 1 j &XS Z -XQ 9 0 D w n b 1 1 9 O j j 9 1 % 9 q A I > > 0 q 1 5 n 1 A % X ^ *X, 5 1 9 0 w M Q Q q 0 > 5 O 5 > > w n Y M 1 > , , % 9 I T A 1 n w 9 n 1 9 0 w 9 A eXY O 1 A w 1 9 1 M J >Xq , 5 J n , n S 9 n 9 O M b , , B A M q M w b 0 B J B T 1 0 b 5 . b , 1 n 0 1 1 9 , 1 , >XS . , O b 0 > > n 1 w 0 , 5 > 1 > , b n 1 1 1 , 9 R &X1 w 5 5 n D 1 , , O , Z &X0 o U >X1 o 0 q M ~ q 1 Z 0 w 5 C 9 0 b b , 1 1 % > 1 b 1 , Z I D > 0 , 9 > J 1 9 ",
"> 1 1 0 b w B M w b j 5 , 1 , 1 O 1 ~ b 9 1 O > > I I O 9 n I 0 5 , 1 1 1 > 1 1 , , 9 0 j 9 0 9 q 9 , + 9 D 5 > S 9 1 q 1 1 , S D > > , n w M w 1 j 5 b , q P j Y dX&X> M B 5 j 5 M B , O + 0 ! T M U J 0 , n 1 1 1 > 9 *XD A 9 9 M =Xq U &Xn > , O D U j S =Xw 0 0 0 1 5 9 > > b ! b 1 > 2 > 9 n J > 9 , 1 b 3XA > n 0 1 1 > 1 9 9 % M M -XY O 1 q 5 1 > 1 w Q Z 1 w n 5 > > Y n , n M M J A b 0 1 0 b 1XfXn o > O U n &Xw 0 Y I X 9 > &XJ 9 j 1 9 ! S R 9 + e q % Z j , Z 1 9 w <XKXQ 5 1 w 9 % J Q q w 0 5 5 > 1 1 1 , w I 5 j J > + 0 9 1 Y q O > 1 X M I 1 9 q 1 9 n n + n Z 9 , > j I 1 1 A Q 9 % > M > 0 J w 1 0 b , +XY , 1 0 1 0 S D > , b M , 1 O > w M q % B S n , % O 0 w , 0 1 1 w 9 , 1 , ^ ~ > I S > w 9 0 O w > 1 1 9 q 0 w , , M n , -X-X1 q > ~ I 9 Z 9 1 ~ M O 0 w M 9 , 1 5 0 j 1 I 9 0 0 5 5 U fX> 1 0 , j M A % 9 0 1 O b ~ U O 9 D , Q n , A 1 w > q 0 0 7 j ~ S q , , A n 0 &XU , , 1 1 I w 1 1 > n <XZ 5 9 ",
", , B U q 0 A 0 M w w 1 I 0 0 0 5 = o O j n 1 0 , ~ 3 1 X 9 6XB 1 1 , , 1 0 b , 1 5 A Q q n , w , D =X<Xw I 1 1 1 1 5 w j > 0 ^ 9 9 0 n 1 q n 0 q 5 R Y b 1 +XD b A M , 1 <Xn 1 > M Z b o w 0 n M Q 0 M , > , Z 1 0 1 1 > Y w 1 M Z M n S q 1 Q U q <X~ n 1 I 9 b n 1 1 0 , 0 w q 9 , , w M Y 1 % 9 9 5 1 0 9 S 1 . U >X5 , 9 5 0 q n ~ ^ 0 9 , , , 1 1 , 5 v Q D % O 9 , > 1 S T B 1 j j 9 w 5 0 9 q 1 Y wXI O , D w 9 9 9 M I -X0 , 9 Q 0 , M S 7 M 9 > Z 9 1 9 n M M q Z 0 w q A U Z J > 9 n % o B % 0 w w 1 1 1 O , q 3X9 O % O M , , 1 b , w 9 > > 5 1 O 9 b q , 1 1 , n ,XS 0 j 1 0 A n > > 1 X 0 R J O 1 ;XY + 1 5 b Q S , q b b 1 j M 9 n M q 1 > > > 1 n 0 1 n U P 7 5 1 1 1 q A , D Y 1 , 1 1 1 5 M T M 5 b 1 U J , b 9 1 0 1 M Z 1 0 0 , n <Xb 1 q 1 0 M , j w > Q M b , , , 1 , 9 9 b 1 1 w 9 J M 1 0 1 *X! > T M 9 1 O 5 1 0 9 1 *XcXU > > o , % 9 b 0 5 9 1 1 9 9 1 5 A 1 , q 9 1 0 0 ~ ^ M 5 , , 1 Y b X X X Z ;X1 1 ",
"~ , =XU 0 O 1 > Y Z n Y ^ q 0 q 5 5 9 , > 1 S T 1 1 > , 1 q J n , 9 , , Y +X0 , M , 1 5 O w 9 1 % I I 7X9 > q w 1 , , 0 M ~ 1 0 j 0 1 % n ^ O 9 j M A Y M 1 b 0 9 R fXQ + , O n B U I 0 b ~ + , O I U b w 5 O ! A *Xn > 5 M , j j % Z 0 5 q ^ HX*X9 9 j w , n ^ n b 9 9 9 > 1 , 1 > 5 S w w Y 1 + 9 n 5 I w O O > + M Q 1 5 9 5 9 n M % w A 0 > > w S 1 , S Q 5 , % b > 0 J 5 5 b b > ~ S , 9 5 9 0 Z b , 1 q M 1 w X 1 9 B b O S Z q > O % 0 w , w , 9 9 w , 1 1 >X^ X Q B 1 0 0 1 , w , 5 5 1 b 5 9 > 1 Z 0 1 1XI 1 w 1 =Xj 9 B , n ~ 1 > n q M , 1 1 9 w 1 w Y 0 0 0 9 1 5X>XX 0 , w w A n % 9 0 , , U *Xq O M B j R > b w 0 5 9 0 q 5 9 T *Xb w + b T 1 S Q k , < , n A 1 5 0 > +X^ 9 5 0 0 , > j 1 % O 9 5 , j M 5 U W , 0 0 % O > 1 1 , > > % 0 T 5 1 1 w 9 O 1 T Z b ~ X w > , 0 0 j w 9 w 1 , > > 9 0 9 0 A j b 5 Z M w 5 9 1 M q , A b A 1 > > > 0 A 5 w q 0 5 5 b q 9 5 1 1 1 , b b , 1 9 0 1 A 0 9 5 9 U I n A j % A D w ",
"n B Z 9 w ! M D <XR 5 M M 9 b w 5 1 q % w b w 5 , 1 0 I B % 1 9 9 > 0 q b M X , <XS % 9 9 9 w j Z >XJ w 1 1 , , 5 % 1 9 A Q 1 > 1 1 > O A J U 0 w M 5 w q 5 0 9 w j 0X*X, o b M 5 0 b q S >XM > 5 A I O b A 0 n q 1 n j , 1 w M n 0 A 0 w 9 A ! A D > 1 n 5 X M 0 , w 0 9 , 1 > 1 1 1XM X , O v 9 , 1 q 1 q 9 , 1 , 1 % , w w > 1 5 , 0 -XU 5 j 1 1 Z b , , , % 1 Y I O 1 ,XU o O j w Q I 1 j n q 0 b M 5 j A 0 , > 1 o 9 b 0 0 M T Z , 1 > 5 , w M 1 U U > , 1 1 1 0 Z Y b 9 j 5 Q n 1 M 1 9 0 9 Z M , j w 1 T ,Xw 1 w 1 b n 9 w 1 9 Q M w > > , 1 0 1 0 j 1 w b 9 R 1 5 5 w >Xn 0 Q 9 0 , % 1 0 q > M sXuX5 1 + O > 9 j 0 9 0 5 , , 0 9 , M M > 1 w > 0 5 U &XA q 5 > 1 m Y % X X 9 $X<XY + 0 0 % Z 5 5 1 1 9 B 9 q 1 1 5 7 5 0 A ~ 1 0 9 , % 5 1 9 ;X1 O 0 9 q 1 0 >XD 0 0 0 q Z I , 0 n > 0 9 w 1 1 > , 0 0 b D I X j q w 9 1 1 5 M 1 S +X1 O , 1 n Z Z 7XX Q w 5 b 1 9 n 9 5 , w 0 1 O > j 5 M S q A , q q 7 1 0 ! ! m < 9 Z b ",
"A 1 9 j 8XKXA , 0 w 0 > I I j b 1 9 5 % 9 1 1 O b S , D J X , 0 M 9 R 1 X > > % ! B 1 0 9 1 0 B w > Z j 1 > 1 B n o n T T X > 5 9 , A b 1 0 D > Z =X5 , 9 1 0 n I , 1 0 B 1 0 1 % 5 M M , w Q w 1 % % 9 b 5 9 5 9 9 0 5 1 1 Y *X1 A J , 0 9 0 > q 1 1 1 w w 5 0 O , M w O =X~ 1 w > -XA 1 M 9 j Q w + n q M 1 1 , 1 b 9 0 Q 1 0 0 9 1 <X,XX 0 , 0 b U n % 5 9 , 1 T ~ q > M M w ~ O q j q 1 0 w 0 9 9 U ~ b w % n S 1 U J 1 9 , 1 B n 5 9 0 5 -XU 0 , w 0 > 1 w , > O 0 9 > M n 9 ! U > 0 1 % O , , 1 1 > O > M U , , 1 b 1 X b Q 5 Y D + j O 1 0 5 b 9 w w 1 , > > 0 q 1 M Z 0 w 0 U q 0 9 1 9 M 1 j M Z n > 1 > , j q , w 0 0 9 w b w 0 9 O 1 1 1 Z 0 1 1 0 1 M j 9 5 1 M U n Z M , 1 1XA M 5 9 9 o 0 0 J n , q 1 U &X9 q n 0 1 I ~ S 1 1 O &X*Xq 1Xn > 1 > 9 w 1 n M 1 0 b <XJ =Xn > 5 1 5 w 1 1 n A n 1 , 1 n 5 5 0 1 j j A 1 9 1 9 , M n O 9 > w Y T M Q n n 1 q 9 0 1 > 0 0 0 5 w , 5 9 9 0 Z ~ 1X&X1 0 q 0 M q j 0 b 5 , 1 9 ",
"S 5 j w S ~ D B > 0 M X 1 A , 9 q 9 1 1 1 O 1 M >X, , O 1 w > 1 9 q 5 w 1 > > 1 % > 0 n 5 , 5 1 , D <Xw b 1 1 n D , 1 1 > O B *X0 X R =X9 o , b S -X9 w w n 9 w A w 0 b b 1 O > % 1 0 w 9 q I T b > 1 1 , 1 D 1 b Q 1 , 1 1 1 1 b Q S 5 w 0 A J 1 n 0 , n > M A , q w q n 5XA 1 w 1 w M 1 b 9 , Q Z w > 1 > 1 1 5 0 j 5 0 n 5 ~ 9 w 1 b 1XM 1 Y 9 0 > % 0 q j > b 0XqX1 1 O O , 1 M q 1 1 1 , 1 9 0 > B M , 1 0 1 q 5 Y -XA 9 , , 1 B A , . X n +X6XD O 9 5 , D 1 9 1 9 0 A 5 0 , 5 w 9 0 w U I % w 1 O % 9 O A &Xo 1 9 0 0 , Z 1XZ w 0 q n S b , j w 5 9 w 1 9 1 1 5 1 b b ~ w > n w 9 9 , 5 b n , ^ S O o 0 , A 0 1XY 0 &X, w 0 , M 0 1 1 0 w 1 , O 1 5 5 I w B 0 9 0 j 1 , I ,XJ 0 , b 9 j 5 0 b 1 j 1 w 1 , > 5 q A b 0 , > D b % Z j > > Y A b -X9 B w 1 9 n w n n j 5 b -X> % Z w 9 , n 1 j o U lXQ > 0 1 O w 5 0 0 , j q B w 5 q 1 > 5 w w 1 5 0 > 9 9 b M 9 , > 0 0 B M 9 n 0 > 9 M 5 % I A n M n , 1 >X*XI O O 1 0 0 , w Z ",
"w 5 w w 1 > b > 0 > w w 9 1 O 0 M 1 9 <XM 0 9 M >X9 0 b , S U O 5 j B b 1 1 9 9 b 1 B B 9 9 9 1 A fXb > 1 0 q n T , > q 1 > B ^ I O 0 T , R M , D 9 5 1 0 0 w 1 M Y Z j % w J j w Y Z 1 , 5 w I 1 9 0 % T ^ 5 , 9 b 1 % 9 9 > O 9 5 , q Z 9 Y +X, w 0 % O 1 1 1 1 O % > w Y , 1 5 q 1 > 1 T w S ~ O j > 1 9 q 0 0 0 w 1 , % , 9 b 1 b n j M 0 Y b 9 9 1 9 b 5 b Z A A % , O , j q , j 0 9 9 q b 0 0 1 > 5 , w Z , > 1 9 0 Z b 9 9 1 D U b Z n O b =XA w 9 0 1 + q b D n 1 0 5 ^ R > 0 q 0 > R ^ Z 1 1 9 ;XY M >X1 1 , 1 5 w 9 B b 5 1 Y =XI ~ 0 , 9 9 9 b > w M n 9 1 1 q q , 0 9 9 0 M j 9 1 1 1 9 I 1 1 9 1 Z -Xw ! J n n 9 w w 9 % 1 0 9 9 9 1 1 9 , w j I &X0XZ , w 9 w b b 9 b 9 , M 0 > 1 0 9 1 > 5 w , O , 5 5 > 1 A 9 0 1 1 9 n B 1 w 5 O % , , w A 9 M 1 9 Z A U 0 , , 1 b S 9 U 1 j j 0 1 w D 1 1 9 M b 5 w 0 q j 9 1 5 1 1 M ,X, b n j 0 w > 5 9 + > n b n M , U 8X*XJ Q 0 1 9 1 1 1 j B 1 0 5 , O Z Q q M b , 1 w 1 I q ",
"j 9 w 0 U n 1 j > 0 w 9 S M 9 w n > ! 1X0 9 9 1 A w q j > M Q b 5 > % 1 , 5 5 b q 1 n 9 D U , w , ~ &X, A B 0 9 % , 0 q 0 , +XhXR > > o , 1 0 n w 9 9 1 , 5 0 , b S 1 , 9 1 w 0 M <XU j 1 > , j S 1 o + 5 ! >XY > , 0 > M w > 1 1 5 Z 5 j , 9 j 9 9 j M Q 1 1 0 > X 9 % 0 6X, , 0 9 w > b 1XU j 9 9 M Z Z > n M 5 q 5 0 0 1 > 1 9 j w ~ n % 0 w 9 1 1 5 q Z O ~ D O + 1 1 M w 1XI 1 ! > b 0 , M w 1 1 w 0 9 % > 1 q 5 U 9 n 0 9 q w 1 1 T <XA 9 1 M 0 b 1 w q 5 w 1 0 1 1 > 9 n J q 5 1 1 T 9 5 M q X 5 ~ n U &X1 B 5 1 w n w M j b , U R o 0 B 0 9 5 M , 9 O <XuXb 9 9 > 1 0 r w 5 1 n j Z 5 0 w 1 1 w 5 9 1 0 , 5 0 1 Z w 1 , w 1 n M j 0 n > , n w 1 b Y 0 M S w O U ;X~ 1 + > q 5 1 1 O 9 M Z > 1 > 1 n , j M j , 5 , ~ &XU O ^ I 9 w n U Q 9 O , b > 5 9 A B , S M , 1 0 1 w ~ A , 1 , w 9 9 q 5 1 0 1 n T w w 0 b 0 1 1 M n n , 1XqX0 w q Z A q 0 > Y U <XS b w 9 , , n D 9 Z 0 0 > w j b < Z I b , > 5 q , 9 J n 1 9 Z 0 Q B ",
"1 M M 5 *XS > w 5 + > 1 , 5 , , > O S S > 1 0 0 5 % j U , +Xj 5 9 , 5 w 0 j 9 j 9 > 1 O 1 w 0 9 Z 0 M 9 A I 9 9 7 , n q 1 M b ! 1 , , % 9 b 1 w q w 1 0 n r 9 0 > O 1 1 n w O 9 9 w b Z 5 9 9 b ^ B M b < , ;XY j 0 5 0 O 0 q M M 5 n 1 I R 0 0 q w , J =XA 5 1 > ~ +X0 =Xn , 1 , 9 q 1 M b 0 9 Z >XI =Xb 1 5 0 1 w 5 1 n M 0 1 > n n , 9 1 q 0 M b 1 1 1 9 9 I 9 1 9 1 M *XM Q A M n 5 j 0 9 1 9 0 9 5 0 1 1 5 , w b S >XeXn , w 5 w n n 1 b 0 , Z 2 O 1 w 1 1 1 1 w , O 5 , 9 O q Z 5 9 1 > 9 M M 1 b > , O , 9 j D q b 9 q Z S S 1 > 5 1 M M w S > n j j O A M , 1 b M 9 0 q q 0 w 0 1 1 1 1 Q J > Z b q 0 9 , 0 > % q M b M 1 w >X6XU I J 5 1 0 1 , 1 I 5 0 w 5 % 9 ! J q n 9 > w 1 1 5 1 1 0 1 M q > , 0 0 1 w 9 9 1 9 w 9 1 1 b 9 w Z , 0 1 1 n M 1 , 9 1 w 0 O b w U 0 w 0 M , w w 1 O b 0 D &Xq 9 9 b 9 , w 1 0 0 b b Y Z D 1 ~ ~ 9 w Z B q w M , 5 D ! n , O R 0 w , > Z n O 1 q b 0 1 C ~ =XsX0 0 1 0 q > 1 , j 0 > 9 1 0 ",
"M 5 q 1 0 9 1 0 w J A 1 w 5 + O 1 > U ! O , 9 9 0 % R ;Xn b 1 q j A 9 1 M 5 9 9 j 1 9 > 1 9 0 b Z R o 0 0 q 1 1 9 5 B 1 n >X9 o , 1 q M M 3X+ R 0 9 w 1 b n 5 1 3 w 9 1 O 1 w 1 Z w q M 9 q w 5 1 M =XU j 1 M q j 9 5 w 0 j 5 b , , > 5 j U z q 5 > A n > Z w > > ~ J b -X5 B 0 1 9 n q B b q 1 Z +X, 1 A 0 5 1 n 5 1 > >XqXM 1 0 > , 9 1 0 9 1 m j Z 9 0 5 , , 0 5 9 , w 1 1 b 1 S w 1 > 0 0 w n w w b , , M w , j U b I D w > Q -XQ 9 o , b 9 1 > > 9 M M , , > 5 w 1 w Z n > 9 5 -X&XB , &Xm 5 b n ^ T , , 1 9 , 5 q S j 9 U j , 5 9 9 n ~ M > 1 1 b 1 0 w > 5 q > I Z 0 w q w 0 1 9 M n 0 w sX*X9 q j D n q , n S ~ ~ b w w 5 > j A Z M M 9 1 9 0 M 0 1 Y j 1 > , 5 5 % Z T 9 , Z n 9 w w > 9 + n 0 1 M A w 5 Y 5 > > 9 B 0 9 S n 1 1 , w , 1 > D w b j , , > n B A 5 M 9 ~ M , j ! U ~ Z J n O > , , 1 1 % 1 b B 1 0 w n 0 w R 9 X X 9 0 A 0 1 9 q 5 , , 1 1 Z n j 1 Y B S ,XA O , 0 ^ U b % B B Q , Y 0 1 5 , > , w q 1 1 q 9 ",
"M 5 R J 5 w w 5 1 ~ ~ n 1 , 9 <XB Z *X, 1 , 1 q 9 0 M 9 q 9 ~ Q ~ ! , 0 5 1 9 0 , 0 Z j 9 , 1 n 9 9 9 1 n q S 1 1 1 5 1 Z Z > 0 , 0 ! U B +Xb M 0 0 w 9 > 1 9 0 5 9 5 > 9 1 9 b S Q <XQ > w 9 0 b b 9 b j % n j + 1 0 9 1 1 1 0 1 % , 1 0 % 9 M 5 1 9 > 1 j b > w 1 > 1 > 9 w A w n 5 w Z J S 9 1 5 , M Z 0 I > n j w > Z I , 1 j Z w 5 b 0 w w 9 1 1 9 5 Q S 1 M b 0 0 1 , w O O 9 M n B 1 w 1X<XI R Z 9 1 0 1 1 9 D 0 9 q 1 > 0 &XA w n 1 , w 1 9 1 5 1 b O A 1 , , w w 1 n 5 9 , j w 0 1 9 j 1 M b 0 9 1 , Z Z > , 9 1 q 1 > n b T , 0 b j 1 b 0 > % M 1 *XU 1 0 w b 1 9 9 5 w w j A Y S b w <XA 1 M A Z 9 Z 5 9 0 ~ I n   M A , q > 9 M , 5 5 n 5 b , ~ R sXQ , 9 0 w 1 > 5 1 b > 5 9 5 j , 1 q , 1 0 n n 9 7 , 1 >XD % w , w A T B 0 1 1 , , , , 5 w 9 9 Z 9 1 w M A S 9 1 b 5 > &XM B b o o q U B 5 9 1 M q 5 A 1 9 Z j 5 j D Z 1 9 w 9 1 5 9 n 0 > 1 9 , 1 dX^ n A Y b b 9 A Y b 9 &X+XA O b Z O 5 , > w 5 1 O 9 5 9 0 w 5 n ",
"O 9 M U 0 0 1 9 S 1 0 Z 5 + n >Xj T T w b 1 1 w j b B w w % &XA O M M 9 1 j q q , b wX>X1 9 9 % 9 5 5 w 1 w M n b 1 0 1 > 1 0 5 1 5 w % M , n M 1 1 , 0 w j b 9 n 1 , b j 1 1 T w B Z M o A *XT b + , 0 0 5 , O 5 j M 1 > , , q 1 w M M > 0 > Y &XS % Q U w q m Q ~ 5 + , w , 0 0 D n 1 T n 9 1 0 5 j ^ D > 1 , b 1 0 w > 1 0 1 Z A j 0 w n 0 1 9 M j w j wX*X, w b S b q > M I ~ &XM b q , , n U M n n 9 1 9 w M 5 0 I n 5 , , 1 1 O A S 1 1 M j 9 w 5 > 5 > M 1 9 B A 9 b J 1 % > w B 9 w J w 1 1 3 , 1 1 1 Z 9 n 0 , , , M A M 1 M w ! 0 % A Q R Q M R , 1 , > 1 1 5 % 1 B n , w 0 A 1 A A , . 1 5 n b 9 5 1 0 , , 9 1 w A q q w T b ~ ! , > , D &Xb , b n ~ 0 Z b , 1 1 > + 0 q 1 1 1 , % 5 &XY 0 n 0 w 1 D M < 0 uXsX> , 5 0 w ~ M 9 % w M , ! ! o q 9 n D 0 I J ;Xn b 5 9 , 1 , 9 q 1 > b A 1 Q 0Xw , 9 Z A 0 9 0 0 j 9 % 0 ^ Q , M b j 9 0 b 1 1 0 9 n 9 , n n D n A , A n n lX! X A J + T A , B 1 M w O % 1 9 1 n 0 w b > 1 ",
"> 0 5 > 0 M > 9 9 % 0 Z j > 0 > > , 9 0 Z M b w 9 j Z U M 1 1 1 1 A w Z w 1 M 0 9 1 Y b > 0 M j 5 w j w w q , 9 5 w q &X9 n M w 0 0 > q 1 % O M n n b , Q 7X+XS U 9 , 0 0 1 , D w 9 1 0 O > Y T q b 9 1 9 9 1 0 1 > q > j j > , w b 1 b 1 1 1 0 b 9 1 0 w 1 0 B 9 j 5 1 b J 1 O 0 1 j 1 > M q T 9 0 w b 5 w w > % n 5 ^ Q 0 9 q n 1 1 0 5 0 n j Z Y I n w 6XS 5 M Z B w M 0 9 w +XT n   B I 5 9 , 0 M % 9 5 n 9 q 9 ! Q sXI 1 9 0 w , > 1 9 b > 9 7 9 j 1 , w % 0 9 B M 5 9 1 9 <X9 1 0 > j D A M 9 1 , > , , , 9 0 9 q n 1 0 n B J B 1 0 b > j *Xb D 5 o + M J w 9 , 1 M , Z n 1 j B 9 5 n J 0 0 9 w 0 1 5 w b 1 1 1 5 o ! wXb A Y I 0 Z 5 T Z 5 A ,XR 9 > A , O b X w w 1 > 1 1 0 9 w 0 O 1 ! =XZ Y M 1 9 S <XS n A Y Q > q w 1 > o 1 j 1 9 1 1 Q U O j w A % 9 n j b 0 w 9 9 9 0 1 , 0 Z , J I > S 6Xw , 1 , 1 9 9 n 1 w , 0 D > , M M w n 0 9 w w 0 > Z I w 9 0 M , b b 1 M Z , S w j > 1 1 w w w 1 5 =XI , 9 w 9 0 b q j 9 , O ",
"M 9 1 1 9 ^ &Xq 9 &XZ 9 q A ~ S 1 + 0 , 1 9 b D 9 j I w , 1 9 1 I Q 9 , 0 0 q 1 w 1 1 1 9 w U b q w j w , 9 w w b 1 +XlXq q w Z Z j 0 5 U S >XM n q 9 > 0 S S 0 D 1 0 1 w n w 1 I M 9 , O 1 1 > w Y 9 > M n 9 w 0 , , O b w , M A 0 1 Q w , > 1 Z 0 0 D n 9 % 0 0 1 > 1 A 9 b q , 1 > M B M 1 M 9 *Xb > M +XQ Y M U 5 , 1 > , 1 1 > 1 Z M > q q Z , A J , X , 9 M n 9 0 w 9 1 O 1 1 9 M w 0 w R b +XQ 9 O > I ~ b > j M &X5 D n , 9 9 O 1 1 b 1 0 1 1 % w &XA q j 0 0 5 S q 1 n lX6XX 1 0 9 b &Xn 1 1 M n 1 ,XA > w 1 M M 0 D T &Xq b 5 5 , 9 , w 9 1 % A w q ;X,XO 0 9 S b w 1 5 w w , 1 j 1Xq 5 M b 1 9 0 w 1 1 q b j 1 9 M M b J w 9 J > 5XwX1 , Q 9 b ~ 9 b 0 , M > % % 9 , w 0 j b w 9 5 S n , S n 9 0 Z b A B B M 1 b M 5 q 9 , 9 0 % 9 1 0 Q , , 9 q 5 M q % 1 0 9 1 9 0 , 0 1 b n , Z I A % B S j , 5 w j , 9 M 0 5 J w b 0 n Q q 5 1 1 w B I S > 1 0 n 1 w j 1 1 9 0 *XQ &X+X+ 9 9 b 9 q 1 0 0 O 9 1 O b I 9 1 b j w b w , ",
"1 b , 1 5 w q 9 1 0 q O A b 0 w 9 > Z M > , 0 0 q % 9 b Z U > 9 n q , b 5 O 9 w j =XM 9 9 j b > 9 9 0 9 n w T I D , ^ ;Xw w B A n w n , 9 S ~ A % > R 1 0 1 , M 1 1 1 b 5 q 1 U Q 7X5X, 0 0 w 1 % , 9 b 1 1 0 5 n 1 1 0 1 , w n Z 5 5 9 , &XZ > 0 1 1 B D M b > , O 1 % , 1 9 9 9 M 1 w q A S Z 1 0 M 1 0 ,Xn Z 0 + X b I j 9 1 1 M 1 n M 1 q Z 0 0 j D q w 1 w 1 9 1 0 b 1 , 1 5 + ^ uXM B I A q M 0 T M 1 I =XU 9 1 D 1 1 j O j 9 1 , , 9 q 0 0 0 % 9 &X>XB U j 1 0 U ,XM j S Y Q % w 0 1 > X 0 0 1 5 1 9 -Xn > n b M O w D w w 0 w 9 9 9 5 5 O B M 0 Q b > *X&XO 9 > , 9 1 b b 5 w > S n + 9 D j w n w j b 9 , 9 U A w 1 Z b 9 D 1 1 Y % A j M 5 1 1 0 b n 9 1 S ;X0 , w 0 9 B 0 q q > 1 0 n 9 O 1 w 0 B M % b 0 w M A 5 Z 0 > 9 > , 1 , 1 9 1 9 9 0 q 5 1 n 9 b 1 D Z , 0 9 w 1 q 0 > b Z > +XM o O > 1 j n n w 1 0 b 1 w S Z 0 1 , X , , 1 1 5 R b 1 9 , 9 1 D *X1 0 9 Z D Y , U Q Y O 5 1 1 > D Z % 0 1 , > 1 0 w w 0 n q w w ",
"n U , , > w n 5 b S w 1 1 0 1 1 O w D q b w % 1 5 A M n 0 n A ! , 1 Y U R U B U O 1 % 1 , 5 % 1 0 A 1 0 j n n 0 Q q O X 1 j A 0 1 0 w 1 1 1 5 9 M b n 1 R j I =Xb O , M >XS 9 5 n Q J 0 U , > 1 1 % 1 w 5 1 5 , > , Q T 0 n 9 w 1 B A , 9 eXfX, , 5 w q *XZ 1 , j A % *XU O 0 0 b M j I Y =Xw b 1 5 1 1 > 5 w 1 , n b 0 =X3X1 5 9 J Z 0 1 9 q j 1 , j 1Xn , Z b 9 9 b w 1 9 w w b 1 9 Z A M J 0 q A 1 8X0XO 9 ^ , n Q 9 b q 5 B % > > 1 1 n 0 b b 0 5 9 T w 1 U q 0 q M M J M D n 1 M j 1 0 0 , 9 e O w , b I 1 , 5 w 1 Z 1 % 5 9 1 0 9 0 9 9 1 B 9 1 S I n > Y Z 9 1 w M 9 1 j b 5 n S 5 M , ! A 9 9 5 1 j M Q w , 1 n 0 0 j 0 1 > 0 Z 5XA 5X, 5 1 n 0 5 q , 0 > , 0 > > Y w 9 9 b b q Q <XY J Z 9 > j 9 Q M 9 5 n M M n , M % w 0 5 , , > B ~ 1 5 j 0 + 1 b , 1 > . b j 9 Q M q S q 1 1 B , 1 < 5 > > 1 , j b A j 9 A M 1 U S , 1 5 1 0 1 O B J 9 , > 0 1 , 9 w 1 1 9 1 5 w , % X U U 1 5 > 9 9 , r 1 1 1 1 1 , Z n q S ~ 1 Z 1 C ",
"5 , w -X1 9 w > w A D n 1 1 1 > 1 , 5 9 9 1 b w > j b Z D n , b j % A *Xb I 1 o O S M w 9 , w n , D 0 1 M M 1 0 I M 1 0 q , 1 9 9 n 9 1 , 1 , 9 lXI M T I q n z A M 1 9 >X&XA + I 0 X n > 1 w 1 , 1 1 9 0 9 0 > 1 Q *XU I M 9 0 n 1XY q M R &X% 9 w 1 > X 1 w 1 q 9 , -XS % M j B , 0 A j n 9 w 0 0 , 9 9 > n M , Q Z 1 +X=X, 1 5 , r 1 j 0 1 5 O S b > , Z w w b 0 w w 0 > 9 T D 9 9 M j 9 I 9 0 I > A b n % 9 9 5 b n 5 > I -X1 9 q 0 9 M 0 b q > 7 5 B , % 9 0 0 A n O n 1 n B b w A 5 > 5 , , 1 > 1 9 1 9 9 q b , 0 n 0 1 w I q 1 0 9 1 q q 9 , D b q *X, X + O w 0 j j 0 , b w , B Z B , 5 + > , , 1 , M Y 1 9 1 , w , 1XM 1 0 b S Y q B I ^ 0 > 9 1 1 0 R 1 1 0 , , % 1 q q 9 n j Z R B R J M 5 > J wX@ Z q B b 9 =XM O r J w 5 1 , 1 > 9 > > 1 1 j Q Y 0 b 1 , % O + 1 A 9 w 1 I &X5 % 1 % S wXw 1 1 9 > 1 0 q , n Q , , 1 5 9 q j 9 1 U 5Xn , 1 5 M q 1 , r 9 1 S M n w 1 9 9 > 1 w B 1 % , 1 9 9 , 5 q , M <X=XM Q q S 7 w ",
"b , B xX>Xo , 9 0 Z *Xb 1 , B j 0 >X9 1 0 q Z b n S &X~ q w 1 5 > 9 1 w 9 > 1 D 1 I 6XT + w M S w 0 1 0 q w > 0 S &X> M M j 1 w w 9 , 9 0 M 1 1 n B M M B 5 U 0 T hXM O J Z > ^ 0 w M > M > O O 1 , w 0 w b j , 1 S Z > M M 5 w Z w I n A A > M B 9 w 9 1 0 w O 9 9 9 U , 1 5 q 9 M 0 O 1 , 1 9 5 0 1 q > B 0 1 A S B + U A 5 9 0 b 0 1 w n 5 n A 9 n , Q I 5 9 9 1 b M Q 0 1 , j 0 5 q w , , 0 B 3XM 7X> 5 5 b 9 9 q , w > 1 1 > 1 I w , q M j j ! 1XR D n 0 , q q Q w 9 9 B j A w 1 q , b 9 , 1 1 , S T , 0 b 1 > 0 w , , > + n 0 b U w n Z 9 1 9 n > 5 5 1 + 1 > 1 w M B w b A 0 b ^ j % 1 1 1 9 > > U M , > , 0 , 1 0 0 1 9 1 1 q 9 O O 1 ~ b , , 1 1 1 > 0 O 9 , 0 O M b w j &Xb b R U P j M 9 5 0 ~ *XI T 9 9 9 w sX&X% 1 j + 9 5 9 b ;Xj > 1 9 1 n &X9 I Q % Q Z O 1 5 9 j w 9 Q A 9 M 1 5 q R J , 1 1 0 , % 0 w , > 1 9 I w , 1 9 0 M Y J 1 % 5 1 1 1 b , 9 9 , Y *X, 1 1 b 5 M 0 1 9 , , 0 b 1 n n 9 0 % I lXw 1 B w > P 9 ",
"D w A ^ Y > w w , + X w 9 , w > n >X0 9 j M b % M A w M 9 w 0 9 9 5 1 , J 0 z ! 1 j 5XA > 1 > 1 5 5 b 9 9 1 9 S 1 % n M 0 M 0 b n q , 1 S U w 9 b S , B Z > J q 9 A w w > 5 5 w 9 0 1 w <Xj 1 9 9 9 n q b j 1 > 9 B 0 + 5 0 0 n D O n 9 w M Z 0 S 9 1 , , > , > 1 9 1 9 0 0 b 1 1 b 0 9 1 S b 1 9 0 9 0 q 0 > M M 0 *X9 o O O 0 w b b w , w 0 1 M A Z 1 9 o > , , , 1 M T 9 9 1 1 0 1 <XM 5 9 n A Q q M U Q 1 1 1 0 1 w Q O 0 0 , 1 1 1 j w 0 n j J Y A R A q 7 O &X<XX D 1 A w j =X0 % w S 0 0 % 1 , 1 q O > 1 5 j *XM b w 1 , % O O n Z 1 w 5 ! I % > > , ;X*X> 1 1 1 , 5 j 9 , Y M > > 0 9 5 n 9 , j =X^ , 9 1 b Z 5 , 1 1 5 n D n n 9 1 0 1 , 9 Z 9 1 O , 1 1 9 , 0 9 5 ^ 3XS ^ J q <XM M 7XY D 9 0 > X *X! 0 b 9 0 ;Xn 9 b 1 0 > &X&XO M 9 > b , q w w n A I O 9 w B T Z > 0 S U ~ M R U j q w 1 q 9 0 w q Q +XM B 1 0 0 1 M Z > > 0 9 w 1 , , , , 5 9 5 j 5 9 1 , > X 1 9 I , 5 5 1 1 w 0 , 1 > M 0 D , 0 9 U j O 9 9 9 1 <XI ",
"I b Z n , S j j 9 9 9 0 9 % w 1 B B , 1 1 q 0 A , + , 9 1 9 0 9 0 1 9 Z > w I S 1 0 Q M 1 1 0 n 1 1 M j 1 A q n 9 b ~ w 0 1 5 9 M I J > > 0 b 1 q 9 5 5 1 n ;XU ,XJ % , n 0 5 0 1 9 1 , 0 , + I Z , 0 b b w U 6X^ B B w % w w Y M 1 5 B n b A > M O w w 1 1 1 > A Q , 9 b 9 > 9 n 1 , , o M w 9 ! n n Z j 1 1 n % 0 1 0 + 5 > 1 j M B j w A 0 5 R n % 1 1 , 0 > , I n 1 1 % 0 1 1 0 1 5 9 , 9 w 9 + % 9 &X1 1 , 5 5 , > 9 , 5 , 9 O n B 9 b =Xw n Q R A 1 B 0 1 w =X^ U I 0 9 9 n cXS O 1 1 > 1 0 9 U *X, , 9 1 1 A ~ 9 +XM 1 ~ 0 % , 9 9 n 9 j T b j j 5 1 M +X0 1 5 0 9 > < j 5 , , 9 M A 1 1 5 9 9 D Y M X 1 1 1 1 w 0 1 w , 9 1XM , 1 q q 0 M > 0 1 O 5 n 5 b b 0 9 5 = hX+XO M M 1 B 1 S Q I b 9 O 1 % , , b w 9 , 0 B J Y n 9 0 ,X9 > 9 b O n q 1 q 1 1 5 + 9 0 U >XM , 9 1 M Z M 9 1 > 0 B 0 9 M w 5 5 , b ! M 1 > I j 0 5 > q 5 1 , 9 b 1 9 1 j n 9 9 0 w 5 9 0 A I 1 j n j w 5 0 A , , 5 1 , w M w 9 9 Z n 1 9 > 0 w O w D ",
"n 9 w Z w b Z 5 , 1 O 1 > , 0 1 1 w 9 q 0 1 j b q 1 b D 9 5 1 0 1 q 9 5 5 S 1 U R + + % , w b M w 5 1 b 9 5 S S q 1 , O 1 > , 1 0 Y n 1 9 1 0 1 I ~ , 0 9 S Y I 9 T Q A > 9 1 9 1 I q % w 5 > 9 1 b 0 w j b J ~ D D S q 0 > Z wXO A n j M 9 *XD O 1 I 9 9 , > 1 , w > O 5 9 9 ! I q b 9 > X > > w S w 0 1 T R , > , O ^ >X1 1 1 9 1 5 q 0 , I S > 1 9 5 5 n 0 1 w =X&X> 1 5 w M 5 , 1 9 1 M A b M 9 , q 9 , 0 A 0 % > 1 5 1 1 1 q 1 w ~ 5XA +XB M >Xq U 6XJ I 1 0 % > ;XJ 0 b 1 M =Xw 9 j 1 0 , >XD , n , 1 n > n , S 9 I M + w w A ^ w O Z A ~ J Z R D q 9 j , b , q 9 S -XU A w 1 0 0 1 S 0 > 9 w 0 0 1 > > , 5 0 1 0 j 1 9 , , + O > A w 1 1 9 1 5 0 , 1 > 0 b n b , 0 n S % , 5 w 1 O , , 1 , S S Z Y 9 M J 1 > 0 9 b w q w q 5 0 1 M U 9 A , , 9 , + , X 1 1 % o U I w A w 1 1 , , 1 0 O 0 0 9 5 1 7 9 , M 0 w 1 1 0 > 9 9 9 1 > 9 M , b =X9 1 S ,Xb , w z 9 , 5 > M S O q > U Y S w 0 > n n 9 9 9 w 0 j 1 j I n > 0 5 % 1 O b ",
"9 B 0 A n 9 w , b 9 1 , 1 1 Q A > 0 b 1 1 q 9 , , % , Z 1 S Y w Z B 5 > n 9 > 9 9 5 > 1 > e w A j j Z n 1 D R , > 5 1 1 1 > Z D 1 1 % 0 1 > 0 0 5 9 1 1 0 j % , X Q D 1 , 1 9 1 % w > 5 > 1 , 9 S 0 0 ^ I 0 I Y I w w q 9 0 Y >XS Y 9 q 9 9 sX*X, , w % 1 1 9 M >X9 , 0 1 1 Z ~ 9 Y Q % ~ M X 1 9 9 M 0 w ! M 0 b 5 9 M ~ b , 9 9 5 , > w 9 , 1 1 n A 5 , 5 9 0 S Q B O 1 1 1 , 0 0 1 0 > w <XB , 1 b 0 9 M > 9 5 % 5 M 9 j b 9 0 1 1 lXY O M M 1 M 1 Q T S j 9 > , > 1 5 b b 9 1 9 A Y Y w , Z =X1 o j q O A , w 9 , 0 , O 0 w ~ *X5 1 9 1 A Z b 0 , , M M q w M w 0 , 1 J Q b > 0 S 1 q > 1 9 1 1 , w q 1 9 1 M 9 0 5 w 0 1 9 w U q q M w j w 1 M n , 1 9 1 0 n M 1 0 9 D 0 1 1 1 q 5 > , 5 1 > A j D Z b I +XM 9 b 0 w j 1 1 j 9 1 , J I n Z b o 1 1 M ~ 9 O 0 Y 0 X , 1 1 1 9 b 1 9 6XJ O w 5 9 1 , , O 5 b M &Xj 0 A 9 5 1 b 5 5 1 w n , 1 5 9 0 U Y Z 1 5 , O 1 , , o w 1 M M 1 Z A I 0 >XU 0 9 w 1 b w 9 9 M M , 9 0 9 9 5 0 ",
"q Z w j <X0 , w A 1 5 > 1 > 1 w % > 9 1 q >Xn b 0 , > > O % M M 9 0 b ~ M O 1 > 0 7XA 1 > 1 1 1 9 q 1 0 Q 0 > 5 0 9 9 b 1 > R <Xb , 9 9 M j 1 , 1 , 0 D n n 0 , 0 b > 1 B M , % > 1 1 0 1 w 9 1 Y <XY I U 1 >XS b 7X&XS 1 1 1 X R *X0 w 0 9 =Xb 5 q 1 9 1 *X~ > Z 5 > j , w 9 b w J J > 5 q Z Q n , w U Q R A Q I w 9 w , w 9 w q n -XT S w , 0 9 1 D q > 0 9 1 0 1 , > 1 , 9 0 w w 1 9 1 > o 1 % S 9 5 1 5 9 5 0 , 1 % q 0 M w 1 5 B A O , w 0 , , > 1 5 , T Z I A 5 A S , 1 9 9 n w q 0 q 5 q , I J w M > 1 0 + O O + 0 2 + > &XM w T 9 , 1 1 > 0 , , j 9 1 1 1 9 , j j 9 0 1 9 5 , q 0 9 , 5 b b > ^ T > q =X~ 1 1 j w 1 1 5 1 R 1 9 5 b &XA Z w 1 1 D 0 1 1 0 9 j w 1 S B , 1 9 1 % 9 1 > > 0 ^ > O o > Q >XI 9 > 1 , 9 &XZ 1 r 9 9 0 D w j 5 , 1 1 M Q ~ > 5 n A R , w , , j A , , ;XZ > > Z n > Z dX&X, , b R 0 > w j q 9 1 5 , 0 *X0 q 9 , w 5 n 1XB 9 1 , 1 b 1 9 1 b n 1 > 1 , 1 b 0 n 9 w 0 9 9 % > j 9 , 1 9 , 0 5 1 A > ",
"0 0 9 M fXS O 9 9 , 1 0 5 Y ^ > 1 0 1 0 I U 5 -Xn j Q > % 9 5 0 z 9 M ! q w b 1 0 I ^ , 5 9 1 1 % 1 w 1 > 1 9 S j > 0 5 w w Y T , > 1 1 9 5 0 1 0 0 > ~ +X> 1 5 b , B 1 , w % , b b 1 b 9 0 w o 6X0X> n A 1 M w I T U b 9 1 > % 1 9 j n 9 , 1 n I Y Z 1 w >Xj O 1 n + A 0 9 w > 1 1 % 9 b I ,Xb 1 0 , S A w w 1 , w Z w 0 M 0 e , 1 Z ~ j > q I 9 0 > 5 9 1 , 1 j w 1 w > Z 9 0 5 b 0 1 1 j J 9 0 n 0 j w , Z j , 9 9 1 w M n 1 9 b M 9 9 , 1 j 1 O , 0 > 1 A w U n n U ! n 5 b q q w O 9 j 9 1 1 I D b A 1 O 1 1 U T 1 O M D 2 X 0 , w r w n O D 7Xb , q 1 0 1 5 > O w w R Y 1 n M 1 , 1 w 1 1 9 M 5 1 5 0 1 Z Q Y w 1 9 + > 5 > O , M 1 J 0 5 U M S M >Xw w 9 9 w 0 0 1 b B 9 1 9 0 0 9 w q 5 , b w 5 q O B -XQ b > 5 q w =XJ 5 q 0 9 , 1 0 9 > b M % 1 1XU % 9 1 1 1 e w 1 , b w Z 5 O > , 1 > S b 0 qXU 1 9 M I 1 9 5 9 9 M 0 0 1 Z *XM 1XM 5 0 > 1 O % 1 0 5 n 0 9 0 , 0 w q w w 0 1 q w 9 b J Y , > M M M n 1 w j 5 9 9 5 Z ! ",
"0 b 1 B *Xw 0 w , 0 9 7XM 9 Z > 1 w > B 5 n q ~ j % j 9 U R 9 , D A =XB U ^ b q 9 q 0 9 9 w w T &XA B 1 0 0 , b M 1 > b 9 0 1 > 1 , > 0 5 9 M 0 1 1 > % > > w A > 9 1 9 5 w 1 1 > 5 n w M 1 1 j U < O 9 w 5 1 > % 1 , Z ~ n Y w n A 1 0 9 q w j 0 w 9 0 9 1 M R b M > 5 9 O % > O , 9 % + *XS n I 5 5 1 1 , 0 1 > b 1 1 1 1 9 1 9 M w 0 1 0 1 1 w 0 1 1 1 w n > Q Q > w &X&X9 1 q b , 1 5 1 Y 9 0 9 q -XM Z 0 , 9 A 0 1 0 1 9 b 9 5 A Z 1 5 0 , , 0 1 O , j Y O O X 9 ~ 1XA 1 , 1 > b >Xw 5 5 0 , b S w j 1 , 9 1 I ^ U X 9 B D A 1 1 , 1 n Z + b >X5 , 9 A j % &XfXZ > 1 I A > 9 q n 9 9 1 9 > T Y 0 0 1 5 j , ;XQ b 1 , > b q 5 9 1 I 1 , , 5 1 0 w b w 9 w 9 9 1 O w w 1 1 0 > 9 9 9 9 , I <X~ , > , % , , j 0 1 q O 0 I sX0 0 j n 0 0 5 > 1 0 0 A b O Q w > 1 n w 1 9 1 1 > n n B B % B 9 D ;XdXA 1 1 , w M 1 w 9 n M > 9 1 9 9 q w > 9 j n j q w 0 Y 9 . 1 9 w % > 1 , > 0 B w R n , 1 q 0 M ~ A > 1 j 0 Z q 0 w 1 w q 9 1 R 3X",
"n j 1 , 0 A Z R w , S >X, O 9 1 , A > j 1 1 w O , q B -X! , 0 1 9 I M q 9 1 , Z w 0 w M 0 0 , 9 ~ A 9 O A n 9 0 > w , 5 > 0 n 5 1 1 M b 0 5 w w 1 5 0 A M 0 w n w j 1 w Z > 1 1 5 1 M Z 9 0 0 A z 5 0 > q 9 O > w 5 > Z n D D q J Q D 1 b 9 b q 1 , q 0 1 , M S B B b O , 9 M ! 1 O w I 9 X , , 0 0 9 b , n 6XM > w 1 0 1 , , X j b S ^ 1 M b 1 1 5 j , 1 9 Z 5 , 5 5 9 M Q I w 5 5 > O 5 , + 1 n 9 D 9 0 I Z B A =X0 j 9 0 w w 0 1 M Z , 5 0 0 0 5 b w 1 , b 0 1 q o J =XU 5 , 1 w M >XM 9 w 0 1 1 1 w , > M w O b 5Xn , 9 , 1 , n 0 > 9 n n b 1 O O , 1 9 S , U 0Xn 9 1 A M 1 5 1 9 9 n 9 w 1 ~ S T -X0 1 5 1 > + 5 1 9 M M 0 9 0 1 w b 5 w 0 0 0 j 9 w n Y M O 9 Z w B 9 9 j 9 9 0 9 5 q w *X! 1 1 b M M , > , 0 ! w X M +X9 1 0 w 1 1 1 0 w j O w 0 1 o w b 1 n w D b 9 1 1 > X n 3XI > > w Y J U w 1 w b M Z j 1 n 0 9 b 1 n 5 0 q q , Z 9 , q 0 0 &X, 1 &XB , , 9 5 1 9 , 3XZ b 0 9 9 q 0 , > M w q b X r 9 0 9 0 w n 9 0 > q ",
"1 5 5 w b w q 0 j 5 9 , I I b b o w 1 % > O O 5 , X q +Xj M Z 1 1 1 1 5 9 > , w , 9 1 0 , 1 n w 0 1 5 9 > 5 0 w 1 1 9 M 5 j ;X0 1 S <Xj > 1 M 1 , 0 > A M 1 0 1 Q S S q 1 , M j 1 5 9 0 j w 1 n D 9 > 0 , 1 > 0 % % 1 Y 1 O O + R <XY 0 > 1 > 1 ! B 1 5 9 1 9 A 9 M 1 , 1 1 M ~ ~ + 9 M B B 1 w % 1 j B , 9 =X0 % 0 Z 0 O ^ lXD > 9 J Y > 9 0 M 0 9 1 9 > I U 0 0 1 1 w 1 &X! b 1 > , w j , 9 9 I 1 1 > 5 O w M w w 9 w 9 0 1 O w 0 1 1 9 , 9 9 1 1 9 Q ,XT > , , > > , M 1 w 0 > j Q 6X1 j b j 0 5 1 + 0 0 w D 1 5 Y % 5 9 j q 1 9 9 , 1 M M Z w + M 5 I 5XqX5 1 , , b n 1 w w n 0 , 5 9 9 9 w 5 , 0 M b q n 1 Z J X O 0 j 0 > 1 , 1 1 w n B Q 1 > 9 w b J +X9 = q b w B 5 w 1 0 b 9 1 9 1 > b 0 5 1 n S 5 1 1 1 0 ~ <XO 1 > 5 q b 1 9 0 M B S &X, b 5 1 1 b Z M 5 1 &X*XB > 1 1 , n Q B 1 % > 3X-XB w 9 w D U Q 9 5 j 9 1 1 1 1 9 1 1 1 M D M 1 0 9 9 > O U T U 9 , 5 9 0 5 > 9 0 o 1 9 b b 9 w Z 1 9 w w w , 0 1 w 0 0 j j 1 D b ",
"j 0 w q q j , 9 0 0 > 0 A J b D 1 O 1 5 Y S O 1 D A O + 9 1 w 9 w w O ~ 1X, q 0 9 0 1 5 O > B w *XM 0 B 9 1 1 0 0 1 , n M > 0 1 5 w Q Y A 1 0 , + 1 , > + M 5 n j 5 Z Z J w <XM 0 0 0 0 w 0 5 b Z q , w 9 0 0 w 0 0 , q j 1 0 > q 1X! 0 , 1 0 q &XY 1 n q 1 1 , w 1 > n j > 5 5XI > 1 1 1 5 q 9 O r b M n , + O 1 % q U > D uXZ 9 1 S n 1 9 9 5 0 n 9 0 , +XU I *X9 9 1 5 , X 9 1 1 B n 9 w 9 , j w 9 n 9 w 1 9 9 w M U n O q Z b M 5 0 w , w 5 0 0 w w <XI 1 , M Z n % , 1 b Q 1 . U ^ 1 0 0 0 1 , w q 9 9 O n 0 , % n w 1 A 0 Y 5 0 , , % . R >XM > % A Y T A 0 5 b n b A 5 0 b 5 n q 5 n , q q 9 w M , q 9 9 U T   Y Q 1 , 1 9 1 0 , A 5X> n 1 0 q j 1 1 0 M 5 S > 1 5 0 0 0 0 b 5 q 0 > , 1 , w 0 , . 5 5 5 5 > w n 1 > > , Z 0 0 5 > Z R 0 > S sXM > , M b 5X&XM *XR j 1 q q 1 1 q w n 5 1 0 w 9 0 w j > q j 1 1 , 1 0 w 5 1 9 S T , 1 n A , 5 5 9 , 9 J j n > > 9 w 1 0 0 b > , 1 1 1 1 1 j <X% 9 b , , , 0 q q 1 > 5 , 1 ! I ",
"S , 1 , > b ~ w 0 1 0 > n n w w 1 , 5 1 I -XS X w n U w 9 9 O 0 B b X T &X, , n A > 0 wX5X1 , 0 Y b > 0 j b 1 1 9 , w &Xn 0 0 , 0 , Z ,XB 0 , > 0 b 1 0 , S j , > 1 , , M w b 5 w 0 1 1 O 9 w 1 1 0 O 0 w 5 5 1 M <X>X9 , > , , > j q 1 0 , 0 J qXq w n b 9 q , o q 0 5 D w % I 1 1 0 b w 0 1 0 1 O j M n q > Z , S 5XqXq 1 1 > M w 1 0 9 B 0 9 1 0 1 0 j 0 > 0 M j j j 9 M I . % 9 j 9 > , , 1 1 M j Z Y , % 0 w j U ^ , > w w b B 9 q 1 j j 1 1 1 2 + n 9 9 , M Z 1 1 , 0 1 <X&X> 9 , 9 w w 1 9 n n b ^ I , q 5 , 0 n Z n > n >X~ 0 1 1 9 1 J S M , + b 5XY M 0 9 n U Y I 1 0 w 9 1 9 1 9 0 1 1 0 A D n 9 9 0 1 > 0 T I A % 9 1 q 1 1 , 0 , + 9 w n w 1 D q , 5 n q , 1 9 9 q 0 w M 9 , w 9 q 5 9 q B w 9 1 1 0 A > O 5 0 j 9 0 1 5 q 0 5 U 5 9 b 1XZ , 1 w Z b T > 5 5 b w b w 5 1 , 0 9 A b q 0 9 1 9 n D , w 0 0 w 0 9 9 1 , , S U % 1 7 O % 1 5 , O 1 X 1 O 9 0 + 1 , w w , o Q A , 1 w 9 9 A 1 1 1 b b 1 j M > 1 q 1 , M <X&X",
"T 1 > q 9 M &Xb w 9 w 5 , 9 n , > M 0 O Z <X0 1 0 , 0 , b , 1 0 b Z w O > O 1 5 M S X 8X>X0 5 j T 0 9 9 0 1 b b 9 5 b *Xn =XZ 1 9 9 > + , , 1 0 A 0 0 0 1 1 M w 0 0 q 9 j 0 w n U S > , Z 0 B w 9 0 9 0 9 0 1 0 w ~ +X0 > n M M , > 1 5 ~ q X M &X9 5 1 w 5 1 9 b 1 w O b 5 1 O q w 5 M w J 0 w 1 1 O X U <XZ > > B R T J 9 1 b w M J , q b 9 q j 9 b 1 j w 9 w M 1 5 w 9 I Q   U Y 1 1 , 9 1 9 > D <X, B > w 0 q 9 > w w 9 D + , 9 w 9 0 q n w 0 w > 1 1 , 0 9 O % 1 0 5 1 1 M w , > O 1 M 1 0 9 > Z I 5 9 ^ qX9 , 9 n B 0XJ U &XR w 1 j 9 1 5 j M w 1 0 q w 9 1 Z 0 1 M w , 5 , 0 9 0 9 , b Y Z > 5 S q , 1 5 9 , n M b q > , 0 5 9 1 n w > , 5 1 , 0 % -XS O b 0 > 1 > j 9 9 % 1 , , 0 1 , > j M > q 5 1 1 > M R T n X w 8Xq 1 , 1 , 1 M o > 1 1 > 1 1 0 , 9 > + 0 M 0 w n j 9 9 1 , , 9 > Q Y w 0 M 1 -XwX% A b 5 1 1 q 1 M 0 O O O 1 0 9 A I 0 9 5 , 9 j 1 > 9 n 1 5 1 O % O b b R =Xw b 1 , > 1 1 1 Y A b , % % 0 0 n ~ <X;XU ",
"1 w 0 > w *X6X, 0 M b 0 1 1 X w 0 b A > 0 J O 5 w j w 0 1 9 > 9 n b D 1 q n 9 Q wX=X, 9 O 0 M 5 w w 0 M , 1 0 1 w w q 1 1 j n b w w 0 T 5 o 1 0 j 1 > 1 % , w n w &X0 , 1 q w Z &Xb % 5 0 q Z 1 0 9 w n 9 1 0 , O 5 0 j % w S 0 5 1 1 9 ! 5X> 1 , 1 w n 5 9 0 M j S ^ 1 0 1 1 5 0 B M , 9 *X~ b , 9 9 > D R B , + 5 5XQ Z 0 5 w I Q U 1 0 q 9 5 1 , 9 9 % 1 0 S S w w w 1 1 > 0 Y I Z > 9 1 w 0 1 > q 1 O 0 j n w 1 S w 1 0 M 0 , 0 1 w w 0 j n 0 1 0 9 w 9 9 j B 0 5 1 1 n M + % 0 0 w 0 0 9 5 w 9 b S > 0 Z ,X0 5 1 n M M I O 0 1 n j b 9 , 1 1 0 j Z w 0 0 9 1 9 A b 1 q w 0 w 9 5 0 , , 1 T w , 1 , o 1 9 9 % , O , 1 % 0 1 , , 1 n 9 O b &Xw 1 0 w % M n 1 1 1 D 1 9 M M > 0 9 > j A 1 q b M b , 1 , 9 j 5 , I Z q , % I , , 5 1 9 9 M 1 w 9 9 w 0 0 b 9 1 1 1 Z D M b 1 0 b 9 1 0 ! M D =XeXI > 9 1 b ^ > 1 b 5 O J 5X1 1 w 5 b q J M J 6XA 1 , , j , n j > > S Z , n 1 X n S n 0 b 9 M T b 0 1 9 1 b ;XR w J Z 1 5 0 n n b , ",
"1 w ~ > o Y Y , 0 0 0 5 9 9 9 0 1 O b 5 1 > b w 5 Z w T > 0 1 1 X > <X=X9 , 1 I Y U M , w j b B M > M 9 0 b 1 b 9 9 b w 9 B 0 1 9 w w &X, 0 *Xb > 1 9 5 1 w , 6Xw b 1 0 0 b 5 , , A , B 9 O 5 0 0 q 9 b b 9 0 1 > 1 > 9 w O X 1 5 q > 1 j n 1 , > 1 Z 9 5 9 1 M Y 0 1 U sXM , 1 n B 7X&XM ,X^ w 0 w w , w w n n 9 5 q q 9 5 n b > n w 0 1 % 9 w 9 9 > j Q M , 1 S b % 5 w 1 > j M b w % , 9 5 0 9 b w O , 1 1 > 9 , ;XM O b 9 > 1 1 b 9 9 > 5 > , 9 1 > , n w , 9 1 5 9 O D I U 0 X Z 6X> , 1 9 O n 9 o , 9 1 1 5 , 9 5 5 o O j n w b n q 0 9 , > 1 0 O *XS 0 b b q wX~ o D 5 9 , 5 w 1 M , > X , w > n J B 1 9 , 9 5 9 O , b 9 1 0 1 , X 5 A D >XA b q 1 , 1 > 9 b ~ 0 0 , o 5 q w M wXb >XI A ,XZ Z j B M n , O 5 o M 9 , o > > 1 % 0 , w M 0 ! 9 , q 0 1 q 0 w 1 , <XwXw 1 0 w w 0 , T w , Q <XI > , % 5 % 0 n Z Z , Y NXM , w U U O b 9 b D 5 > > o + 9 0 > 9 % n M > b 9 9 0 1 O X > > , b D 0 1 w % 9 b b b B +XY n 1 1 Q , > ",
"9 w <X&XO > , 9 w w 5 1 n A n ^ B 9 0 1 , 9 n A 0 1 M >XU 1 5 9 9 1 ! A w > o Q <XA b 0 9 A J ! n 1 w 0 9 , 9 1 1 1 > 9 n D Z 9 0 9 9 , O D S U 9 % 5 0 q , > 9 9 o 9 0 w n 1 n Z 1 , M b , 9 9 9 9 w 0 n j 1 0 0 0 w 1 9 A b 1 < 5 q Z > % 9 0 j 1 q 1 q q 9 w S , 0 b *XM > 1 b n M Y > 9 5 n w q w , , 1 w b J 0 w 0 0 9 1 B n > b 0 9 b 9 5 0 9 1 > Y n % 1 , + 1 > 0 > , O , , , 9 1 % , 9 n 3 X M ~ 0 > b b > S j 0 1 1 S 1 9 A j > 0 1 5 b M 9 w n M q 1 , 0 1 b , 9 Y n 0 > 5 S O , 9 5 0 5 n 1 b , 9 q 9 q q 1 1 w 1 J I Z q 9 0 w 0 1 Z T 0 T >X<XM % 0 , S I % 0 q , , ;XQ O 9 w q j M J Z *X;X9 5 , 9 9 9 M 9 o M S j 9 w O 1 S Z 9 q 0 w T Z w 1 0 5 , ! ! b M R , 9 0 j Z 1 n n j A b q 9 9 5 1 w , q 0 1 , 0 1 1 q 5 w -XZ , > j ;XA 1 5 w j 0 j q 0 9 1 B > 9 9 > 1 j w O , T 5 +XD % 0 1 1 1 , w -XS 1 1 0 9 A b 0 9 > D 5 0 q 9 q S Q 5 j b 9 1 % O 5 1 > + 9 w w 1 1 0 9 1 1 q w 9 1 b D +XJ Y o q M > 1 0 wX1 9 ",
", 1 b 9 , , O 0 Z 1 9 9 , U S 1 9 <X0X, , q b Q wXM R *XU 1 w j 5 1 w b b w 1 5 w w 9 5 B > 9 M 5 5 5 , 0 w 9 1 1 U Q > 5 b D > 1 1 w , 5 M w j > 1 9 9 5 0 0 n > , > 9 1 , 1 J *XX w w > 1 1 b w w > 1 1 O q 1 , > w B , 1 1 1 9 > j Y J M X 0 eXq 1 1 9 O 9 M X > 9 5 1 1 9 9 9 1 O o 0 b 0 w b b 9 9 5 , 1 0 O ~ T j w b 0 3X>X% S 9 0 , 9 w 9 b 1 > X , w 5 b S Z 1 1 1 9 9 q O 1 n 9 9 9 , , O 9 n A >XD b 0 1 > 1 > 5 Z ~ 0 9 , + 1 n q S 0Xq 5XM T >XA n n b M b > 1 , % n 9 O % 1 , 1 % b O M b M ! , 9 q 9 0 9 0 0 1 w wX,X, 5 w b 0 9 9 Q > b *X>Xq 1 % 5 1 > 0 n Z M , qXeX1 0 j ^ q 1 n 1 Z n , , O O o n O 5 , > D 9 5 j 1 1 5 % X O , > 1 A n 9 9 1 > 9 M M b A $XZ 9 > U Y n , 1 0 ^ S q M > 1 9 j O , 1 w % 5 5 j 5 U Y I 5 w 1 % w 1 0 w 9 B I n j , 9 9 1 9 9 9 1 n 0 1 , =XA T ;X0 M b 0 0 5 1 1 , 9 1 > > > 1 , % q =Xb , 1 1 n 6X-Xq ! I O , 0 > 5 9 , S >XS Z M 9 1 , , 1 q 1 , , n 1 M , 0 B 1 0 , B b 1 1 9 ",
"M M O , 5 w j 9 j , w w 9 b A > w Z *X, 9 , Z w J Z > 1 9 b q b 1 1 , 1 9 M B 0 0 0 0 1 w A 1 0 w 0 0 0 1 0 1 1 , n R , , , % % 5 1 9 + % > 1 O 9 w X 1 , j w > , ! M 1 5 j 1 j A % 9 1 n 0 1 M M > 9 0 1 q B j 0 A n M > 1 , 0 0 1 > I D 9 > % D 5 + 9 9 9 9 n 1 q 1 0 q 9 0 j 9 1 0 1 M Y S b 1 w e b > n Y n U =X7XB > 9 1 Z T O 9 q > 1 =X~ O 5 b 0 b Z S B &X*Xq 1 > 1 0 1 M 0 X A I b 5 q o , S Z 9 q 5 0 I Z w 1 0 1 1 ^ W j A I 5 0 9 w Z 1 n b b A n 0 9 9 0 1 w > 0 9 1 , 9 1 , q , B =Xb 1 O A =Xb , 9 q q q n 0 q > q b > 0 1 > 9 j 1 + q S 0 >X0 1 b , 9 5 > Z -XM 1 , b 0 J 1 w , q A 1 9 w 0 b ! J 1 n q 1 , O > 1 , , > 9 j 0 , 9 9 9 1 5 b 0 5 0 n +XU +Xb X B , 9 , +XNXR > 9 , b n ^ *X9 , Z ~ 1 % 1 > 9 n > 0 9 ~ ~ B S +Xz n 0 1 w n 9 0 w 1 0 w 0 U 0 w , M > 1 O 9 > j 0 A 7XQ D M M b 1 1 , , 1 5 1 , R w , A Y w q % > 1 0 1 b > Q =XO % q +XA 1 0 9 Z B 0 I b O 9 9 w 0 0 1 Y I Z b > A T n j o , 1 > 1 7 ",
"A I T 9 . I 5X% 1 1 1 o M 0 O 1 9 1 , 9 0 5 , > + > j w w b j w 9 9 , 1 9 1 j -XZ 9 M 9 I dXb j M 1 , 9 w , b 0 > > + 9 q 0 D J w 9 > w 1 9 1 + q b 1 0 5 , > O B M =X^ j j 5 1 % 5 1 1 ~ b w , O = j q n 7XP ~ Q b ,XA A w Z w Z , , , O j 9 1 > 1 , 1 O j > q M b ^ 9 1 w 0 9 9 1 w 5 9 5XeX0 1 w b 0 0 5 R > 0 ~ <XB , % 1 1 , 1 Z B A % 7XqX1 0 n ~ n , w 1 M b , , > O O n 1 5 > > I 1 9 j 5 1 5 > . , > , , D n 9 0 1 O q m M j I ~ Z 9 , ! Y q 1 , 0 *XB b b 1 , 9 b O > , 0 O 0 , M 5 ^ T D 1 n > , 9 1 b w 0 S S b 9 9 j , 5 9 0 1 5 M 5 5 q <Xw ,XR j D j 5 9 1 1 > 1 5 1 , O % 5 > O S ^ 1 1 1 1 ~ 5XJ n +X5 , 5 5 1 w 1 0 >X-XM B j 0 , > 1 0 0 , > 5 b 9 j , n M 5 1 0 J 1 T q O n 1 > ~ =X*X> , , q w 1 5 > , , A S 1 n 1 , A 5 &Xn 9 1 j n b M U 6Xw 9 , 9 1 5 0 9 w w T Q A 9 % M w > w 0 0 w M , b w 5 5 0 1 A n 9 A n 5 , b b 9 9 5 w , w 1 j , 1 A , > , X <X1X9 + w n 1 0 5 1 A b b Z Y 0 n n ,   , Y 5 j q % 5 ",
"5 Y b 0 , 1 M > , 9 9 0 9 M 1 b , w q 1 q w 9 5 5 9 J U M 9 1 n q 9 , I U M ^ 7X*X9 > 9 , ~ 9 , w 9 1 n 0Xb > 0 0 n 0 I B A <XD 5 , > 0 > a w + 1 Y M , b % o M I w 0 q 9 B D q 0 1 0 > I +Xb w I j q 1 q B 0 w n q M b n 9 w q , 0 > 0 9 9 > 5 1 > 0 1 w ;XD 9 1 w ;XM 1 0 q w w b w q 1 0 b , w 1 > 1 M 1 X 0 U 5 &Xj 2 w 1 1 1 1 b *XM 1 1 w 0 S 1 w % q Z 1 0 w 9 n ^ I 1 M w 1 1 + > 5 , O 1 0 w q , 5 0 , 1 9 w 9 1 q A &XU *X5 > n , 0 , =XxXI > 0 > M n *XQ 5 , U Y , , 1 > w q 1 9 w ~ ~ b Y Q q b 9 1 w b 9 0 0 1 j 1 Z Z 0 1 5 j , 1 = 9 2 B 1 *X>XQ Z M D 5 1 1 , 1 1 1 > b U > w T D w 1 > , 1 > q 9 , 5Xn O % I ~ 1 1 9 j S j w S O , w 9 9 9 5 n Y S D 1 w Q A n % , > 1 > 1 T S 9 O n b w D > 9 9 1 1 > q M , 0 b O M b 6Xw > Y , , 0 9 0 9 b U 1Xw 1 0 9 1 n 0 > 1 B Q Q ~ O > 5 1 % n A , w w % w M n 9 n , 1 , 5 Q M 0 w w 0 n 1 1 , , 1 , % O 1 + X w 5 , Q 8XM 1 fX-X> b S b U 0 X Y I o I 1 w M Q >XI bXn 1 q ",
", , O n , 1 > 1 , , , n O B w D Y , 1 b 5 5 w 9 0 , B lXR , 5 9 w w , B U X I &X*X5 , , 1 , 1 b n A 5 M cXY , b S Y , b 0 1 n 9 > , > X w w O 9 O n n , w 9 1 9 > X O , > O B B 0 0 0 , 5 M n M B >XA b o A Y M , 1 9 T I w w 5 1 5 M > > 1 9 O 9 1 w 0 T R Y 1 b 1 + w 9 w 0 0 B S b w , q 1 1 1 w 1 1 M 1 9 0 ,Xb +XQ w D n 5 9 1 , , 1 1 5 > % > 1 O > I ^ 1 9 , 1 Q 7XZ M &X9 > 9 5 1 0 1 0 -X*Xn Z n 1 1 1 1 1 j > 1 9 0 0 j , Z n 9 1 0 Z , Y , 1 b 1 , ^ *X~ O > 1 j w 1 , > , 1 I M 1 b O 9 M b ! w 5 , j Z q A ~ ,X9 9 , 0 , w 0 5 5 A R T w 5 9 M 5 , q q 0 n b 1 w w 5 9 0 1 I 1 M A j 1 9 w q 0 1 0 0 9 0 1 0 > M n O > + b 0XJ > 9 M 9 0 0 1 n M q M U M 9 B 1 +   S B 5 n 9 Z &XD + 1 , 0 w J > 1 5 1 1 1 9 , 1 , , , 9 9 ! ^ o X 9 w 0 v Z 9 + w 9 9 j 9 0 0X+XM j 1 q n M Z , % O 1 b 1 5 0 9 9 9 0 M , 9 1 9 j q , 9 b b , 1 w , > b 5 b D X A *X> 1 9 Z O 9 w Q B 0 S , > n U M S o Z J S % 1 1 Z w ,X-XZ ,X5 = z ",
"> 0 0 , , 1 1 9 w , S 1Xj 5 O S +Xj 1 9 b q w j w w , b 0 1 0 1 , 0 n O > Z M M ! > 0 9 5 1 9 1 Q Q 5 1 0 9 M n 1 0 % A b 5 w 0 0 U -Xq b n 1 1 > X 1 5 > > 0 9 n 9 1 9 1 0 1 w 0 9 1 j T R S B O M 0 , , S bX>X> 0 > w n Q =X9 1 b Q 0 1 1 > 9 n , w 1 Y ^ n J ^ w B 0 5 0 M 1 9 q 9 0 0 b U 9 9 1 n > , % 9 > M , +X;XU D n Z w 5 1 , 1 1 1 , 0 Y , j U A j 1 % 1 1 9 1 0 1 5XM % % Y +X5 1 0 b S b j S % 1 0 0 0 q , Z Q D A 1 n T A w > > 5 1 % 0 Q Z 9 O M b n D % 1 5 9 1 1 w n O M 0 > B M 7XO q I O , w 5 0 9 b ~ &X> 1 w 1 w n 1 , , Y U =XA X , 5 5 > S q 1 j 0 , b n q 0 0 0 > , S S b 5 w j j q 1 > , 1 > 1 > % > . , w , j <X&X1 Q fXj > D M Z n O q <X> w n , Z D <Xn fX+X5 b D n 1 w M w , , 1 O 1 0 0 , , 5 q Z q Q 0 j S &XZ O S 0 0 1 D 9 9 9 0 5 9 1 n &XU 0 w q w 9 9 1 M 5 1 b 5 % 1 w 5 w 1 w 5 9 0 9 n 5 1 n n 1 9 1 9 9 Z M 5 1 , j j Q wX0 , n >XX b 0 % , , % 5 9 9 +X9 9 Z ! M I Z , , 9 5 1 1 1 o 9 9 1 ",
"q % % 9 9 + 0 1 b w &XU J , n O 1 0 5 b 5 j Z S b 0 5 w , 1 1 9 , 9 M 1 O U *XM 3XB n J 5 0 1 1 , O 1 1 1 > % , , > 9 =Xb 1 1 , M 3X&Xq Q S O 1 9 1 9 9 , I ,XA D M 0 1 1 , 1 w 1 , 1 n , M , n M 1 9 9 J 1 S b > j 1 O ! =X*X5 O 9 0 q 1 1 > , > M A 1 M , , Z 0 ~ b 5 1 w M n Z Y 8Xq 9 , 9 1 0 0 9 1 C &X^ n , , B w 1 j 0 0 b j 1 M w 1 q 0 5 J 1 n n n , w n w 0 9 q q 5 0 9 9 > n j + , X n 0XD O 9 n 5 9 0 1 n B 0 M I n w M 5 X   U M 9 b 0 Z -XB O 9 , 9 M M , 9 1 , 1 1 9 , > 1 5 , 9 9 &XS X o j q 0 M b 5 % 0 , w q 9 M fXS M b > B q J M % > = w w 1 5 0 1 9 5 M 9 1 5 1 0 j 9 1 0 n 9 1 w 9 , 5 j 1 I b O *XA O > n q > 9 I S w B B O 1 R 0 Y > w A U 5 1 1 b M A 8XM =XB b 1 b 5 1 w A q 1 w 0 0 0 ~ 1 D M 1 9 0 5 1 9 5 j M w > n Z 1 0 w , > ~ M A 5 q q b Q 0 0 w 0 q 9 , 5 , 1 Z R 5 1 U R > > > 1 0 5 0 0 > 1 b 0 , , 0 1 , M j 1 M q , M Z n 1 w j ^ 1 > , n O 1 > j b % U n % 0 , > A M n 1 Z ^ 0 1 w 0 1 b 1 ",
"Y 5 , , > b 0 1 0 w ~ R w ~ I b n 9 5 b w 1 w q 1 b 1 J b w 1 j w 1 O 1 , 9 M 9 5XQ S b Z Z 1 1 1 1 5 1 5 % I M , J U w w O 1 , 7 1 0 O U ~ O % w >XB > 0 0 Z M 1 A 9 > w 0 0 0 0 q Q Z I 0 9 U S n > > 5 , , , Y I b O w w w I , , 5 9 1 , q b > 0 j O n j 8Xn > D > 1 0 0 9 1 q Y =X1 , w 1 w M 1 , 1 J Q *XI + 1 1 1 > S n , v 9 , w M b 9 0 5 1 1 B T b 1 0 0 n w , , O 9 , > , > % X 1 q > 0 6X&X, ~ sX0 5 Z n A b O b -XX M n 1 Z I <Xn NXY 5 n A w 0 q B 1 1 1 1 % 5 b 1 > 1 0 n b w ~ 1 B D >X0 1 S 5 1 0 A 9 5 9 q 0 1 , D ~ M 1 0 w w q , 0 B > 9 z 9 o b 9 w 0 1 w 0 9 0 w q w 1 A w 1 5 1 1 w A w 9 , 1 M w 8XQ 1 , *XZ % M > 9 1 > , j 1 S I 1 0 Y I D Q 1 5 , , 0 1 1 O 1 5 M >X0 + 1 1 9 w 1 > 0 j 9 R B q 0 n 9 5 9 0 w U , X 1 9 M 0 0 1 0 > A M w Z b 0 1 A n 5 Z j n 9 5 1 , 1 % n 1 1 , 1 O Y 5Xq w w 1 9 5 1 1 9 1 , D , 1 j , 1 ,XR O 5 M w > 5 1 9 U w o 1 D j 1 1 q D j 1 , 1 9 , , 9 5 1 ^ Q 1 w U 0 , B 1 ",
"w 5 0 1 + 9 1 I M 1 n X n w M Y 9 1 1 M n n A >X=X> 1 1 5 1 0 9 5 9 Y ~ +X, > q Z O w w w 9 M 1 q w 0 9 0 5 M M 5 Z B 0 1 w j w 1 0 j 1 0 9 w , 9 n O 1 O O 1X>X0 > A w 9 0 9 0 Z 0 j I S 1 Z j +   n Y 1 B w n Q U % 5 % w j Z , 5 5 1 1 1 0 1 1 5 , 9 9 9 Q ~ . . n q 9 j n w % 1 1 9 n 9 j sX^ n w , Z b Z m 1 > > 9 b , 0 5 9 5 , M 0 1 5 1 w w 9 1 w M 0 1 9 w > 9 w 1 I b O =XA % > M 9 , w Y I 0 M b % 1 I 9 Y O j S U , % 1 n n S 3Xb =XM j 5 n 9 1 w S 0 1 q 5 w b ~ , U j 1 9 q 1 9 1 0 w M , 5 M Z , j 0 % 9 +Xn A 9 w q M Q , j 0 9 q 5 5 0 > q S S , b ~ M O , 1 1 0 1 q 9 > 5 j 9 , 1 9 1 9 B 1 0 M 1 0 n B 9 0 9 I M , % w 1 O 1 > A , b T % 1 0 > 5 S j w w ~ A , q w 1 1 5 A M 1 , 1 9 1 q 9 0 0 M >XA 0 , , q q 0 , j A % n M 0 1 0 5 9 B 9 O 1 > > B M 9 1 , 1 B q w 1 w 5 9 0 9 w n , 1 > > 1 <XA 1 Z b 1 > 9 w 0 1 1 w q > Z b b ^ Q O 9 A b > , 1 q <XU > 9 0X9 q 1 w S D , 1 1 1 > 0 w , 1 *Xj O B b w 9 1 % ",
"9 1 1 1 b w O 0 9 , M A 8X+ n w , , w 0 5 9 w *XI , 9 9 0 B w , , 1 ~ U 3X0 O 1 1 , q I 1 9 w , 9 0 Z 0 n 1 9 , 9 Y n b 1 j 0 n 9 , > , 9 > , % 1 o O q , > ! 7Xn q zXR , b D n A O 1 <Xj 1 D , C Z >XI eX7X5 q M M 1 q B j , 5 1 , , b 1 1 , 9 w M 0 *Xq q I ! Z , I q 9 > S 0 9 w w 0 5 1 n ~ Z 1 0 0 w q 1 9 Z % 0 b 9 > 5 w 0 5 1 j 0 0 q j w q 1 Z w 5 , 9 r q A b 5 , 1 M w 0X! 1 , *XZ , n , 1 , , O j , R J , j U U A Q 1 1 , 9 5 1 1 O 1 1 S =X1 > 5 , 0 0 5 , w w b Y q 0 0 w w 1 0 1 M I X > 5 0 b 0 1 1 0 , Z w w A n 9 5 A 9 n Z j q 9 1 , 1 , 5 j , > 1 1 O <X&X5 0 q 1 q 1 1 9 1 = z M O 0 9 , Z 6Xw % j M > 1 1 5 b T o O n A 5 7 5 z D 1 1 1 0 , , 5 9 O M 5X0 1 J S > 1 b b > > b b 1 0 9 w b > I D b 9 b J q 1 b w , > , n M 1 9 9 0 1 n M 0 1 9 , , 1 0 , 9 0 1 > q 9 0 5 q A , q Q , , , q 1 O 5 9 5 9 > 1 w w b 1 R J +X9 5XS 9 > 1 , D +X! 1 5 O A Y D 1 > % 1 b b 1 1 5 5 1 q b b 1 M M , > % + Z b I 1 5 > ",
"1 1 1 9 0 , 1 5 1 9 5 0 =XA   , M q 5 M b 1 , 9 1 q 0 1 Q sXA n 9 9 A j J 9 > O % j 9 1 9 9 1 0 1 Z > 9 1 0 n w 5 9 b b 1 1 b 1 > 0 5 n I O I >XO 1 0 M O 1 Z Y b 0 Z , O A n B w 1 I J M % 1 9 Z j 3XA ^ U 0 w b 9 1 0 D q 9 0 w 9 0 =X0 Z M 1 1 0 9 1 5 9 w M n + n A 1 0 0 , 9 Q A M 0 j j b ~ , q 9 q q 9 1 1 % 0 U J O b R Z O 1 , 5 0 1 q 5 % 9 b 1 , 1 0 5 9 A 1 q M 1 0 M D , w 1 I Z , + b 1 > 1 1 S O n I > 1 w O w D b q b ~ B % j 0 9 , 9 D M , , 5 0 9 0 q 1 0 J *XM 1 , 1 j 0 w > n M % M n 1 9 0 5 9 M , > 5 % 1 Z b 0 1 , 0 Z 0 w 0 0 9 w 5 0 q b , , > > M ;X0 n A 0 % 1 w q 1 5 1 n 1 b A 0 Z >X0 1 n B 9 O 9 , R >Xn . *XQ 1 9 5 n T 9 , 5 1 > , j 5 , J Q X n n q 0 1 > > B 1 1 > 9 9 1 1 1 0 > n 9 U I S Q 9 b 0 M , M w T 1 5 9 j 0 1 M q 5 S >XI > 5 M 9 > M M 1 1 B U j M 1 , 5 9 1 , M D 9 1 w j 1 1 0 0 b n b D > 0 0 R A , > O , 9 S q O 0 , S =Xw 1 5 9 , n S , 1 q n > w <XfX0 > B M 9 b Z b > A 9 9 1 ",
"1 b > , 1 9 M b B ~ > S S *X1 q J 1 , w D 1 q 0 0 9 1 9 S Q j 1 j 9 w 0 5 M n % b n , 1 j q 5 1 0 w w w q w 9 0 0 M , 5 1 9 5 D B 0 1 > j b Q 7X0 , A =Xo n 0 > 1 % > q 0 M ~ 9 , S I M ~ w 5 1 9 < 1 , % , 1 w <XM + 1 1 5 w 9 , 5 w w Y b 1 w b 9 9 1 9 b Y > X 1 1 n 9 0 0 0 , n n 0 D b q 1 Z 0 w J w b 9 5 > 5 , , q 1 > , 9 O >X-X9 w w 9 9 5 , 9 5 % q b o w 5 > S 8Xb + q j 1 , 9 5 M T O + Z Z 1 0 1 M S 5 , 9 9 , , 1 w + D <X, 9 J n 1 > Z 0 % > M 0 1 w 1 j b % R M M 1 B S 0 1 n w , > 1 M n 1 0 q , 0 n B 9 5 5 , , 5 9 , w 0 5 1 b > n > Z b , Z I % , 1 q > 1 9 9 5 0 1 1 0 j w j Y T S B 6X1 0 > 1 0 R &XI > 1 , Y S Z o > , 9 b 0 1 1 9 1 9 n M b , D 5 , + O b b S n , , M Y B n 1 1 0 5 9 , 1 9 > > U 0 1 0 S , 5 b 1 M q w w 5 , w w M , > 9 q ! ;X0 > A U 5 , 0 1 0 R B , % 9 1 b 1 0 , 5 M w w M A n 1 0 0 1 , 9 M +Xb o , 9 5 , , 0 w 1 D b X 1 w % n S , , b b , , 1 q , 0 0 1X~ , 1 I D Z <XQ A 9 , 0 > , ",
"M ! 1 I b 5 5 1 5 , 5 0 w A > 2 B A 1 j , > M Q j M w w q J U O n 1 j 0 1 > 9 O w R n > A ^ 1 O 5 , 9 1 9 j > 1 q 0 1 % 0 5 1 M w 1 Z b % M Z b 1 v b I 9 % , b + 9 O M 9 > Q q % 9 > 1 Z n b 1 R Y 1 q b 5 1 , M A 1 , , 0 9 9 w 9 5 Z =XD w , , w 0 w , 0 A , M M 0 5 5 9 9 n , > 9 , 1 Z j w , 1 5 Z 0 q w q 9 q 1 q b j , , , O b ,Xq b M 0 , , w w 5 9 1 M 9 0 S 0 M -Xw , n S 9 % 5 , Y ~ w X -XY 1 1 9 n Y 9 1 9 , > , j 1 , J A + Z n b 0 , + 1 S , , , 9 5 1 > 1 w > q 0 Y S I Y 9 0 0 n 1 Z j U 1 1 0 w 5 0 M 1 0 Y 1XM , 9 M 1 > Z 0 1 1 J Z n b > 1 1 5 1 , D M 5 , b w , 1 0 w M j J n O 9 B U q 1 % , > b Z , 5 5 9 =XI 9 0 1 1 w S j > 9 j 0 O I lXQ % b I 0 M M S , n w , 1 A n X M 6XY 1 1 1 5 w w A b M > >XU 1 n 2 , 5 w 0 , 1 1 , 1 0 n 1 % 9 j 5 + 1 0 0 > 1 , , > 1 n o J R 1 O ! +X1 1 1 , 1 5 w n 9 B q M Y Z 1 Z Q M q w 1 0 , w n T A Z , B M 1 > Z U % > 1 5 1 9 5 q 0 5 > w 0 w 1 5 b 5 I >XU b 5 1 9 9 ",
"0 n Q 9 5 0 q 0 9 0 9 A Y   > 1 0 0 0 9 q 9 1 A w w Z j 0 9 Z 1 A Z b w 9 1 % 1 O j 1 > , 5 > b qXZ 9 b 9 0 1 1 1 w > 1 n > 9 q 1 5 <X&XO 5 j 0 % 1 9 1 Q 0 O 9 T 0 0 9 9 I q , 1 0 > , 1 0 O q <XM > B S 1 O n n O O 9 M , q 9 9 q , Z A b 0 n U b 1 n j > O 1 M n > 9 0 5 1 B A 0 5 1 5 O 0 1 1 w 5 0 , q , w , n M > q A O 1 , w , > 1 9 0 9 , 9 q b q q Q U U Z 8X5 9 X 1 9 ^ Q A % 1 , Q J M > % + w n w 1 1 5 1 9 j A 0 9 D 9 O > o j b T 0 1 1 Z Y Z j 9 9 1 9 9 > , 5 , 9 S 1 1 b A 1 0 w 1 M 0 w 1 1 1 j w b > , 9 w &X^ , 9 S A 1 1 5 1 M Q w O 5 1 0 b 5 1 , 0 Z 0 n A A w 9 0 q , 1 < ! Y , > 9 9 5 1 1 b 9 0 I > % b 1 , U j , 9 b 0 > 1 0 w 0 9 T 3Xb % w ! 1 ;X+XI q 1 , q 1 9 9 + J lXlX, 1 , 0 A q j 9 1 I ^ A S n , j 9 5 1 D B 9 w S b > 9 M , M J 0 , 1 9 1 9 B , , 1 + , &XsX&XX M Z 1 > 1 , 1 1 % M , q w ^ qX7X0 5 9 Q 9 j 0 1 1 9 0 b 0 j w J &XO % , 1 O 1 > 0 1 B b 1 , m T 9 0 0 > D 6X1 > ~ M , > q 1 1 ",
"1 Y ~ Z 1 5 > w 9 0 , n w 9 A b 9 9 9 1 n 0 > 1 , , w A w 0 1 , j j w q 0 0 1 b 5 q M w , O 1 + Q Q 1 D n 5 , 9 q q 1 , b M 1 D b q T R , w D Z O 9 > A <XS > q >X1 9 1 0 Z n , 9 1 , > w 9 1 b ~ + q Z b 0 9 > > A 0 , > 0 5 , 1 > 5 1 0 9 J Q B U w 9 1 Z 1 M w I 9 1 0 q 5 9 M 9 1 Y 3XS , 9 Z 1 5 Z n > 9 I A j w > 1 1 9 1 , I M 1 5 j 0 1 5 9 w M 9 A j > 0 b J 5 1 > > > w S % 1 1 0 +XD 1 9 1 1 w J w , 0 b 9 > Q hXI O b I w b A D % b q 5 1 S w . S 8XD q , , w 0 j B n b 0 <XB w q 1 1 0 w 0 , 0 1 , 1 q j > , 0 n > , , 0 9 > 1 > 1 % w 0 O Q S > 9 >XS > 9 , 1 1 1 b w w n w U T M 0 J S M 9 1 w , , B M Y J b 1 M w > 1 Q 9 , , w 1 9 1 b w 1 O 5 w b , 1 w w b <X*XA > b , j 9 > X D 6XA O 5 0 q U M 0 j 9 1 O X ~ 9 b M O 1 5 j M 1 M 5Xb 1 1 9 1 0 S 9 , B w 1 b ~ % 9 ~ Q j 0 n *Xn O X 1 9 1 5 , 1 0 T Q j 0 w n w , b M , 1 n b w 5 O 1 9 O 5 5 w S 1 b O , 5 0 w 9 % ~ qX! > 5XfXY + 1 w w M 9 9 > o 9 > M 0 0 ",
", R M M % I U 0 9 n 9 O > 5 M j , 9 w , 9 Z M 9 1 5 > > 9 1 5 9 9 9 > 0 O w 1 S 9 , I w O 1 9 b X 1 1 5 9 1 1 q j b 1 Y A R 0 3XI , % , > I Q Q , w + S R I > > + , n n 0 1 1 1 1 n Z M > J j , X + 9 M Z S , , b Y S b w 1 5 5 9 5 1 9 1 % B 5 1 w A 1 1 w , b 0 0 q 1 1 9 j B % , q 9 T -X1 1 A S , , 9 5 w Q b O , 5 w w 1 5 1 1 M w q S Z j 5 0 0 , 1 1 +X+X1 O q 9 > , 1 b 1 n I > O 0 5 > T q > 9 b 0 > , 9 b 5 1 Y *Xq % n Q 5 <X~ I 0 , 9 5 9 5 1 % R bXwXO 9 , j Z b q 1 5 Q T n U 1 0 9 5 1 1 I M , M A w > j q , I M , 9 > w 1 q n > 1 1 + w eXsXn % B j , , 9 , 9 > 0 v , j M >XfX! 1 0 B S 9 w 1 9 , 9 b Z 1 M w *XZ + o , > 1 % 0 0 q Z 9 , 9 Y S % q , 5 5XI o T Y , % 9 n O 1 n w   > 1 n 1 0 9 n 9 > b Z O 5 j j 1 , 1 1 j j j 0 M 9 B w 9 0 , O 0 b 5 5 > M > 9 M + 9 n 0 % , . b S Y A 5 0 b w 1 0 S w 0 w w 0 1 1 1 1 <Xb , a , , 7 0 9 0 O , S n +XM Z q w > b M 1 , 1 $XB 1 J b 1 0 0 1 X 0 M > w 1 , Z S 0 b ",
"5 > b 9 Q T Z I 9 9 0 B , B n A 5 5 0 b 5 w n % b *X<Xj , q M 1 5 B 0 > w Q b n 5 , , 1 , 1 w J q 1 0 n 9 1 1 0 z b z A 7 5 0 S Z 1 , > , > Z q , 9 , Y +X1 9 1 5 0 M n , 1 j w , w wX6X> 1 T n n M T , w j 9 , Z M . j 5X&Xw , > 9 q w B j b 1 1XY 9 j 1 1 9 w 0 9 1 1 5 1 9 q , % 1 n 1 > , 9 0 > 0 > 1 > 9 0 o Q Y > > ;XU , 5 , 1 1 1 j j 0 m b P R M 7 I S b w 9 1 1 2 n F U A q 5 I 0 , 9 Q w O 1 5 1 w 5 b 9 1 , 1 w b > 1 0 w n 7XQ A , 9 1 b 1 % X S 5Xj > 1 9 b T b w b 9 , o , Q % D j % 9 1 n w , Y =X0 , 9 1 1 b D 1 1 Z 9 > J U X n ,XU 0 1 U Q w O O 9 5 1 9 O 0 n ^ U w 0 q w 5 & Z b O 0 B 9 0 1 1 1 , % w > B w w 0 + 1 9 n 0 9 9 0X>X0 Z hX<X9 , w 1 M j 5 1 + > , q U 5 X T CX~ % , D +XZ 9 , q ~ w O 1 > M I % 0 , 0 M n D 1 + w w M M A J 0 n q O 0 1 O w 1 1 1 Z Y w M J b > > D Z , M S w w 0 1 5 r b 0 0 w 5 9 > 1 , 1 1 9 w 0 w 1 1 1 0 9 0 1 n q Q n > w 1 1 9 9 % , b < 1 5 5 9 1 I 0 1 5 j , + R Z 1 9 ",
"5 5 , 1 M > , M M O 0 0 1 b 1 b 9 5 1 0 b w > 9 0 q +XT , 1 I n , 1 1 , I S , % 9 1 b 0 9 9 , w j q M Z M 9 9 0 1 , 1 n <Xn % > w 1 1 1 w j 9 J M X , e + A Z > 1 j n > , 1 n , q b >XD + 9 +Xj &X&XU b 1 1 0 0 1 1 O S uXNX9 1 1 0 A j w 5 1 U Q b I b 1 w 1 0 , S D , b J w , j M O Z S 9 , 1 9 , 0 Z > , 9 O w ;XfXJ o j w 1 , 0 1 5 > 5 n 1 j M *XfX+X> 1 n Z 9 q 5 9 > 9 q n 5 n 0 *XZ + X , , 1 > w 1 b A 9 > j Y S > 0 1 0 6XA X Y S 1 O 0 b O 1 B q X O 5 n 1 0 0 n 1 > M b O 9 j b 1 > 1 5 q n w b j 0 A 1 0 9 1 O w 0 1 1 1 n > w w % q w 1 O O . J B +Xj 5 j w 9 1 n M 0 9 q 0 9 , 9 O I &X> 9 0 1 1 9 9 0 9 X A n J J U 0 Z > 9 n w > % S R 0 w Z 9 5 q 1 > % D 1 w w 1 0 Y 9 w w > R Q 5 9 > Y M 1 w 0 3XA % O j > w 5 w , , , O 0 A D , + 0 w A 9 1 I q Z Q S 9 n M , w M M j j j >X! O 0 b % 0 b 0 1 w 1 M Z 5 9 9 w w 0 1 9 j S 0 b , q 1 0 9 > 1 , > 9 7 &XM % 1 1 > 1 1 q 5 w n 5 , 9 q 0 , R J Y M > 1 O D Q 1 5 ",
"w n Z b j j 7Xn 0 0 1 1 0 q w 5 9 , 1 5 q 5 > , 0 Z > % > n 1 , 1 , , , q O w *XB X A <Xq > 1 , 1 , 9 b 5 n n B ! U 9 b U J 0 w 9 1 > w M S A M > n M > > Z A O , , 9 1 0 0 b 5 , 1 9 b 1 1 1 b 7 +X=XY > w , 9 9 1 . 0 1XA % 1 0 9 T M q q q 1 % O Y 1 b n , > 1 0 b 1 Z 1Xb 1 1 , 1 b J , , M w % D Y X b *XU 9 0 Z &Xj > % 1 0 1 1 , 9 n +XI 0 q 0 0 9 > M M , 0 Z 1 0 5 , 1 1 % 9 1 A b n 0 X 3 9 b 1 9 w wX6X9 U uX1X1 5 0 1 b j 9 1 O O 1 n J 1 o &XHXI > , J ! Z , , M ~ 0 , 9 > J M > q 1 q M b B , > b w n M S Z 9 n 5 > q > 1 0 5 1 5 T J w Z I 0 , 1 S 0 w U A q b 1 5 0 9 M 1 0 0 9 9 > , 9 1 9 1 0 q 5 5 1 9 9 5 1 0 w D T O 9 0 1 9 9 , O w 0 1 1 9 9 1 n A 1 9 w w O w T 0 9 Z w 1 , 0 9 % 5 j 0 1 1 q X , n 0 b S 1 + 9 0 , , j D j w w % , , X > j 0 U qXQ w n j 1 M b , > 0 9 w Y , , 9 5 0 M 5 Z I 0 w 0 q 0 1 0 9 S S S 9 q 0 q 9 9 , > 0 + q B % J q Z j < 9 , 9 M b 9 w 0 0 b q 5 0 9 > 9 M n 5 O 9 , j >X9 , ",
"A j w , 5 ! D M R , j 1 5 1 0 S b 1 S S 1 1 Z 9 1 U M 1 , > 9 1 n j % 5 1 + U 6X0X1 > q 0 > 1 5 1 5 > n 0 9 w U 7XuX0 9 1 U 0 b 9 9 1 , 0 M 9 b w S &XX % + , > 5 1 0 5 J M , 1 U Q , 9 9 , *X+XO b R 1 > > n , % Z Z O X 1 b 9 w 0 b w , w A > 9 w n 1 , 1 1 w w b 9 n w A 0 1 9 5 > 5 0 5 1 > n , 0 b O b w , > >   D Z ^ j 5 M q 0 , n A 1 1 w 0 9 1 9 > S &XO 9 0 , 1 9 9 9 , o B n U T D b Z % 9 n w , > D U , n M 5 9 b , > > D , j 0 , n U 0 j q 1 +XS 1 5 , R j 5 w M 6X9 , + n > b 5 5 > > , % b A B O X b j Z O 0 U w T ~ Z , A 0 1 b Z j b w A 6XM > w j O n 9 0 9 w 1 S j 9 9 0 0 w 9 w 1 Z b j w 5 0 9 b 1 > 1 O 9 9 Z *XX 9 1 1 , 1 5 w 9 j w 1 1 w b 1 j ^ S Q O , , 5 ^ Y , X . n 1 9 1 Y I , 1 n b , 0 n j > w w I 9 B D % > 0 U b 7X-X> X , 5 9 1 1 , 0 0 1 9 o Z w 1 5 9 , 9 0 1 5 1 1 > q 9 M j 0 b 9 0 w 0 1 1 1 1 b b 0 0 0 q U Z 0 9 1 q >X&Xo w M S A < 1 , n &XM 9 5 0 n n 5 1 0 B 9 w M T o 0 0 0 b > M , ",
"U b 0 b w % O , T O Z 0 > 9 1 j j , ~ ^ 5 1 > 1 1 B B > 5 D 1 1 ^ M + T =Xn 9 1 Q J w > > 9 5 1 1 , q A ~ b w 9 0 , > w U 5 1 n 0 9 9 > 9 , > , 9 q A w Z O , 0 b j 1 , ;XuXD 0 wXwXn > 0 1 q j 0 > O > 9 5 S b o n HX7X+ > B *XS 1 1 0 &XM O 1 O w I > q , 0 M n A 0 o j 9 B n S U > M 5 > b , > 0 1 1 9 S J q A S b , , Z n 1 Z A b w 1 , 0 0 M , w 9 1 9 > % 5 5 1 w 5 b 9 1 , 9 0 5 5 9 n S I O 9 0 1 1 9 > O n 9 1 5 9 9 , Z A 1 9 q 0 + M T 5 9 D 1 1 1 0 5 , w q 0 1 1 9 + q b w n D , % b 0 , 1 b B b b 0 % % , O r b 0 ^ sXZ b n 9 1 M q 1 1 w , A M O 5 9 1 j b w D M 9 b 9 b 9 q 1 w S D M 5 0 w 0 w , , 1 9 X U , n n M J , 0 1 1 w n 0 0 w 0 M w 0 9 1 1 , b b 9 > 1 1 , *X^ % 1 j 9 J 1 , w 0 5 % 1XzXJ M Z w > , b S 0 % Z 1 9 ~ +XI S j , = A z % 9 % 5 1 0 0 O , M 1 1 , 1 w j 1 > 1 5 A q 1 q D Z b 0 q q b J q 5 1 n > 5 1 9 9 9 A 7XI % , , U M A , 9 Z S j 1 > 9 S Q > 5 w M S O D I , 5 % 9 1 > n D ! S > w 9 ",
"j 0 , M j 5 1 B w 1 O 1 9 w n j w q w Z 1 w 0 1 % w 1 1 > 9 q % n 1 , 0 1 > , o > S D T 5 j M j 1 5 Z w 9 5 w 0 1 9 w O *Xn O w 1 1 1 j 5 q % 1 U j Q Z M D w > b w 1 > 9 Y w 5 Z 1 1 w 9 , X B 0 5 n 1 1 T M 0 n 1 J Q 1 1 > J A 0 9 9 ;XA O % M 9 b 9 0 1 1 , + w D D o % 0 q Z 5 % Y w U &XU , Z b , w B b b q b <XI > 9 0 O j 9 w 1 q , I w 1 w 5 q b 0 0 9 Z n q 0 1 w 1 q 1 O , % 0 1 S *XX 1 1 1 , 5 1 w 9 n w 1 1 q j > M R Z ! + 9 > w +XY % X X M 9 9 5 Q A 1 1 A q 1 0 B 0 % j b Y , S M % + M A S wXY X % 5 , 0 > 9 , 9 1 0 , > S 1 1 9 5 1 0 9 1 1 5 1 , n 9 A w b j 9 q w 9 > 5 , 0 q B 5 j 9 M J M 1 5 1 Z ;XZ X M n U j > 0 > ~ U w 5 1 w M 0 > 1 b j 1 n Q w > w > S , X > > D T 7X~ 9 0 1 5 , M S j 1 > , n S 9 5 , n b 9 9 ,X&Xn O n J ^ *X% 5 j 9 , 9 , 9 9 B S > 1 5 > > j , b 5 1 A 0 % M w 9 0 0 w j j B 5 1 O 9 0 1 1 1 1 1 n <XM O % 5 0 O 1 1 5 0 > q 9 , 1 v B Z n 0 0 0 5 J R > 0 0 > O 9 o ~ A q Y 0 w ",
"9 n >X1 , 1 + A n , j , j B j M , % q M M q R n q M 1 1 b o 5 0 > 1 q ! M n J I 9 O 9 B , j A w b 0 1 9 0 j 0 9 0 9 1 1 O 1 0 1 1 0 q 9 1 , 1 w 5 , 1 b M T 0 % j 1 1 0 1 % 9 w 1 9 0 1 1 q R 9 0 q 0 + 0 Q j < M n > 1 1 q 1 5 q 0 1 1 9 o 9 b j n B q X j 9 , 1 0 A w b b O , O o 0 j 0 U eXS w n w > Z q , 1 0 1 M B , 5 w 1 j b j J D 9 0 0 b 1 0 9 j D S M 9 9 0 w j > 1 9 5 O Y 9 0 M b S 1 9 w > n j b 1 j 9 M 0 0 1 9 5 1 w M 0 O 1 1 , =XS O 1 b j J > 1 j q 1 , 0XsXA J w b O 1 M J > 9 Z , M <X! Y B 9 1 , I 9 5 1 > 0 > j 5 O 9 M , 1 , 9 e w + 1 1 b D w , j U j b 9 w q Z S 0 , 1 M > w 1 w 1 0 *X6Xq O > b Z M b 0 5 A n w > 9 9 ! w > q 9 U w , ~ 0 , 1 , 0 > 1 I S ^ 9 X Z M O Z Z D M b M w 0 > 9 % 0 0 > n b w 9 w j 1 > w 9 1 1 1 n n n b , , > M 5 5 1 1 1 Q U q % 1 , 1 j 1 Z w 9 1 O 1 0 n 9 w Z q 1 1 9 b b > q A Z w 9 9 1 > M 0 , , w 1 1 1 9 1 , 9 1 5 b 0 1 + M I n 5 O r b M q 0 > , 1 1 j b 1 q w 1 M ",
"9 n ,X9 , X I > B > 9 > 1 O 1 b I n X > 9 M B o q D M +X&Xb 1 D 1 0 n M w M 1 I 3X5 5 b = 5 b q 5 w 1 n S 5 0 1 0 0 b 0 j 9 A 0 n > w 5 9 n O , O 1 q , *Xq , 5 , , 9 1 w 1 j b 2 9 9 b 1 1 ^ S ^ 1 1 > 1 Y ~ 0 o   b 9 9 , S W 1 , Z M 9 0 n b > 5 0 Y 9 n S , , 0 I M 7X*XO O 9 1 5 1 1 , 9 1 0 > o U 9 1 9 9 5 9 9 1 1 1 1 1 b 9 J 0 w w 0 w q 9 5 , , w 0 j 9 0 9 M T B w 1 , S =XZ o Z M I b > 5 1 *XI 0 1 0 w Z 0 > 1 j q 1 M ~ 1 5 b 1 S O > > , I Q wXY 0 9 1 1 , M Z 9 > 1 % S M 9 1 9 M 0 1 n =XY 9 + D S =XR + 1 w 1 > 0 1 1 w J j > 1 1 > 1 9 0 M O j M , 1 B 0 0 0 0 b n j j , 1 , 0 0 5 , 9 5 0 J 1X> > % 0 , > 9 1 b 9 , 0 9 1 1 S j S j w 9 5 q ! b 1 q 1 O 5 > M +X1 J Q D Q , 1 , . J b M T I A 0 q =XD 1 > 1 , 5 1 > 0 9 > 1 1 w w 1 S R 1 q 9 w n w 0 1 1 1 q >XU M ! 9 B , b n O 5 5 9 1 M S 1 Q ;XJ > 9 M b q 9 0 1 n j , b 0 1 5 1 5 w 1 , 1 > 0 O 9 A -XA > 9 1 0 Q Y w 0 0 q Z b Z j , 9 1 0 9 w 9 , , 9 w ",
"1 5 > o w n b n Z 5 > n 9 1 1 M M b Z 0 O , X , q 9 w ~ 6Xq M b 1 0 Z 1 1 1 0 5 S 0 > 9 j 1 n n M U w w 5 0 w 5 j , D M J 0 0 w w w 1 , 5 9 + M T O A q U 0 1 0 > w n j 9 q 0 j b 9 1 9 9 , 0 Z w , , 5 % U ~ = , M 1 I 0 > 0 j 9 O -XbXU Z Z b 5 > b J 9 9 A , 9 >X&XT M 0 5 % D 0 1 9 , 9 1 w w O 9 M 1 5 > 9 w q % , > M D 0 5 9 U M q 9 w q Z S 1 5 1 w , q 1 0 1 0 &X8X0 % > b B A n 1 9 Z n 0 > 5 9 =X0 , 0 w U 0 9 -X0 > 1 1 1 , 1 I I Q 5 O S n + A M Z n b B j 0 1 1 , w 0 > n 0 w 0 w w 1 1 w 9 1 5 9 M q M q > , 5 B 1 1 1 , q &XS 5 > 9 O 9 9 0 M w 1 > , 5 w M 5 M Z 0 , 1 0 M 0 1 M J B q 1 5 9 5 A % 1 1 1 1 1 1 9 > 5 9 1 9 n , , > I Z 0 , , q n n 0 , , , 1 w j 1 0 9 b w , Z +XA D 5 0 1 w w q 9 w M -XU 0 n 9 , 0 A w 9 0 , b ^ 0 , n D 5 , 1 9 j 1 9 0 9 > , B n S 9 M R 7 q % n n 0 1 5 M 9 1 T Z 0 1 9 Q ~ b % > 9 A n n n 9 O , 9 1 1 , > 0 9 X > 1 wX7Xq w Y j b S U b > n j A 9 > 9 j 0 5 9 0 1 1 1 , w 9 ",
"S Z 1 n n w O 0 q Q > A M , o A Z U eXZ . > w > 9 > 5 % 9 9 1 + w I O 9 9 0 1 0 1 0 , 0 1 9 j j Z 1 M 0 9 w w 5 1 1 1 w j w 9 9 q S J q 9 1 9 +X~ , 1 b I A 1 5 , Z -Xq 5 9 q B b > 9 B b 1 0 I M O n > S 9 . > % n ! wX=Xb 0 1 5 1 w M w O 1 , M S 0 1 1 M q 1 1 +XQ 9 > M S ~ -Xo 5 q 9 % 9 1 9 w U n , 1 , > 1 0 9 n 1 9 M , 9 M j 9 w j b b b w 1 9 > 9 b 1 9 1 5 5 D *X> > O w > O 5 1 n 1 1 0 9 1 1 M M I w b 9 5 b Q w 5 q > > 1 O J ^ 5 I I S U 5 , , O D q Z Q U M 1 Z =XM 9 O 9 1 , 9 , q 1 > 1 9 w w < Q I 1 q 9 w n 0 0 1 9 , b 5Xb R I w b 1 Z 9 O q 9 1 1 I w M &X=Xw 1 q B n 9 9 1 0 n 9 , M > 1 5 5 9 0 , 1 % 5 , 9 w Q *X9 5 1 9 m -Xn 0 w q B M b A , 9 1 9 9 q 9 1 > , n I > ! =XZ 0 Z 0 9 M Z w 1 w q b w M , J Z j B M U > 0 J O A *XM 0 Q Z 5 1 1 5 1 m , 1 + n 0 9 1 > 0 q 9 M j , 9 0 1 , 1 1 M 1 5 5 n I 9 w 1 9 Z +Xn q , 0 1 1 1 w M n 1 S &X9 % T 6XM S T q 9 wXS > 1 , w n 1 9 O 9 1 q , , 1 M 9 9 9 1 ",
"wXsXA Z w n 5 1 B B , n b , B 6XR I 0 9 1 0 I , 5 1 , 9 1 w 9 % n w 1 , 1 9 j 5 > 1 1 S M 1 1 M I w 9 0 b n J b 1 > j , w 1 0 0 1 n wXR % , > U b J 5 , b b q , 1 , T I % w 1 S B % Y A > 1 1 1 > 1 M U Q b > M J O 0 M M B j M b w 9 5 , w w , w b 1 5 n 1 9 1 b 0 5 1 9 q b B 0 9 > , M 5 1 1 , 9 ^ I 0 > b O 9 q 1 M q 9 > 1 , q Z 1 j B q 1 1 w M 9 , D S A 9 9 9 9 1 D , , 9 1 1 1 1 1 % 1 5 5 q n , 2 , I Z 9 > 5 0 b M 9 > 1 1 , w q , 9 9 w q , I Q U M 5 9 1 b w w 5 q Z ,XZ q b 1 1 9 D 0 9 w > A ~ , 7 Z M 1 , 9 q 0 5 0 0 9 > 0 q Z D O Y B 0 5 O S 0 9 , j M , M D w w , M >XY , O , b D M M w 5 O 9 5 , 1 > , b > > > J bXS 5 D S 0 b ^ M 1 9 w M n > , 0 w 9 9 0 1 5 5 1 , S S 5 b +XZ 0 n q S Z q 9 0 0 9 9 1 A A 3X5X% 7 0 n < 9 O n S &X~ , <XT > , 1 0 , % j , 1 w j J % I 7XM 0 , 1 q w 1 0 1 0 w q 1 0 9 , X , ~ U b Z n S b % 0 w 1 1 9 n j X O M w , , w A M n 1 0 J % > 1 , , 0 1 0 > 1 j 1 1 1 5 M 1 1 , 1 ",
"0 n 5 O 1 1 I n 9 1 0 M 9 1 n +XZ 1 , S D <XZ O 0 5 , , 1 1 1 M Y 5 1 , 1 + w 1 w 0 , n w O n j 9 w w 0 b 0 w 5 9 > 9 b 5 1 1 5 5 w *XZ + > 9 9 + > , j n > 5 9 5 > n j S n b 9 1 9 U Z 1 q 1 > 1 1 r ~ 9 Z R A Q q w , % Z M 0 Y Y B 9 b =XD b > 1 1 > 9 1 0 , % 5 9 w j > A ~ 1 w 0 0 M w 5 1 1 1 0 <XI Q S b n 1 D w o w 0 5 9 A q n -X>Xj , q A M 9 5 1 0 b 5 1 B , , 1 5 0 0 , 1 > , > 5 b +X1X9 5 1 5 A >Xn 9 q 9 A M w Z 1 5 5 9 0 5 w , , 1 A A % &X+Xn w B 0 w Z M 9 9 9 w w M b 9 Q B b M n S O n M O Y *Xn j ~ b 0 1 > 0 0 j > , % M 5 0 O 1 w j 0 B 5 5 0 1 , , > w j > 9 1 Z M 1 M , 5 Q R w 1 0 0 5 1 0 w Z 9 0 ~ D % q ;X+XZ S S X *X6X, 1 1 , B 0 1 , 1 9 9 1 , , 0 b 0 1 5 w > j > 0 M 0 1 0 w w M 0 1 n A 1 n ~ D 5XA , w 5 0 1 0 7X6X0 , 5 w 9 , 5 9 1 , 0 A 9 0 9 9 > O n >X0 1 1 0 M 9 1 5 0 1X<X5 9 > 5 1 M w A A A > 5 w 9 % 1 9 w > 0 ~ Y 9 j 9 1 9 0 1 C 9 Z A > , 9 1 1 1 5 O 1 , > 5 w 0 9 1 1 , 1 , 1 9 ",
"9 1 1 M w 1 q 0 9 w 9 9 1 9 w 1 1 1 0 b n b 5 > , 9 Z > 0 5 > M &XZ , 0 0 > w r M n 5 1 , 9 , M b 1 J n 1 5 1 b M , 0 S S M 0 , 9 , b 9 , 1 5 , , 9 0 O 1 9 q 0 j 9 > + M I M 1 , 1 M n b , , , , 9 n 9 1 9 w 0 1 9 =XU I 1 0 1 1 b b 9 0 M ~ Q 0 M 0 1 9 A w 5 w 1 n &X9 9 n b 5 , 1 0 9 5 9 w 1 > 9 9 n Z + S A > 9 , S w 1 1 0 n > j S q 0 1 M &XQ > , > w I n M 9 9 , 1 5 1 , , , w 9 o > Y xXI , I S 0 b ! Z , w w M j O 1 b 0 9 9 0 1 1 1 9 % I Z 1 b ! M w b q S n j 9 w w 9 9 1 S D wX&XO 1 j w 1 9 O D Y +XI 0 0Xb % 1 1 9 O 5 9 , 1 w M n % ,X=XM > 9 0 9 9 1 r 5 n 0 0 1 5 w % X Z +XA M B w Z 5 1 0 0 % 0 9 A 1 X 9 n w 1 = A D S b % B w O 1 1 , 9 1 9 9 > 0 9 1 1 9 b b > 9 j M 0 > 1 Q Z , 1 1 b ! 0 1 5 n Z , % 0 Y J A 5 9 w 9 9 , *X6X1 5 9 1 1 9 1 > > 1 n j 1 9 , 0 0 1 5 j M > 9 1 j D 1 , w =XR 9 0 1 1 0 J > M O > > 9 b 1 0 , 1 1 1 n M 0 w w 9 1 9 w 0 0 n w 0 9 9 1 b 1 1 > 5 ~ I b q M 9 1 % , , 1 9 w n ",
"n 5 B &XA 9 , 1 , , 5 1 5 > , 9 0 n 0 , ~ A 5 w 1 M n 0 9 1 1 > J 1XB +Xq I 0 9 Z O 5 9 1 9 q I 1 Y >XU 1 1 A A j 1 5 1 j 9 1 w q O 1 9 5 0 1 , 1 O , , 0 U 7XZ > b 0 b =XT w 0 w n S q b 0 1 w 5 9 0 w 5 > , b Y , M ,XI 5 M b w n A b , q 0 q w A 1 Q R w b M I > 1 S O M &XZ 0 &XZ 5 5 , 5 9 j , 1 O M 5 b % , b b 5 Z 1 9 0 9 1 1 > w n > 0 0 M M 1 Z , 0 Y I b 1 5 0 5 1 0 b A 0 w Y U O 9 +X+XM D S X >X<X% 0 > 1 M 9 5 > , 9 0 9 % 1 j w 5 9 0 9 1 0 > j b 0 1 9 j b n 1 5 M D + S T A 1Xw 9 0 0 5 , M qX&X> 1 , b 1 5 9 1 1 1 n M 9 9 0 , > O U Y , 5 , w j 9 9 , Z 0XY 1 9 1 1 0 Z j I A w , 1 b > > , b 5 , Z ,Xb w 0 1 0 9 0 m B 0 Y 0 > 9 , 1 , 9 , > 1 > , b w 0 1 1 1 5 , 1 9 1XT % w 1 9 1 M 9 1 , 9 9 1 w O 9 n O A 0 , q w 9 n 0 9 T 9 O b 0 w 0 9 I A &XU , J 0 1 1 M Z , w B I 1 o 0 M b 0 w q 1 % , 9 q j 9 , O ^ Q O > w =Xn A , n b 1 , + 1 0 n > 5 5 w 0 O B B 5 1 9 0 M 9 w 9 A A 0 M M b 1 0 > , 0 1 , Y T ",
"w 5 w b =XA b M 1 1 M D w 9 0 > T Y > 0 n w 1 , 9 9 9 1 9 b 1 > 9 0 A 9 , Y q 1 , 0 I 5 0 > n 0 1 A n w 1 1 U >Xn o 1 1 A I M n 1 1 , 9 1 1 1 > 0 M O % 9 xX<X5 n T 9 q Q T 1 , q w n > O w b 1 9 0 0 > 9 1 1 M J 0 9 Q B 0 M 0 A B q 1 w w 9 0 9 A S *X0X> 5 w w > w O Z S I Y > <XU O , 9 9 + > j , 9 w b B + -X5XM , , q q 0 5 9 1 Z w 9 1 9 1 , X M ! Y n B 0 I 1 , w 0 , 9 0 Z , . 9 b 0 1 > Z S D b % B 1 > , 5 > 9 1 0 1 > w , 5 1 9 j 0 , 0 b M 9 > 1 Q n > 1 , B Y 1 1 9 M M > O b T I n 1 0 w 9 1 w <X*X+ w 9 , 0 0 , , > 9 B 0 9 , 5 w 9 9 > Z b , , w B n 5 , A ~ M 9 5 9 , n M , n X O > n w 1 1 1 , 5 0 M b 1 b 0 1 1 j 0 5 q w 9 9 0 , b n 1 , % I *XZ 0 n w 1 > > 1 > 9 > , M B 9 M 9 , 9 ~ 9 % 1 0 n n , B &X0 b , 5 1 5 b 0 % w 1 b I S > q 0 1 , 0 Q ! b +X! 0 0 w w 1 b n M w 9 > Z I &XR 9 5 9 0 > I Z 1 1 9 9 =XU 1 , 1 n 1 A + 2 n > > q n J M M 9 1 w 9 1 , w 5 n S J , % 1 M A q b n % 1 w M 0 w 0 % 1 w 1 ",
"A 5 w 0 9 5 b n q ;XA 9 M S Z o j w O T &Xj n ;X0 9 5 > 9 0 9 , > 5 M 0 n + w b b w n % w w 1 , % , M 0 1 w 9 M 1 Z 0 , n ~ M w 1 9 0 1 1 w M Z > A ~ 5 % A >XI I S 1 B wXj 1 1 1 w n 1 w o 9 1 0 % , w B 1 0 1 0 1 w , 0 M w , 1 0 b Z 0 , n J > q U n ,XD 1 q q 9 , q 7X8X5 1 1 9 1 1 0 1 , 1 n Z 0 5 9 1 % > Z Q 1 9 , 0 b 5 9 , Z 7X~ 1 9 1 5 w S 0 I Z 0 , 1 q , 1 , j 9 , A =Xn w 9 1 1 w 0 j n q T 9 , 1 5 1 , 9 > O w > , w w 9 1 1 , 5 1 1 w 6XA > b , 5 9 Z 1 5 1 0 9 9 9 O n w , B , 9 w w 1 n 9 q Y > = b 0 q q % &XB 3X9 b B 5 0 1 J 5 9 w I M + > j M n 0 j w 1 O 1 9 w 0 9 X j ,Xq , O U ^ n Z 1 S 9 1 % + w n 0 > 9 0 j 5 1 U w 5 , 0 n w 1 w w U j w M n 9 9 1 > 9 1 1 1 > , w n 0 1 1 A b j ~ M q U Z 1 Z w O U 9 , 9 9 w 1 b ~ 1 1 -X<X, w 5 1 A b Y R I eXb 1 w 9 > > 1 9 5 9 1 5 ,XI M q 0 B q 1 > 9 5 5 9 5 , b M > 9 , n 1 O I I , 1 , ~ 6X1 > U S 9 9 5 9 b 0 1 S n 5 w 9 1 q 0 b 1 > 0 0 5 9 , M b 0 q C M ",
"9 1 w 0 w 9 0 Y I 0X-XO 0 q 9 9 1 , Q J T Z q 3X0 > , q 1 o w 0 1 5 w M 1 0 0XQ j > 9 0 w 5 9 5 w M 9 9 9 5 1 % % Y &XZ n 9 B M O 1 w 1 , 1 M n X % b n , 1 7 Y A A , w j O , 1 > 1 1 , 9 % w 9 1 1 5 w w > 9 b Z w , > A A , 1 1 0 Y 9 1 9 n Z , O 1 Q D n 5 9 w 0 5 5 Q 5X> 9 0 1 0 9 1 1 1 9 n 0 1 5 1 0 0 5 , n b > , 0 M w 9 , M +Xn 0 9 1 1 b M > n o , O n b 1 1 1 1 1 w b j 5 b 9 1 0 q q 0 0 n 9 0 9 1 j b 1 , > ~ ~ B q M 0 , , O 5 , 1 1 , j M 1 M 1 1 b Q 1 > 5 w M b > U ! 0 q 1 1 , 0 M , 1 j 5 n Q Z , w 0 1 , M Q J M ;XU 9 q w 0 , n q B 9 0 1 Y J >XZ 9 1 9 , 9 T w 1 , 0 Z =Xj 1 , w 0 w n   w 9 1 > A z D n b 1 0 0 5 > 5 w 9 R U w % , b B M 9 I 1 1 9 b n q 5 5 % 0 9 1 &Xw % 9 9 1 j b 5XZ % 5 % 9 > > 1 0 9 > 1 5 , % 0 b > M Q Z 1 1 q 9 w 5 1 0 q z 5 0 1 1 1 , 1 b 5 1 , Z n w 5 1 b ;Xb , 9 , 1 A 1 9 b Z Z > 1 1 A Z > =XKXw , , Y NXZ O M 0 1 0 0 w w q w 1 > > 9 1 , + 9 w > 1 5 9 w , > S Y 3X9 n Z ",
"Z n 0 , Z S O M D Z <Xq 0 0 0 1 % I sX~ O 1 1 0 O 0 1 1 , 0 M q 0 5 5 > > , J B , 9 , j w 1 5 , =X8XB 1 1 1 9 D B Z A w 1 % 0 1 1 > 0 0 , 0 ;XU w j 9 1 q w q Z 5 A M % 1 5 1 1 1 1 O q 1 , w j 0 0 , , 1 1 1 1 <X&X> q 9 9 9 n 0 1 , 5 w 9 5 + q M O n 1 , w w w z q 1 Q 1 , 9 j w 9 1 Y D 6XM 9 S 1 9 1 S w 1 b I D % O b b D 0 j 9 9 + 1 w b 0 1 O w 3XB O % U ~ M Z > D 0 1 % + q Z w > 0 1 q 1 1 J q 9 5 0 b j , w w S r b j w 9 9 5 % 5 1 1 1 > > n n 1 1 0 A q M *Xb b U n 1 M , , U O 1 1 9 0 , I R , w 1X! > w 1 0 S 9 =XM ;X-X9 9 0 9 > % 5 0 0 1 , M =Xn M 1 B M 0 , , 9 , 0 9 9 , M w , 1 0 q > 1 ;XM 1 , w wXQ X M S M 1 0 0 q n 1 M Z 1 9 w 1 9 w j 9 1 , 9 0 5 1 9 S w b j 5 q 9 > % S S O 1 1 j w 5 5 1 0 , 9 0 n 9 1 1 q j 1 , 9 1 9 M 5 1 9 *Xn   w 1 , D 9 1 > 9 0 X Q S % 1 0 Z 1 M 1 1 1 , M n , w 1 1 n w 9 q 1 > O Y M > b , n Q w 9 9 5 M , 1 1 , j n 5 9 1 9 b 5 n q , 1 0 > 5 > 1 5 , 0 w 0 0 q b n 1 b 1 ",
"S 5 , w Z q % O M Y Z j 0 0 w w 9 w =XY % w 5 9 0 1 1 1 0 q M 9 1 1 1 j 1 , 1 D 9 > 9 b w q , 9 T D 5 0 1 0 > S > q 1 O % 5 Z 9 , 1 9 1 0 b 0 9 9 0 1 , q b w 1 M 9 9 0 1 0 n 5 1 O A ;XM j M n , 1 > 1 , 1 1 % q n 9 j 5 , 9 ^ w O 9 b n M , A ^ 0 n 1 q , 0 n 7 > n 1 w Q Q , q 0 1 5 w Q Y 0 <XT w w w 9 > w j b 0 0 1 ! U Q A 9 1 9 1 9 Q j , 1 1 A Q n 1 1 1 q 1 q   0 5 , , S M A b M , j 0 1 , 5 0 5 Y U q O 1 b M A 9 U 1 , 0 M q w 0 1 , 9 1 M +X5 , w 9 9 0 M <X0 > 1 > 0 % 1 0 0 0 O 1 1 1 O q 5 1 I Q j , 1 b w 1 0 > 9 0 9 5 0 1 , , 1 1 n > , 0 M q 1 1 w A &X, 9 0 O n j , w M S 9 1 , w D b , NX7X% 9 9 7X0X+ 5 b 1 1 9 q w q M 1 , , 1 1 , 1 O j 9 % 9 9 0 1 o Z M <XJ > 1 , , , b Z q 1 1 0 1 9 5 q 9 q n 9 1 b 1 w , b > Z U 0 9 1 , > 1 1 w n > 9 w -Xw % > 5 1 , > b A 1 9 5 j 5 + n w > w 1 w , , 1 0 9 > + 1 z > n n n 5 M M 5 > r b b 9 1 w b 5 1 1 9 9 w b n 0 0 b M 9 n B , 0 9 1 1 b j 9 5 Y 0 1 0 , n 1 ",
", 9 0 5 1 X Z 0 + b > 5 0 w 0 q , b Y O , w q 0 w 1 Q S 6XO A Z 5 5 w D , n n T q > % B Z Z q w 5 1 % w b w 0 > O Q =XO , , =XM T 1 b M , , X 1 A n , 1 5 w 5 > A M 5 1 q q w 1 9 b B 5 9 b b 0 w 0 > 1 9 1 1 , > n M 9 1 , D w q =XZ 1 U b 1 n 9 + U 5 O 9 1 9 2 M ~ 5 q ~ -X, w 1 w T 0 ^ U U =Xq 9 9 9 > , 1 9 0 1 , M -XM b 1 n Z 0 > 1 , , 0 0 1 1 B b > > w j 1 5 <XZ 1 , b qXQ + M I b 1 0 0 w j 1 M b , w 9 1 5 w w 1 , , 9 9 , , 0 A M n w 9 w > , > U n O 1 1 w w 9 1 5 5 5 1 0 M 0 , > n q 1 1 w 5 9 j , 1 b =X, O w , 0 A , , , q 1 , ;X0 1 1 M b 9 M , 9 5 , I 1 9 0 > w j q 1 5 % , q Y 1 0 j 1 A S , j 1 j 0 , 1 > 9 M w 9 1 5 q w 9 M 9 O e 2 1 1 > 5 , 9 b j 1 w 1 w 1 , > 0 1 0 n I O 5 1 T 0 1 0 0 0 1 q >X&X, 9 9 % > O &X*XM + q b , , 0 , > O Q =XM > w M 1 > 0 D 5 1 9 1 , 5 w M 9 9 , O 0 Z 0 , n w , > j 1X6X, 0 q M 1 U M > n 0 5 9 w R M 1 0 0 > , 1 5 R ;X9 o M Q q 5 Y A Q A 9 9 T 1 > % j 5 1 j 9 1 , ",
"5 n Z n , ^ I 1 B 9 5 , 0 n , 5 M 1 n <XZ 1 j 1 1 0 n ;Xn Y <XM w 0 q , 9 b 0 b 0 1 M ;XU &Xq , 9 9 % M I , 1 5 q J S 0 , 1 1 , 5 > + w , % M A B b A w 9 9 w 1 > 9 5 I Q n % > 9 Z M 0 A w , 9 0 M 9 j 9 % 0 q 5 =XM > 0 w 1 n q ~ M > , 1 9 > 1 w 1 9 1 , 9 , > 9 9 X A ~ w 1 , n 0 9 q % 1 0 1 9 9 5 1 1 , 1 b 5 > w B w , 5 w n =X1 1 9 , j M > w M A 0 , 9 j A M O lX0XX 5 0 1X0X% 5 w 5 1 w 1 0 0 M 1 1 > , 9 1 % > w 9 > 0 9 w 9 X A Z 8XB 1 1 1 > 9 n Z 0 1 9 b , 0 9 w 5 b b 9 9 0 0 0 9 0 > Q S 0 5 9 > 1 1 , j w , 9 S ^ , % 1 9 % , , M n 9 5 0 b > O D , , j 1 0 o 1 5 b > > O n w , M b 9 0 S 0 1 5 0 b 0 5 9 j 0 1 5 1 5 w w J 0 q 1 S q w M 1 j 9 1 1 q n 0 1 M S O w , 1 + 5 > , + S ^ , n 9 w 0 9 w 5 9 U S 9 9 1 w w , , J J M 1 w 1 1 5 , > , , 1 M 1 , n ~ , O M D b 1 % , % q w 0 O 1 0 , Q M M 9 j n b n R +X5X9 + w , , U T 1 1 1 9 5 M ! n , w , 9 b j 9 b Y Y 1 M J j % 9 Y ;X1 1 1 1 S j 0 1 1 5 9 1 1 1 ",
"b q D 0 9 0 O 1 U + > 1 5 9 O Q A , B >XS , 0 , M I w *Xb <XU 1 0 w 1 % , 9 w 1 , 9 Y R b 9 1 R M 1 1 1 % 9 9 9 1 0 S 1 , 1 Z 5 % ! <X1 5 1 *XsX, 1 I Z 0 9 0 w n w 9 B O 1 w 9 1 9 w w + , 5 0 1 > 1 A b A 0 0 5 , O > A U > , , 1 w w 1 9 1 5 9 1 M 9 1 , w b 0 1 q 5 1 w 1 1 9 *Xq . w > w D , 1 > q 1 X =XB > 5 b b 1 M 1 5 1 5 A 5 9 5 , 0 0 w 9 5 % > 0 Q 1 0 0 9 n A 1 b , q 9 > 5 > 9 M 9 q 1 5 q q 9 M 0 > 9 1 1 , , 5 > 9 w w w q 1 9 , , % 5 1 1 M D + 1 5 J 9 1 w q w 5 M <XR , 0 1 > O 0 =X~ 0 % w q > , 1 > O 1 &XQ q O b b % 1 n M 0 1 5 1 > 9 n j 9 , , , n M 5 1 B 1 1 O S wXQ > 9 M j j Y q 1 w 9 9 9 M R 1 9 w , > 9 1 q =XA 1 0 T U , M D Y U b > A n X , 1 w O w w Z I w b o 0 Q I M 5XM Y w 1 9 , , 1 9 + Q 9 , 1 &XJ o 9 1 1 > > 1 1 , 0 q Q M % 1 5 w > , j *X*X, O w > 5 , 1 , 9 Q D 1 > 0 ^ 1 b S > B M ~ ! 1 5 9 X 1 1 D 1 0 5 j 1 M 0 1 1 9 , 1 M Q 1 Z A 9 , &Xw M 0 + U ^ 1 n 9 Y *Xw 9 1 w n S w &XD ",
"w , , 1 5 > 0 0 5 0 , 1 9 , 1 9 1 , U J 5 , w M 0 > j . 9 9 1 0 1 9 , 1 1 9 0 1 1 M M 9 O w 0 Y T , w 1 1 M 9 9 b Z b > 5 9 n T > I GXw , 1 A sXM + w , 5 1 q 9 0 n w 1 1 , , 1 , O 0 w , 0 9 0 j O b Z -XY , 9 1 1 9 j S w , 9 b 1 1 0 q 9 b 0 w 9 0 9 0 1 0 > R ^ b 7 1 1 = 7 1 9 b % w D *X, > , 1 1 > 5 1 n 1 1 9 w 1 X A 1 , j 1 0 o 1 1 j > > O A b 0 n q w 0 D 0 , 1 w w q 5 w j 0 9 1 1 0 9 j I 0 q 1 J w w J 9 B 9 9 , b M 1 1 A M % b 1 1 % 0 > % , T Q , D w b q 5 w 1 0 R q 9 9 > 0 5 , 1 J S n 1 0 1 1 9 1 , , 1 < n > 1 J J + > I S w , % > > q 0 1 1 w 0 1 Y n n 1 n w Z M Q *X! X 1 0 + b ~ Z O 0 5 9 1 T Y 0 0 q 1 w n j 5 Z +XA 1 ! M 9 > b ;XM 1 9 % M S 5 9 0 0 9 > S B > b 9 0 S Z B j 5 1 5 w > Z M , n ^ S q 9 O &X&X1 + > 9 > 1 , w n 1 J D D b B q w 1 % n Q 1 , n Z > w w 9 9 Z w D > 9 9 Z q 1 5 w 1 n 9 j > % M 3X+X5 , U *XA > 5 w > 1 0 % 1 > 1 , 5 5 1 > , n 0 O I q Z B , A n U J M % 1 1 j b ~ ^ q ",
"q 0 1 9 9 9 1 9 B 5 1 , b q w 1 0 0 1 9 9 , B &XO O 9 9 Z M + 1 1 q X M >X1 1 0 Z 1 0 w 9 1 , b M + 9 1 2 w w 1 1 , + 1 J Z O w 0 w M j j 0 1 9 > 9 1 > b M 1 0 9 0 j 5 Z w 1 5 0 > 1 O 9 , , b 0 q M 9 5 1 1 + 1 1 5 w I > 1 , B n 1 0 w q 5 j =X*X9 , 1 , > + &X-XZ X b n , , , 1 + > Y *Xw X M A > , b M 0 1 9 , 1 0 w w > 1 1 O A Z w 1 A 0 9 > S wX*X. q n 0 w Q w 5 j 9 5 9 A ^ 1 9 q > , , 1 q *XS 1 0 Q S > S M ^ A M , A 0 , , , w + 0 9 D I j w X b Q A Z >Xb U 1 9 1 1 , 1 1 9 Q , 1 0 <Xb > , 1 , , 1 > 1 , w M *Xj , , w 1 % , A ,XI O 1 w % q 1 > 9 j Q b 1 , Z Y , U z < D B *XB , 0 O > 9 1 B 1 0 1 j 9 n 1 1 > , , 1 I A 0 A j X B Y , n O j -Xb 0 q S ~ Q , 5 1 A S Z 9 + , % 9 O Z 9 j w 0 , 1 , 1 S Z 1 0 5 , 0 n b I I 1 % b q 5 9 > A T O w 1 9 n M > 9 1 9 ;XI , 0 A j q 9 9 1 9 w 1 9 0 M 0 0 1 9 0 j 0 0 0 1 0 9 q >XC 0 O I qXS + D 1 1 ,X^ + , 1 1 9 w w 9 w J > + 9 n 5 1 j < q 1 , 0 w , , 0 9 I U 0 , ",
"9 0 0 w w 0 q w 9 q 1 0 1 1 >XR 0 1 9 1 > 5 > w 9 , M Q J X , 1 1 > 9 , 0 j 5 1 5 j , 5 Z % 9 9 9 9 O 1 9 3 + O 0 R 1 b q q w Z M , 1 7 q j 0 q M j 9 9 > 5 0 9 S A 9 1 Z Z 9 A j w n 9 , 0 Z 0 5 0 R O n 9 5 , 1 9 o O M ! 1 A M w j , 9 9 , I b > w 5 9 0 , 1 M U M 0 5 2 2 0 , , > q % n , 9 Z U O O I U j % O , O w e 1 1 0 w 9 J n B 1 b M M Z ^ &X+Xo 1 0 o q Q B O 0 5 9 0 Y T 9 0 0 1 n Z j w M +Xj w Q M 9 , w ,Xn 5 5 , A A 0 0 5 w 9 , J w , w 1 0 I B Z q 1 1 0 9 5 I b % D Q M 0 , 5 =XQ 1 X , 1 , , 1 A b 5 Y m J w A 5 w 1 > S B , , S b 1 w 9 0 j M M M > 1 q j 0 > j 5 j 0 q 9 > , ^ 0XS > 9 >X^ j > b 9 , j 9 , , , , 1 9 1 1 1 5 n + M B j I 9 w M n J D 1 1 1 0 n A D , 1 5 q , > 5 , 9 5 q U 9 M Z , 0 1 1 0 1 U I Z A , 5 1 A M > > 9 % , % 1 1 I 9 , 9 w ! 1XW 5 n 0 q 0 , 9 9 1 A M M b 1 9 9 0 5 % 9 q j j < I Z 1 1 5 , w U b % 9 0 w , U w , 9 j 1 , 9 0 > 1 0 D A M Z q 1 , > 9 , A M 1 ~ , w 1 5 J , Z ",
"1 q w 0 1 I >XR % 5 1 O O 9 &X*X1 , n 0 1 , 1 > o 9 &XR > % U w = 5 M M 9 5 1 > 1 w n 9 > 1 > w J n 1 w M 1 1 b -XqX0 > q Z , Y I 1 0 9 5 7 q ^ M , j 1 , 1 5 1 I &Xj , A ~ 1 5 I U U M 5 w Z > 1 > q > 1 w M ~ j n > 1 &XI n ,XA D j , 1 1 , > 9 , Q w , > =XU O , > 1 > 1 > 1 , q Z ~ A > 0 , 0 O > A &XI < 5 n O b 1 , 9 w U Z , , n Q > D b > Z B &XB 1 5 1 9 1 5 M 5 9 w w 9 M , , 1 1 % 1 J m 9 B j X C U 1 M > j ^ q b w I &XJ > 9 , M D Z , > , O w + n 1 j q 0 > 5 > 1 S b 1 0 , 1 j M n Q Z , 1 n w 1 0 O U n > 0 1 0 M 0 , 9 , A 5XM 1 n n w w 1 5 9 0 0 5 w n b 9 0 1 1 0 w 9 q 9 5 z , U ~ q 5 % -X;X% b M > M wX9 > , 5 9 0 q 0 1 A n % % w w 1 1 1 1 0 1 1 w 1 , 5 q b +Xw 1 9 9 9 > 1 9 1 % 1 q 1 b 9 M 9 5 q 0 0 0 > 9 > b 1 9 w S 1 9 M ~ b X D 1 w C Y b 9 w Z j w 5 1 M D J 0 j 0 1 5 A 9 1 5 1 5 , 5 w 0 w b w w w 0 9 w 9 5 n Q U 1 1 S 0 1 > 1 9 5 1 1 9 1 O % Y B 0 D R A w 9 1 1 b , w Z D Y , 0 1 w 0 5 A ",
"w , 0 1 5 U 9 , n > q 1 9 9 S Z w 0 1 > 1 9 > O 9 0 , q > j S n + 9 *XB 1 O > , , w 1 1 9 M 5 b M n q 0 B q S S Q 1Xj O q O > A S 0 1 9 9 9 B R Z 1 0 , w n A 1 Z T Y , Q A b 1 9 ~ ~ > q 1 q Q 0 9 1 n 0 , n n > 5 5 1 A Z Z j 0 1 5 j 5 Z A , n ~ n w 9 1 R +X0 O > 5 1 , 1 B D % U n A w S w q 5 1 Z D > 1 A M , w w 0 w A w b 1 9 0 q 1 > j 9 w w 0 9 % % ! 0XI , 9 <X=Xw % q 1 1 M 9 , 1 , , 5 5 9 , 0 7 q X M M M S 5 n M Z S D 1 , 9 w n J S O 1 0 9 1 O 1 1 9 1 M U 1 S b 1 0 > 1 n , R D M M 1 1 0 I q % 5 0 O 1 % , b S , 1 q n ,X^ J 1 n w j 9 1 w 9 1 I b Z 1 5 5 9 0 > > 9 b b 9 0 R j > 5 0 = Y I 5 X w 0 9 q M , 1 j q > 5 9 9 , w 1 Q b U w b > , 9 1 w ! > Q B , w > b j 9 , , , 5 , w w , % Q <X> 1 w 9 1 w b 0 M 9 5 , , 9 1 1 1 0 M <X5 O 1 n % w n Q w > 1 > 9 w 5 , w 0 M 5 n 0 5 1 % > 1 0 0 M 9 1 9 b I 0 S Z n , 5 &Xn 5 q U ~ 1 9 M S 1 1 w 0 1 > > 9 > w Z >XJ B w w 0 % > 5 1 n b , 1 > % , 0 > 1 0 B , ",
", 9 1 , 1 % 1 b Q 1 % w <Xb % % , 1 , > , > 1 q I -X0 1 5 1 , > 9 ~ Q j , n 5 1 w 1 1 0 A Q 0 , , R Z 5 Z 1 9 Z S ! 1 1 9 5 j > n q 9 5 b 1 n 9 o 1 5 O 1 w S 1 n j O 1 ! 0 0 q , R I 1 S M &XQ 1 9 9 5 A I n O 1 % w , 0 1 q w q , 0 , , Z Z 1 1 , 1 0 A b Q D 9 , M v 0 1 1 n A > 0 , 0 M q > 0 O B eXI , b n w 9 5 1 1 q 0 5 j 0 n w 1 5 9 9 q 9 w 9 1 n 5 A T w 1 % &X=X> j M % A 0X5 % 1 5 9 9 n 9 1 D b 1 , w 0 1 1 1 1 5 , q 9 1 , 0 9 n ^ 9 q 5 1 , 1 1 0 > 1 5 j 1 b 9 M 9 9 b 9 q 5 , 1 1 5 9 0 M A O n A ~ , 1 D % M B R 1 0 0 M 0 q 1 5 S A I 5 n , , b n , , 0 1 9 > 0 w w w b n b q 1 q w 0 9 I R M , n A 1 1 , w 9 1 1 , 9 1   I Q n q Y I 0 b , 1 0 b 1 M b T w 1 1 9 w 0 , 1 > 1 9 0 1 9 1 , j B , 9 1 > w w 0 0 D b , 1 1 1 > w b 9 > > 9 w > % 1 9 5 , 1 1 1 1 , 1 9 5 % 9 j n b 5 j > , j I n 0 b 9 9 w 0 w D > M w q *Xb , 0 q Z j , b M n 0 1 1 0 1 1 5 > O n U 1 + 9 Y n O 1 Z n % n M > 1 > w 0 , , 7 , P 0 ",
"0 9 1 Y n % I Q 0 j 1 0 Q Y > % 9 5 , 1 1 R w w J 9 B n B 9 0 1 < I q , 0 S 1 9 w 0 1 B w M 0 1 1 q 9 9 , n , n 5 q > , 0 uX>Xj + T 0XS O 0 1 1 M B > 1 , > 5 9 1 1 9 5 1 1 , S w A M 1 Z q A I b 1 , 0 j D U , , 5 w 1 O 9 > 5 , w U 9 n S 1 0 5 9 0 1 A U b M , 0 , J n 1 > n > > 1 , w Y 1 1 9 b ~ ~ J 1 b j j q 1 1 q , S Z A 5 9 1 0 0 > 1 1 b b b 9 Y w , 1 w > Y U 5 O 1 w 5 q n , 0 w 9 , 5 5 1 1 7 9 Q M I b q > 1 1 9 b R , -XM 1 w , b q 1 , > 1 1 1 q 9 5 X =X+XO 5 b , 1 q j 0 n 9 5 1 5 1 , , 5 0 I =X% > 5 q > n M U > , 9 , 0 1 1 , 9 0 n 5 B 9 5 1 O 1 0 9 b b 9 9 1 S Z b D D 0 1 Z +X, 9 w -XM 1 9 A M 1 0 w w > % 5 , O I I *Xw I 0 0 1 > 0 1 1 Z 1 , , O , 0 , 1 w 9 1 , M , 9 1 w > , n b   S Z 0 1 9 q w 0 0 9 0 0 j , S qXQ n , 1 1 , 1 % w I A 1 1 9 9 1 1 0 1 b U 0 A Z q 9 5 n 5 A M 1 0 5 0 1 9 n M Y &X9 w j M 1 w q B w > 1 1 n w O 5 9 9 w 0 1 0 5 1 1 + b ,X1 0 I , R 0 5 1 9 n 0 O I ~ Q Z M q 1 , ",
"0 % w Z w 5 1 , w b A Z Q b , 9 M w 5 1 O B j 1 9 % q M 1 , 5 , ! 8X0 1 A 5 b 9 1 1 0 q q 9 w b b 1 9 1 5 0 w w 0 1 b b 5 U b 0 O n *XM > M 9 , <XU o , 0 9 1 q j , w U w , j 9 5 > % 1 1 0 9 w , 1 5 w 9 R M 9 j , > , 1 1 9 > 9 q 0 b 9 m j 1 w 5 w 9 > , > 5 5 5 b T , b D ^ w O S 1 n M ^ q 0 w q b 9 5 5 C D I 1 M 1 , 9 b > , 9 1 9 , 5 w n j j n b 0 , j b 9 0 M U Z O M S 5 > > j 5 1 1 1 5 , X I ! n w U U 1 w 5 , w w , j b S 5 1 1 w j 9 , , 1 , 1 0 9 9 , 9 j w 1 w > 5 w q 0 M Z 9 1 > 1 1 9 M j 1 O , 0 9 , % 9 0 1 , 9 1 0 , > w 1 1 1 9 j A 0 0 9 > 1 A D j 5 j 1 9 0 5 S B 1 A % Y U 1 9 b q M 1 9 M M b 1 , 0 1 5 0 , , , J n O % Z I 5 O j A 9 1 D , 9 > 9 b 1 5 1 1 1 0 0 M 9 % q 0 0 1 1 , J I w w 0 ! b 9 m 6XB 0 9 1 > S 5XY D O 9 D Z 1 B w 0 w 1 5 O 1 w > 1 9 5 M M > O 1 n A I Q j 1 1 1 B j 9 5 1 b b 0 1 1 M A j S 5 n 1 9 1 1 9 9 > , b q 9 5 > q b 0 , > Y &Xn S Q , , , 5 , M -X<X> q 0 Z j M b 1 9 ",
"S 1 S n 5 9 1 1 w , I M b b 5 1 b T 0 > q M O % , 1 A A , 1 j B *XJ b 5 j n b 9 1 q 1 0 T n b , 5 , 0 1 > 1 q b m 5 B A 1 % 0 1 n *Xn > , w w 1 b 1 , w b 1 1 5 1 1 5 5 S R S B M , 1 1 0 1 Q b T Q 1 q 1 0 b 1 , 1 5 1 1 0 w , O S eX, > j 1 1 0 n 9 M w w 1 1 9 , > , 0 M >X% > 9 0 1 j M T , , 9 1 9 0 1 , 1 0 q , b 0 0 1 > 5 0 b b M 9 9 1 Z S w Z A 0 0 M ~ , w j >XM 9 9 D M 1 0 w w > > 1 % > S J ^ w J w w 1 O 0 1 9 Z 1 9 , O > 9 > 1 0 9 1 , B 1 9 0 9 1 O Z 1 , A Z 0 1 9 b 9 0 q 5 0 w 0 > *XwXJ b , 9 1 1 1 % M J M > 9 1 , 1 0 9 1 S A j B M 1 0 q n 0 I 1 5 5 0 5 9 5 B M ~ T 5 w M 0 q 0 B M 5 > 0 1 n , O 0 1 q 0 5 5 w , , > O 3XD o I n B B , 9 1 b b > j ~ Q Y n w > w n , + , > > 0 1 w 1 U 0 9 5 b +XU > Y =X+XZ M I 1 0 6X! , o w =XR Q $XM 9 > 5 1 O -X*X, 5 1 5 ~ n 5 1 M U Z 1 0 0 1 9 9 j q b 1 w n 1 , 5 w , 0 5 + > o 0 b 5 M , b M , 1 q % , M A 9 > > 1 , + ~ U B 1 q 9 0 0 1 q B =X*XM Z n n q n 1 ",
"q q 1 M 0 > M 1 w 5 > 1 , 9 1 q Z M + I Y Y X M A > n D Q O w 0 z 0 q > 0 Z J n 0 n > 1 9 1 > 1 9 w 5 1 b q Z 0 m B n > 9 Z w 1 q J I 0 > U j 1 > 9 j 1 , , 0 1 o 0 1XM 0 B Y b 1 9 1 5 b , 0 0 A q > 1 9 w q 1 , 1 1 , j 0 1 5 1 0 1 1 w 5 > 0 w w 0 D 9 1 5 1 1 1 A M , > + w 0 , > 1 0 1 O 9 5 9 1 > 0 1 q 1 0 M S 0 w 0 O , A U 9 w w 1 0 0 5 B M 9 Z , S U 1 1 j n w > 9 B b j 1 9 1 5 5 9 , 1 1 I 0 O > M T > > M A 1 5 A 1 1 > 0 Z , j 1 , 1 0 w w 1 > 9 0 1 1 1 1 U A q 1 B ~ n 1 U 0XM 0 5 , > ! =XQ j > 9 R n w A j 5 0 9 , O n 9 > 1 9 9 D n > > b S M Q A 0 1 1 0 Z 0 9 1 9 b 1 5 1 5 B n Z n w q , 9 1 9 1 9 O w w w 5 , 1 M q 9 % 5 Q J D U B O 1 5 > b D 6XZ 0 q 9 n 0 J , 1 5 M &X9 9 9 w T S + I &X1 % 0 , 0 O S =XS U 1X+Xq o M , O , M S b U ^ *X1 0 1 , M 6XU 1 j B Z 9 > 1 5 n U M 1 1 5 > A C j z B B j 5 O 1 1 > M 1 , 1 1 , B O > M 0 1 0 1 > 0 9 5 Z U n 0 j , 1 1 1 0 1 5 q j 7 A M Z j 3XU q Y 1 M b M 1 ",
"*X+ 1 w , 1 n w j Z 9 0 , 1 1 , % 1 b I Q X 5 , 1 > n M Z O 1 9 > 0 9 9 > 1 0 5 w w 9 9 1 O w n b M q 1 9 w S M b A M 9 j ~ M 1 j Y ! , b 0 S 9 5 w 0 1 > , > O B U R w U n w , 1 1 0 > B w 1 , O O 5 5 % 5 0 9 > A 0 5 9 0 1 , b j % D M w 9 0 w w 9 M 0 9 b 0 > U fXY M O 9 1 1 > , w Z M , 9 1 1 > 9 5 1 b Y w M j 5 , q S w T 5 1 5 w 1 9 1 M n ! I 1 0 Z 0 j j n M 0 , 0 1 b 1 O 9 0 0 w 9 1 0 1 1 > > 6XZ X Q j M M 1 1 5 M Z 1 j ^ Q S n n > 0 n > + > , , 0 9 9 9 U 5 0 1 j *Xm 1 ~ ~ Q Z A Y , n 0XJ O % A ~ Q ~ ! q 9 O 0 % 0 6XJ 1 0 > B R 9 1 5 J I M > w 0 , j w w j b 5 b 0 1 1 1 q > 0 O % O > n w 0 M , M 0 , 3 5 > 5 S n 5 O 1 1 X b ^ Z b 1 w 9 b 9 1 w I 0XA S M j j 0 9 9 Z -Xn 1 1 5 0X9 , Y R 0 O 5 , , O 1 Z j Z M M n > O , ! w > 0 j n >XQ 0 > 9 9 b W M , w U Y 9 M 5 > D n M q w 0 n j M 0 B B Q q , M =X9 , 1 , n ~ j > > n Y , 0 w 1 1 1 > , 1 > b S q 0 1 w 5 0 9 q 5 5 1 q I Z B D I U ! > , 0 1 *X+ ",
"> 0 b 5 , j 0 0 n M 1 , 5 1 , b U B > X , n 5 , 1 0 5 1 > 9 9 9 1 5 9 1 q 1 M A D 1 0 1 O w Y M 1 9 9 1 q 0 b D b M b 9 Q q > q j w 1 , w Z b 9 , 0 1 9 0 , 5 , j n > O j U b O 0 U q , b 5 9 , 1 S j 0 w 9 , 1 q q 1 > 1 0 9 , 5 % I I 0 9 q =XZ 1 Z 0XJ 0 5 1 O S <X! M > 1 U Z w I 0 1 1 0 5 + M M > 1 5 0 B n % , 9 I Z T S 0 , , 0 M 0 9 5 5 j , 1 1 1 M B M w 0 0 , 0 = 0 9 5 O 0 b 0 9 , 1 b b , > 0 Y A I R B O , 9 > b I 5XM b 0 5 w b Z 1 9 1 I -X0 9 9 q ! B o ~ +X= 1 5 1 , O R >XZ ! -X^ > % w . , > S M Z I >XR 1 9 , > Q 5Xq 9 q U n O 5 9 0 S S w 1 1 1 0 I b q M M Z w > > 0 > 9 w 1 , 1 , q q X 0 M 1 0 1 > 9 0 5 5 I A w w 0 , 5 1 1 5 9 9 b 9 M B D w Y ;X5 I w 0 M 5 , w 0 5 1 > 9 U =XZ 5 b 1 1 Z Y > q 1 % , % > 1 5 1 9 1 1 *Xq , 1 1 X 1 Y b 9 X 1 O > Y B n J , U >XX 0 Z 1 n 2 5 0 q 1 1 9 1 n Z w 9 D U w 1 1 Z q n M 1 > 9 q 9 O , , n 0 9 <XY 5 q w b w 9 9 9 0 w 0 w 9 w 9 M w 9 B 5 j Q , Z b 0 1 w ",
"q S M w 9 0 q 9 0 Z 5 w w 9 , 5XeXZ w 1 0 1 1 , , M A b 5 > 5 > , 1 9 1 I A b w w , 9 Z A M B > 9 0 9 1 9 0 M A ! j 9 n M 0 M q M j , 9 1 w 9 + 1 5 0 j 9 1 w 9 1 , X ~ 3X  b Q 1 Z 1 1 9 w S j > ~ I T w B 5 1 Z , O 1 > > 0 9 q , I b 1 9 9 Y I > U Q &XA S ! w , 8XY + O M Q Y Q Q j q 1 1 , 0 <XU 5 w 1 j $X0 5 1 B S B > 5 9 1 M 9 n j M 5 q w , 1 1 w > 5 + % + % n 5 b b O S 0 1 5 5 % 9 Y n 1 > , 1 . b Q n w 0 w 9 n 1 1 5 Q 0XB I B j w w 1 9 J Q 0 5 < B 7X, 0 Q U 5 , 0 > 1 , 1 b 9 M n M w > O M ~ 1 > q 9 Z ;XA 1 % w 1 M J b 1 b ^ Z w n > 7 Z n M 9 j b M M b q b R I 0 > *XT 1 , 5 , U ~ , > 1 R b , b 5 5 5 , 1 9 , > S M q 1 w 0 0 q 0 0 , 1 5 Z ~ 9 M J S &XA X 9 5 9 0 > b &XZ 0 b U > > , % 9 , B ^ > , X 9 I M , 9 , w 5 O 5 1 5 , O S D 9 1 1 M Z , 5 , q b 0 % O > I 0 , j 5 > 9 > > 0 9 w Q Y 1 O 9 1 > , 5 M w Z U 9 0 5 , o O 1 M U Q ~ R D &X^ 9 w w 0 q 1 w 9 1 5 w 9 0 1 5 1 > I w o D 9 q U A b 1 C ",
"Y b 0 1 A >Xb 5 Q qXB 0 1 , % Q >XQ 1 > w ~ b A S 1 1 1 0 5 1 U 9 , 1 1 q S 1 , 1 B U b Q b , , 1 M b 0 , 9 9 0 > , , 0 Z w b 1 w , 0 1 1 0 0 1 % b 5 9 > 1 M b 9 > 1 Z M Q T I > , 1 , 5 M ;XQ b M > 0 w M 0 , , A 5XM 9 0 w Y S X A ;X0 > w > , . U 7XM A >XT w O 1 O > > n M n J >X*X5 5 1 O U 5Xn 5 0 I M + > w 5 A D b 9 1 1 9 D M 0 Z B B w > O M % 5 w 5 9 0 1 0 w O 9 b 1 0 1 , 5 0 1 5 D M w w w O 9 1 % 9 1 0 b 9 M A S M ^ +X5 S , 0 b 5 1 q 1 w 5 > w +X~ b 0 9 , 0 I I O 0 > 1 , , > 1 , 1 0 % w Q 5 > 1 > . n Y b 1 X 1 X w Y j Z B O =XI   M q w n > 0 0 5 1 5 7 1 A M w 0 I n 0 1 5 I 5 Z q 1 > 1 0 , , , 0 B 1 Y 6XM 1 w 0 w 0 0 b , 0 q 9 w q 5 b n 0 B j 5 I n 0 S 5 0 , 1 1 5 B B b M > % 1 w , b q % D +XM ;X0 n b > 9 M 1 1 M I 9 o Z I 7XA 9 9 n M 0 % J n j ^ n 9 1 hX>X5 5 1 9 9 0 0 , 9 n ^ J 9 9 , > 9 9 9 0 1 , I 9 q Y , T I S qXM Z A I 8XU M > 1 q 0 1 , 1 1 5 1 0 1 , 0 B 5 1 > M n 0 w b n M B 9 , ",
"R n 5 0 0 Q b 9 ^ R R A R ~ > M 8Xq + + Y D ~ U U w 0 > 9 + J 7Xj 5 q 1 U D 1 5 q Z S q + 0 1 0 M 9 b n b 0 n , , 5 9 9 % 5 X > + 0 w 1 D 1 0 M , 1 w > 1 S S 9 , 5 , O + I M w 5 w w w w 9 9 n qXJ U S q M q 1 0 b Q n 1 1 9 8XS > Y Q j > 1 , 1 1 > 9 9 1 j A b 1 % q -X0 > 5 0 j *XI 0 , 5 9 0 A M , n U Z M D O 1 M q M 0 0 b M w b w b Y I j % +XQ 1 , 1 1 I *X1 > 1 R M > z 5 1 5 1 1 b 9 , U j q 1 0 0 5 w j 9 1 , 0 S Y 1 M D S -XM X q 9 9 9 % n ~ M 0 M B > O , , 1 , S I 1 , % w T b , 1 9 b 1 O q 9 , , 9 T I 1 1 1 Z M > 1 1 0 w 9 > + 9 Q 1 5 w 1 1 9 > 1 q 0 B *XJ O 1 1 , > 1 9 D 5 U b 9 9 5 > > < b A U ! *XS U -Xn 9 w 1 w 9 5 q 1 , 0 w 0 , 1 9 O w D X j M % T A M 5 5 9 1 1 M w > S 0 > 9 n % w R O U =XT 6X~ 1 R , 9 w n , B 0 0 , Y &X, 9 , w b X > b &X, U j 0 9 w Y J n M 1 b 9 w b 9 1 n n 0 5 1 1 M M Z 0 , r > Z 9 Y 5Xw , 1 &X<X> > M 0 w =X~ 1 + 1 % 0 0 1 5 q 9 , Z I I Y 9 1 1 M w , n 1 , 1 1 > w ",
"! ~ > 1 9 > > X &X<X0 Y ~ A 1 % , X 1 1 Z n w R 7XS > 9 > 9 =X*X> q j ~ 1 o 1 5 q I A 0 w 1 1 M D w w B S b 5 O w 1 , w 1 9 w 0 , M > 9 w 9 1 9 1 1 0 1 , b J Z 0 b 1 1 w > 1 0 5 0 0 j S D M S =XM M b 5 q 9 1 0 9 w 0 , 1 Q ^ B 1 0 > 1 Z &X, 1 9 X w , , 1 , 1 5 1 , U q , 1 , X , ! n 0 X 1 % < U M n B > T Y X j M 9 z 1 5 9 0 , 5 9 1 B z w 9 Z n 9 0 1 Y , n n 1 O = 0 % O , b B 1 R 8XM 1 w w q 0 w q 1 0 0 q 0 0 5 q 0 0 A 1 1 S 5 n M 1 1 , 1 1 1 Z M j Z > > 5 b 1 b q , Q T J *X1 M n O j j 1 5 Z A 1 1 A ~ <XM 1 0 M b , 9 Y 0 I Q b 5 Z ZXU 1 9 1 5 9 w 1 > 0 A ~ w 5 1 O 9 0 0 1 1 > 9 I , U I > =XB 1X<X9 B n R <XZ j X 9 b 9 1 1 , 9 1 0 > 1 9 Z b 1 , 1 S , 0 0 n 9 U 1 1 > 1 5 9 5 0 5 % 0 0 , > 9 I q 9 5Xj 9 9 9 b 1 1 w n > w 0 9 5 z w > 1 1 , O , 1 1 % 1 9 0 1 I P O 9 Y n I Z 1 > 9 -Xn M I 9 n > Z wX9 T Q % 5 0 > 9 % j 5 , 1 1 0 , 1 j S 0 1 w n M > U Z q b w 0 9 0 0 n S q , Z b > b &Xn 1 , 9 9 1 0 ",
"! Z w 1 0 1 0 1 O O 3 1 b Z 9 1 O T *X> % w 1 Z Q Z 9 > 9 1 q A b 5 U T b Q j + n w n w 0 0 M n n 0 b n -Xn 1 n 3Xb , 1 1 0 *XA % > M Q , 0 q > 9 1 1 b b O n B q 9 9 w 1 j 0 w 1 5 1 B ^ w 9 A A &X~ X 9 9 0 9 > w I I 9 Z Z , + > 1 1 1 n S 1 w O w I M 1 1 9 n 1 O 0 w 1 1 1 I &Xw , 5 M B 1 , 1 j 1 0 > X , ^ b 5 5 1 1 9 O 1 9 j M *XI O 1 , 1 > 1 5 A 1 I M 0 9 9 > 1 1 M R T +X&XY Q Q n 9 0 9 w 9 1 0 9 > 0 9 0 , 5 9 , w M % b n 1 R A Z 9 0 1 1 1 n 0 , D 9 > w 0 > M I X ! 1XY 8XA 0 D , 9 j b 1 B 0 0 1 +XI % 0 % n 1 % O I I 9 S 9 1 q j T M S q 0 n w j 0 j 9 m b 5 1 1 j A n Z 0 1 1 1 n 0 =X&X+ > q 5XA + 0 n 5 I =XD % 1 % > q 5 1 w 9 1 0 T Z +Xn > 9 0 w 9 M w > 1 9 , M M 1 0 0 j 0 1 j B 9 , 1 9 q n + > 1 , % > 5 1 M S , , O 0 9 w 1 5 0 0 w 1 Z D > + B 1 w w +XbXI 9 w ! Q Q 1 O , O A b > w A n w Z w O w b 1 q 1 9 , 0 0 9 Z 1 1 b > j o , 0 9 , j >X0 J A % 9 , n n , n 0 1 , n A 0 9 9 , =XI O 1 D 9 5 ",
"= > 1 R R + 5 o 1 b , , , O w 1 > 9 A , , 9 > X M Y j 1 O > + b U j n w , &Xq O Z 0 w 9 , 9 0 > 1 5 b 1 n w 1 b b 0 0 5 Z M , Z 9 > O > 5 O , w B M 0 0X+X9 9 9 w b 1 q 5 9 q 9 w j 1 0 5 5 M j O Z b q I 5 0 , 1 1 , n B q A q O 1 q 9 n b O J &Xn <Xw 0 S O 9 w 1 1 Z S 1 O D T >XA 9 1 Z w , 1 Q 0 I ! Z 0 b NX~ 5 0 9 9 1 b 1 O 9 Z Y j 7 1 , , 0 0 9 1 > 1 I > ^ S 1 ~ C 5X>X, M b ~ <XB n X 5 w 5 1 1 , 9 5 0 > w 5 I b 1 , 1 A > 9 0 q 0 J 1 , , 1 5 0 5 w > 1 9 1 , O w U 0 b >X, 1 1 9 w > q j 0 1 9 1 w 1 M 1 , 9 0 O > , > 1 O 5 9 w q =Xm , n J Z R w > o A Q 0 J B 0 n + =X-XO 1X0 1 5 0 1 , , j 5 9 9 , % 1 1 M M 1 , j n 9 b ^ j w q 0 w q 5 0 A M > M D 1 1 R I 9 1 5 , 0 M 9 > 0 w 9 q 1 Q Q n 9 , 9 9 , 1 n 5 1 0 1 X q Q b n Z , n , 5 > 1 0 0 1 1 ;X&X0 O 9 O q S w Z 0 9 1 b n , M 9 > 0 q I b 9 =Xw I M b 1 1 O , Z > , > U w 9 B q + 9 > + 1 , > 5 n , *XZ D M 1 1 S 1 + 9 9 M b , 1 O 1 , > 9 6XY Y 9 M 1 w ",
"7 5 , n M q q 1 b T w 1 1 w n > , M e , 1 0 =X&X> 1 1 T n , O j 1 q 0 O X Z *X1 1 0 , 9 , > 9 w b U *Xw > 1 > , > 5 M j w S w 9 q 1 9 q 9 ^ U Q &XY ! U D 9 w q 9 0 5 0 q % 9 w 5 , 1 9 1 1 M 1 1 U % T Z J w 0 5 , 1 j 0 , M 0 1 1 0 > 9 ~ o Z 0XY -X! 1 S w 0 j n 1 n w 9 , I T o 5 > j 1 O 1 M T 1 A 5 5 q z Z n U w 0 n w w n M 9 A q 0 5 1 n U B Z 0 , 1 1 n 9 &X&X+ o 7 ;Xn % q Z 9 A -XZ % 1 1 1 b 5 1 9 9 1 b I J ~ q 1 9 w 0 q M 9 , 1 > 9 D n 1 0 w w 0 1 Z Z 5 , 1 1 w w O , , 1 , , 1 q A S > > > 0 0 w > 0 j 9 5 9 Q A O 1 n > n b 7XfX9 0 m &XQ D 1 > % 0 A 0 > q I 9 A n , , n 1 q w , 1 9 M 1 j M X M 1 1 1 X > w 0 , Y ! q U 1 1 5 1 B 1 w M , 1 5 B b 1 0 O Y 5X1 1 j Y M w 5 n j 0 j 1 w *X*X, , B +X1 X 9 0 5 > 1 1 5 1 Z M B Z &X1 9 5 1 5 9 9 1 1 =XZ . j 1 b *X6XT M M 0 B < O A U U 5 1 <Xn , *XD 5 M =XX D D 1 M 9 0 O 0 Z 0 Q j n S I 1 Q ! 1 w w w O 1 0 9 0 M A Q q , U A 5 1 1 > > , 1 9 M <XQ I Z > O ",
"b , M M % &XU U 1X, Z M O 9 0 1 w D n 1 5 I ! ! M < n b 1 = J I n ^ R z 9 ~ lXz 5 9 9 0 0 Z X > z J A 5 5 1 O 0 b 7 1 = % A q Z >X1 S U Q wXw 0 q B ;XR C > o q 9 7 2 > 9 1 w 1 w 0 A U 2 1 > J 7 , 9 w , B 1 2 1 1 1 0 7 q 5 = q q 1 = 5 J C > &Xq > > 9 0 5 1 n 0 2 1 5 9 5 q 1 1 9 7 = > , = , % 1 0 j z 1XC 5 z U M Q 9 < O b ^ 7 C A q n O W ;X% &Xn , 9 5 1 2 O 5 7 q 9 , , 2 7 n n 1 % q D 5 M ! z 0 z 9 w 0 q 0 C n = S S 2 1 Q D q , 2 9 w n 1 2 q 0 q q 9 +XU S 1 5 1 9 > 1 n 1 5 9 , + b I q M b 9 b , 5 > 0 0 j , j >XQ 5 > w + B A m 0 9 j < n 1 9 M , 7 5 Z I 1 D &Xz D C j > 2 = q j , = j A , n S > > 0 % O n , > z 5 n W z J 0 7 b U   1 7 M A 1 1 > > > , O ~ ^ R n j M J A 0 A 0 7 5 q 1 0 A   b +X! m m 1 b 1 5 q n n 5 w 7 5 D ! +X> 0 0 1 q z 9 + % > < 1 , M Z B 7 Y B = I &X0 , P ~ B 1 ~ J % 0 0 % j j 9 S n 9 S 1Xj o 1 A % C q n 0 j R D *XM b n Z Y 5 5 , 9 2 Y wXI 7 0 2 1 M 7 P I , 1 w w I 9 M O 9 > ",
"w O M J o &X0XA *XD 0 A 5 w b M , M 1 9 1 ^ n X 1 > w + 9 > I w 0 b > 9 w n w J T 9 b j 5 0 S n M M 9 9 9 5 ~ A M B 1 9 , z 9 M -Xn @ + I Y < 5 Z n 7 ! I 2 2 7 > w w 1 9 w , 0 Z D ~ M 2 0 7 9 9 A b > 1 9 1 Z Z 1 9 7 w 0 7 M S 9 1 , 1 9 w > 1 1 > 1 > 5 0 D D 1 1 , w 9 w 1 0 w 0 1 1 ^ I , % Z % b b ;XqXw 9 b +XT Z 1 > , , I b , 0 Q 2 I B % O w O b w 1 1 0 M q z b + M 2 1 2 @ > 0 w > Q *X0 Q , , 9 5 n 1 0 M 1 1 0 b 9 0 1 X ~ <X1 1 b T M 0 9 M 9 q w 1 q <X! X 1 I &XX + 0 0 , > 1 1 9 0 M M b T Y 5 w 1 1 1 9 0 1 9 -X5 + w 1 J =X7XS Z w j A > > S Y D > S 1X> Z ^ n = &XA 1 R j 0 Z 1 5 + A w B I w U S J 1 >XU 9 B 9 q O w , 1 b 0 &XQ > b J 9 1 1 1 , 2 2 9 w Q -XY M 0 > M 5 2 3 4 3 b e 2 o D Y &X~ J , S Y I D 7 *Xb 2 1 2 w S Q $X% 0 w 2 1 j S A 9 > q 0 2 U j + > M Z > 0 &X^ 0 w 9 5 , O n 5 O O 0 1 > 5 0 0 0 M n 1 I 0 > = 9 q > b A &Xw 1 0 1 Z Z 0 O 1 5 1 j A 1 , z 2 b b B X &X<XX 9 1 + > O X Z 9 5 ",
"o , 9 S n 1 T , + > w 0 O 1 M , > 1 9 9 9 0 , 9 0 0 O , , > > 1 1 b w &X5X0 9 S D Q S O 1 X I F 1 P b M 1 0 1X9 b ~ + 0 1 1 1 O , 5 j z , 1 = 1 9 b b + 1 Z M , ^ S 1 w 9 w w 9 w b b 1 w T 0 1 M Y M 1 > 1 w w w O 0 0 w w 1 U &XD 0 , 1 n > , w 1 1 0 , O 1 S w n M 1 Z , 1 1 9 1 w 0 1 -X-X9 O 9 > Z U b b 9 q 1 0 , 0 D 1 1 7 n ! 5 Z 1Xz M Z M , 0 > 7 b = O w A > M A 1 O w + > M 1 > b 9 w J M M q 0 n I   9 9 A A 1 > 1 > % , > +XU &Xk b b I Z 5 Z 9 5 9 w > 9 w X D *XI M B 1 b 1 b 9 D w 9 1 1 b M >XU > 0 1 1 w b 1 O + 1 1 1 , S b 0 5 ~ 9 > +X! 1 1 I Y 0 w Q w , 0 1 O w , n S 0 0 &X~ + > w w , D 0 n , D U A ~ 0 M Z R Z 1 1 , 9 w 6X~ 0 w 1 , b w 0 =X9 1 0 w M w w 1 1 w + U b , 0 9 w B > 1 M Z >Xn Z &XZ 6XM M 0 q w 1 9 1 w w D 1 1 9 0 , 1 1 w M Z D T O 9 > 1 9 0 b w 0 0XY M 5 j 0 , 1 w > A 5XM w 9 w M ^ 0 w , . A =Xn M M O w , b ~ Q A 9 1 1 1 n w w 0 w e , 1 &XD O 1 0 9 0 1 > w 0 > 1 9 b 9 1 T 9 e ",
", 1 1 w 3 , 1 , 1 1 > , M J B , 1 1 w 9 0 1 w q 1 , n ,XM X w w > M B eX*X1 w I *XI q 1 > , M U 9 % U A b J 5 = 1 , 1 b 1 , 1 n M 1 F > , n + 9 + X 1 w 1 w 5Xb S w , 9 9 w w , b 0 1 1 n 9 1 1 O n sXn w 1 R J M 1 Z w w w 1 , ! <X, , P &X5 X 1 q 1 % 1 , 0 1 D n w U ~ b 5 5 , 9 9 0 1 X Q 0 + w , M ~ 8XI D j w I 5 + D ~ Q , m 5X= b W n > ~ S , ^ M 0 M n 1 + Z M b I 0 Q A D q >XS 0 M , n O w 1 1 q 9 >X~ > M A > 9 9 1 1 1 5 9 q =X$XQ M 9 , b 9 , w q 9 j q 1 % Y Y *X~ Z < R ! Q n b *X9 1 9 % M A *XA , w w > > M D D , 9 b 1 j Z 9 > 1 A n 1 D *XU q 0 0 , > 9 b 1 O 1 w = 1 9 w 1 b w 1 M Y , 9 , 9 , 1 A Q ^ 5 5 1 0 M M , + 9 9 0 A b 1 w 5 w b M , 9 5Xn % 1 > > , X 1 lXT + n 0 1 5 < A ;X9 k X 0 b =Xw J S w A B n , , 9 5 1 1 1 w 0 w 9 0 1 0 > M D 1 &XD X 1 , + 9 w Z b w S Q 0 0 1 q M +X> 9 o Y =XM 1 M n M O 1 Z b ~ M q q 0 1 w 9 > n T Y A 9 1 1 1 ~ M w q > 1 w J U , 1 1 w 1 b 5 % , w 0 j 1 b 1 9 w b ",
"1 , j b = , 0 1 5 1 , % j A q A j m n > < 5 1 0 z > n =X! % , 0 % ~ I B 0 k 0 5 5 O B n 5 0 = U J % 1XJ C j ~ > 5 0 > b 5 , > Z 9 1 S n + w w . n M O q z , n j B b 0 0 Q 9 O 0 A I 9 > 5 % , % % A R *XU n b B S 5 j q 9 1 j 5 % q O b =XY Z C j n q 0 9 A b 1 5 1 0 B ! =X= 0 9 , q m 0 , X , 5 > < A j , < ! M o S *Xq 1 M Y 0 , Y n O 1 1 > q > b C q q +X*X> O q < = A 7 w = S U B R 5 Z J W B , 7 , 5 m 5XU q 5 1 9 z q z <X2 1 3 3 9 3 3 O w 0 > Q q > 9 7 M B % q 0 S *Xb I ~ S =Xb n 0 0 5 0 7 1 q z B , 1 0 1 5 5 1 j D M Q M > 0 O 1 5 q B 5 S uXB B 5 j 5 9 7 9 > Q 3X0 9 q n Y I 5 0 o , >XU 0 A 9 1 b O I Q I M 5 5 9 1 S j m 9 j 5 % n 3X, > 5 5 0 0 , 1 q 5 1 5 q n , M I 9 > 2 0 0 > 1 w 0 0 w 1 , M T M Z C T 1X% 0 9 q w 9 < 0 I j M 9 9 0 9 1 1 9 0 > ~ j , 9 1 1 , q q , 9 9 < 5 j 0 , C B 0 0 n % S J 0 1 z U 5 9 9 q 1 9 0 q j 5 , 5 1 = 5 5 0 1 0 9 n 2Xn w w z 1 9 J 1 , , 0 7 9 0 0 j B 9 0 = b q 1 5 J Y ",
"o 7 ^ ^ O 1 2 q 1 1 1 1 q 9 A b b Y ! q 9 1 1 9 q q O 1 R O 2 w > I ;X1XB J , J P + 7 R -XZ > =X^ o U Z 9 w *X2 A Y 5 B S q O 5 R 0 J j U Y D B I 1Xz M 0 n 0 9 5 1 0 9 R 7Xb 1 D , 9 9 2 7 7 1 9 w T ;XY U , O 9 j 7 9 0 9 w b 9 % I &X&X~ U < J >X~ S 9 =Xb < 5 1 n S *XY > 9 0 , = z J A q 7 M 5 b M 5 , 1 b M , A ~ R q j 7 2 , 2 b w 1 , b % 5 9 m 7 z 9 O M ^ 1 q 2 7 1 1 Y ~ Q 1 1 5 0 b j , > 1 7 q C 0 q 9 1 b w M 2 0 >Xj + 5 > 5 < X M lXZ O w 1 1 1 , I +X9 9 = q M ;X0 A I b Y M w 5 < 9 5 5 1 0 j z 9 0 0 9 1 > S n 0 >X9 % 7 % > q b I 0 q A U 5 q 9 7 ! P % 5 < ! ~ 0 z n Z 9 > w A B Q 0 M 5 1 1 q , 5 m ! U b 1 , , A =X0 b 5 , 7 n I M , , j , q q 2 + 0 q z 5 m 0 9 , n , n C w 9 Y 9 + D Q % 5 C q b Y   q q < q 1 O 9 J n 1 M n n 9 q 0 0 9 1 1 1 9 1 1 , O , M 9 > 2 7 9 b 1 5 5 5 7 5 b R 9 U > n ! q q n M , 9 5 9 w 9 9 z q 5 5 5 7 7 > 1 w 1 1 j 1 n % z M 0 M b j 9 7 > 0 9 0 1 7 +XsXo b B j 5 7 9 +X:X",
"O U &XJ Z b M n y 9 n I 0 % 1 % b M 5XD O a % 1 w M 1 ,   2 3 # n D O O w ^ 2 + ^ Q 2 9 F D % 1 I > + % 2 O 2 2 Z M 2 M =Xw > O 1 + n j 7 , w ^ w I w 9 S D I > , > 3 w ~ Q 0 9 , 1 z q 1 6XI + 1 3 % 3 O o M D X D B # 3 1 y S > 3 9 0 -XM M 8Xq -Xb C 9 1 9 1 9 > 0 9 M 2 > 0 9 2 3 , 1 M e ^ I + > O , 3 9 B 1 n sXI b 0 w 7 0 9 q O T 8XM 1 0 M D I 2 3 , , =XI e M e , b > Z Q S w 0 2 > 2 Z w n e w 1 X S ,X1 > 2 1 2 0 , & 6 9 < 5 z k 5 n n 2 2 2 w 9 > 3 w # w 9 , 1 S M Z A w ' Y O 9 , e e 3 1 a I w w w 1 9 2 > 1 7 O n T 1 , > 1 2 1 q > > q 1 > 9 w 1 > M w w w b > R n 9 2 S C , q 9 > 3 7 3 y w > > 9 = 2 2 1 9 1 w 0 P T 1 z w q 1 z M = O e 7 0 1 1 w I b > 3 7 w 1 1 1 2 1 # = 9 = w S > Q z % 9 9 q z M , 2 9 2 9 9 9 1 1 N 2 M C 9 q C 9 b M w y 2 w 0 2 1 > 9 2X1 , 0 e w 7 > 1 1 q e 1 > w b D 1 1 w n 0 w 1 7 0 w 1 b M w q 9 9 1 1 9 7 + M n # , > , > 1 b 9 1 9 S Z , 2 1 > , e 1 1 a S > ! T b e 1 e > , ",
"' ~ 2X/ A 4 ^ >XQ.N F ' e 4 e 4 A T &XN 4 e e 2 $ J D J y F N 3 F N 4 3 e N y F / ~ D a w 3 4 2 y y B e a a 2 a M y e y O e Q.A a a 2 e 3 N Q.-XD 1 4 y e F 4 1 4 y 4 M M a a 1 4 N y a 2 / T 2 4 2 4 4 1 2 uX-X$ 4 4 3 2 3 N 2Xb e 2 w e Q.n a ~ y ^ J N e 4 e 4 e 4 N a F a y e e 4 2 F D 3 >XN $ 4 2 $ y n J e y a T e y e w Y ^ # 4 2 T =Xy a y F e 2 y D D T e n e e 4 e 2 3 a ^ J N 4 4 4 J -Xe N 4 4 e N D F $ a e e y w 3 3 a a a 4 F e 9 3 N > B M w e / e 2 / T 3 3 Z 9 S S @ y e 9 y 3 2 e J N 4 F F b w a a e e 4 9 e 4 2 e 2 2 y F 4 2 e e N e 4 4 4 4 w 3 T B Z Z $ J J y b F y 3 e e w N e a a e 4 e 3 4 3 2 9 9 3 y 4 y 4 2 J a a F b e 3 4 3 4 9 e a n vXD 4 J a y 3 y 4 e 4 4 e 4 e 4 F e a 3 4 e 2 T <XD A # 2 2 J J a a 4 F 4 9 3 3 Z ^ Q./ 5X4 e 3 F e a y e 2 2 e 3 ' F A 4 e 4 N Q.T 1 / J e > a 2Xw b 4 y b F F N 4 y y y e y 4 y 4 N y 4 S y 4 4 F 4 e e a F e N J 4 2 3 3 3 y 4 N 4 3 3 4 e 2 a F 4 e 3 4 ",
">.M._.u.h.OXh./.h.Y.p.O.r.p.r.O.7.8.7.r.>.s.8.f.S.O.u.r.P._.w.;.8.+.8.&.t.y.&.(..Xu.r.h.m.>.P.%.r.o.XX.Xl.1.M.h.).s.:.h.*.].].h.k.m.7.r.e.[ ~.^.!.k.O.8.O.M.M.h.t.y.%.O.7.].!.[ 8.s.X.*.G.) ) 8.=.r.r.r.m.8.| 7.o.=.P.M.O.t.i.{ 8.u.7.X.y. .0.i.y.!.XX{ y.=.=.m.B.2. .u.j.V.>.f.s.O.X.8.%.*.O.u.a.8.8.&.&.r.y.8.$.m.s.=.l.h.8.{ | | | } i.) ^.~.X.7.y.^.=.7.[ o.r.e.7.[ M.t.r.,.,.:.=.a.@.k.G.x.^.[.1.P.D.d.j.t.M.O...a.I.v.O.O.S.}.t.2.4.,.r.d.;.r.&.1.] o.%.X.e.y.r.^.7.O.g.e.9.r.t.7.h.e.[ u.h.y. .7.y.7.9.0.} y.i.7._.).=.8.e.u.=.=.r.O.9.(.,.a.W.t.h.&.8.O.y.y.e.o.m.8.u.w.r.e.k.h.j.O.7.r.} [ 0.y.r.M.s.%.o.7.7.e.o.o.u.7.X.&.*.*.0.r.e.9.} y.y.y.7.7.O.o.s.%.7.0.| 0.y.OX9.i.} 7.e.t.8.2.9.0.p.O.%.o.s.a._.m.,.[.u.XX].o.[ O.X.9.8.%.O.O.q.p.h.8.r.!.XXo.).(.X.O.o.e.O.d.k.g.X.X.+.yX}.m.M.8.~.7.^.!.M.M.y.h.h.9.~.e.y.i.u.tXXX..u.i.0.r.O.i.OXW.t.8.0.=.8.o.o.7.o.[ ) } o.7.| XX!.].| X.o.0.8.8.9.9.o.[ i.W.=.r.s.p.l.R.>.>.",
"5.Z.g.'.z.P.[.I.'.U.H.5.Z.2.;.;.v.U.G.D.4.H.1.>.x.<.U.>.z.{.@.5.2...,.J.U.Y.<.r.e.y.x.3.b.N.[.V.Z.C.o.(.`.4.>.h.k.6.%.s.N./.9.O.0.4.6.o.o.&.) m.T.k.g.*.4.G..X_.4.z.>.>.8.M.M.%.1.Z.v.8.t.j.$.*.k.j.f.:.s.m.o.8.d.y.7.=.%.`.l.&.P._.O.l.y.i.0.~.+.&.+.m.3.&.%.;.M.L.1.M.Y.Y.N.c.F.t.b.H.3.b.1.o.4.>.#.R. X3.f.-.n.2.:.4.5.>.2.y.O.B.s.y.^.+.h._.y.h.v.m.&.N.N.>.J.k.g.j.O.4.6.d.z.H.3.5.5.>.j...8.@.5.U.x.B.I.K.F.Z.Z.O.8.4.4.H.N.tXB.5. XT.F.2.4.H.6.J.K.K.T.#.0.r.r.8.1.g.2.6._.XX}.R.{ ,.%.^.M.o.8.0.r.r.o.=.s.u.].}.u.XX=.p.X.7.s.v.3.>.o.O.4.%.oXB.Y.2.k.K.K..Xr.G.`.^.O.-.^.].r...>.b.T.R.G.u.7.e.r.O.h.t.y.r.r.7.7.m.k.g.O.y.b.s.r.o.l.M.t.P.r.O.+.O.a.f.>.T.2.o.r.o.0.[ X.r.2.1.r.v.:.p.T.N.[.p.>.g.F.-.V.#.-.'.F.@.>.4.1.z.s.m.O.l.r.d.I.j.&.r.7.P.M.m.t.2.*.h.B.5.,.p.8.C.Z.s.+.~.M.=.h.^.y.O.f.p.j.C.%.=.2.2.t.k.t.]._.(.9.$.&./.%.8.s.N.M.M.h.r.o.e.h.r.*.p.r.8.=.&.&.a.o.OX!.!.i.y.&.r.&.&.[ { %.8.+.o.m.G.l.>.@._.b.b.",
"3.4.`.j./.G.4./.B.@.d.d.a.N.U.4.r.h.x.d.n.5.a.O.;.d.6.>.m.M.c.@.,.Z.l.d.b.2.,.N.n.l.Z.4.-.O.r.B.s.b.3.p.{.p.<.v.`.1.&.:...-.v.3.O.r.J.4.x.1.c.6.,.3.a.H.J.m.Y.v.H.U.Z.:.l.B.:.O.@.D.J.a.o.*.{.}...Z.g.m.j.;.;.+.>.[ { e.[ o.M.:.~.8...g.1.t.^.k.y.$.Z.o.J.U.H.v.;.H.g.8.8.,.j.U.u.'.'.K.P.2.E.H.f.f.6.e.^.5.2.T.J.Y.c.>.;.b.u.f.p.V.b.j.s.a.M.h.N.N.;.O.v.r.O.1.M.B.b.F.4.s.B.s.J.6.3.`.k.-.b.D.A.6.n.B.6.2.I.B.c.5.1.Z.2.b.5.;.8.y.:.I.u.M.G.5.z.4.K.$.J.y.%.v.-.s.:.;.B.`.>.d.`.M..X!.o.O.s.X.r.=.o.8.@.s.m.M.8.t.W.XX[ [.h.&.;.r.&.p.b.K.S.;.@.%.tX/.R.A.L.m.>.k.P.T.l.b.c.x.y.h.x.R.T..XtXM.s.J.t.%.N.h.'._.2.1.r.:.1.&...&.j.o.X.X.e.r.$._.}.[.P.;.<.3.,.a.<.h.p.-.;.L.6.:.f.a.s.L.J.k.C.v.Y. X{.`.3.v.T.'.,.d.@.r.O.@.,.l.f.%.x.3.k.'.'.z.2.O.4.K.r.a.,.6.;.,.H.f.,.n.F.S.^.X.p.D.D...g.S. .m.T.F.5.>.o.O.2.R.2.<.O.y.r.o.0.) O.1.r.O.#.r.t.^.8.o.8.%.:.w.O.p.%.t.%.r.e.`.XXh.8.^.r.p.y.i.7.y.r.l.r.=.l.O.M.q.9.tXY.-.r.0.K.K.",
"<.C.j.4.j.y.#.C.:.2.F.:.:.p.Y.D.s.Y.N.c.:.x.Z.x.Z.G.>.D.$.>.k.-.<.T.'.,.6.2.H.1.,.1.<.1.l.V.>.G.3.[.z.2.`.I.Z.F.j.1.1.D.v.x.U.f.J.y.O.4.>.z.Z.4.;.b.<.a.%.%.O.6.I.b.x.k._.x.6.J.h.o.$.j.n.f..X{.:.'. XZ.2.:.v.t.l.G.l.l.*.o.o.r.8.>.x.*.c.I..X X{.0.O.6.M./.3.>.>.s.z.6.>.4.g.[. Xk..X1.f.2.X.q.v.n.x.O.@.b.O.|.J.`.4.4.Z.U.[.M.k.`.U.1.z.B.[.&.a.-.J.'.T.J.G.s.r.4.s.h.D.1.1.f.7.+.j.G.A.>.s.S.O.l.s.N.L.S.'.N.;.q.;.5.5.<.T.D.;.2.t.0.%.&.m.c.5.r.P.j.>.J.Y.{.n.:.6.Y.r.8.+.<.'.5.O.%.1.p.3.z.m.&./.r.1.M.;.n.r.y.g.M.8.;.L.g.x.U.n.s.p.=.x.5.,.o.y.:.:.I.`.:.a.5.N.x.A.*.:.4.2.P.G.h.[.m.M.,.6.>.I.#.;.k.l.t.y.p.h.%.p.k.>.f.<.f.a.H.g.c.w.S._./.M.N.n.f.1.F.>.%.<.2.O.o.3.T.S.n.,.y.M.P.t.q.I._.P.Z.6.`.|.`.S.H.>.O.r.4.D.{.Y.#.<.Z.A.K.U.4.g.B.B.l.:.,.d.x.b.O.h.`.c.>.c.Y.{.5.J.'.B.-./.oXu...$.2.T.|.z.q.f.N.m.@.;.r.O.M.%.*.2.C.Y.,.j.`.t.h.O.k.C.S.&.p.a.s.%.&.M.M.o.} ~.r.X.9.m.4.P.t.8.y.r.o.7.7.O.8.^.P.{ | e.k.t.r.M.{.",
",.A.c.Y._.L.6.2.v.-.E.T.J.c.;.T.l.0.;.,./.P.P.|.L.S.b.2.L.c.l.5.:.9.v.6.D.T.U.D.1.>.<.Y.W.>.B.Y.f.d.z.K.D.G.G.V.$.N.V.%.,.z.c.c.F.F.3.;.a.n.H.;.`.Z.&.f.K.K.x.a.4.F.1.G.Y.3.5.-.3.C.p.D.3.8.o.@.v.u.e.N.I.h.:.G.$.:.m.7.B.s.s.r.6.>.`.k.<.U.P._._.:.d.j.&.;.m.>.,.n.<.H.Y.a.H.G..Xd.Y.`.&.,.z.z.,.5.H.K.$...O.tX`.D.A.J.j.O.I.G.T.S.S.4.x.r.l.K.K. X.XtX^.%.T.b.,.b.j.E.T.T.Z.:.F.5.4.;.a.b.@.X.q.:.>.,.'. X_.T.-.4.4.V.d.b.s.*.,.*.A.4.v.4.5.n.'.E.2.4.`.'.'.{.b.1.U.{.J.6.6.;.[ :.<.5.6.<.>.x.z.D.`.'.>.:.3.D.K.8.<.<.c.;.f.I.2.5.F.x.`.r.O.v.L.4.@.T.2.0.x.U.F.A.4.+.,.J.K.6.<.j.n.d.8.X.o.n.K.,.a.v.F.Y.V.,.k.;.*.s.q.l.z.4.l.C.x.S.|.'.,.y.Y.d.H.D.1.v.k.3.D.j.c.v.j.U.O.XX|.j.<.a.u..X.X<.6.P.N.3.5.r.].k.4.F.f.x.6.f.y.XX.X'.3.'.Y.`.j.x.z.H.v.%.%.,.H.%.v.A.T._.N.b.B.5.4.`.H.'.`.-.@.}.`.B.O.>.M.u.>.3.`.O.,.4.N.j.3.;.G.h.oXM.s.4.e.O.p.C.J.r.r.k.r.y.j.r.p.k.7.^.h.{ ) ..r.t.p.*.i.m.r.r.M.t.o.r.o.h.o.o.%.+.h.h.O.:.r.h.",
"Z.4.n.Y.}.oX{.] <.&.u.M.>.5.<.:.6.F.j.g.R.{.[.M..X&.1.8.X.>.4.b.2.O.a.>.u.oXI.Y.5.K.Y.Y.[.1.Y.`.P.5.j.(.s.k.&.v. XoX'.Y.g.r.b.p.N.v.x.x.B.s.+.p.g.4.Z.o.p.1.%.z.,.Y.T.'.Y.;.-.O.d.5.n.c.T.&.2.g.0.=.1.a.:.S.k.s.I.O.D.T.[.N.z.-.Y.G.8.O.#.U.U...-.5.5.4.D.j.&.Y./.>.c.s.f.4.s.B.4.>.-.L.G.V.H.4.3.;.8.$.Z.s.O.7.*.,././.N.z.5.1.,.J.1.2.g.v.F.S.k.M.!.^.,.<.,.H.<.@.N.k.t.M.;.F.>.f.f.4.5.:.1.4.F.S.H.,.M.`.B.B.V.z.1.1.Z.-.;.4.3.;...a.T.L.4.@.m.h.{.r.r.K.P.2.Z.3.T..X^.v.5.r.$.j.F.J.{.`.$.4.K.Z.b.U.>.k.Y.j.=.>.<.z.5.v.0.N..X,.x.F.U.`.c.U.U.f.#.[.|.S.#.@.Z..XT.<.d.j.m.,.f.z.,.z.F.S.*.A.Y.U.6.U.`.t.1.f.A.T.4.4.J.Z.a.1.j.`.Z.{ 9.j.6.0.;.H.J.L.J.4.H.n.O.=.6.-.V.Y.g.X.7.Z.H.G.I.M.2.F./.[.j.>.I.-.*.L.,.H.5.f. XS.C.O.-.T.g.j.s.g.4.Y.b.v.K.Z.H.1.A.T.6.2.`.`.S.T.`.H.D.J.T.oXoXC.m.[.;.5.5.,...z.I.Z.:.,.n.`.`.b.J.d.j.p.[.p.:.F.H.Z.$.'.S.:.O...5.2.O.p.%.M.M./.7.o.&.k._.r.%.e.~.O.p.m.{ r.r.&.p.k.t.o.O.r.y.X.O.r.b.,.",
"`.-.d.T.S.].h.5.,.1.s.j.1.3.;.<.F.5.c.p.D.Y.[.$.`.g.-.j.b.,.d.c.J.Z.;...h.oXf.U.G.K.O.B.v.'.R.n.g.6.f.h.K.Z.'.`.tX}.$.2.T.*.n.4.'.T.L.L.2.2.A.Z.>.-.z.d.+.o.:.,.s.M.{._.[.I.1.Z.>.:.3.p...,.O.z.J.g.1.5.5.S. Xb.2.l.{._.|.U.5.B.'.'.>.z.>.X.O.<.<.4.5.@.5.c.F.Y.'.5.c.s.D.K.:.<.6.U.<.&.c.Z.6.b.H.I.`.@.c.T.A.-.T.S.o.1.L.F.A.I.O.#.c.U.f.6.3.N.m.O.+.O.4.J.1.:.z.U.Y.B.;.4.:.a.f.2.D.x.4.2.T.1.p.|.'.,.m.B.3.F.J.p.H.F.2.U.a.Z.n.M.T.@.XX{.>.H.,.P..X{.6.z.`.G.F.,.8.[.k.4.c.v.z.-.m.e.oX.X`.<.[.N.`.s.c.4.Y.l.p.>.5.D.6.Z.L.Y.v.b.B.5.5.b.b.U.XX{.#.r.`.B.1.:.r.y.j.<.I.v.@.B.F._.v.6.3.4.}.oX;.3.c.%.=.K.T.k.8.f.4.3.x.1.&.Y.F.t.`.x.-.O.J.P.x.k.p.j.H.3.<.U.x.Z.;.B.S.$.,.p.z.4.5.-.D.N.8.v.Y.Z.L.2.$.F.>.'.F...c.[.tXoX2.B.4.`.T.3.8.O.,.`.b.&.o.v.c.U.U.|.a.@.>.g.L.oXoXG.,.@.p.*.^.;.j.N.D.A.L.`.`.Y.%.R.[.6.3.r.:.g.M.b.p.h.8.,.t.M.#.'.;.O.Y.4.3.j.^._.g.v.H.-.x.x.j.8.z.m.) +.>.y.].M.l.h.r.O.+.o.[ (..XP.O.9.]._.p._.c.3.",
"O.8.<.Y.<...6.x.x.F.4.1.p.`.j.3.n.,.b.p.p.G.2.d.6.T.5.4.v.c.2.8.0.-.5.g.o.q.6.*./.[.x.4.5.-.2.F.6.1.Z.2.P.N.p.u.y.:.n.<.n.3.@.d.M.l.y.8.1.j.s.n.4.x.>.>.Z.J.T.L.<.p.Y.P.v.B.n.d.h.b.c.&.c.5.f.$.;.Y. Xb.<.s.e.`.[.$.4.N.l.Z.6.b.|._.c.Z.p.:.<.2.Y.{.{.1.z.U.U.H.`.2.N.G.x.O.O.>.z.k.K.r.z..Xd.1.F.I.Y.F.K.T.n.#.].oXL.%.+.Z. X`.3.f.k.%.a.-.n.<.f.H.F.C.A.S.Y.<.G.P.*.z.1.T.T.Z.n.F.U.;.4.:.N.H.X.[ r.3.7.p.c.T.T.J.v.F.x.O.$.:.f.s.R.p.0.o.U.4.F.`.r.>.5.[.[.v.s.`.-.5.K.:.C.5.U.|.K.C.-.6.`.x.:.;.*.B.T.4.f.Z.F.c.Z.T.T.;.:.{.K.J.'.`.c.K.L.'..X'.,.[.^.>.x.5.#.#.B.J.x.f.-.c.`.`.I.U.-.b.m./.-.H.K.Z.F.%.U.5.>.$.d.U.4.a.k.8.v.F.I.#.5.6.`.m.6.:.B.j.2.F.;.0.z.,.D.J.E.C.>.n.k.p.<.z.[.{.'.Y.Y.|.oX XZ.>.@.r.a.6.Z..X].m.<.z.b.`.B.4.Z.F.>.l.x.A.G.j.x.M.^.].*.A.D.:.f.M..XR.2.M.8.O.-.A.A.T.Y.#.C.Z.H.B.-.a..XY.1.b.c.2.o.O.&.o.,.J.}.k.;.i.p.O./.m.a.b.S.$.^.*.;.B.>.....F.<.+.l.M.p.m.r.Y.M.M.h.N.;.s.} ) i.0.1.C.r.=.*.>.l.T.",
"g.5.&.{ ,.<.x.4.1.#.4.Z.H.'.T.5.j.c.Z.S.%.4.6.F.a.O.F.z.5.Z.P.{.N.#.'.T.6.n. X$.O.C.Z.5.T.N.O.<.G.C.,.c.n.>.l.O.X.:.2.U.,.n.J.J.Y.>.x.D.,.3.4.5.b.>.F.G.H.O.R..XZ.o.M.v.b.J.D.n.U.>.A.2.f.Z.p.'.1.~..X2.c.3./.{.{.x.:.R./.S.G.@.y.G.4.F.z.z.2.1.e.`.[.'.N.I.T.Y.s.H.4.v.D.:.a.<.I.6.Z.L.{.B.b.U.F.5.H.x.Y.}.'.,.O.`.n.<.1.8.w.M.f.B.B.-.5.Y.`.N.4.p.5._.oX,.5.G.&.%.S.T.v.+.l.5.1.z.d.:.v.U.z.I.C.<.;.T.l.G.1.d.s.c.b.p.U.Z.c.<.F.G...>.<.4.2.<.1.x.Y.p.v.b.J.A.k.<.Z.s.[.1.@.5.{.oXoX<.U.k.{.`.>.a.+.2.x.b.X.e.n.D.T.[.{.;.,.5.1.[.oX|.C.:.o.w.y.r.5.Z.Y.D.A.U.b.`.j.>.'.`.>.<.p.c.r.M.:.p.$.%.*.h...h.Y.+._.I.J.5.n.^.Y.H.c.x.z.j.1.c.<.3.O.@.4.v.`.`.Y.D.F.k.%.<.-.y..XE.A.;.(.`.n.F.'.^.[.D.N.w.).9.n.*.P.2.:.4.h.(.r.,.K.D...:.V.<.Y.k.b.Z.S.T.J.x.x.:.O.d.G.'.L.C.2.@.m.@.z.D.{.G.-.{ q.G.j.O...Z.Z.4.5.5.{.U.H.>.4.A.U.d.T.5.,.G.[.U.4.>.G.;.r.M.5.3.|.oXS.p.S.c.>.C.C.K.`.6.@.O.s.r.*.l...r.:.M.;.1.1.o.{ *.`.'.S.P.+.j.U.'.",
"F.b.,.>.z.1.Y.oX[.d.B.U.D.J.N.>.P.N.p.O.-.n.V.C.N.t._.`.d.a.H.c.`.H.Y.P.5.@.XXoXU.O...'.{.1.<.S.a.r.<.1.n.d.z.J.F.R.S.`.1.n.M.M.6.g.v.T.J.x.1.J.n.<.4.p.F.j.) X.n.&.O.c.K.J.T.x.c.H.$.O.d.>.B.h.F...o.g.I.S.x.^.#.4.`.].b.:.V.3.4.L.5.<.Z.k.|. XF.$.2.I.U.,.8.O.Z.`.I.,.v.J.H.F.L.E.,.@.B.J.L.{.[.I.F.U.`.{.{.6.(._.1.Z.b.;.<.v.J.F.2.a.N.k.I.c.'.>.4.p.^.,.v.c.J.I.O.Y.C.5.,.>.T.D.-.H.O.v.U.S.@.3.Z.P.m.<.:.N.2.1.U.:.O.O.3.z.U.T.S.4.f.M.P.<.x.}.{.{.`.`.{.oX X6.$.&.8.&.6.B..Xu.t.5.v.1.I.j.H.F.I.p.g.H.L.S.S.N.r.(.^.4.A.1.:.f.P.|.n.f._.$.O.6.L.U.T.1.O.F.Z.G.b.#.N.{.Y.j.c.Z.l.O.p.=.+.4.[.{.a.p.&.;.8.3.m.Z.Z.S.u.v.p.:.3.;...2.K.,.,.J.F.5.5.b.`.M.F.Z.B.c.5.+.0.w.;.T.S.*.-.5.D.U.3.Z.L.2.$.T.K.L.1.G.F.;.O.$.6.z.8.z.r.p.b.,.;.3.6.V.P.8.r.:.G.C.6.5.y.oXoXM.+.2...#.f.M.8.&.1.$.n.N.f.x.f.@.5.S.oXL.<.d.Z.L.s.k.K.3.r.d.N.P.h.1.c.I.'.F.J.T.Y.a.M.].B.<.{.N.U.B.[.oXu.d.V.4.2.p.-.d.O.O.p.f.:.v.l.R.R.].[.o.o.*.-.j.^..X",
"3.J.n.6.S.$.s.M.'.I.z.Y.Y.x.6.J.5.U.6.4.3.6.Z.3.A.T.{.z.G.`.n.D.H.J.Y.|.U.#.B.^.>.z.d.+.r.G.n.B.d.,.J.[.`.c.<.n.>.oXU.,.U.1.*.,.T.T.=.o.a.4.2.s.-.s.U.c.`.D.5.-.2.T.D.2.;.s.>.H.s.N.H.5.5.n.T.$.@.s.n.5.,.4.z.J.:.k.I.`.L.L.-.5.-./.I.#.z.{..XoXn.b.Y.Y.U.z.3.,.p.l.x.:.o.j.4.U.}.}.>.,.4.,.l.oXoXU.-.+.O.8.r.D.F.N.b.Z.K.G.`.N.$.`.'.f.d.<.5.t.&.1.O.=.$.k.P...y.G.+.V.`.b.b.x.y.`.Y.S.D.,.z.%.5.6.a.O.$.4.n.Y.`.`.g.Z.4.,.1.&.r..X'.5.,.(.M.Z.H.Y.`.Y.g.N.7.| 7.H.j.G.2.2.x.h.u.&.1.K.g.#.n.3.3.F.4.x.C.k.'.K.n.S.&.#.1.}. XE.2.3.8.O.-.z.I.'.2.+.X.8.H.>.O.&.U.6.4.D.U.U.K.Z.f.x.J.5.g.'.3.4.B.[.K.6.x.v.:.p.Y.:.U.oX|.2.Z.K.5.H.G.T.L.U.,...d.d.6.5.5.-.c.F.5.G.C.F...l.'.`.Z.T.,.>..X`.#.$.-.4.{.{.v.s.a.j.>.c.<.:.F.Z.c.@.1.n.<...b.U.J.s.Y.f.-.3.,.I.T.D...9.^.#.,.C.3.I.'.S.,.v.4.6.n.4.3.-.n.c.<.j.h.O.b.c.;.O.d.-.T.2.r.3.3.[.'.5.F.n.B.Y.2.Z.I.v.I.f.<.<.N.z.T.Y.8.7.5.U.2.U.T.1.@.6.k.g.:.,.s.@.'.u.r.@.s...O.V.v.I.v.h.",
"<.2.Z.U.oX'.5.:.*.'.H.;.X.r.k.I.c.@.I.D.F.D. XK...s.Y.K.T.|.{.v.C.C.[.XXS.1.`.B.5.A.4.>.B.k.K.G.j.2.v./.k.J.J.d.D.i.,.;.G.5.T.-.m.b.Z.6.<.b. X1.n.2.@.I.J.1.s.5.I.8.;.f./.`.2.K.4.O.$.,.6.Z.'.E.Z.1.N.`.>.1.]..X X`.v.{.oX|.C.O.p.7.=.5.c.{.(.7.F.x.p.G.f.v.J.H.v.j.K.T.L.C./.%.y.`.,.K.C.3.c.2.{.<.n.P.S...6.J.L.T.f.+.4.J.n.f.-.M.oXP.s.b.5.D.O.:.f.=.-.`.{.G.:.&.z.q.r.,.5.U.R.*.G.;.z.b.s.8.2.A.,.<.F.n.c.1.J.U.g.H.b.b.z.g.8.X.+.f.T.L.2.:.5.H.Y.1.A.L.*.l.T.Y.G.f.v.v.p.O.*.b.d.=.1.s.n.c.8.s.3.3.j.G.7.O.d.v.C.L.O.y.oXoXr.o.:.@.2.b.w.X.d.f.f.k.P.>.5.<.V.<.'.oXj.n.>.J.Z.<.I.K.q.8.-.`.I.>.I.j.`.`.T.J.[.x.h._.M.z.B.'.v.T.`..X[.s.c.B.H.n.a.6.>.p.O.j.Z.l.U.L.E.P.}.p.q.+.n.n.P.1.F.x...q.{.M.5.4.a.5.c.<.<.,.;.D.J.1.H.T.1.I.v.j.,.3.q.,.5.:.M.^.r.Z.6.8...<.'.v.3.:.N.'.c.>.a.F...p.4.,.;.%.3.C.*.x.4.g.1.Z.5.O.O.c.E.Z.-.`.J.,.U.<.6.n.J.Y.>.3.C.U.I.k.D.d.r.l.b.d.n.U.H.j.XXoXp.1.E.A.g.z.4.v.7...@.#.x.{.H.U.[.S.L.K.",
"5.,.c..XXX{.:.U.v.T.N.n.5.&.M.s.C.&.%.j.b.`..X_.-.v.,.;._.|. XA.@.o.O.@.j.Z.C.`.l.J.J.`.`.,.m.'.I.6.g.z.4.e.m.;.o.=.5._.%.O.^.1.O.`.x.c.b.h.e.[.z.S.V.5.%.v.x.3...@.c.v.v.I.[.M.D.I.6.n.j.+.(.'.v.,.h.M.v.Z.J.N./.I.F.y.[ | S.K.F.C.S.c.,.u.p.,.4.G...s.n.1.N.g.6.F.r.P.G.f.H.2.-.;.`. XE.x.%...O.@.g.W.'.j.O.] ..k.v.%.&.4.5.c.T.J.I.U.K.S.v.F.c.n.T.<.N.b.`.2.g.v.G.$.N.U.2.v.oX.Xf.C.J.2.D.U.'.{.G.a.O.>.n.<.4.3...b.b.z.v.Z.G.-.K.{.P.S.K.1.d.{.B.>.:.O.B.oX`.*.$.;.n.d.Z.c.:.5.b.N.%.v.v.,.s.I.I.5.B.f.6.<.6.f.T.C.x...s.r.#.5.x.5.K.T.S.1.b.5.$.b.Z.,.>.g.-.<.s.8...K.z.O.$.<.j.G.c.z.6.x.oXz.H.c.c.`.<.5.c.x.l.U.1.-.n.k.B.P.p.X.r.F.F.>.T.L.:.;.C.C.h.<.*...f.t.y.p.#.B.O.&.k.H.A.A.J.j.f.7.0.p.|.|.J.4.3.j.f.<.:.[.'.Z.v.h.K.J.l.t.H.B.4.c.n.@.X.X.p.k.F.S.Z.=.(.d.Z.-.V.|.H.a.d.5.$.l.K.K.$.;.>.T.R.G.f.d.H.4.B.{.|.8.^.b.2.8.3.Z.Z.G.2.O.[.h.5.<.L.A.x.B.&.H.a.I.Y.L.-._.{.B./.`.4.X._.'.5.8.r.P.v.d.$.Z.I.S.`.`.k.s.B.O.",
"&.4.v..Xy.&.J.a.l.Y.n.4.L.4.b.S.T.T.A.Z./.o.B.s.C.Z.A.C.B.B.M.<.b.T.S.$.>.G.R.G.$.O.F.Z.5.5.-.`.{.N.&.H.5.3.O.S.*.;.b..XT.<.r.r.r.r.r.N.F.T.R.2.:.2.g.d.p.*.A.K.p.v.b.x.x.1.J.g.K.H.U.3.4.>.+.X.;.'.L.Z.$.6.F.`.C.6.J.K.C. XP.`.<.>.v.>.q.r.Z.3.p.s.j.s.b.,.O.G.b.s.U.r.o.2.1.2.L.6.7.oXoXp.O.j.-.j.U.p.X.p.C.6.I.v.z.b.1.>.z.Y..X3.<.<.4.K.,.N.L.,.O.<.Y.Y.c.G.N.U.U.U.F.U.`.;.`.V.B.N.'.Y.'.H.`.].r.n.I.G.3.<.a.,.>.,.-.F.1.K.L.E.P.M.s.o.+.n.z.D.4.F.1.+.s..Xj.L.H.3.5.b.-.,.@.,.4.G.4.Y.Y.H.F.s.a.:.:.O.6.5...^.0.j.K.:.O.#.G.{.1.z.q.Y.U.c.s.5.Z.o.t.6.d.q.,.Z.C.G.v.z.c.Z.K.:...#.K.T.z.q.P.4.4.5.,.f.<.'.j.>.6.F.F./.n.4.@.r.2.c.6.C.'.k.!.tX[.+.`.T.A.w.C./.m.+.;.#.<.'.'.J.'.`.G.1.p.m.4.z.-.r.XX}.I.2.Z.T.T.G._..Xr.;.$.@.N. Xg.P.'.Y.5.c.c.3.4.L.6.,.<.T.J.&.+.<.-.c.j.U.3.g.>.6.z.'.{.6.K.U.a.X.O.O.x.a.O.>.F.R.|.S.&.c.G.f.5.z.x.S.T.h.r.c.J.j.0.,.'.5.>.I.T.c.T.'.1.f.D.4.b.{.oX6.] 7.-.Y.N.{.H.2.}.Y.6.3.8.^.N.n...f.",
"G.p.p.&.,.6.3.b...s.B.f.s.j.3.2.&.P.M.p.Z.6.@.3.{.|. X%.O.@.O.@.a.M.k.:.+.+.f.c.2.$.r.F.3.Y.T.F.v.b.T.f.b.Z.b.P.Z.d.H.f.I.x.c.Y.1.n.U.4.m.XXoXU.3.L.C.F.H.T.'./.c.#.#.4.j.>.6.&.&.b.c.z.U.F.4.H. X{.S.*.H....X].N.O...#..X`.n.#.q.z.a.b.F.-.g.Z.F.,.b.c.>.>.F.Y.5.N.s.f.4.,.,.'.^.z.#.o.r.#.3.F.<.b.'.K.>.N.2.@.r.S.:.@.1.5.<.s.X.@.H.b.o.>.-.,.k.g.a.x.g.oX6.b.F.3.N.1.C.4.j.n.D.4.<.z.z.x.Y.r.[ &.U.3.:.'. Xa.,.J.G.l.:.>.,.f.^.&...@./.O.M./.Y.L.Z.G.2.S.=.{ :.oX'.T.c.5.2.4.-.M.{.J.4.r.%.k.Y.h.&.[.N.a.b.j.;.+...*.1.J.L.4.9.:.6.5.-.[.[.5.6.a.,.>.S.L.2.:.:.r.'.P.S.:.1.G.d.{.oX[.r.U.c.:.@.5.x.I.D.f.s.!.3.4.f.J.2.2.s.s.F.j.`.`.j.r.[._.u.~.M.o._ XX*.X.X.y.Y.:.+.k.*.M.N.'.t.N.+.@.,.Z.f.6.U.:.{ /.m.&.k.M.m.I.P.&.2.E. XG.].{.T.:.^.Z.L.A.F.n.f.O.p.x.j.X.q.x.,.n.'.R.6.:.B.G.;.v.<.9.y.@.n.|.T.4.s.4.z.Z.C.Y.{._.r.s.>.f.p.2.,.6.K.L.[.G.,.,.O.4.$.B.`.U.V.p.T.s.r.V.b.c.h.l.F.{.oXT.@.4.T.T.4.n.j.C.XXM...x.2.'.J.D.k.g.",
"d.3.O.2.4.n.w.%.<.1.j.q.1.J.>.N.T...-.v.>.Z.T.$.9..X]...4.2.6.F.'.o.O.v.5.c._.s.z.b.-.5.<.{.}.<.3.3.2.6.j.'.4.O.#.V.{.k.4.G.c.T.`.K.Z.U.j.k.k.V.<.[.`.'.I.^.].V.M.I.F.b.,.-.,.a.a.;.4.>.g.L.'.P.s.1.O.0.*.4.v.5.4.C.&.O.].v.Z.T.Z.f.5.<.@.<.%.v.J.D.G.Y.G.I.s.O.p.:.-.>.<.,.8.| %.L.2.O.@.M.|.p.5.O./.`.n.#.<.Z.o.=.,.,.O.+.4.J.R.G.%.f.D.D.f.y...B.'.>...G.k.a.c.>.,.j.{.j.,.2.S.U.k.k.M.q.@.v.H.p.l.T.H.u.tX}.+.Y.E.T.2.3.I.y...@...h.{.Y.U.Y./.S.$.V.r.3.-.p.8.OXP.P.2.Z._..X1.].^.7.%.r.+._.}.*.!.[.k.b.d.6.<.K.R.3.,.h.P.L.o.@.a.>.4.j.`.6.a.>.<.x..X_.2.Z.L.e.X...@.v.:.+.B.F.|.}.2.>.c.K.3.,.3.x.`.'.=.s.k.G.O.0./.`.=.1.U.U.M.P.P.r.f.=.p.).oX_.) ) { !.i.(.M.t.i.].o.;.+.y.`.v.p.v.;.P.F.{.N.#.o.y.O.G.N.%.c.n.f.Z.'.tXoX2.h.O.s.1.N. XR.U.D.D.f.:.$.1.A.3.,.R.R.r./.U.3.4.Z.Z.H.'.3...*.#.+./.P.c.Z.4.n.H.T.l.a.b.J.>.5.;.I.L.+.e._./.#.>.2.I.-.J.E.2.a.Y.J.:.`.j.:.5.-.q.<.U.N.1.r.G.A.8.8.6.l.s.m.s.5.'.Y.U.-.5.@.j.N.;.",
"4.F.n.;.x.C.v.;.F.D.,.N.U.Y.1.p.r.z.5.,.Y._.k.6.+.8.q.-.Y.5.<.Y.'.C.3.n.4.=.g.A.s.,.a.<.<.O.O.5.U.,.r.6.#.O.b.D.K.<./..X:.F.f.d.5.x.G.v.6.Z.D.V.z.n.a./.N.O...c.`.<.N.oXT.%.K.A.x.:.4.-.,.9.8.O...I.j.>.Y._.L.4.k.f.2.t.[ O.{.oXU.x.1.C.K.x.1.{.'.S.@.q.2.'.S.M.Y./.3.Z.a.s...$.,.r.F.L.J.X.y.<.l.#.M..X3.g.:.@.&.S.R.C.&.a.o.(.y.s.>.%.l.<.`.oX|.e.M.C.*.r.-.D.H.D.2.8.M.S.2.p.M.1.g.&.r.M.l.[.P.P.O.^._.j.m._.O.[ [.s.p.+.j.R.x.%.A.2.;.s.^.&.y.X.+.:.x.V.a.2.+.{ /.8.8.r.r.7.t.r.f.l.oX'.t.XXP.^.o.k.P.S.Y.p.%.s.o.&.:.e.) =.2.a.B.[.D.<.a.D.4.r.I.;.8.O.+./.oXL.2.p.,.g.v.I.[.[.p.r.O.n.,.2.p.$.K.A.`.^.:.+.o.;.-.$.M._.N.7.l.B.7.7.p.p.e.9.=.~.XXXXe.{ !.r.e.o.7.9.~.].i.X.*.Y.`.x.k.Y.4.r.3.+.s.k.a.&.G.U.K.h.Y.v.B.;.r.~.y.^.m.2.x.f...9.m.,.H.K.v.C.3.>.;.Z.'.[.<.6.r.a.z.#.&.f.z.v.n.>.3.2.$.X.O.D.x.V.6.r.>.<.P..XH.K.z.-.p.`.Z.$.0.c.5.V.[.T.#.(.|.U.-.f.T.K.XXU.2.J.K.F.g.U.D.D.t.7.j.-...O.z.%.r.%.>.b.Y.`.s.<.<.G.n.;.",
"z.,.,.@.-.J.G.J.Y.Y.J.H.$.$.4.a.6.3.5...8.X.k.L.1.$.,.{.(.n.2.#.{.B.<.d.3.2.+.1.6.<.#.;.U. XE.S.a.5.J.N.j.M.8.'.H.>.s.b.Z.5.z.6.>.{.M.4.d.K.A.c.B.f.4...g.U.F.;.'.'.M.XX.Xs.o.{.T.m.r.N./.%.-.O.;.`.U.T.P.[.r.%.q.s.f.:.3.&.!._.h.*.g.`.{.S.P._.0.$.t.:.^.|.J.k.[.M.v.g.j.,.x.l.2.%.%.u.P.s.+.,.&.N.s.M.%.r.#.s.r.XX!.-.G.K.*.} +.O.:.%.[ m.`.(._.&.O.p.k.p.;.&.p.`.'.%.8.r.k.O.) `.`.r.d.B.h.y.`.s.r.l.a.s.[.tX}.{ ) %.`.P.`.B.h.^.XX{ h.} y.(.n.f.M.r.^.^.(.m.[ X.r.o.t.M.e.^.m.r.:.].tX].t.o.X.8.r.m.[.P.r.k.2.;.o.7.o.l.,.t.}.t.7._.*.$.*.l.4.I.I.;...1...X.M.g.1.N.z.f.`.2.$.g.`.4.z.<.,.`.C.X.w._.^.+.O.h.p.,.'.R.O.8.g.=.9.[.O.p.7.} X.m.~.[ | | u.7._ } X.0.| | ) 9.^.t.8.o.O.r.x.4.S.3.g.P.t.o.O.>.h.XXa.B.I.&.a.z.3.&.r.o.o.X.+.D.:.*.X.<.G.U.4.N.oX5.B.;.M._.;.1.r.,.}.Y...B.G.U.D.6.3.;.b.b.%.`.Y.6.a.O.>.L.oX2.@.r.z.b.s.B.5.6.z.@.-.x.`.T.5.[ ^.F.F./.+.`.F.F.2.d.b.n.3.J.I.'.j.a.$.U.U.>.M.Y.4.f.*.h.m.k.2.3.4.Z.C.A.",
"5.J.L.2.I.{.Y.<...@.G.G.Y.S.{.n.c.n.n.4...4.$.r.H.T.4.X.>.5.6.d.[.U.2.5.<.,.Y. XL.j.l.2.o.^.{ f.1.;.>.n.{.oXR.r.H.Z.6.#.4.I.B.P.&.8.G.H.a.j.>.G.Z.%.H.D.T.[.U.:.p.M.H.j.P.T.{ 9.i.$.O.r./.I.&.C.J.5.;.^.y.m.0.+.@.B.k.B.b.:.[ m.m.8.y.y.O.k.t.2.S.oXoXS.(.`.M.*.h.U.G.U.:.;.o.} +.&.M.[ +.p.:.h.[.g.O.8.:.u.O.N...| X.] m..XS.,.r.%.p.h.t.!.(.o.9.{ %.%.&.8.X.l.R.^.y.r.O.8.8.*.e.r.!.^.O.y.u.o.7.;.f.s.8.r.r.yX_.r.=.M.p.v.r.8.t.M..Xi.o.t.P.M.s.s.M.&.i.o.X.8.8.8.r.^.M.N.r.y.s.j.@.e.9.i.e.8.r.y.+.{ } 7.=.j.k.8.=.=.0.o.;.XXy.O.X.+.8.y.X.o.j.j.>.,.>.;.j.O.X.+.g.r.p.,.+.&.g.}.].5.f.&.X.!.I.g.[ 7.2.;.^.[.2.X.XX|.$.r.e.S.]._.r.r.y.| 7.e.~.[ 7. .) } { ) +.7.} | } } ~.~.y.X.,.*.2.$.`.x.G.'.%.;.r.8.7.| r.Y.N.r.r.r.N.'.$.M.r.2.g.r.I.`.l.C.t.b.4..X[.p.D.:.r.'.a.h.P.-.P.'.z.>.-.6.H.3.3.5.c.z.1.K.l./.I.4.5.%.].[.-.Y.Y.Z.3.j.;.;.k.O.-.I.oX{.d.@.+.d.p.0.%.8.$.8.8.0.@.N...%._.y.;.2.2.r.n.4.[.[.k.>.O.r.2.T.P.+.,.+.k.Y.",
"C._._.P.M.!.o.g.G.2..X|.S.P.`.I.G.x.z.f.D.2.k.3.O.8.D.O.-.:.F.v.>.G.*.2.<.d.j.XX;.3.L.E.;.+.s.,.x.>.&.{.G.'.j.>.s.S.2.d.f.2.G.{.U.$.3.l.2.+.j.{.f.p.G.U.S.h.U.p.5.l.t.P.tXoX*.] $.U.P.P._.2.r.XXr.>.:.7.{.f.n.v.2.r.M.^.^.8.X.y.O.*.M.8.M.N.&.r.u.tXtXM.$.O.p.:.2.{.!.r.s.M.t.&.X.8.h.,.h.}.p.{ i.%.o.=.%.y.t.M.;.o.$.+.] 9.*.:.p.O.r.y.m.+.r._.h.%.&.O.P.G.+.) ).s.q.O.x.<.%._.R.$.X.h.*.y.XXo.&.b.O.p.M.M.r.X.} u.7.) { o.8.7.0.8.m.P.P.8.{ +.&.M.o.r.&.t.R.l.+.&.%.(.].o.M.(.o.t.n.:.=.7.} } [ 7.k.&.=.=.r.j.S.e.).XXo.r.} !.~.8.!.o.o.].m.X.h.e.M.f...r.7.r.e.e._.t.p.r.8.:.`.tX{ X.*.r.p.9.y...O.7.+.@.m.].Y.O.} y.r./.7.8.h.m.i.[ 8.8.r.e.~.OX .9.} } !. .7.(.9.| | } | ~.r.r.k.&.}.{.p.:.0.0.O.%.e.o.O.,.*.S.r.r.N.h.7.{.>.@.X.&.>.X.q.O.8.[ ] X...[.4.&.l.4.2.a.+.N.Y.>.XX>.F.<.6.G.q.n.b.g.G.j.O...1.F.v.&.6.I.*./.x.^.`.x.1.z.;.B.K.4.v.u.~.i.1...&.,.r.*.*.k.k.8.8.t.s.r.p.p.o.&.p.8.M.o.=.l.j.y._.h.w.+.r.y.[.r.O.:.p.j.",
"m.p.-.c.x.C.E.tX|.S.m.B.x.2.U.J.L.L.c.d.@.+.:.H.n.) *.R.j.Y.{.5.2.f.Z.4.N.k.+...O.@._.|.g.c.v.g.g.J.Y.M.N.f.8.,.>.*.k.O.o.T.G.y.>.3.;.$.H.Z.,.B.`.N.p.`.;.8.8.$.8.w.m.&.`._.T.-.y.P.&.O.s.w.^.`.].+.l.P.G...t.u.v.a.:.+.7.m.O.o.m.`.t.M.m.m.h.w.w.[ e.~.e.t.>.p.X.) [ +.j.k.*.O.u.:...a.[.!.#.%.[ 8.u.=.X.8.s.y.m.$.%.%.8.{ 7.k.y.8.=.X.r.j._.).h.r.O.+.9.^.*.=.X.-.@./.'.k.) ).|.*.s.e.P._.(.r.=.P.P.*.G.M.y.t.8.} 8.O.0.[ ..7.7.e.e.u.i.i.7.r.1.t.e./.p.y.].%.r.=.{ [ } y.u.i.r.r.8.[._.o.r.y.:.y.&.M.^.r.e.e.p.~.XXu.:.h.o.e.u.7.e.p.&.XXM.p.o.o.7.7.o.O.8.r.9.%.s.m.N.s.B.q.{ XX!.%.[._.r.o.o.7.=.y.0.&.].tXr.$.8.+.t.{ a.r.=.O.[ ) ) 7.y.{ 9. .} } r.[ | | ~.XX!.} _ ) [ i.!.e.{ X.[ ).{.].{ O.:.o.9.y.{ O.O.p.M.h.&.h.0.0.8.8.r.!._.*.r.%.$...r.=.$..XG.&.=.r.h.&.+.(.(.f.h.8.h.f.h.:.3.N.>.H.K.4.z.@.;.,.4.Y.Y.P._.o.r.o.r.p.8.r.f.r.j.z..Xx.+.8.c.2.M.r.oXe.!.M.+.:.e.o.P.%.8.X.r.r.e.{ 0.r.[ 0.t.*.8.7.t.2.q.0.r.^.XXG.;.@.",
"P.;.`.M.r.8.(.yX(.P.&.p.r.2.&.}.1.:.D.4.3.3.1.%.6.5.{.Y.1.&.t.*.,.s.m.r.M.&.;.q.2.+.X.o.4.3.j.6.f.l.,.-.[. XK.5.8.s.U.&.} } y.%.w.M.T.$.M. XC...p.K.=.XXu.r.k.%.o.r.M.r.f.{ ~.M.+.) o.8.0.y.=.O.(.Y.m...#.%.h.r.u.:.v.S.S.O.O.*.9.).i.e._.=.o.e.&.h.=.8.e.[ X.k.l.M.o.o.y.N.&.]..X:.M.) ~.!.7.^.y.s.OXu.o.8.7.m.j.a.p.o.r.m.8._.r.e.m.q.O.(.tXo.+.=.r.w.y.y.O.7.8.] r.W.}.`.o.) 9.&._.0.X.y.e.%.0.8.j.r.&.M.XXr.r.&.e._.r.i.{.P.:.o.:.0.!.*.o.r.o.!.OXe.7.[ [ O.0.h.%.O.8.=.=.7.;.G.8.~.].=.&.o.+.X.O.7.X.X.) ) [ 7.}.&.$.t.i.e.+.X.'.Y.r.).| t.[ r.t.7.y.h.t.r.%.+.X...k.M.&.p.^.{ y.%.~.r.%.e.@.{ t.a.s.y. .9.+.r.o.O.*.P.O.t.r.r.8.8.i.| 7.9.{ } 7.{ 9.e.{ | } i.r.y.} ) } X.OXy.0.M.X.) OX(.u.7.e.y.) e.t.e.9.8.k.P.M._.e.7.r.s.X.i.XXN.g.1.,.u.].p._.].o.O.) h.p.q.s.r.7.O.p..X}.{.(.] 1.:.&.p.x.1.K.R.T.:.%.,.z.l.7.8.X.r.s.a.r.o.%.X.r.b._...:.o.;.`.].7.XX9.9.| r.r.| _ { 0.[ o.O.7._ _ [ { y.~.).OX.X| } t.&.%.;./.m.j.k.l.",
"l.N.N.e.t.s.8.7.8.e.*.h.m.O.+.] O.p.D.K.p.v.J.6.n.K..Xq.6.r.#.!.N.+.o.h.h.B.1.$.&.j.q.X.8.M.=.+.0.7.F.{.].&.p.t.2.8.`.l.&.$.&.$.y.`.K.:.X.XXP.;.r.r.Y.M.*.h.*.l.1.f.H.k.K.S.o.,.4.s...;.8.7.o.e.^.~.m.1.v.*.L.*.(.4.f.].9.>.5.7.X.{ o.^.y.;.s.8.!.|.:.n.:.4.M.[ h.p.p.=.o.&.p..Xs.2.G.p.r.S.=.r.&.q.].S.r.O.=.X.;.3.n.z.j.r.0.r.%._.l.$.r. .!.].:..Xm.O.2.$.r.k.*.p.8.].tXr.,.O.0.=.{ e.j.%.o.7.X.X.8.p.=.9.9.+.r.f.8.o.r.!.[.B.j.%.+.;.S.'.O.) o.] ~.|.].o.:.*.o.O.:.a...%.h.Y.a.1.>.O.[ 8.s.h._.].e.y.9.+.+.&.-.r.{.s.o.r.p.r.=.9.].r.M.8.o.N.y.m...p.8.o.f.k.a.3.>.O.%.2.S.M.!.M.+.r.r.9.&.7.m.y.y.=.`.[.r.{ t.C.J.G._..Xo.XXr.&.s.+.t.u.e.X.7.y.7.} } 8.O.) ~.e.e.e.7.e.r.X.0.y.[.!.M.r.M.s.t.M.8.j.r.m.r.r.r.+.,.3.;./.Y.j.s.$.h.N.*.m.m.p....X.XO..XW.S.h.s.&.x.b.j.j.g.f.t..Xz.6.U.L.A.5.Z.x.,.$.M.tX|.C.t...s.%.,.V.;.o.%.I.J.S.*.g.2.6.&.h.;.0.7.t.o.7.7.e.m.O.=.r.7.}  .7.7.y.8.[ ) 9.e.X.r.e.~.).~.8.[ ).OXu.7.&.C.h.'.`.",
"s Q.Q.i s f H d h s u 4 h H g ` s d H G g UXQ.s f i / H g ' f i Q.G h s s f s s h s f h f ' f ` h f i UXQ.i s d f G f s s f d u f Q.rXd i s s ` H 4 H f g u s s f s g UX` s d i ` ` f rXQ.h s h h H d s d d H UXH g s i s h g G i h s s s s g f f Q.d f s h i s h f s i i u i Q.` u s d f d u Q.Q.f Q.i s s s s s H d g d s i s h f f s f Q.f s f F g f s d s ` d f Q.s f i s i i g ` s g f f s s g d h f u d s h g d i s f d s g h f s s Q.H H H s s Q.H H f f f i g d H G s d d / rXd f G f s H Q.Q.h f i rXrXg UXf s s 4 f d d H G s s H UXQ.Q.F u d s s g s s H g f s h s G a d d s f g H u s s s s ` f i d s g Q.H Q.Q.g G s g f s u f f h s s d i s s f s ` Q.UX/ s f s f d G s g f h ` H i s d d s s i G d i s s s s h H f s d s i H H d s d s s f d d ` g g d d H ` Q.H s h h f H s ' g f H g d f Q.f s d H g d f f f f d f s f f d Q.f g H g f s i u s i s H f g f s H rXrXH ' g s s s s u G ' i f f s i / rXH s s i s Q.H ",
"q m < 8 n > U E & k 8 > < & k 5 > > < + D R > 5 5 5 r , % 5 & B E 5 n % + > & 5 5 8 9 & 5 > 5 K & 5 5 9 +Xm m +X1 1 + > 1 5 5 > A iXQ + & & % + > 0 5 5 < 5 > > 6 5 & 5 & & q 5 + < 5 U J B < & % 5 E j   . o q 4X1X6 > 5 % 9 8 % 9 8 < m 9 q 9 & & < 5 5 B >Xq 5 < & & 5 < 6 :X5 + < 5 9 & 5 R A 5 k k m A J > 5 0 & 5 5 5 1 > + 5 = q 9 J m + q n 5 < < > 9 k & I E 5 & > > B k I :Xo +X> 5 9 & j 8 5 & < 5 5 > + > 5 & J q B n > 9 5 5 & B +XA 9 & n j 9 5 6 k > k < q & % & > q m 0 8 < & B j & n k % % ! D q +X> C 9 > < j 5 B k k , m +X- < B 5 5 & m < 9 o Q iXK & 5 % % 5 5 5 < 5 9 k m 5 < 5 , % 5 1 , > 0 5 % q , m 0 > = < 5 8 j 8 5 v > : 9 j > , J j B B m + m +XU j X > 5 9 > > + > j m 6 & > < q > 5 k j & 5 + D Q E & K E q 8 q B W 5 % o 8 & 5 < A j & D D < & < 6 & K Q > 5 < 9 q 5 5 & % < > 5 E q q 5 q q 5 < 5 q 9 , D iXk 9 q j n r 1 > m B I k n j q , 5 J ! m I n < & 5 0 q > 0 B = = O > % 1 , I J , = X O ",
"1 , k 9 q 0 n I 1 9 q 5 9 > > 9 1 o , : j +X9 , 0 0 9 O B 3Xj C M + 1 1 0 9 v n 0 9 0 9 , % , r 0 0 B U 1 5 r M q 9 0 1 b n 1 A n , , > > > 0 Q 5 w n 5 q , b n 9 5 1 r 9 1 0 n 5 1 1 0 , n w q 0 5 A D S Q q % J T n 0 0 q = 0 b n A 1 5 9 m >XA j q q 5 M U Y q 1 O Q 0X9 3XZ 1 5 : 9 9 w n Z 9 5 j 7XS R Z % 5 5 5 k 5 > B U B 9 > 7 k 5 0 0 5 7 n Z < 5 1 5 > Z q % 5 9 b &XZ U U m k 5 z 0 0 % 5 5 0 q 5 r > q > j 0 A =X<XI % M q j b j 7 j 9 5 n w % 5 w 1 5 , 5 q 5 % 1 r 5 1 r Z 9 q 5 , 0 n n , q 7 % % 1 0 k A q M 9 w A S I 5 5 , > j A 5 P 5 b b 0 < B U 1 5 0 Z j 0 0 j q j 0 , 0 r 5 J ! & A n b 0 9 % 9 1 O 0 B n n 0 5 ~ eXY S U 1 , q 5 < > Y j 9 q 7 = 5 *X! j j 9 > 5 9 5 r 1 9 j 5 q q > , 9 b 9 0 0 , 5 0 M w , 0 q 0 5 U j j q , 9 S 9 > 1 j b 9 % q j Z v < 0 A 9 1 0 1 + r 0 B *Xj 0 q v M 1 9 5 w q j 9 J J S 9 Q wXB 9 n A Z j B % j Z 6XU q X S 9 1 5 1 5 < 1 9 0 0 9 z j +X+XeXZ O 1 B j O 9 0 5 j , > ",
"w 9 M 1 M b % > 9 0 0 T ,Xw 0 1 O w b > I Y X 1 5 0 9 1 n I b q n S D ~ b O w 1 1 w 1 9 9 , 1 1 1 w b A 9 1 n w 0 , = 7 0 q q ;X0 > 1 1 b ^ w 8X3 I D 1 0 0 1 w 1 1 , w 9 1 > X 0 1 M T D U > w 0 0 , n Q T w 1 0 b 0 9 , v 1 w > b , > , + w 0 w 0 1 X b M + b M 1 + D Z 0 Q w M M 1 1 b w b b n 9 w Q 1 + C w j < B 5 q % U lXU , w > > 1 1 0 1 9 w 9 M w 1 w 9 > w w 1 , 0 1 > 9 > B b 1 > 9 9 b D n 0 M > , w w 1 1 ^ w w M n O D >X~ q + > 9 1 1 > > 9 M M , 1 1 1 w 1 w b b , 9 O U +XI O ~ I 1 w n I Y 0 > > w , , 0 A b , I n > 1 1 1 w ^ A > 9 > b , 0 0 > , 1 , M U w 0 w w 0 , 9 n w v 1 6X5X1 q q Z M 9 9 9 S U ~ n b 0 0 O 0 D S j S 0 5 1 0 n w > I n , > , 1 2 , b Y 0 , n M 1 w b O 1 > b n > b A 0 1 T n O O , n w 1 M M w , , 9 , 1 O M n w w 0 + 1 9 M M 9 n 0 U I > 0 S J Y n A D O w 1 > 1 1 + , w M 9 1 w n A 1 I 0 > % , 9 D w 9 1 w 9 1 1 1 r 1 1 D 1 b Z j *XR O , 1 I U 5 > I Z 7X9 I w + 1 1 O 1 0 w w 9 ",
"w > 1 1 A =Xb M q 1 w Z M I 1 > , 6X*XD 6X2 w > > 0 w 0 A q 1 , ~ >Xn S w , 1 3 q e = 1 Q Q w 1 3 7 1 1 1 1 3 1 Z z 0 2 5 > 5 b > 1 2 1 I J w T M w 1 9 e 0 1 > 3 0 w 1 1 , w 9 1 w M Q >X~ % w M w M 0 1 w M 1 9 w + 1 w 0 > , = b 7 # 1 w 7 , > Z C M 2 9 0 w b > y y + , X 9 7 M 9 C 9 , D D I 0 , > 1 n P 1 I 1 w n 7 2 q w , , 0 D b 9 w b w 0 1 1 1 1 1 S *X2 M y b 9 w + 9 3 2 > M n C 0 2 ^ 8XQ I Y 9 1 7 1 1 > A z 9 1 0 > 2 T A w M q > w 0 2 9 3 , w 1 z w O > e w 1 w 9 1 1 7 w 1 1 1 b 1 w A 1 0 1 2 b A 1 O 9 3 w 1 O n w I w 9 w n 1 w w > O n 0 Y Q 9 0 w q 5 , 9 1 0 w z y T S M 5 >XQ 9 j B A w n w 1 0 Q ~ w X 9 T , 9 , , b > 7 1 q 1 n 2 R Q 6X<X> 1 0 n 1 # 1 1 b 2 1 0 1 w , 2 1 > 1 9 b Z w 1 q = J S # y 9 1 Z Z b 9 1 1 > , O > 1 w 9 3 w 1 9 w z M A w 1 Z 0 O Q R Z Y > # 2 M w 1 1 1 7 0 1 T 0 9 b y 1 w S w , 1 9 w 1 9 1 y b 1 , 1 9 X 8X,X, D I D b S w b , 7 ! &XQ X 9 Z , % M > b 9 1 + 1 1 9 M 0 ",
"> , + , 9 , j 5 % % B 9 + M m > > n 5 w A 9 A z 1 9 j 9 n M A , w S X 5 D q b 5 b 0 7 2 3X6X5 5 2 5 , 9 9 9 9 9 5 w n 2 9 Z 1 1 b w 1 7 1 O 7 > 1 A 5 9 2 5 z Y S w b z = 0 n 1 O Y I 9 M n , 1 <X<XZ X > , 1 1 > = , n Z 0 , 2 , 0 5 q b b , 5 > D ^ U 2 J T 9 9 D M ~ z > 2 z , , 7 M Z 1 M M 1 1 0 5 9 ~ Z > = > 9 5 q z q 5 0 1 M I 9 0 9 j 0 , 0 M B b , 7XeX9 q 0 J m j 0 7 J ! 1Xn q 1 9 , 9 M n 5 M 9 5 9 7 M w q Y Z w + > 0 0 % z Y 1 > M b w 0 w 2 > > 0 q < M J q 7 Y 7 % O 9 M w 1 S n 9 > 5 9 > 1 > A 9 j j 5 > > n n M 1 Z 5 ~ B > j R Y ^ M U q O 1 O 2 1 1 % , M B > q q C 1 b S 1 X o 0 w Z 5 1 0 w , > , 5 1 b j j 1 U j ~ 1Xq O > b ^ Z 1 q M +XD j S , > 0 > > 1 b 9 2 9 > > , U Q w b 7 q 9 n M 1 , eXlX0 O 7 9 w =XQ 0 2 1 n 7 Z Q > , q 1 S z n A >XS C 7 1 1 7 = w q , > > n , R 3XJ > 9 A T 9 q > 9 n C = = D ,X1 z A w 5 9 9 9 1 5 1 w 1 , S M A B A 5 z j j fX~ o A &X, D A 0 w 9 , > , 1 1 5 1 w 9 z 2 ",
"1 > q q 5 5 , R I B > n M b 0 7 Z n > % = 7 q n j B 5 0 Y M M > 5 % 0 R m 0 A , B 9 9 , 1 < 2 , S S q 9 n q j 9 9 , , 9 q 5XZ 9 m j b q 1 1 0 q 9 b n B b 5 n 1X=XP ! b 1 1 9 7 7 < n 0 O 5 , = 9 U w S B , q n > w q = 5 1 w A = , 0 0 2 n j 5 < 2 0 0 < 1 j b , n 1 , 5 , j S 1 1 7 < 5 9 % b j Y j j q b 5 n M q + M 0 A ! q 5 0 j 9 , 0 5 0 q n n I B Z < Q I 9 n A B q j b 1 1 J J b . 0 Y % b 2 0 P 1 , 5 j j j % Q Y wX1X, 0 9 q 7 = 2 1 b 1 , 7 5 w % 7 9 , 5 0 b M 5 5 1 1 2XS , 0 2 w Z R C 0 , > , < > , 1 q 7 1 Z 1 7 z B A S 1 0 b 9 > *XM M M X X q I M 5 1 5 B 9 b I 1 0 M q 0 z S w 5 0 0 7 1 9 9 n 1 1 1 5 O A zXZ b C Q 9 D 0 A m 7 M *X~ m o D q X b , 0 j < > , 1 5 0 9 0 , % P ;X! B Z 7 0 j 1X! b n J >X9 1 0 5 , X , q 1 7 j o Q *X, j q D , 5 S B n n 9 q q 1 > 9 > 2 A 9 m Q , n 5XA O 1 = 9 1 5 z 9 9 % > U q 1 9 n w z 0 0 m 9 5 1 n U m 5 7 I q q I % Z U X W Z b % w > M M 0 b 1 Q +X, = 1 5 7 n 0 b 5 ",
", w w w O 9 , S R B , I n 1 b A B U 5 O 0 n % % 9 Z n > n 0 1 b 9 , M Y 5 , O > 9 < j D j 0 9 9 I j 0 9 9 j 0 , j S Z 9 T sXU 1 q n I 9 Z % S J 7XR j , 9 9 % 1 w , w 0 9 1 5 b M w U Y U 1 X 5 n > > I 9 2 0 z q q w 5 , > 1 w < b U n 5 Z j > 1 , M w 1 S M , 5 , 1 5 , > M j b w 1 , > b Z Z 9 j 5 Q S , 9 ~ T +XI M n % O O , 1 1 O % n S 1 w 1 M w b I > X o 5 q b 9 1 0 q 1 > 5 1 9 W j j 9 R b +X+X9 % , j +XU 1 1 Z T w b A 5 1 7 > O 9 0 1 9 5 , > 1 &X! j b 0 q 5 J Z , 9 0XdX, , 1 0 q Q M 1 1 w Z > ~ Q = 9 5 n M z I U <Xn j 5 9 1 , , q 5 1 > M M 0 &X5X9 9 9 S Z 0 1 5 9 n 9 > 9 =XI > Z n q 9 0 q 1 1 0 9 n 1 , Z n S M M 9 Z 5 &XlXj , Q M , Q 9 b b > j > O > 1 1 w 9 0 b q 1 5 Z S 5 M A > 9 B A Z P b U 9 9 A 5 M 1 1 1 M , 1 9 , Q w , 9 0 9 q n X 1 , 1 9 5 9 9 j 1 0 n 1 j A B , n *Xn , 9 q w , 0 A 0 1 S M j > q *XB 1 0 9 1 b M D > 5 j b 5 9 , 5 , 0 5 A Y Y *X. 9 5 j 1 9 0 , > > w w > 1 T 9 5 j b 5 , ",
"a 3 1 Z w > = 2 w 1 1 0 Z 9 1 9 > , > 1 Z b 1 1 7 = 1 0 5 C q I 1 I 9 5 q M S 1 1 I 1 U Z > 1 0 9 > 1 0 9 9 b b S n A q q J 5 0 A Z 0 1 n 1 2 0 S v , . Y 9 v w 1 T S + , 9 M b > b Q *XsX9 M 1 1 w > = 2 b 3 > 3 2 w > 1 M 1 > w 9 n 1 9 1 O -X<X, , 1 9 M &XY w 1 1 > 1 1 1 1 1 1 1 I 0 9 w S D I e O e 9 > Y M 9 w o X q ! I 9 1 1 D n w M 1 7 D w 1 7 I A 1 b w 9 1 1 1 b 1 1 , 9 + B sXM Z S U 7 n 1 T I 1 M *XQ n , Z w O w X 9 w 1 > 1 1 1 0 w w O , Q *XD D n 1 1 D <XU n A U Y > w j 1 # X 9 z > 0 > 1 ~ S O n n M O 9 M w b 0 w 0 1 1 1 1 + w M , U A % Q <X5 , , 1 1 1 w w 9 9 O b A > > C z j q 0 q w 1 9 > I D q 9 w b 1 M b % T 0 0 Z b , 2 r 1 N n 9 1 n <Xn > 1 0 , n b 0 w 1 + 1 z w X 9 9 w w A O b 0 7 n Z 0 I w 1 , 9 O > , , 9 1 w 9 1 w 9 1 M b w 1 B Z 1 1 1 0 1 w w w 1 S 0 Y D > > > , b 0 M 0 1 1 b 9 0 b B M , w > > > 1 , w T U , 1 , 0 1 w =X9 9 1 Z Q >Xw -XA T 1 9 9 1 1 b R + 9 1 > 1 0 1 0 0 w 1 1 ",
"S q 5 B , w 9 0 M 1 w U 0 1 9 1 9 1 2 1 b 9 M w 1 1 , n M b q b 0 T b O M +XU -XM M > > , 1 , 1 > 1 > Y j 1 0 q b > P b O X 1 1 0 w 1 w w 3 > , 1 > Q R 1 j D S S -XM % > 9 ~ ! A + b B n , S 9 9 1 , = 1 1 9 5 9 1 + 1 ^ =Xn n 9 9 9 Z R 1 9 ! zXB % 1 9 9 M M 9 1 9 A 1 Y 5XO 0 w n M q Y S &Xn q 9 9 1 1 1 , 9 b % M S 1 Y 7Xw , 0 M M w 1 5 9 0 0 O n R I , B z w 1 b q 5 1 9 b M 5 , b Z M Z n , R 1 ^ wXw O U j , ~ 9 w n , S > O > 1 , w w w b 9 1 9 A n , n n 5 w C 0 S M n B 1 n Z 9 q 9 1 1 0 , 1 0 0 Y 5 , 1 w 1 Z 0 + 1 3 1 9 1 9 9 0 , z n 1 C A A % J J 0 1 0 n q , q B 1 0 I w j > I Y 0 1 9 1 w M U b 1 1 b 0 1 0 9 7 1 9 0 ;XA <XB = 5 q w 1 q , 1 1 % w 1 O J n 9 0 w q 0 C >XQ B Z 0 > 0 w Z S , 1 q M n A = Z 1 5 9 1 1 1 > q R w 1 q 5 1 9 w 9 , 1 X b D 1 I M b n n 1 O M 7 > w q + > > , q b D n 0 Z A > A ^ 9 + w % , 1 > q M 1 2 , 1 9 , 1 q 1 M 1 9 1 n 1 1 X n &XD , > 1 1 , w w > 7 , 5 O 0 b 0 q A M 9 ",
"q 0 0 > 9 sX&X. , 1 j Z 7XS 9 , 1 , 1 1 5 > 9 1 j T 0 w M R T S > , 0 1 0 I 1 5 > o O T &XA 1 7 n U 5 M 0 5 z J , 1 w R 1 n n n 1 0 1 0 0 1 1 0 1 + 3X$XZ M Q w w 1 Z <XS 1 ~ Q M , w n % 9 1 O w 9 1 2 7 9 0 9 w > , S +XU M T 5 5 b 1XI Z Z U U 5 9 b w O O > n 1 5 > % I D , w w n 1 1 w 9 q w w 0 9 5 5 1 , w M 5 Z D % S <Xq , , > , 1 q b 5 0 % b I X O D n q j 9 q w 0 7 1 Z S q 5 n b , M w 1 U 9 w w n 5 1 0 0 j w 0 , Z 1Xb 1 0 q 1 M w q q 1 1 1 n 9 o 5 w w M C > b w w Z I 5 I 0 , 1 , > 1 > 1 1 1 9 5 w w 1 1 M j b 1 S M 2 9 0 5 5 j 0 > b Z 5 ~ q O X > 9 b n n 7 1 0 w 9 w n Z , 1 , % , 1 , 1 n Q w 1 1 1 w , &XR > 0 9 D +XA n T ! Z , 5 5 1 1 Y w > w > , 1 1 1 w b b b S -XZ I U b 9 1 0 5X7 B b B Z 5 +XS O , U D 5 , > , 1 B 9 O 5 9 > 0 ! 0 1 w O O > % 0 D 9 n w n =Xb > 1 O j ;X1 1 , q 9 1 1 w 1 b ^ w 1 , 9 1 5 B 1 + Z <XS 1 1 1 n 0 9 9 , 1 1 w 0 b 3 , > M j X w b 9 1 O O 1 1 9 1 9 1 b I R D <Xj 0 "
};
